ncols         276
nrows         213
xllcorner     440464.75
yllcorner     218505.75
cellsize      2.5
NODATA_value  -9999.0
1280.5304 1281.1497 1281.6927 1281.4169 1281.2744 1281.212 1280.7128 1280.3872 1280.23 1280.334 1280.1624 1279.5759 1279.3104 1279.46 1279.928 1280.3552 1280.7892 1281.3204 1282.4948 1283.8444 1284.9452 1286.1876 1287.9584 1289.328 1291.2043 1292.4684 1294.0896 1295.1968 1296.784 1298.3041 1300.2144 1302.368 1308.1708 1317.1692 1319.4352 1320.4136 1324.3188 1331.3684 1333.0388 1334.2867 1335.3516 1335.9788 1336.754 1338.4252 1339.624 1340.0704 1340.898 1342.0436 1343.1584 1344.4832 1346.2463 1347.8888 1349.8456 1351.4856 1352.868 1354.32 1355.7496 1357.1232 1358.5256 1359.868 1361.462 1362.8324 1364.2288 1364.7119 1367.1552 1369.2375 1371.8964 1372.8964 1373.9515 1374.894 1375.8868 1376.822 1377.9248 1380.2048 1383.2452 1387.7988 1389.7224 1391.4016 1393.7324 1396.582 1398.298 1399.6948 1401.324 1402.8184 1404.2952 1405.7368 1407.1685 1408.1572 1409.1335 1409.9608 1410.806 1411.3164 1411.6904 1411.9672 1412.204 1412.4072 1412.6064 1413.1832 1413.6368 1413.8376 1414.1016 1414.2832 1414.3636 1414.7572 1415.3428 1415.9812 1416.974 1417.8516 1418.578 1419.0588 1419.2308 1419.5396 1420.03 1420.9076 1422.2236 1423.6484 1425.17 1426.3315 1427.3656 1427.8848 1428.7303 1429.5848 1430.5936 1431.5745 1432.4448 1433.1816 1434.4252 1435.6732 1436.676 1437.2528 1437.7032 1438.0472 1438.6548 1439.4596 1440.3676 1440.9788 1442.2288 1444.7424 1450.3533 1454.7684 1462.8264 1466.6272 1474.3403 1477.7988 1480.038 1481.5708 1483.3544 1485.14 1486.7576 1487.6376 1488.8289 1489.3737 1489.1843 1489.0308 1489.1368 1489.3864 1490.1372 1491.1556 1492.16 1493.3264 1494.86 1496.0792 1497.3176 1498.5009 1499.8665 1501.0223 1501.4668 1502.0836 1503.0339 1503.9564 1511.806 1522.322 1530.24 1533.8969 1539.7692 1543.1116 1547.866 1552.1204 1556.25 1561.0604 1564.2672 1567.1216 1569.3948 1570.386 1570.3732 1567.9172 1562.146 1559.7252 1556.9916 1552.3972 1549.5884 1544.6188 1540.5009 1535.5784 1523.5632 1518.9023 1519.9088 1520.368 1520.9772 1521.9052 1523.3988 1525.1597 1528.5804 1531.9796 1535.4036 1539.354 1543.0164 1546.0443 1548.6952 1549.7704 1551.59 1553.6996 1556.2188 1558.7716 1561.6476 1564.3916 1567.9172 1571.1892 1574.2496 1577.0096 1580.6404 1582.7277 1585.9656 1589.5984 1593.2964 1595.6108 1598.0256 1601.9128 1603.5664 1601.7256 1598.0936 1594.4768 1591.0764 1587.3116 1581.72 1576.7872 1569.3596 1565.6444 1560.1788 1555.4508 1553.0604 1552.0348 1552.1628 1554.2748 1555.3236 1554.8308 1552.852 1551.7648 1551.5332 1551.9796 1552.5756 1553.1116 1553.146 1552.438 1552.2672 1552.2375 1552.3156 1552.382 1552.0044 1551.2628 1551.1356 1551.4564 1550.1536 1549.3896 1549.4677 1549.3556 1549.53 1550.0828 1550.6945 1551.0576 1551.3688 1551.5536 1552.0848 1552.8632 1554.0184 1555.0009
1279.5673 1279.9128 1280.2048 1280.036 1280.0225 1279.9552 1279.5344 1279.1976 1278.7828 1278.9636 1278.9176 1278.1056 1277.8184 1277.8895 1278.3145 1278.82 1279.038 1279.4396 1281.07 1282.5125 1283.6228 1284.8156 1286.0656 1286.8912 1289.5164 1290.9484 1292.3688 1293.6776 1295.1608 1296.7288 1299.064 1301.4784 1306.4716 1313.6204 1317.888 1319.0824 1320.802 1325.5908 1329.6924 1331.3083 1332.6364 1333.854 1334.114 1336.4476 1338.4352 1338.4816 1339.078 1340.1244 1341.3416 1342.6855 1345.1272 1346.7616 1348.608 1350.1104 1351.5856 1353.0632 1354.4872 1355.7168 1357.1144 1358.5961 1360.1036 1361.2996 1363.2064 1364.2192 1366.4536 1368.8704 1370.3092 1371.6196 1372.8068 1373.5236 1374.5516 1375.6212 1377.1736 1378.828 1381.038 1385.8748 1388.3016 1389.9264 1392.0028 1394.8027 1397.6532 1399.4675 1400.8744 1402.0968 1403.3568 1404.8048 1405.9684 1406.9556 1407.8712 1408.452 1409.2172 1409.6732 1410.1288 1410.4392 1410.5079 1410.7416 1410.9512 1411.3872 1412.0153 1412.5664 1412.6497 1412.5 1412.8925 1413.606 1414.0931 1414.5588 1415.4836 1416.1932 1416.5652 1416.7565 1417.1212 1417.51 1417.9508 1418.5868 1419.5564 1420.9124 1422.4556 1424.0348 1425.4192 1425.9192 1426.7823 1427.7681 1428.7408 1429.6929 1430.6864 1431.5833 1432.8333 1433.854 1434.6 1435.0583 1435.4968 1435.876 1436.474 1437.2836 1438.5188 1439.0645 1440.9 1446.1848 1451.2572 1454.4932 1460.8832 1464.6792 1470.2115 1474.2252 1476.5828 1479.05 1480.7144 1482.2872 1484.1936 1485.7424 1487.1992 1488.0112 1487.9668 1487.6388 1487.9136 1488.4095 1489.142 1489.9427 1491.1384 1492.4185 1493.5824 1494.6608 1495.8688 1496.98 1498.2177 1499.1976 1499.5596 1500.0596 1501.1676 1503.1716 1513.0444 1521.8148 1527.5728 1531.2712 1536.5612 1540.0988 1545.6381 1549.1948 1554.206 1558.882 1562.224 1563.5648 1564.1276 1565.3988 1566.6908 1565.9004 1560.0684 1556.8668 1548.794 1544.7644 1542.8132 1540.538 1534.0944 1522.3512 1517.0745 1516.772 1517.9536 1518.608 1519.7476 1521.0308 1522.9972 1524.5996 1527.4948 1530.9148 1535.4988 1539.3389 1541.7291 1544.1476 1546.3304 1547.972 1550.478 1553.1716 1556.2012 1559.3668 1562.2532 1564.2212 1567.8716 1571.542 1574.4832 1577.4224 1580.6188 1582.866 1587.6376 1591.056 1595.794 1599.6188 1601.9023 1602.4104 1601.4912 1599.4968 1596.5608 1592.728 1588.5308 1584.4524 1579.0712 1573.9832 1566.9069 1562.6204 1556.7172 1553.1172 1551.2252 1549.958 1548.302 1549.9229 1552.1348 1553.2628 1550.9824 1549.8248 1549.1685 1550.0084 1550.8204 1551.4604 1551.2363 1550.3461 1549.8953 1549.76 1549.718 1549.7332 1549.3893 1548.102 1547.322 1547.5228 1547.2272 1546.9784 1546.9244 1547.2908 1547.2997 1547.9229 1548.3856 1548.8433 1549.1672 1549.6752 1550.8312 1552.048 1553.3208 1554.228
1277.934 1278.4116 1278.7161 1278.5831 1278.6976 1278.64 1278.1616 1277.6655 1277.0583 1276.9144 1276.8324 1276.4891 1276.4028 1276.282 1276.4316 1276.7637 1276.9355 1276.8756 1278.6296 1280.7504 1282.2032 1283.2816 1284.4288 1284.4984 1287.3208 1289.676 1290.014 1291.1476 1292.9731 1294.9916 1297.1075 1300.1165 1306.5 1313.1248 1315.286 1317.2516 1318.8064 1320.2375 1323.1356 1324.6755 1325.2852 1328.2493 1330.382 1331.4612 1334.3096 1335.7144 1337.3684 1338.0492 1339.2632 1340.4944 1343.0304 1345.5833 1347.0176 1348.2625 1350.1804 1351.7812 1353.178 1354.4884 1355.598 1357.0573 1358.522 1359.934 1361.7751 1363.428 1364.6504 1366.8112 1369.0576 1370.3872 1371.39 1372.0292 1373.2708 1374.646 1376.2544 1377.9167 1379.7812 1382.5084 1386.31 1388.3029 1389.7328 1393.2648 1396.4412 1398.906 1400.2152 1401.1896 1402.1992 1403.7216 1404.6432 1405.4296 1406.3884 1406.9324 1407.318 1407.7916 1408.5132 1408.846 1409.236 1409.5583 1409.708 1409.9312 1410.2944 1410.7463 1410.8296 1410.736 1411.18 1412.0079 1412.5604 1412.9427 1413.5776 1414.0049 1414.2784 1414.5376 1415.0352 1415.5856 1416.2544 1416.7664 1417.3728 1418.5441 1420.1732 1422.1996 1423.2365 1423.4836 1424.6528 1426.0936 1427.0048 1427.7296 1428.8236 1429.8428 1430.8477 1431.4836 1432.0316 1432.478 1432.9664 1433.4888 1434.1936 1435.1216 1436.3524 1437.2964 1440.902 1447.0684 1451.1256 1453.6711 1457.1576 1459.9128 1464.1964 1466.9244 1469.3708 1472.8477 1475.9816 1478.892 1481.5536 1483.916 1485.3492 1486.1348 1486.1664 1485.9048 1486.4645 1487.266 1488.1136 1488.9896 1490.2144 1491.2664 1492.3129 1493.2848 1494.386 1495.4564 1496.4436 1497.0956 1497.4332 1497.9636 1499.3148 1501.1852 1508.8284 1518.0524 1522.8152 1525.2224 1531.416 1537.34 1542.6464 1546.904 1551.328 1556.0977 1558.6276 1560.1516 1559.5652 1559.5316 1563.1484 1562.8884 1558.1996 1555.134 1545.8632 1540.2408 1537.9304 1534.6672 1523.7628 1514.8572 1514.4484 1514.8724 1515.9028 1516.9148 1518.5908 1520.5924 1522.856 1524.6335 1527.2375 1530.8593 1536.0284 1539.07 1541.266 1543.8315 1545.8076 1548.1523 1550.964 1553.7784 1557.2635 1560.2236 1563.4503 1566.5024 1570.8289 1573.1024 1575.5172 1577.9429 1580.9756 1584.2924 1589.2904 1592.7992 1600.2068 1601.7212 1602.3965 1600.7324 1599.0132 1594.7579 1590.6328 1589.3632 1585.2177 1582.2992 1576.7476 1570.1597 1562.7572 1554.8116 1550.0092 1548.4644 1547.8907 1547.2916 1544.9972 1545.246 1547.0024 1547.9808 1547.3704 1547.1936 1546.8904 1547.8969 1548.7344 1549.264 1549.0128 1548.168 1547.4012 1547.1755 1547.1456 1547.0944 1546.5529 1545.0112 1544.2856 1544.5392 1544.3748 1543.9308 1543.822 1544.4596 1545.0596 1545.7756 1546.2952 1546.6304 1547.3276 1548.2916 1549.8428 1551.2396 1552.526 1553.6036
1276.5773 1277.1204 1277.5216 1277.4336 1277.5367 1277.4904 1276.9656 1276.4232 1275.8528 1275.3824 1274.9932 1275.2068 1275.2068 1274.9036 1275.0724 1275.2316 1274.8909 1274.298 1276.3816 1278.656 1280.6272 1281.7808 1282.3016 1281.0272 1284.9536 1287.0511 1287.106 1288.83 1291.5132 1293.866 1295.9979 1298.0645 1301.6648 1307.8208 1312.3812 1314.9308 1316.9208 1317.9392 1319.134 1320.4276 1321.7004 1323.5076 1325.7347 1327.1884 1328.7736 1331.7623 1334.0859 1335.1284 1336.9952 1338.8408 1340.9368 1343.3536 1345.5576 1346.8104 1348.5164 1350.1812 1351.9436 1353.4141 1354.1692 1355.3724 1356.91 1358.5332 1360.192 1361.8784 1363.6008 1364.344 1366.088 1368.6368 1369.39 1370.3716 1372.1829 1373.55 1375.0872 1376.548 1378.906 1381.2108 1384.1132 1386.434 1388.6464 1391.1128 1394.478 1397.0645 1399.3264 1399.9696 1400.9176 1402.1569 1403.1984 1403.9912 1404.8547 1405.61 1405.9893 1406.2324 1406.7885 1407.166 1407.9559 1408.272 1408.1912 1408.4368 1408.4888 1408.7056 1409.0264 1409.2352 1409.776 1410.4264 1410.8907 1411.3243 1411.7288 1412.1384 1412.608 1412.8912 1413.2177 1413.7296 1414.5448 1415.14 1415.7823 1416.7168 1418.062 1419.4996 1420.4468 1420.9404 1421.9847 1423.56 1424.9312 1425.7792 1426.9988 1428.1156 1428.9069 1429.3732 1429.7748 1430.1412 1430.7672 1431.552 1432.6368 1433.7712 1435.0443 1436.43 1439.7788 1444.3884 1449.012 1451.9032 1454.5135 1456.3088 1459.1012 1461.522 1463.298 1465.554 1471.672 1476.3647 1478.7568 1480.6248 1482.774 1483.9244 1484.1344 1484.5992 1485.3364 1486.1908 1486.9832 1487.8624 1489.0248 1489.9792 1491.0752 1491.996 1492.9749 1493.8644 1494.5524 1495.07 1495.5724 1496.2852 1497.3923 1497.8549 1500.7532 1510.8108 1516.4689 1514.8073 1521.964 1531.2416 1539.0056 1542.3271 1546.8728 1551.8248 1555.3588 1557.9596 1557.2948 1555.7043 1557.3284 1557.6669 1556.0116 1553.2772 1542.0712 1530.076 1525.5808 1518.6952 1515.17 1512.626 1512.3531 1512.8812 1514.3013 1516.0251 1518.0532 1520.3508 1522.748 1524.8248 1527.1584 1530.2296 1534.5708 1537.646 1540.5332 1544.5148 1547.218 1550.2716 1552.656 1556.2288 1559.9988 1561.5748 1564.7968 1569.2168 1573.1664 1575.3264 1577.8596 1579.762 1582.4164 1585.4788 1590.7391 1593.2816 1596.654 1597.3396 1597.91 1597.494 1596.4684 1591.882 1587.7456 1585.1544 1581.6248 1578.2424 1572.4252 1566.8243 1559.6228 1550.9749 1546.8756 1543.7788 1543.4067 1542.4749 1540.714 1540.3484 1541.5063 1542.2816 1543.6047 1544.724 1544.9937 1546.0288 1546.7632 1546.8768 1546.5696 1545.9648 1544.97 1544.7092 1544.9008 1544.6783 1543.7751 1542.1248 1541.3104 1541.7848 1541.8468 1541.8652 1542.254 1542.9749 1543.6772 1544.286 1544.6896 1545.2393 1546.3716 1547.5483 1549.1252 1550.5732 1552.4052 1553.7356
1275.3756 1275.8276 1276.3676 1276.3124 1276.2728 1276.0872 1275.5524 1275.0468 1274.4032 1273.776 1273.2872 1273.5096 1273.5404 1273.2788 1273.5432 1273.4128 1272.5875 1272.3676 1272.4573 1274.3011 1278.2823 1279.7456 1278.1104 1277.2528 1281.6469 1281.5037 1282.2648 1286.3864 1290.2448 1292.5225 1294.564 1296.768 1300.2832 1303.3032 1309.0896 1311.8696 1314.1353 1315.7808 1317.1852 1318.4875 1319.6564 1320.7332 1322.5096 1324.3273 1326.1855 1329.0176 1330.8073 1332.3552 1334.054 1336.9749 1339.2216 1340.908 1343.9872 1345.7688 1347.1964 1349.082 1350.7031 1352.128 1352.9928 1354.076 1355.5804 1356.8835 1358.4812 1360.1204 1362.0833 1363.0112 1363.8616 1365.2303 1367.3964 1368.902 1370.7804 1372.1108 1373.4792 1375.0728 1377.4872 1379.9023 1382.1412 1384.9067 1387.6068 1390.9612 1393.6808 1395.1224 1397.438 1398.3364 1399.4288 1400.696 1401.7856 1402.5063 1403.2096 1403.9736 1404.2976 1404.4023 1404.8328 1405.1368 1405.3997 1405.7396 1406.0652 1406.374 1406.416 1406.3807 1407.032 1407.7944 1408.244 1408.696 1408.9828 1409.2716 1409.6093 1410.1692 1410.7885 1411.0148 1411.3289 1411.8 1412.59 1413.3812 1414.128 1414.8712 1415.8951 1416.8376 1418.0715 1419.118 1419.8492 1420.9283 1422.5328 1423.6624 1424.9712 1426.116 1426.736 1427.0992 1427.4496 1427.9376 1428.9696 1429.9408 1431.0947 1432.2948 1433.5068 1435.4292 1438.6228 1442.5284 1446.2556 1449.2196 1452.6237 1454.534 1455.6 1457.288 1459.3556 1460.9445 1464.236 1469.4791 1471.8348 1474.9204 1479.4712 1481.556 1482.1453 1483.366 1484.326 1485.0588 1485.658 1486.398 1487.498 1488.5197 1489.6932 1490.538 1491.248 1491.8647 1492.5752 1493.304 1494.0 1494.8055 1495.7396 1496.554 1497.7372 1500.2075 1502.3828 1505.3508 1510.5209 1516.1713 1529.3531 1537.122 1540.4313 1543.6704 1549.4336 1553.392 1552.98 1552.5552 1552.94 1554.1888 1552.5764 1547.31 1529.2465 1510.312 1508.408 1508.776 1509.2296 1509.7064 1510.286 1511.3531 1513.3168 1515.3752 1517.8011 1520.166 1522.5367 1524.6351 1526.6676 1528.5828 1532.5084 1536.0708 1539.0276 1544.4004 1550.2133 1553.5588 1555.6088 1559.3864 1561.8011 1565.186 1568.8784 1571.4592 1574.814 1577.0596 1579.2156 1581.602 1583.8672 1586.2465 1588.8988 1591.4844 1592.7716 1592.2212 1591.7944 1592.7017 1593.7164 1590.8804 1584.9764 1581.41 1578.4652 1575.1149 1569.6368 1563.1376 1556.4536 1547.2152 1540.0768 1537.496 1537.16 1536.108 1536.2177 1536.9968 1537.6552 1538.6873 1540.334 1541.842 1543.17 1544.262 1544.5776 1543.9248 1543.614 1543.226 1542.226 1542.2228 1542.5404 1541.8835 1541.2347 1539.5988 1538.4196 1538.6812 1539.366 1540.0892 1540.7872 1541.3951 1542.0244 1542.4828 1543.1532 1544.2308 1545.5369 1546.8816 1548.6031 1550.2231 1552.2924 1553.99
1274.2563 1274.6204 1275.3693 1275.4564 1275.2352 1274.8384 1274.2676 1273.754 1272.936 1272.2479 1271.8552 1271.7303 1271.7524 1271.5756 1271.5424 1271.3431 1270.7867 1270.7556 1270.5485 1269.906 1272.78 1275.5151 1273.9456 1275.2512 1277.0884 1277.7101 1279.1407 1282.328 1285.644 1290.0944 1292.0496 1294.868 1298.1959 1301.2897 1304.3408 1308.2168 1311.5576 1313.4816 1315.114 1316.8756 1318.2852 1318.9316 1320.2888 1322.1432 1324.088 1326.416 1328.6569 1330.3392 1332.1708 1335.1316 1337.6552 1339.26 1342.3408 1344.7032 1346.1644 1347.834 1349.3287 1350.6641 1351.8 1352.7152 1354.2516 1355.8972 1357.2156 1358.6484 1360.1864 1361.4392 1362.4664 1363.8593 1365.8445 1367.8444 1369.9644 1371.5444 1372.7632 1374.3616 1376.2152 1378.4752 1379.8923 1382.4292 1385.9508 1388.9884 1392.808 1393.776 1394.6451 1395.9596 1397.7336 1399.116 1400.056 1400.8073 1401.7607 1402.2736 1402.6472 1402.8768 1403.188 1403.484 1403.782 1403.9268 1403.8923 1404.1724 1404.5264 1404.5151 1404.9224 1405.7296 1406.26 1406.72 1407.0852 1407.414 1407.8108 1408.5052 1409.09 1409.198 1409.6567 1410.1104 1410.7828 1411.662 1412.4968 1413.1488 1414.2288 1415.3744 1416.4603 1417.4316 1418.722 1419.7356 1420.788 1421.8472 1423.0673 1424.0312 1424.4952 1424.7736 1425.2288 1425.9696 1427.4496 1428.272 1429.4972 1430.7532 1432.286 1434.7957 1437.198 1440.0876 1443.5964 1446.8276 1449.8636 1451.3052 1453.1432 1455.5544 1458.05 1459.7045 1462.0048 1464.5824 1466.6204 1471.4436 1476.264 1478.4368 1479.2948 1482.154 1483.3763 1484.0148 1484.582 1485.3556 1486.3596 1487.2324 1488.2924 1489.0715 1489.5608 1490.1136 1490.9744 1491.756 1492.5312 1493.2952 1494.0404 1495.2739 1495.8619 1496.7948 1499.9412 1502.5555 1505.1855 1509.8136 1515.9044 1524.662 1530.9424 1539.844 1543.4888 1545.5432 1545.2328 1545.776 1548.1425 1552.1432 1548.4796 1537.1108 1508.936 1505.9296 1506.3768 1506.8376 1507.3552 1507.8608 1508.7612 1510.3851 1512.6033 1514.7736 1517.3477 1519.5316 1521.9104 1524.0664 1526.214 1528.3052 1530.938 1534.4764 1538.0636 1548.4891 1555.2292 1556.9443 1559.2816 1562.5056 1565.466 1568.4492 1572.8208 1574.968 1577.1732 1578.7964 1581.2124 1583.1044 1585.1808 1586.7024 1587.4484 1588.6964 1588.5044 1587.1012 1585.6104 1587.5864 1591.026 1587.062 1582.266 1579.4004 1575.7349 1572.1572 1566.9672 1556.2872 1548.8328 1540.4424 1535.8505 1533.8345 1533.3904 1533.4696 1534.3392 1535.1873 1536.0295 1537.4424 1539.0676 1540.3628 1541.6163 1542.382 1541.9912 1541.1656 1540.8788 1540.5852 1539.8804 1539.6132 1539.4844 1539.0404 1538.8828 1537.6564 1536.4731 1537.2115 1538.13 1538.802 1539.2913 1539.7184 1540.2676 1541.0396 1542.0852 1543.2316 1544.7992 1546.9392 1548.8969 1550.7344 1553.394 1555.1827
1272.8224 1273.2776 1274.366 1274.5684 1274.2264 1273.7072 1273.1156 1272.6156 1271.7756 1270.9868 1270.3872 1269.9849 1269.7892 1269.6595 1269.6516 1269.4468 1269.0776 1269.0776 1268.9772 1268.6484 1268.9856 1270.256 1271.312 1273.072 1274.5664 1275.9144 1277.1356 1278.4852 1280.1512 1283.168 1285.8168 1289.6736 1294.826 1298.6019 1301.392 1303.8048 1307.938 1310.2748 1312.3124 1314.5548 1316.3048 1317.0743 1318.3389 1320.13 1322.354 1324.4355 1326.8656 1328.8544 1331.5527 1333.784 1335.7592 1337.7992 1341.4524 1344.2948 1345.7192 1346.9304 1348.3264 1349.4703 1350.454 1351.2108 1352.516 1354.2504 1355.6188 1357.082 1358.4536 1359.5671 1361.02 1362.812 1365.1047 1367.7968 1369.7484 1371.2412 1372.4768 1373.8872 1375.6816 1377.0552 1378.4172 1379.542 1382.984 1386.344 1390.2664 1392.0984 1392.5583 1393.1696 1395.0856 1396.6088 1397.858 1398.5789 1399.6987 1400.5323 1401.224 1401.36 1401.5636 1401.9204 1401.9636 1401.7804 1401.5208 1401.788 1402.1416 1402.2344 1402.564 1403.116 1403.8884 1404.6116 1405.0636 1405.3876 1405.9229 1406.6508 1406.9432 1406.832 1407.496 1408.1191 1408.8668 1409.7012 1410.5956 1411.3907 1412.542 1413.5452 1414.4552 1415.7296 1417.2584 1418.2375 1419.0056 1419.8008 1420.9468 1421.8563 1422.0048 1422.0208 1422.3912 1423.4064 1425.1592 1426.2848 1427.8217 1429.1936 1431.3027 1433.6676 1435.5612 1437.5188 1440.3944 1443.3248 1446.2507 1448.4956 1451.6396 1454.5812 1457.0928 1458.5616 1460.7103 1462.3248 1465.7344 1470.7823 1473.5184 1475.1128 1478.1444 1481.4436 1482.7704 1483.2448 1483.6595 1484.3932 1485.2177 1485.82 1486.6407 1487.2864 1487.94 1488.6864 1489.3359 1489.9016 1490.7224 1491.4456 1492.0052 1493.0812 1494.1667 1495.43 1498.2448 1501.3784 1503.2988 1505.59 1509.554 1513.7316 1517.2908 1527.3676 1536.7936 1539.9296 1540.7808 1542.5736 1547.8835 1551.8604 1530.0516 1511.2284 1503.8472 1503.9401 1504.4692 1505.0892 1505.4596 1506.1019 1507.5936 1509.6495 1512.0924 1514.2908 1516.7108 1519.4452 1521.5808 1523.848 1526.1704 1528.2408 1530.0513 1533.3224 1543.6472 1555.0624 1559.2284 1561.202 1564.4921 1566.4744 1567.6508 1571.97 1576.4752 1577.4896 1580.3292 1582.8356 1584.7948 1585.5836 1587.1796 1588.386 1588.2277 1587.7316 1585.8336 1583.4432 1581.3016 1579.8145 1578.784 1573.504 1573.6136 1574.1616 1571.204 1567.0576 1557.2551 1543.864 1537.836 1533.4536 1532.2324 1531.3403 1530.9468 1531.39 1532.4388 1533.2444 1534.4624 1536.068 1537.6163 1538.7396 1539.4724 1539.4515 1538.9937 1538.0352 1537.188 1537.0704 1537.2992 1536.54 1534.9777 1535.7144 1536.33 1535.5964 1535.264 1535.8848 1536.5223 1536.9568 1537.4072 1538.0656 1539.2024 1540.0511 1541.2208 1542.7839 1545.468 1548.1232 1550.3333 1552.4772 1556.004 1558.108
1271.5648 1272.2152 1273.2716 1273.3684 1273.1432 1272.5887 1271.902 1271.394 1270.6036 1269.6644 1268.9417 1268.552 1268.2668 1268.1132 1268.0332 1267.91 1267.888 1267.8784 1267.7284 1267.398 1267.5624 1268.4712 1270.0272 1271.4944 1272.772 1274.0801 1275.4788 1277.0492 1279.0632 1280.7072 1282.4703 1285.172 1288.8716 1293.782 1296.4944 1299.5328 1304.0436 1307.5308 1309.3212 1312.17 1314.1792 1315.5583 1317.1307 1318.778 1320.974 1322.9692 1325.8672 1328.2256 1331.0056 1332.9152 1334.3992 1336.0424 1339.4476 1342.8004 1344.8016 1346.2512 1347.2504 1348.244 1349.2667 1349.9596 1350.732 1352.1992 1353.7916 1354.9524 1356.4968 1357.7032 1359.7697 1362.6304 1365.156 1367.968 1369.5692 1370.7867 1372.164 1373.6704 1375.496 1376.9976 1377.9636 1379.0276 1380.232 1383.4784 1386.7312 1388.5135 1390.3176 1391.3928 1392.8536 1394.5831 1395.9452 1396.5427 1397.7076 1399.01 1399.8408 1400.0424 1400.2012 1400.414 1400.2797 1399.9556 1399.3896 1399.7528 1400.0745 1400.2008 1400.736 1401.3152 1401.9188 1402.69 1403.238 1403.3444 1403.6412 1404.1356 1404.1968 1404.4552 1405.3951 1406.2296 1407.2076 1407.9668 1408.9164 1409.7612 1410.8604 1411.83 1413.0903 1414.552 1415.9464 1416.7751 1417.4968 1418.0392 1418.842 1419.6508 1419.7249 1419.5968 1420.2249 1421.5632 1423.4369 1425.1144 1426.664 1428.3064 1430.0692 1431.81 1433.642 1435.4956 1437.9728 1440.4329 1443.3412 1446.7012 1450.9965 1453.3812 1456.3336 1458.0376 1459.828 1461.3928 1464.9417 1469.468 1470.3136 1471.3784 1476.7349 1479.5316 1480.7968 1481.8201 1482.57 1483.35 1484.1304 1484.544 1485.1265 1485.6583 1486.452 1487.3408 1487.908 1488.3632 1489.1448 1489.836 1490.4692 1491.1084 1492.5156 1494.0828 1496.9056 1500.0264 1502.1412 1504.1796 1506.7516 1510.5804 1515.8644 1521.8116 1529.4408 1534.8536 1538.5656 1541.496 1547.8156 1550.0004 1524.7332 1505.5884 1501.8032 1502.1887 1502.6172 1503.1652 1503.7133 1504.9348 1506.9808 1509.1952 1511.9604 1514.2836 1517.6924 1520.4332 1522.444 1525.1128 1527.2296 1528.9368 1530.6008 1534.328 1548.1047 1558.6448 1562.098 1564.9884 1568.2352 1569.2031 1571.446 1576.5413 1578.3984 1580.2528 1583.498 1586.214 1586.522 1587.0803 1588.5492 1588.794 1588.0181 1586.5812 1584.328 1580.872 1577.408 1574.4504 1571.9568 1568.7168 1567.7224 1566.7888 1562.4688 1555.7448 1544.4343 1539.1344 1532.86 1529.7256 1529.3956 1529.15 1529.038 1529.6892 1530.7596 1531.7332 1533.1624 1534.7103 1536.0028 1536.8988 1536.902 1536.7836 1536.7224 1535.676 1534.7224 1534.6832 1534.7312 1533.9592 1532.1248 1532.988 1533.8644 1533.4412 1534.0256 1534.512 1534.6808 1535.152 1535.9064 1536.9856 1538.392 1539.4696 1541.0599 1543.4952 1546.6832 1549.1752 1552.206 1554.8124 1558.5712 1560.2672
1270.5072 1271.1488 1272.1652 1272.1724 1271.9576 1271.3505 1270.592 1270.0808 1269.1692 1268.0828 1267.4752 1267.2336 1267.0612 1266.818 1266.5184 1266.4208 1266.5016 1266.5088 1266.4132 1266.2804 1266.6016 1267.6344 1269.3217 1270.432 1271.404 1271.904 1273.1652 1274.7131 1276.8192 1278.7568 1280.1788 1281.8868 1284.5632 1287.9592 1291.1093 1294.6676 1298.5743 1302.9376 1306.826 1309.6525 1312.2767 1314.0464 1315.8564 1317.7468 1319.858 1321.6476 1323.924 1326.9489 1330.0829 1331.9332 1333.364 1334.8544 1336.262 1338.358 1340.4292 1344.7709 1346.0499 1346.7052 1347.84 1348.5392 1349.2509 1350.3628 1352.086 1353.5596 1354.9828 1356.3292 1359.7476 1364.2812 1366.2632 1368.1783 1369.3804 1370.542 1372.1144 1373.576 1375.1876 1376.6364 1377.7832 1379.2936 1380.7844 1382.2892 1385.1381 1386.8668 1388.668 1389.8536 1390.8248 1392.0344 1393.51 1394.9988 1396.3756 1397.3756 1398.2623 1398.484 1398.4192 1398.5424 1398.318 1397.4812 1396.2832 1396.6711 1397.4677 1398.01 1398.672 1399.3456 1399.9532 1400.526 1401.2628 1401.3092 1401.33 1401.4211 1401.328 1402.128 1403.3612 1404.3452 1405.3932 1406.3164 1407.3644 1408.0228 1409.1237 1410.3997 1411.9452 1413.1948 1414.3872 1415.1896 1415.7999 1416.0424 1416.4628 1416.6564 1417.0107 1417.5483 1419.3604 1420.8204 1423.0624 1424.296 1425.5288 1427.264 1428.6616 1430.0432 1431.7056 1433.5464 1435.774 1437.9204 1440.4296 1443.3649 1447.212 1450.3248 1453.9528 1456.1168 1457.5668 1459.6052 1462.7656 1465.9272 1466.9408 1468.1984 1473.1049 1476.6168 1478.3824 1480.0367 1481.3468 1482.234 1482.8192 1483.0792 1483.5216 1484.0657 1484.85 1485.6692 1486.2941 1486.7676 1487.492 1488.1912 1488.7688 1489.0808 1490.2576 1491.9464 1494.736 1497.832 1500.3044 1502.6284 1505.536 1508.048 1512.5873 1523.7872 1529.6084 1533.0764 1536.3763 1539.9708 1544.6952 1543.2952 1523.4468 1504.5411 1499.5144 1500.204 1500.5812 1501.1884 1502.21 1504.0204 1506.77 1509.6172 1515.1228 1517.8083 1520.9204 1523.6755 1526.1685 1527.4564 1528.6683 1530.1676 1531.6481 1536.7512 1552.6892 1561.0164 1565.8925 1568.2236 1569.7076 1570.9844 1574.8444 1578.7548 1581.0264 1583.9128 1585.6948 1586.8044 1587.1224 1587.488 1587.3264 1586.8728 1585.7335 1585.0992 1582.7697 1579.1656 1574.9633 1571.4904 1568.7892 1566.1676 1564.1284 1560.0195 1548.8907 1542.9244 1539.2043 1532.8083 1527.8684 1526.4492 1526.6 1526.8464 1527.0164 1527.7644 1528.9672 1530.0984 1531.6523 1533.102 1534.172 1534.4696 1534.0376 1533.824 1533.7032 1532.98 1532.376 1532.4056 1531.8412 1530.7764 1529.918 1530.278 1531.2924 1531.7885 1532.3649 1532.5536 1532.9152 1533.7393 1534.7556 1535.85 1537.5107 1539.1508 1541.7228 1543.9948 1547.506 1550.642 1554.9636 1558.6572 1560.8304 1563.4296
1269.5592 1270.0488 1271.1676 1271.4628 1271.1783 1270.4336 1269.5696 1268.9768 1268.2748 1267.3164 1266.3168 1265.8496 1265.674 1265.4132 1265.0752 1265.0752 1265.1896 1265.0656 1264.9517 1265.2491 1265.6871 1266.6943 1268.2024 1269.0135 1269.7744 1270.196 1271.2292 1272.806 1274.7944 1276.6744 1278.7651 1280.4828 1282.052 1284.5968 1287.7812 1290.5492 1293.8375 1297.6008 1303.1348 1307.4412 1310.552 1312.9072 1314.9012 1316.9916 1319.2676 1321.1628 1322.6512 1324.7224 1328.754 1330.134 1331.5536 1333.068 1334.8693 1336.2676 1338.874 1342.4445 1344.0188 1344.89 1346.0776 1347.1337 1348.4332 1349.6332 1351.138 1352.658 1353.9396 1354.7596 1358.8907 1364.642 1366.4111 1367.5568 1369.1469 1370.478 1371.9944 1373.5712 1375.0596 1376.2396 1377.5616 1379.1968 1380.9211 1382.4612 1384.3549 1385.9652 1387.4152 1388.4025 1389.5416 1390.7465 1392.2036 1393.7804 1395.278 1396.2732 1396.9976 1397.1857 1397.0599 1397.0216 1396.2572 1394.734 1393.432 1393.4504 1395.5964 1396.07 1396.7208 1397.3608 1397.9628 1398.7004 1399.1772 1399.2795 1399.3387 1399.2797 1399.696 1400.7008 1401.8828 1402.774 1403.7205 1404.7045 1405.774 1406.4211 1407.434 1408.9276 1410.6316 1411.7772 1412.8248 1413.504 1413.8185 1413.9808 1414.1307 1413.7804 1413.7941 1415.7363 1418.3779 1419.918 1421.464 1422.488 1424.5328 1426.156 1427.3728 1428.9016 1430.7904 1432.7751 1434.2579 1435.694 1438.056 1440.5736 1443.52 1446.1096 1449.2832 1451.4185 1454.0964 1457.6036 1460.5728 1462.4128 1463.7208 1465.9208 1471.0961 1474.8417 1477.7328 1479.6112 1480.7244 1481.4532 1481.3848 1481.5248 1481.9584 1482.504 1483.3052 1484.0573 1484.6667 1485.1676 1485.8696 1486.3593 1486.584 1487.064 1488.6945 1490.4777 1492.908 1495.8647 1498.4211 1500.6604 1503.4384 1506.2592 1510.1616 1518.7488 1527.1492 1531.158 1534.014 1536.8164 1531.732 1535.7992 1515.8036 1501.7972 1497.8168 1498.2568 1498.7437 1499.6307 1501.2284 1504.1012 1509.7148 1514.7059 1520.9612 1523.2244 1524.818 1526.402 1528.0692 1529.2468 1530.366 1531.6892 1533.3544 1540.2769 1553.7189 1560.7565 1565.4292 1567.3108 1570.7404 1572.8876 1576.7363 1580.0195 1582.8632 1585.0024 1586.7668 1586.51 1586.2345 1585.3568 1583.9152 1583.5 1583.188 1583.624 1581.0792 1577.0048 1572.8536 1569.7184 1565.714 1561.9052 1558.4036 1550.5684 1542.0076 1537.9772 1530.7556 1524.6588 1524.2795 1524.2988 1524.4984 1524.8264 1525.2644 1526.2572 1527.4968 1528.7288 1530.3756 1531.6683 1532.2712 1532.012 1531.4584 1531.2432 1531.1824 1530.704 1529.84 1529.7112 1529.4283 1528.73 1528.4803 1529.0789 1529.7836 1530.1996 1530.5135 1530.8192 1531.636 1532.5961 1533.762 1535.4692 1537.6276 1539.5413 1542.3157 1545.0211 1548.9868 1553.2092 1557.7869 1560.7781 1563.9631 1565.9703
1268.7177 1268.9792 1269.9692 1270.4652 1270.4128 1269.672 1268.5251 1267.8052 1267.1932 1266.2043 1264.8333 1264.1724 1263.7312 1263.4464 1263.28 1263.296 1263.4524 1263.5356 1263.4548 1263.7452 1264.1265 1265.0297 1265.8468 1266.6332 1267.7488 1268.684 1269.8888 1271.272 1273.0688 1274.8992 1277.4696 1279.444 1280.8171 1282.5573 1284.9536 1286.864 1289.7628 1293.3853 1297.2892 1304.3124 1308.2275 1311.4587 1314.27 1316.0092 1318.3549 1320.2572 1321.5312 1322.6824 1325.424 1327.856 1329.3243 1330.85 1332.734 1334.7924 1337.3461 1339.6868 1340.5892 1342.386 1343.8612 1345.41 1346.9991 1348.604 1349.9136 1351.3464 1352.6864 1353.8577 1357.7563 1362.6915 1365.3083 1366.4956 1367.912 1369.6736 1371.41 1373.0469 1374.4712 1375.7064 1377.2128 1378.6512 1380.3524 1381.838 1383.6348 1385.13 1386.3344 1387.3296 1388.7256 1390.0328 1391.2152 1392.608 1394.0424 1394.9736 1395.3932 1395.6956 1395.4592 1394.952 1394.5236 1392.6316 1390.5096 1389.9464 1391.656 1393.2128 1394.7296 1395.3152 1395.6768 1396.5712 1397.2312 1397.2808 1397.0792 1396.6248 1397.71 1399.1077 1400.2356 1401.1404 1402.0664 1402.9304 1404.0112 1404.8888 1405.9216 1407.3184 1408.9296 1410.0464 1411.1736 1411.6064 1411.8424 1412.0536 1412.0756 1411.618 1412.068 1414.5383 1416.5548 1418.1309 1419.2952 1420.8328 1423.2688 1424.8752 1426.2231 1427.8712 1430.0079 1432.2983 1433.1848 1434.024 1435.6216 1438.0239 1441.1785 1443.0657 1445.4299 1448.154 1451.2856 1455.3928 1457.7435 1459.8628 1462.1124 1465.4603 1469.7168 1474.1744 1478.1669 1479.7076 1480.6184 1480.9016 1480.2001 1479.8984 1480.2375 1480.6312 1481.2888 1481.9257 1482.4888 1483.1056 1483.8217 1484.1968 1484.326 1484.778 1486.3951 1488.7576 1491.5656 1494.2096 1496.4424 1498.668 1501.6124 1505.6268 1509.4044 1511.5444 1519.9868 1528.2404 1531.3893 1535.3668 1509.6652 1503.7092 1501.1292 1495.2212 1495.4336 1496.1512 1497.0109 1498.314 1501.3336 1509.3376 1516.5808 1521.2528 1525.1165 1526.6476 1527.9056 1529.0592 1530.4991 1531.9329 1532.8744 1534.1504 1535.9744 1541.5144 1554.3308 1561.0708 1565.2928 1568.4224 1571.8892 1574.6388 1576.9633 1579.8392 1582.6344 1584.2256 1585.5336 1585.1713 1583.9564 1582.6108 1580.8464 1580.2 1579.254 1579.2692 1578.4896 1574.472 1570.6725 1567.9724 1562.5676 1557.0724 1550.398 1544.5052 1537.3547 1531.3636 1522.7192 1521.14 1521.6792 1522.0128 1522.3496 1522.7976 1523.4991 1524.5944 1525.9872 1527.5223 1529.1309 1529.7349 1529.9888 1529.4688 1529.1188 1529.0037 1528.7869 1528.5789 1527.9264 1527.2528 1526.8352 1526.5657 1526.6968 1527.2808 1527.762 1528.0555 1528.5485 1529.4628 1530.8024 1531.8712 1533.9543 1536.3904 1538.626 1540.6676 1544.1971 1547.1748 1552.8763 1556.0396 1559.6256 1562.5928 1565.6376 1568.428
1267.9432 1268.1824 1269.062 1269.846 1269.6152 1268.7751 1267.63 1266.702 1265.7883 1264.6971 1263.5876 1262.9668 1262.3304 1261.5864 1261.2552 1261.348 1261.646 1261.8524 1261.9628 1262.2244 1262.6912 1263.4952 1264.3284 1265.2203 1266.4624 1267.6136 1269.1648 1270.6616 1271.8359 1273.4264 1275.6729 1278.5592 1279.9907 1281.2732 1283.2231 1284.884 1286.1892 1288.866 1293.0012 1298.7957 1305.6516 1309.3228 1313.4316 1315.0972 1316.922 1319.0388 1320.36 1321.5784 1323.4392 1325.6569 1327.4141 1328.9716 1330.606 1332.8564 1335.934 1338.3964 1339.2068 1339.4324 1340.8308 1342.898 1344.252 1346.1256 1348.0864 1349.5912 1351.3496 1352.8376 1354.4156 1358.7988 1363.2524 1364.7772 1366.504 1368.3904 1370.4963 1371.6052 1373.0815 1374.84 1376.7992 1378.1016 1379.3364 1380.726 1382.3612 1383.7988 1385.3016 1386.5673 1387.9104 1389.3392 1390.628 1391.8304 1392.9312 1393.4847 1393.7869 1394.054 1393.5424 1392.5312 1391.6692 1389.6492 1387.9504 1387.0448 1388.5912 1390.0376 1392.2336 1392.8608 1393.2808 1394.7784 1395.5792 1395.1567 1394.0304 1393.0752 1395.0764 1397.3732 1398.5316 1399.3644 1400.2096 1401.232 1402.556 1403.5729 1404.8032 1406.3248 1407.7336 1408.6632 1409.4464 1409.9415 1410.2688 1410.4688 1410.3444 1410.1348 1411.14 1413.116 1414.4708 1416.0548 1417.6456 1419.5288 1421.8224 1423.6016 1424.9048 1425.9865 1428.944 1431.7928 1432.1664 1432.3448 1434.0367 1436.0104 1438.4111 1440.2089 1442.17 1445.0796 1448.9032 1452.0824 1454.0404 1456.1228 1458.9708 1463.4388 1469.392 1473.9904 1477.6652 1479.694 1480.3624 1480.2087 1479.3264 1478.4872 1478.6088 1478.8057 1479.3336 1479.8969 1480.4264 1481.0112 1481.7375 1482.2072 1482.3716 1482.774 1484.2152 1487.1952 1490.7104 1493.004 1494.9952 1496.8127 1499.2556 1502.3724 1506.826 1509.4731 1513.7524 1520.878 1526.9373 1529.7628 1508.2356 1497.2509 1492.0188 1492.6484 1493.7839 1494.8152 1496.0483 1497.6268 1502.5112 1512.4272 1520.1608 1523.3336 1527.4283 1529.4283 1530.4288 1531.5248 1532.7168 1534.032 1535.28 1537.2424 1540.4312 1544.472 1555.7333 1561.9308 1566.6873 1569.3064 1572.83 1575.1028 1576.9648 1578.1144 1580.828 1582.7344 1582.5687 1582.056 1580.6724 1579.474 1576.8296 1575.6569 1574.958 1574.9733 1575.828 1572.5576 1567.242 1564.0476 1559.0645 1553.2844 1547.0107 1543.9004 1537.1924 1526.6667 1519.5272 1519.2408 1519.5408 1519.9113 1520.3248 1520.9023 1521.8832 1523.1656 1524.5352 1525.9296 1527.3228 1527.3475 1527.2336 1527.0671 1526.8196 1526.5764 1526.0916 1525.77 1525.436 1524.8456 1524.4376 1524.5905 1524.9824 1525.5328 1525.9124 1526.4125 1527.4308 1528.5468 1530.0432 1532.2736 1534.9216 1537.2664 1539.9148 1542.926 1546.238 1549.7756 1554.8652 1558.7036 1562.4255 1565.4072 1568.24 1570.864
1266.9844 1267.3909 1268.1272 1268.6544 1268.4808 1267.9872 1266.7704 1265.5457 1264.3204 1263.2516 1262.4476 1261.7836 1260.9548 1260.13 1259.7872 1259.8656 1260.1432 1260.1288 1260.4272 1260.788 1261.2496 1262.052 1262.8456 1263.808 1265.0356 1266.1532 1267.5404 1269.1908 1270.4808 1271.7089 1274.2064 1277.2192 1279.1064 1280.1904 1281.752 1283.6512 1285.0936 1286.4648 1288.9712 1292.8088 1301.8477 1306.9764 1310.9708 1313.914 1315.8556 1317.7725 1319.5356 1320.6908 1322.3596 1323.902 1326.0736 1328.0192 1329.4668 1331.0771 1333.416 1336.6904 1337.7584 1338.088 1339.4368 1340.8944 1342.4668 1344.0876 1345.9023 1347.328 1349.2896 1351.4648 1352.9427 1357.9628 1360.9292 1362.2764 1364.0288 1366.0704 1367.6556 1368.8804 1371.6428 1373.5244 1375.7908 1377.2076 1378.3881 1379.7816 1381.1516 1382.4164 1383.9636 1385.5988 1387.014 1388.3835 1389.8104 1390.9304 1391.6312 1391.8336 1392.0627 1391.9092 1390.746 1389.2556 1388.2 1386.3776 1384.5 1383.9592 1386.3944 1387.9847 1388.6235 1389.646 1390.9564 1392.0356 1392.8988 1391.4852 1390.6564 1390.6276 1393.0151 1395.9696 1396.9661 1397.626 1398.4176 1399.4559 1400.6648 1401.7864 1403.5352 1405.3464 1406.4968 1407.332 1407.8944 1408.2432 1408.2968 1408.4232 1408.6729 1408.1168 1409.5376 1411.6193 1413.3575 1414.7751 1416.192 1418.2623 1420.3676 1421.9252 1423.0964 1423.5492 1425.7256 1428.5728 1429.2156 1429.5588 1431.4543 1433.9095 1435.9445 1437.5132 1439.5896 1442.2992 1445.5736 1447.9032 1451.2092 1454.4963 1457.1044 1460.1971 1468.0181 1472.43 1475.5416 1478.0488 1479.378 1479.1644 1478.034 1476.9884 1476.8503 1476.744 1476.9104 1477.5792 1478.1927 1478.7064 1479.4012 1479.9884 1480.2844 1480.7452 1482.1423 1485.4856 1489.0812 1491.218 1493.7224 1495.6416 1497.9188 1499.4716 1501.7913 1505.3433 1509.3048 1511.4904 1514.7604 1514.87 1505.994 1491.0372 1489.928 1491.1871 1492.1128 1493.2911 1494.8904 1497.4104 1508.22 1519.8127 1525.554 1528.7852 1531.2256 1532.5552 1533.3844 1534.098 1535.1188 1536.3148 1537.85 1541.0436 1544.5304 1547.7552 1554.9856 1563.2697 1567.7544 1570.0464 1572.886 1574.3164 1575.3628 1576.0028 1577.6755 1579.39 1578.6003 1576.2804 1576.7264 1572.2808 1569.6536 1568.152 1567.7048 1568.8663 1566.4092 1565.8636 1563.3092 1558.1611 1553.6685 1549.2772 1545.3828 1541.4276 1532.6812 1521.1676 1516.8416 1517.0096 1517.4661 1517.8668 1518.4113 1519.22 1520.3496 1521.604 1522.8644 1523.782 1524.7468 1524.474 1524.3536 1524.4417 1524.1093 1523.5555 1522.8588 1522.6948 1522.7684 1522.4988 1522.3057 1522.5239 1522.9592 1523.4865 1524.1901 1525.274 1526.4824 1527.6616 1530.2716 1533.0476 1535.3832 1538.6056 1541.7972 1545.71 1548.4156 1552.4388 1557.948 1561.4408 1565.4224 1569.8624 1571.86 1573.9456
1265.9172 1266.3412 1266.9344 1267.1193 1266.8208 1266.3192 1265.3696 1264.2361 1263.1132 1262.1772 1261.2588 1260.2653 1259.4572 1258.9124 1258.628 1258.532 1258.9072 1258.904 1259.0792 1259.4064 1259.9329 1260.644 1261.6265 1262.6704 1263.942 1265.1093 1266.302 1267.7572 1269.3168 1270.5225 1272.6472 1275.4904 1277.152 1278.6488 1279.988 1281.9064 1284.1249 1285.6896 1287.7488 1289.564 1296.2916 1303.5436 1308.678 1312.3956 1314.7437 1316.6652 1318.5947 1319.8204 1321.3403 1322.4908 1325.1808 1327.0592 1328.2916 1329.2444 1330.5905 1332.9752 1335.5056 1336.3424 1337.8728 1339.5256 1341.114 1342.4276 1344.088 1345.6017 1347.616 1350.3575 1351.6196 1353.878 1358.6149 1359.986 1361.3568 1362.8944 1364.6987 1366.4132 1369.246 1371.7852 1373.9604 1375.3549 1377.3024 1378.8208 1380.4589 1381.7988 1383.2556 1384.7869 1386.0548 1387.3508 1388.7928 1389.884 1390.4849 1390.4344 1390.4556 1390.1036 1388.2692 1386.7292 1384.8392 1382.9912 1381.8591 1381.3328 1383.8176 1385.9552 1386.3948 1387.1772 1388.1908 1388.6044 1389.0668 1388.4932 1388.2212 1389.1108 1392.0176 1395.2008 1395.5588 1396.2412 1396.9984 1397.4336 1398.1576 1399.3704 1402.0632 1404.0776 1404.6704 1405.5248 1406.0936 1406.6456 1405.8575 1405.6625 1405.8536 1405.2256 1407.6528 1410.0704 1411.892 1413.2584 1414.964 1416.7816 1418.8276 1420.046 1420.9396 1421.2916 1421.7992 1423.2463 1425.3556 1426.63 1428.1729 1430.0297 1432.5884 1434.2804 1437.416 1439.3032 1441.9032 1445.292 1450.93 1455.3549 1457.6444 1459.0732 1464.298 1469.3436 1472.6785 1475.7888 1478.0931 1478.1692 1476.8828 1475.3668 1475.0608 1474.8536 1474.9288 1475.5608 1476.1736 1476.6567 1477.3604 1478.0228 1478.3932 1478.9692 1480.3688 1482.9712 1485.7092 1488.1276 1492.0472 1494.9424 1496.5469 1497.506 1498.456 1501.024 1503.0 1503.0048 1503.3228 1499.402 1496.6987 1487.4028 1488.6912 1490.1567 1490.8055 1492.04 1493.824 1497.408 1510.556 1521.9344 1528.7596 1531.21 1533.3208 1535.0984 1536.2812 1536.9884 1537.6436 1538.2524 1540.0756 1543.714 1546.7632 1550.0232 1555.0648 1560.5104 1566.1353 1570.2015 1572.0125 1572.8684 1573.4188 1574.0924 1574.8972 1574.2836 1572.9053 1567.4012 1564.5032 1560.2911 1559.2296 1559.7936 1559.8271 1560.7008 1558.5573 1557.2644 1556.1188 1552.8907 1548.7676 1545.586 1542.1372 1538.9164 1530.9028 1517.0404 1514.5225 1515.1351 1515.5748 1515.9244 1516.6056 1517.6224 1518.8679 1520.1544 1521.6364 1522.5028 1522.3708 1521.7732 1521.8055 1521.8184 1521.7484 1521.0348 1520.478 1520.5604 1520.7292 1520.61 1520.5496 1520.7184 1521.1648 1521.9257 1523.066 1524.3564 1525.6168 1527.3303 1530.5732 1533.4756 1536.2823 1539.4344 1543.5372 1547.9716 1551.4213 1555.0076 1559.8448 1563.0096 1567.544 1571.7968 1574.5392 1576.2231
1264.672 1264.936 1265.2876 1265.2588 1265.106 1265.0044 1263.9528 1262.7744 1261.7024 1260.9696 1260.134 1258.9531 1258.3004 1257.6428 1257.0573 1257.0204 1257.6252 1257.6316 1257.5508 1257.8236 1258.4456 1259.2544 1260.634 1261.6564 1262.6316 1263.7725 1264.9408 1266.1608 1267.7252 1269.0996 1270.268 1272.3823 1274.7928 1275.8616 1277.2112 1279.2432 1281.6912 1284.6136 1286.8684 1288.5948 1291.0404 1297.2076 1306.2332 1310.1293 1313.5052 1315.9276 1317.5701 1318.8428 1319.9329 1321.2913 1323.4288 1326.0848 1327.2072 1328.0936 1329.374 1331.2612 1333.2303 1334.4624 1336.6816 1338.2985 1339.5295 1341.0024 1342.8184 1344.5529 1346.7177 1348.8055 1350.3284 1351.598 1354.8788 1357.8995 1359.6572 1361.2228 1363.2844 1364.6996 1366.7405 1368.7484 1370.868 1373.536 1375.8737 1377.0905 1379.9648 1381.0488 1382.5212 1383.5413 1384.434 1385.6116 1386.9452 1388.1196 1388.9912 1388.7648 1388.3756 1387.9164 1386.394 1383.81 1381.0856 1379.9456 1379.6179 1379.0107 1380.7496 1383.1321 1384.3368 1384.852 1385.9039 1386.7168 1386.424 1385.9056 1385.5148 1387.4364 1390.8503 1392.8248 1393.4865 1394.2512 1395.0516 1395.4996 1395.998 1397.0557 1398.9288 1400.1584 1401.2112 1401.9705 1403.1108 1403.6932 1402.7491 1402.3604 1403.04 1403.7697 1406.2836 1408.4004 1410.2452 1411.93 1413.7412 1414.7004 1415.9772 1417.4652 1418.488 1419.1335 1419.9844 1421.2076 1423.0376 1424.4904 1426.6036 1428.0348 1429.76 1431.856 1434.0645 1435.5109 1438.1708 1444.786 1453.592 1455.764 1456.9664 1458.46 1459.478 1463.2428 1466.8856 1469.6624 1473.6868 1475.9604 1475.6648 1473.7816 1472.9828 1472.8068 1473.1307 1473.6884 1474.1908 1474.634 1475.3276 1475.8252 1476.2124 1477.1332 1478.9144 1480.6744 1482.7452 1485.258 1490.3748 1494.5068 1495.1304 1494.176 1492.7957 1492.1388 1488.104 1483.9865 1484.1583 1483.3424 1484.1908 1485.182 1486.7076 1488.3948 1489.1932 1490.7867 1492.4067 1496.6084 1514.3116 1522.2612 1528.198 1531.7844 1534.7568 1536.4064 1538.1808 1539.2384 1539.9355 1540.7867 1542.8368 1546.6744 1549.9083 1552.0316 1556.0608 1558.6368 1563.1512 1568.7528 1569.84 1570.7416 1570.2272 1568.5992 1567.5732 1567.802 1565.9167 1562.0488 1559.1544 1554.8591 1551.3788 1550.3044 1552.2231 1552.4384 1551.3448 1550.3064 1550.0208 1548.9032 1546.3484 1542.4924 1540.488 1536.1641 1527.6936 1513.3728 1512.2576 1512.808 1513.2084 1513.742 1514.7352 1515.9176 1517.3364 1518.7532 1520.0492 1520.1284 1519.27 1518.5436 1518.4552 1518.7656 1518.996 1518.5704 1518.258 1518.3348 1518.644 1518.7664 1518.6929 1518.9489 1519.7316 1520.7572 1522.0887 1523.5032 1525.2247 1527.8248 1530.8408 1533.6184 1538.1012 1541.9196 1545.6688 1549.0712 1553.562 1556.5852 1560.7872 1565.032 1569.1984 1572.3217 1575.2059 1577.0828
1263.4728 1263.692 1263.942 1264.0107 1264.0933 1263.9916 1262.9336 1261.792 1260.6351 1259.5344 1258.6268 1257.9036 1257.3245 1256.5756 1255.7885 1255.7563 1256.3588 1256.4724 1256.3564 1256.5588 1257.1344 1258.2872 1260.0356 1260.9236 1261.4852 1262.466 1263.5153 1264.46 1266.0092 1267.8204 1268.96 1269.9113 1271.4937 1272.724 1274.0448 1276.3807 1279.3256 1282.2592 1284.8171 1287.3387 1289.4436 1291.6268 1303.2092 1309.1836 1311.9603 1315.4004 1317.1316 1318.2556 1318.8112 1320.2128 1321.6072 1323.556 1325.3112 1326.964 1328.3348 1330.0188 1331.5664 1333.2128 1335.1056 1337.2584 1338.7544 1340.2128 1341.9568 1343.6656 1346.0096 1348.0928 1349.6036 1350.8156 1353.1827 1355.9283 1358.5068 1360.2084 1361.8884 1363.2236 1364.4796 1365.6412 1368.2616 1371.4912 1374.1409 1375.9896 1379.4608 1380.4808 1381.5588 1381.9324 1382.6636 1383.6108 1384.5524 1386.25 1387.4248 1386.7152 1386.106 1386.2804 1385.2563 1383.09 1379.868 1377.7904 1376.9155 1376.1212 1377.928 1380.4944 1382.3359 1383.1456 1383.8568 1384.3016 1383.912 1382.656 1383.7117 1386.0636 1388.0153 1389.54 1391.3672 1392.4744 1393.1453 1393.8188 1394.0444 1394.5452 1396.7769 1397.7568 1398.536 1398.7976 1399.3531 1399.942 1400.0931 1400.2725 1401.1873 1402.4352 1404.4596 1406.5444 1408.9956 1410.8164 1412.2052 1413.0701 1414.214 1415.5037 1416.3368 1417.2496 1418.5604 1419.8635 1421.2424 1422.9512 1425.9213 1427.7828 1429.0856 1430.3672 1432.4357 1434.2628 1437.7412 1444.566 1452.1896 1453.7584 1454.3768 1455.9647 1458.0708 1459.5028 1461.0905 1462.8912 1466.5148 1471.8749 1474.5728 1472.032 1470.5588 1470.8884 1471.4756 1472.0076 1472.3524 1472.5988 1473.074 1473.5956 1473.9884 1475.1956 1477.6312 1480.0488 1482.2988 1483.9316 1488.6757 1493.0332 1492.0392 1489.776 1481.766 1478.9012 1479.0536 1479.8832 1480.8145 1481.5151 1482.5796 1483.5037 1484.3556 1485.7164 1487.7244 1489.918 1492.406 1499.6284 1514.0748 1520.53 1525.8387 1531.8604 1535.5688 1537.3848 1539.5304 1540.6072 1541.6628 1542.8228 1544.6824 1547.0912 1550.278 1552.4924 1554.5408 1557.312 1562.0905 1565.9624 1566.7688 1566.0448 1564.236 1561.832 1561.2764 1562.4604 1561.0 1558.5529 1554.0864 1548.2664 1542.0732 1544.0771 1545.9935 1547.004 1547.0936 1546.4456 1544.1544 1542.5905 1538.7308 1537.7788 1536.7465 1529.8273 1515.964 1509.3951 1509.9728 1510.424 1511.2108 1512.0724 1513.2584 1514.5608 1516.0356 1517.3276 1517.8636 1517.4612 1516.7277 1515.7804 1515.5383 1516.0936 1516.636 1516.4615 1516.2308 1516.3748 1516.6425 1516.736 1516.8544 1517.704 1518.8828 1520.2045 1521.9504 1523.64 1525.4448 1528.1888 1531.1456 1534.8112 1540.8173 1544.146 1547.1272 1550.44 1554.386 1556.91 1561.0712 1565.0104 1569.26 1572.3512 1574.9188 1576.978
1262.2048 1262.408 1262.596 1262.7448 1262.7043 1262.2988 1261.6168 1260.652 1259.4633 1258.2161 1257.3596 1256.7852 1256.2848 1255.6224 1254.7368 1254.8064 1255.004 1255.3704 1255.2472 1255.3456 1255.8228 1256.918 1258.5076 1259.5084 1260.1564 1261.246 1262.2087 1262.7593 1263.9735 1265.7312 1267.3512 1268.7168 1270.1353 1271.148 1272.1628 1273.6469 1277.0328 1280.46 1282.6952 1285.4952 1288.12 1290.1136 1298.7087 1306.5184 1309.6884 1313.4213 1316.84 1318.0153 1318.5232 1319.2312 1320.7231 1322.2408 1324.1284 1325.7604 1327.2656 1328.8665 1330.48 1332.312 1334.0184 1336.1624 1337.8584 1339.44 1341.2904 1342.988 1344.8212 1346.65 1348.4276 1349.8708 1351.73 1354.118 1356.2728 1358.1296 1359.778 1361.2043 1362.6268 1363.7133 1365.946 1368.7644 1371.9552 1373.784 1377.0372 1378.3765 1378.5964 1378.6556 1378.9257 1379.1632 1381.2764 1385.286 1385.8196 1384.5629 1383.4792 1383.5184 1381.5759 1381.5624 1378.0956 1374.7316 1373.35 1371.7092 1372.672 1378.0176 1380.0652 1381.4268 1381.4636 1381.3124 1381.0288 1380.0648 1382.3964 1384.318 1386.2072 1387.6648 1389.222 1390.5931 1391.0936 1391.6344 1391.9572 1392.2412 1393.0472 1394.9912 1396.468 1396.6423 1396.8116 1396.7404 1397.1432 1397.9865 1399.7303 1401.5352 1403.796 1405.8048 1407.7764 1409.038 1410.3168 1411.772 1412.958 1413.7556 1414.566 1415.4844 1416.5736 1418.0063 1419.3944 1420.8728 1423.8116 1426.2795 1427.6508 1429.1876 1431.3508 1434.3923 1437.7484 1442.05 1447.734 1449.9708 1451.1876 1452.2275 1454.2336 1456.5072 1458.696 1460.1256 1462.928 1466.4376 1469.8344 1468.56 1468.07 1468.8011 1469.432 1469.8232 1470.0852 1470.2324 1470.514 1471.102 1471.7509 1472.9835 1476.0736 1479.5192 1481.7115 1483.5212 1485.6184 1486.6112 1486.6196 1484.2332 1476.7136 1476.0616 1476.9436 1477.9747 1478.8988 1479.7812 1480.8192 1481.7384 1483.0615 1484.7312 1487.1019 1488.7924 1490.896 1502.1392 1513.8872 1518.8112 1524.19 1531.5964 1535.8896 1538.2319 1540.1472 1541.3912 1542.5156 1543.8652 1545.6444 1547.5092 1549.956 1551.4672 1552.6816 1555.0952 1558.0188 1560.7876 1562.0483 1561.1604 1559.2941 1557.9524 1556.7572 1556.2332 1555.0109 1553.03 1545.9464 1540.9937 1536.0107 1538.6484 1541.2152 1542.8073 1540.5004 1537.3116 1536.064 1533.34 1528.9728 1526.8984 1519.988 1508.4056 1506.4652 1507.1467 1507.894 1508.5668 1509.5184 1510.4176 1511.6464 1513.1688 1514.7108 1515.6044 1514.7476 1514.4452 1514.3368 1513.1008 1512.91 1513.1532 1513.592 1513.7015 1513.8048 1514.0968 1514.302 1514.5372 1515.6785 1516.7792 1518.1832 1520.16 1522.3828 1524.51 1526.3452 1528.5084 1531.1912 1536.2393 1541.5132 1544.7435 1547.5272 1550.4703 1553.6332 1556.8732 1561.316 1564.7264 1568.644 1571.8024 1574.4937 1576.7017
1261.1976 1261.3 1261.4167 1261.6648 1261.842 1261.6188 1260.9464 1259.7512 1258.3048 1257.2336 1256.3348 1255.7172 1255.3344 1254.88 1253.9752 1253.4257 1253.3656 1253.9592 1253.9264 1253.8744 1254.4124 1255.4724 1256.886 1257.9412 1258.734 1259.726 1260.6168 1261.2504 1262.4624 1264.284 1266.1272 1267.6256 1268.7784 1269.98 1271.386 1272.4908 1273.5104 1277.5616 1281.0504 1283.164 1285.7888 1288.36 1291.7808 1297.1824 1304.7764 1311.4932 1315.1704 1316.8528 1317.6456 1318.7104 1320.1279 1321.6488 1323.7797 1325.3524 1326.7144 1328.2017 1330.0576 1331.8416 1333.3809 1335.1824 1336.9696 1338.7896 1340.7769 1342.492 1344.1836 1345.766 1347.4836 1348.9988 1350.5188 1352.4364 1354.3512 1356.0448 1357.7764 1359.2844 1360.8907 1362.406 1364.7628 1366.93 1369.0504 1370.4344 1372.3652 1373.1316 1374.9283 1374.7252 1374.5424 1376.0376 1378.1436 1383.9052 1384.2324 1383.1628 1380.3792 1378.8359 1378.1296 1378.1288 1375.5269 1371.886 1369.8868 1367.6908 1368.1 1375.8969 1378.4645 1379.7236 1378.7404 1378.4069 1378.292 1378.2896 1380.9236 1382.8083 1384.604 1386.1272 1387.5933 1388.798 1389.3776 1389.9296 1390.1404 1390.298 1390.9504 1392.0529 1393.2736 1394.1488 1394.8853 1394.7292 1395.4504 1396.9176 1399.504 1401.3728 1403.1112 1404.9169 1406.6252 1407.3348 1408.0408 1409.496 1411.1741 1412.2452 1413.2115 1414.1956 1415.0048 1415.9368 1417.2233 1418.5497 1420.5771 1422.8484 1424.9484 1428.0084 1430.7468 1432.9803 1437.9227 1439.9764 1442.5956 1445.3524 1447.0668 1448.8524 1450.6232 1452.7064 1455.2528 1457.2136 1459.8248 1462.0815 1463.8744 1464.7616 1466.1836 1466.998 1467.2472 1467.4849 1467.8228 1468.1604 1468.5764 1469.0859 1469.5724 1470.666 1474.0784 1478.5128 1480.7028 1481.49 1480.4872 1479.3616 1478.7644 1476.2644 1473.7177 1474.1904 1474.8596 1475.9452 1477.0771 1477.974 1479.0104 1480.5184 1482.3016 1484.0944 1486.1956 1487.326 1490.0056 1502.3463 1512.4976 1516.6232 1522.398 1529.7563 1535.0568 1537.4008 1538.9432 1540.9232 1541.8461 1542.9028 1544.5269 1545.75 1547.2177 1548.6904 1550.5673 1552.1439 1555.0468 1557.3756 1558.078 1556.6444 1556.042 1554.6156 1551.1884 1550.4371 1550.766 1544.2524 1537.9424 1534.9991 1530.4963 1533.382 1536.6656 1537.368 1534.2052 1531.3412 1530.3431 1527.3712 1522.4136 1511.9216 1505.776 1504.4512 1504.5156 1505.2596 1506.0636 1506.9332 1507.8008 1508.7769 1510.3392 1512.068 1513.7349 1514.4076 1512.4868 1511.2804 1511.2 1510.6024 1510.3596 1510.5292 1510.9329 1511.2344 1511.5112 1511.712 1512.5292 1513.5372 1514.8073 1516.1207 1518.1344 1520.1481 1523.298 1525.8652 1528.3308 1530.4587 1532.876 1537.3336 1541.2108 1544.4092 1547.4752 1550.052 1553.5612 1557.1692 1561.4736 1564.8408 1567.9144 1570.9512 1573.972 1576.3368
1260.1956 1260.1564 1260.1456 1260.6392 1261.038 1260.6685 1260.0132 1258.7628 1257.3359 1256.5183 1255.4768 1254.6569 1254.1436 1253.5156 1252.7656 1252.2424 1252.1556 1252.5181 1252.6583 1252.664 1253.0696 1254.0568 1255.4768 1256.5352 1257.2012 1257.886 1258.8484 1259.93 1261.3864 1262.9032 1264.6204 1266.2732 1267.4072 1268.6232 1270.114 1271.158 1272.0848 1273.8951 1276.9448 1280.1008 1283.1348 1285.83 1287.4396 1289.0708 1291.9332 1303.6196 1311.182 1315.2996 1316.286 1317.7244 1319.37 1320.906 1323.5428 1325.2836 1326.7124 1328.0964 1329.3788 1330.8907 1332.5808 1334.3064 1336.2365 1338.1948 1340.424 1342.036 1343.6428 1345.3108 1346.8688 1348.0848 1349.444 1351.0208 1352.6504 1354.0208 1355.7892 1357.2484 1358.714 1360.5557 1362.628 1364.8672 1366.7985 1365.2208 1364.422 1364.7212 1368.7372 1370.0197 1369.7716 1371.478 1373.9188 1376.5684 1376.1544 1376.704 1375.636 1374.2352 1376.0448 1376.5616 1372.922 1369.5972 1365.9008 1363.4816 1364.7347 1371.8691 1376.3588 1377.634 1376.7089 1375.2607 1374.9476 1377.3308 1379.6864 1381.6945 1383.2032 1384.3944 1385.8516 1386.854 1387.4816 1387.86 1388.052 1388.588 1389.4412 1390.1093 1391.0836 1391.7916 1392.008 1392.6927 1394.4788 1396.27 1398.4324 1399.8932 1401.322 1402.7748 1404.7944 1405.6256 1406.3888 1407.3776 1409.0172 1410.6204 1411.8503 1412.5745 1413.1147 1413.7852 1415.0492 1416.7612 1418.5228 1420.0052 1422.9164 1426.3916 1429.9677 1431.7892 1437.1876 1439.9916 1441.8663 1443.692 1445.486 1446.9371 1449.1288 1451.1832 1453.5012 1455.034 1456.4032 1458.856 1460.8264 1461.884 1464.6147 1464.5107 1464.7084 1465.1165 1465.6808 1466.1896 1466.7012 1467.1307 1467.3804 1467.134 1470.4912 1476.268 1478.3256 1478.1248 1474.2349 1471.7324 1471.4136 1470.8208 1471.5529 1472.092 1472.9037 1474.0028 1475.252 1476.2664 1477.9048 1479.728 1481.5088 1483.236 1484.7272 1485.6136 1490.9528 1499.8256 1507.78 1514.1776 1521.5804 1527.8308 1534.0836 1535.2347 1536.9752 1538.9984 1540.0784 1540.968 1541.4436 1542.0972 1543.6868 1546.014 1548.1652 1548.8916 1550.8568 1553.1896 1553.7992 1553.0208 1550.9144 1545.1672 1544.0084 1540.8317 1538.424 1534.8624 1532.4556 1530.6356 1526.9023 1525.2888 1525.34 1529.6592 1528.4492 1526.6444 1522.97 1521.3556 1516.5972 1506.2412 1503.3516 1502.4244 1502.5529 1503.2048 1504.0948 1505.0764 1505.9717 1507.1917 1509.0604 1510.7628 1511.8372 1511.8636 1510.4312 1508.9368 1508.1652 1507.8444 1507.5228 1507.75 1508.078 1508.5413 1509.0568 1510.1168 1511.5188 1512.9371 1514.494 1516.2108 1518.548 1520.4224 1523.1508 1525.8716 1529.3556 1531.8196 1534.484 1537.2264 1540.3356 1544.2972 1547.5452 1550.2509 1553.6512 1557.1481 1560.9908 1564.4316 1567.5468 1570.2324 1573.072 1576.1904
1259.3748 1259.1532 1258.9777 1259.3368 1260.0228 1259.77 1259.1572 1257.838 1256.4224 1255.5328 1254.456 1253.5688 1253.0284 1252.3812 1251.5928 1251.3528 1251.2932 1251.2556 1251.2896 1251.5448 1251.8856 1252.7976 1254.1592 1255.3328 1256.15 1256.6876 1257.3484 1258.4443 1259.7767 1261.8536 1263.7412 1264.8851 1266.0968 1267.3912 1268.7732 1269.9404 1271.3016 1272.8273 1274.688 1277.06 1279.5197 1281.2532 1283.102 1285.25 1288.3835 1292.2716 1300.4316 1313.4324 1315.542 1317.206 1318.6964 1320.4229 1323.0636 1324.9628 1326.678 1328.0028 1329.0804 1330.442 1332.1696 1333.8856 1335.7316 1337.5988 1339.7073 1341.2136 1342.814 1344.5125 1346.1072 1347.304 1348.5608 1350.0065 1351.5632 1352.7528 1354.4916 1355.802 1356.7507 1358.0308 1359.8728 1362.0304 1363.4384 1362.064 1361.2372 1361.4004 1363.138 1365.0715 1365.542 1366.6611 1371.4668 1371.6492 1370.8328 1370.2 1370.9456 1371.1768 1372.5297 1373.952 1370.8092 1367.2732 1362.5504 1360.592 1363.126 1368.9373 1373.6613 1375.8387 1374.0968 1372.4937 1373.7676 1376.858 1379.0392 1380.5144 1381.7704 1383.0176 1384.5267 1385.3452 1385.7303 1385.8737 1386.2072 1387.0184 1387.8779 1388.5555 1389.5404 1390.1284 1390.7112 1391.4856 1393.4484 1395.502 1396.8876 1398.1132 1399.602 1401.2725 1403.0552 1404.144 1405.144 1406.1312 1407.93 1409.6692 1410.7913 1411.1024 1411.4661 1412.1764 1413.2812 1414.9517 1416.6964 1418.3436 1421.7948 1425.1836 1428.7484 1430.5012 1434.2108 1438.538 1440.9968 1443.152 1444.5292 1445.8188 1447.8217 1449.6504 1452.4803 1454.0004 1454.6992 1456.3872 1457.7864 1458.3528 1460.014 1461.2732 1462.4124 1463.3308 1464.124 1464.5608 1464.9332 1465.3228 1465.3748 1464.9508 1466.772 1472.112 1474.42 1473.2576 1467.0645 1467.0931 1468.0392 1468.728 1469.2816 1469.9072 1471.3284 1472.5251 1473.6824 1475.2808 1477.4471 1479.1119 1480.7528 1482.3792 1483.3368 1486.148 1493.1848 1499.7584 1506.176 1513.4952 1520.7404 1526.0212 1531.342 1532.7797 1534.8368 1537.0984 1538.412 1538.6024 1539.1332 1539.1852 1540.286 1542.5524 1544.9819 1546.9244 1548.5688 1550.1176 1549.6456 1548.12 1542.476 1536.2728 1532.554 1531.6764 1528.1024 1529.4417 1527.9564 1525.0564 1521.9984 1518.0295 1516.0072 1520.4401 1518.5244 1515.9355 1516.4764 1516.7916 1511.3452 1503.9556 1501.718 1500.4357 1500.6576 1501.4536 1502.5397 1503.6908 1504.7955 1505.9948 1507.9236 1509.6276 1510.3444 1509.2124 1507.8232 1506.6168 1506.2076 1505.586 1504.894 1505.3356 1505.8547 1506.8173 1508.0743 1509.368 1511.0708 1513.0573 1515.058 1516.8068 1519.2136 1521.208 1523.574 1526.1716 1529.374 1532.2684 1535.0592 1538.0833 1541.1356 1544.2108 1547.2964 1550.2756 1553.3896 1557.0784 1560.7043 1563.8763 1567.4108 1570.3076 1572.9863 1575.644
1258.43 1258.1604 1257.9276 1258.122 1258.946 1258.8516 1258.1796 1256.9004 1255.5732 1254.3605 1252.9965 1252.1757 1251.7537 1251.2784 1250.49 1250.3939 1250.1971 1249.8188 1249.5544 1249.7736 1250.322 1251.2164 1252.4896 1253.6168 1254.59 1255.2404 1255.8236 1256.8452 1257.7072 1259.7192 1262.2716 1263.3691 1264.7668 1265.9996 1267.3936 1268.8464 1270.354 1271.866 1273.8948 1275.9332 1278.1729 1279.8752 1281.6924 1282.9156 1285.0712 1289.7856 1295.2024 1307.5192 1314.5284 1316.978 1318.3536 1320.2832 1322.3951 1324.6232 1326.3948 1327.5555 1329.0704 1330.4352 1331.8816 1333.5648 1335.4128 1337.0864 1338.6464 1340.0048 1341.6832 1343.4152 1344.93 1346.0364 1347.3104 1348.6488 1350.2161 1351.448 1352.8428 1353.8148 1354.4213 1355.3212 1356.8907 1358.1012 1358.3104 1358.2288 1358.2623 1358.58 1359.7764 1361.1476 1362.5376 1362.9064 1363.6696 1366.924 1367.4417 1366.7 1367.1685 1368.1436 1368.0996 1369.4268 1367.8744 1363.3744 1358.8384 1358.012 1359.1077 1362.8124 1366.9984 1369.3536 1368.538 1370.0596 1373.4144 1376.2737 1377.812 1378.7616 1379.9744 1381.4128 1383.1288 1383.9392 1383.9048 1383.8872 1384.1128 1384.7408 1385.684 1387.0056 1388.0153 1388.496 1389.5009 1390.7112 1392.7456 1394.2664 1395.3512 1396.7231 1398.118 1399.6572 1401.3531 1402.5148 1403.5852 1404.4124 1405.7264 1407.8232 1409.3652 1409.2316 1409.6688 1410.7792 1411.7867 1412.9044 1414.726 1416.5764 1420.6372 1423.3572 1426.802 1428.9148 1431.2596 1433.6188 1437.8011 1441.3268 1443.0952 1445.0864 1447.0455 1448.4928 1450.0956 1451.5668 1452.2972 1452.394 1453.4884 1454.9004 1456.7795 1458.7437 1460.4412 1461.314 1462.0896 1462.4368 1462.7068 1463.326 1463.5004 1462.77 1461.7484 1462.0876 1462.038 1462.5948 1463.364 1464.4872 1465.296 1466.2015 1466.7788 1467.5267 1469.2544 1470.996 1472.9456 1474.968 1476.646 1477.8708 1479.364 1480.98 1482.0712 1487.6512 1494.3024 1500.1232 1505.8572 1511.0468 1517.2368 1522.1104 1525.1372 1526.578 1531.8168 1533.8768 1532.6396 1533.8677 1535.5808 1535.7456 1537.2056 1540.4664 1543.0764 1545.1268 1546.3712 1546.0688 1544.5172 1542.2228 1535.5392 1530.2992 1527.3168 1524.1272 1523.8563 1525.4357 1525.3376 1521.2496 1512.8417 1505.1407 1503.424 1503.244 1502.4993 1502.1288 1501.498 1503.4587 1503.3324 1501.3124 1499.5476 1498.198 1498.8344 1499.7368 1500.908 1502.1936 1503.5016 1505.0072 1507.0944 1508.5009 1509.0616 1506.9608 1505.2052 1503.7723 1502.8992 1502.5151 1502.578 1503.4396 1504.6788 1506.062 1507.6136 1509.1864 1511.4468 1513.6964 1515.2836 1516.99 1520.46 1522.6016 1524.7648 1526.9615 1529.6163 1532.7653 1536.2548 1539.0476 1541.9617 1544.372 1547.2524 1549.51 1553.1843 1556.9324 1560.4836 1563.9603 1567.5544 1570.528 1573.1992 1575.6608
1257.462 1257.0692 1256.7308 1256.8884 1257.5452 1257.294 1257.0756 1256.2509 1255.0789 1253.8997 1251.9604 1250.8853 1250.4847 1250.056 1249.4443 1249.5212 1249.0924 1248.6628 1248.428 1248.5416 1249.0483 1249.9316 1251.0488 1251.8752 1252.818 1253.7212 1254.6644 1255.8092 1256.824 1258.2664 1260.974 1262.27 1263.2836 1264.3916 1266.0288 1267.7344 1269.4108 1270.8716 1272.9564 1274.9229 1276.98 1278.7064 1280.5852 1281.8916 1283.4615 1288.7231 1294.504 1304.5312 1313.4677 1315.9204 1317.8296 1320.1848 1321.876 1324.5632 1326.298 1327.2252 1328.6208 1329.8912 1331.3888 1333.104 1334.8 1336.2976 1337.8208 1339.0544 1340.6456 1342.4529 1344.0021 1344.926 1346.1416 1347.3312 1348.588 1349.8184 1350.8876 1351.458 1351.9213 1352.394 1353.7349 1354.3997 1353.9136 1354.864 1355.5992 1356.1392 1357.3405 1358.8124 1360.6328 1361.1056 1361.116 1362.3528 1364.02 1364.4865 1364.682 1364.5931 1364.9836 1363.9268 1362.5961 1358.6864 1356.0144 1355.3688 1357.394 1360.206 1363.396 1364.884 1366.3652 1370.0355 1372.8824 1374.9401 1376.428 1377.2416 1378.4608 1379.6656 1381.016 1382.052 1382.076 1381.8824 1381.6128 1382.0376 1383.408 1385.2208 1386.7856 1387.1688 1388.628 1390.2944 1391.8208 1392.6599 1393.7112 1395.2672 1396.7716 1398.1188 1399.83 1401.2124 1402.3252 1403.1844 1404.096 1405.4856 1407.218 1407.4364 1408.2224 1409.4912 1410.5588 1411.2795 1412.8652 1415.4308 1419.7524 1421.2148 1425.0836 1426.8492 1428.8716 1431.1268 1434.7764 1438.918 1440.8552 1443.7344 1446.7697 1447.0488 1447.9747 1449.03 1449.2588 1448.85 1449.3763 1452.0812 1454.7644 1457.2164 1458.6804 1459.3772 1459.828 1459.8152 1460.2356 1461.3044 1461.5972 1461.11 1460.1324 1459.238 1459.8724 1460.6453 1461.6335 1462.4688 1463.384 1464.0592 1464.694 1465.7236 1467.8864 1470.2456 1472.6576 1474.4288 1475.6012 1476.5748 1477.7767 1479.1464 1481.2751 1486.5624 1495.2192 1499.8096 1502.858 1506.3788 1511.6031 1514.2944 1518.8988 1521.2292 1524.6616 1527.7375 1526.8668 1528.7908 1528.8016 1529.8528 1533.3624 1538.412 1541.0068 1542.3116 1543.6624 1542.5696 1538.954 1535.842 1532.476 1527.46 1523.6168 1520.6016 1520.4677 1523.026 1524.9344 1520.2528 1510.9736 1500.6855 1493.4232 1491.1456 1491.2928 1494.2823 1492.1451 1491.6836 1495.1564 1495.5125 1495.8188 1496.4724 1497.4272 1498.3904 1499.6096 1500.9336 1502.2456 1503.908 1506.3424 1507.5936 1507.4464 1505.432 1503.218 1502.0012 1500.1432 1500.1927 1501.1796 1502.5292 1504.2524 1505.8884 1507.7391 1509.6832 1511.7716 1513.2885 1514.3796 1517.1676 1521.1472 1523.5752 1525.9039 1528.2032 1530.3547 1532.6844 1536.9084 1539.6052 1542.2488 1544.6337 1547.494 1549.7133 1552.8477 1555.9188 1559.8252 1563.926 1567.4232 1570.4865 1573.3519 1575.796
1256.328 1255.8816 1255.4008 1255.436 1256.0956 1255.9324 1256.0212 1255.69 1254.4172 1252.9684 1251.0684 1249.8276 1249.0692 1248.7708 1248.466 1248.5476 1248.0096 1247.6632 1247.5516 1247.7261 1248.186 1248.9724 1249.9076 1250.7156 1251.7008 1252.5304 1253.2832 1254.3881 1255.8016 1257.2528 1259.6404 1260.9596 1261.9376 1262.9512 1264.5833 1266.1664 1267.9703 1269.6263 1271.6508 1273.6692 1275.8008 1277.5536 1279.424 1280.892 1282.7372 1287.8333 1293.724 1299.6144 1308.5792 1314.2784 1317.1727 1319.5808 1321.1272 1323.6672 1325.8784 1326.996 1328.1567 1329.3688 1330.7609 1332.2872 1333.8192 1335.264 1336.7936 1337.964 1339.59 1341.062 1342.7692 1343.6716 1344.8068 1346.0325 1347.0864 1347.9208 1348.39 1348.7004 1349.0984 1349.9167 1350.544 1351.3032 1351.604 1352.76 1353.5745 1353.9688 1354.786 1355.9227 1357.8245 1358.6068 1358.9708 1359.786 1361.4991 1362.0784 1362.2316 1361.3276 1360.2644 1358.198 1355.7964 1354.2244 1352.7672 1352.9728 1356.3984 1358.8944 1360.6748 1361.8508 1366.0536 1370.2712 1372.3765 1373.0868 1374.4204 1375.6604 1377.116 1378.2072 1379.2563 1380.022 1380.5784 1380.4384 1379.2568 1378.2704 1379.434 1381.2491 1383.9196 1385.2948 1387.5764 1388.4979 1389.6316 1390.4893 1391.666 1393.4875 1395.1132 1396.342 1398.2119 1399.8048 1401.004 1401.9039 1402.6704 1403.4401 1404.456 1405.2592 1406.4944 1407.6832 1409.0056 1409.6992 1410.9388 1412.9028 1416.3264 1417.8096 1420.2507 1422.5708 1424.3004 1425.8628 1429.1407 1434.9761 1438.6996 1441.398 1444.3013 1444.5388 1445.1292 1446.0748 1445.6472 1445.5192 1446.2316 1448.174 1451.6956 1455.2491 1456.9696 1457.4111 1456.6736 1456.432 1457.4824 1458.5745 1459.1648 1458.7728 1458.1263 1457.9192 1458.9944 1459.4032 1459.4373 1459.8677 1461.1392 1462.0367 1463.2048 1464.8568 1467.6636 1470.0452 1471.9095 1473.0991 1474.2488 1475.412 1476.7537 1478.228 1480.3364 1483.6316 1491.3468 1494.1292 1496.6532 1500.506 1503.8164 1506.9924 1514.0712 1514.9888 1515.4636 1517.7516 1517.1641 1519.1776 1521.0128 1524.2208 1529.8236 1534.4283 1537.9452 1539.6595 1541.4868 1539.958 1534.9668 1530.8835 1526.4412 1524.1356 1519.5312 1514.5984 1512.8036 1518.8812 1520.338 1514.8636 1505.5 1496.8296 1488.76 1487.6248 1487.6968 1489.792 1489.9952 1490.1425 1491.2468 1492.6917 1493.85 1494.966 1496.0612 1497.1228 1498.2844 1499.4508 1500.7836 1502.4116 1504.7372 1505.802 1504.8212 1503.2347 1499.5204 1498.1996 1497.8336 1498.8433 1500.4916 1502.4236 1504.4072 1506.0544 1508.0283 1509.7284 1511.6348 1513.4684 1515.2463 1517.7872 1521.2224 1523.7816 1526.666 1530.0996 1532.3536 1534.2336 1536.9705 1539.68 1542.5208 1545.1064 1547.98 1550.6088 1553.0692 1555.9788 1559.7316 1563.5483 1566.6384 1570.2488 1573.5376 1576.2888
1255.1328 1254.7823 1254.2823 1253.948 1255.014 1255.0604 1255.0492 1254.9515 1253.6812 1252.2484 1250.5828 1249.358 1248.1987 1247.718 1247.6467 1247.5876 1247.1256 1246.728 1246.5051 1246.7228 1247.4188 1248.3108 1249.0828 1249.8173 1250.6664 1251.4192 1252.2352 1253.1207 1254.5376 1256.2064 1258.2236 1259.7236 1260.8992 1261.9928 1263.4656 1265.1304 1267.1873 1268.904 1270.682 1272.4812 1274.608 1276.4791 1278.4615 1280.0576 1282.5916 1286.854 1292.9584 1298.108 1303.5624 1313.4264 1316.4712 1318.3287 1320.5496 1323.04 1325.132 1326.536 1327.8384 1329.108 1330.3224 1331.6232 1332.9543 1334.22 1335.7632 1336.54 1337.906 1340.3011 1341.406 1342.2588 1343.3708 1344.6268 1345.764 1346.3312 1346.2268 1346.342 1346.672 1347.8663 1348.8328 1349.0977 1348.9865 1349.7744 1351.32 1351.9608 1352.7772 1353.4515 1354.806 1356.27 1357.01 1357.4908 1358.912 1360.1104 1360.2268 1359.478 1358.73 1355.6796 1353.6284 1352.0964 1350.4424 1351.2001 1355.2992 1357.208 1358.3652 1360.8612 1366.3375 1370.0928 1371.8405 1372.1012 1372.9532 1374.1292 1375.504 1376.824 1377.8564 1378.5724 1379.1072 1379.0824 1377.3864 1375.7728 1375.2412 1376.9652 1379.8636 1381.8964 1384.2708 1385.5524 1387.1428 1388.3333 1389.754 1391.7723 1393.7612 1395.3099 1396.7544 1398.2736 1399.5808 1400.3336 1401.1328 1401.9408 1402.9703 1403.9048 1405.0848 1406.1504 1407.592 1408.5367 1409.546 1411.182 1413.16 1415.7279 1418.4668 1420.5276 1422.3925 1424.422 1426.4872 1429.4888 1433.5948 1438.0212 1438.6396 1438.4213 1438.9628 1439.9196 1440.0112 1441.9329 1443.786 1445.7412 1448.2684 1451.4587 1453.8055 1453.9271 1453.1832 1453.8264 1455.1927 1456.4832 1456.9615 1456.5328 1456.6176 1456.564 1457.52 1457.1112 1456.9244 1457.2205 1459.156 1460.6456 1462.6104 1464.8416 1467.4244 1469.2205 1470.7048 1471.6016 1472.7584 1474.272 1476.0704 1477.7512 1479.81 1482.8828 1486.3068 1489.9612 1495.2205 1498.9468 1503.0588 1506.4733 1508.5608 1509.3969 1509.5483 1510.4875 1512.3561 1513.6368 1517.7288 1522.5016 1527.0708 1530.554 1533.5573 1535.5468 1536.2924 1534.5812 1528.8243 1518.5284 1512.4388 1511.9604 1509.9615 1503.1168 1507.1628 1514.6516 1515.9916 1506.986 1500.4584 1493.0216 1485.5576 1485.7695 1485.9656 1486.7888 1488.0552 1489.1464 1490.2156 1491.1388 1492.1044 1493.1964 1494.646 1495.8995 1496.9156 1498.0996 1499.6852 1500.1788 1501.5956 1501.5244 1500.1996 1498.002 1496.0204 1496.1652 1496.8176 1498.2096 1500.4852 1502.3547 1504.2872 1505.9968 1508.2836 1510.7404 1513.598 1515.2764 1516.8632 1518.8168 1521.3912 1523.9376 1527.1476 1530.8884 1534.0536 1536.5272 1538.3992 1540.6193 1543.0151 1545.7064 1548.6945 1551.1072 1553.6356 1556.6044 1560.5028 1563.7996 1566.9167 1570.8088 1574.2344 1577.2416
1253.726 1253.6228 1253.1608 1252.7544 1253.47 1253.9452 1254.6576 1254.32 1252.9248 1251.5792 1249.9856 1248.7544 1247.8 1247.0952 1246.8104 1246.608 1246.1836 1245.7404 1245.3988 1245.6132 1246.6268 1247.5508 1248.172 1248.6936 1249.2444 1250.0323 1251.0024 1251.8665 1253.512 1255.4208 1257.014 1258.5197 1260.0364 1261.1996 1262.6012 1264.2957 1266.4167 1268.2336 1269.8516 1271.6028 1273.4528 1275.4376 1277.5441 1279.4176 1283.1056 1287.3824 1292.6901 1298.5251 1301.4432 1309.4264 1316.0787 1318.322 1320.4216 1322.408 1324.2832 1325.812 1327.0172 1328.4749 1329.8644 1330.906 1332.0188 1333.0413 1334.3016 1334.7312 1335.322 1338.9844 1339.9052 1340.6309 1341.9108 1343.1316 1344.3324 1344.442 1343.992 1343.6584 1343.9264 1344.6552 1345.7908 1346.6196 1346.532 1346.3969 1347.6956 1349.3068 1350.4473 1350.9088 1351.8916 1352.9692 1354.2052 1355.23 1356.3073 1357.0536 1357.1035 1355.5372 1354.4468 1351.5596 1349.9487 1349.496 1348.3336 1350.1848 1354.0237 1355.3956 1359.668 1362.996 1367.2244 1369.0148 1370.0112 1370.3472 1371.1268 1372.546 1373.836 1375.4512 1376.8724 1377.2228 1377.0557 1376.8308 1375.5704 1373.62 1372.8292 1374.3676 1377.088 1379.8024 1382.554 1384.1381 1385.606 1386.7532 1387.99 1390.402 1393.328 1394.7839 1395.7725 1396.7725 1397.8044 1398.4404 1399.2528 1400.1552 1401.188 1402.3048 1403.5432 1404.62 1405.9832 1407.2976 1408.1367 1409.4368 1411.6292 1413.59 1416.7623 1419.8575 1421.7607 1422.7664 1424.468 1425.6592 1427.6003 1430.3524 1432.9528 1434.8328 1435.276 1435.3145 1435.9083 1437.4877 1440.3055 1443.9543 1445.302 1447.2196 1449.636 1450.2856 1450.342 1451.1156 1452.7908 1454.83 1455.0828 1454.358 1453.9884 1454.278 1454.3624 1454.044 1454.3531 1454.9772 1457.098 1459.4396 1462.1892 1464.854 1466.568 1467.5312 1468.7416 1469.8168 1471.2528 1473.1008 1474.73 1476.5411 1479.8851 1482.8092 1485.1632 1489.1344 1495.1688 1497.6641 1501.118 1503.11 1505.1796 1505.3068 1505.6348 1506.9436 1508.3928 1509.9832 1515.5151 1519.8824 1524.1532 1528.4164 1530.3064 1530.2465 1525.7948 1523.818 1514.8544 1505.5072 1502.0044 1500.1364 1498.1268 1497.322 1502.2031 1507.78 1505.3491 1499.7948 1494.3405 1485.4188 1483.3992 1483.9 1484.4648 1485.4167 1486.7004 1487.6964 1488.5367 1489.3064 1490.4604 1491.7043 1493.0116 1494.0812 1494.8496 1496.2224 1497.6404 1497.778 1496.3981 1496.8164 1495.9124 1493.8909 1493.6548 1494.4916 1496.002 1498.6188 1500.776 1502.4912 1504.7347 1506.7043 1508.7788 1512.6748 1516.1727 1517.7664 1519.3387 1520.6508 1522.6188 1525.3788 1528.3488 1532.1927 1535.7948 1538.5796 1540.0527 1541.8136 1543.8816 1546.4584 1549.3792 1551.6696 1554.6328 1557.7888 1561.444 1564.9696 1568.75 1572.5428 1575.6976 1578.316
1253.1068 1252.8788 1252.3112 1251.6855 1252.4644 1253.3812 1254.0496 1253.2896 1252.34 1251.1752 1249.6296 1248.3647 1247.4008 1246.7839 1246.2024 1245.6864 1245.2811 1244.9404 1244.8317 1245.0668 1245.9427 1246.7372 1247.3447 1247.7384 1248.0323 1248.6268 1249.5752 1250.5288 1252.6033 1254.8512 1256.2812 1257.454 1259.0692 1260.5123 1262.0548 1263.7092 1265.696 1267.4648 1269.1124 1270.9388 1272.7952 1274.7064 1276.892 1279.2408 1283.7328 1288.0544 1293.57 1298.77 1303.4136 1310.1248 1315.9044 1318.3092 1320.2432 1321.7528 1323.5496 1325.1344 1326.3619 1327.9875 1329.3164 1329.9532 1330.8636 1331.662 1332.6304 1333.3512 1334.1932 1336.4332 1337.7196 1338.5253 1340.3636 1342.1396 1343.0771 1342.8011 1341.6008 1340.632 1341.0295 1341.6224 1341.9868 1343.2476 1344.0184 1343.7936 1344.3835 1345.622 1347.3872 1348.3048 1349.2491 1350.402 1352.0804 1353.4252 1354.4656 1354.8312 1354.9772 1353.9292 1352.0964 1349.3948 1346.4543 1345.7983 1346.5104 1348.9696 1351.9268 1352.798 1360.5592 1364.0135 1365.9364 1366.9492 1367.512 1368.4865 1369.5308 1370.8364 1372.416 1373.9016 1375.1508 1375.4531 1375.258 1375.0812 1373.964 1371.4648 1371.0044 1373.0916 1376.0864 1378.8967 1381.0836 1382.9556 1384.2572 1385.2844 1386.5452 1388.314 1392.2544 1394.0704 1394.7932 1395.614 1396.1804 1396.674 1397.6711 1398.3704 1399.5288 1400.7303 1402.0295 1403.3528 1404.812 1406.088 1406.9095 1407.8656 1409.4348 1412.098 1415.06 1418.5488 1420.532 1421.5936 1422.3768 1423.2368 1423.8412 1425.2908 1428.02 1430.9144 1431.5312 1431.3264 1431.9644 1433.2732 1436.2928 1439.6536 1441.8596 1443.9531 1445.5968 1447.1344 1447.7972 1449.3596 1451.4292 1452.7212 1453.1132 1452.0428 1451.51 1451.2957 1451.3424 1451.7728 1452.3405 1453.486 1455.722 1459.2444 1462.054 1463.7572 1465.0808 1466.06 1467.0872 1468.2024 1469.7208 1471.5511 1473.0364 1475.798 1480.062 1482.0372 1484.0369 1486.8896 1492.1976 1495.9744 1498.0236 1500.222 1501.1989 1501.5756 1502.4452 1503.6149 1504.72 1506.5905 1512.6816 1517.7976 1522.1492 1525.9691 1527.3953 1522.9176 1516.8164 1511.0076 1503.6832 1499.92 1497.7108 1496.4796 1493.0933 1492.4628 1495.152 1497.0905 1495.9164 1494.242 1487.5204 1481.8549 1481.6104 1482.4152 1483.072 1484.0944 1485.3644 1486.178 1486.9 1487.676 1489.054 1490.4852 1491.1044 1492.166 1493.2704 1495.0928 1494.8684 1494.2012 1492.5452 1491.9828 1491.4443 1491.338 1492.2509 1493.278 1495.1836 1498.5156 1500.988 1504.2168 1506.8212 1508.6644 1510.6147 1513.746 1517.6576 1519.416 1521.1052 1522.4524 1524.0228 1526.2277 1529.0472 1532.7792 1536.1757 1538.2372 1541.0264 1542.8224 1544.7928 1547.1088 1549.8143 1552.5673 1555.9009 1559.0872 1564.0239 1567.324 1571.1188 1573.4796 1576.5527 1578.7312
1252.374 1252.1396 1251.57 1251.03 1251.4833 1252.5831 1253.2368 1252.8408 1251.8948 1250.7316 1249.1448 1247.8064 1246.786 1246.3116 1245.2932 1244.5771 1244.2548 1244.0868 1244.2728 1244.7344 1245.5848 1246.1873 1246.6228 1246.8044 1247.0092 1247.382 1248.1093 1249.2228 1251.418 1253.8853 1254.964 1256.02 1258.0828 1259.9476 1261.4716 1263.0316 1264.8048 1266.4504 1268.448 1270.4592 1272.6976 1274.5592 1276.534 1279.1116 1283.7184 1288.7976 1295.0903 1300.2456 1306.6532 1313.8085 1316.182 1318.0052 1319.7776 1321.1584 1322.8804 1324.2556 1325.486 1327.1003 1328.5304 1329.0032 1329.422 1329.9603 1330.882 1331.3916 1332.7572 1334.2644 1335.8853 1336.7468 1337.7924 1339.6332 1340.1576 1340.0256 1338.6152 1337.74 1338.5815 1338.2008 1338.3064 1339.22 1340.1932 1340.566 1341.2988 1342.1652 1344.3145 1345.6144 1346.3228 1348.0021 1349.6344 1350.9296 1352.0348 1352.8444 1353.2616 1352.6351 1349.9148 1347.1212 1343.7408 1344.0408 1345.1497 1348.0552 1349.6469 1351.6228 1359.3208 1361.9545 1363.4937 1364.0568 1364.4032 1365.88 1367.6068 1369.0996 1370.9604 1372.0724 1373.104 1373.5903 1373.2885 1373.0269 1371.9248 1369.5656 1369.7808 1372.608 1375.9116 1378.1156 1379.8224 1381.204 1382.6448 1383.888 1385.0236 1386.6436 1388.6964 1391.5123 1393.8835 1394.642 1394.7488 1394.6304 1395.4576 1396.5632 1398.0 1399.4528 1400.8375 1401.9824 1403.2776 1404.2632 1405.1864 1406.2128 1407.9792 1409.4896 1412.9471 1416.184 1418.0192 1419.6936 1420.2872 1420.8456 1421.812 1423.0 1424.1184 1426.2296 1427.4548 1428.3916 1429.0388 1429.994 1431.606 1434.518 1437.972 1440.276 1442.052 1444.184 1446.246 1448.1268 1449.7284 1450.9988 1451.0292 1449.5588 1448.5216 1448.324 1449.1104 1449.8728 1451.0648 1452.9144 1456.1084 1459.5084 1461.4016 1462.3672 1463.4956 1464.4412 1465.4036 1466.566 1468.1232 1469.7496 1471.442 1474.5204 1477.84 1479.1168 1481.7428 1484.8853 1488.124 1492.8665 1494.2184 1495.4144 1495.0612 1496.0028 1496.8208 1499.4816 1501.7521 1504.0624 1510.536 1515.5496 1520.8004 1523.7052 1522.4596 1515.738 1508.2656 1501.4584 1497.4508 1494.6276 1492.7697 1490.3744 1487.538 1489.0116 1490.2876 1490.3068 1490.2092 1488.4012 1481.5028 1478.7092 1479.7064 1480.6304 1481.4445 1482.5107 1483.8376 1484.5352 1485.2384 1486.0784 1487.4276 1488.2972 1488.7468 1489.7532 1490.6676 1491.5717 1491.192 1490.5632 1489.5012 1488.5804 1488.8308 1489.7043 1490.9348 1492.626 1494.356 1497.8672 1502.5079 1506.7704 1509.1672 1511.428 1513.0492 1514.742 1518.6696 1520.7744 1522.5483 1523.8884 1525.5455 1527.4016 1529.6016 1532.2952 1535.5596 1537.866 1541.6056 1543.7096 1545.7188 1548.1597 1551.0868 1554.1108 1557.2404 1562.5339 1567.8492 1571.2612 1574.046 1575.7556 1578.9633 1581.4025
1251.4188 1251.1732 1250.4956 1249.9764 1250.6984 1251.8352 1251.884 1251.9104 1251.0908 1249.9708 1248.5376 1247.1304 1245.958 1245.3108 1244.2788 1243.5308 1243.1332 1243.0756 1243.3784 1244.16 1245.1488 1245.708 1245.8029 1245.7012 1245.902 1246.4412 1247.1644 1248.398 1250.2124 1252.0444 1253.3264 1254.864 1257.3387 1259.1764 1260.898 1262.6309 1264.3848 1265.9023 1267.9777 1269.9489 1272.4 1274.5 1276.174 1278.71 1282.5768 1288.288 1294.5657 1301.8264 1309.9932 1314.0524 1315.898 1317.6796 1319.3048 1320.6536 1322.0732 1323.186 1324.358 1325.7036 1327.1168 1327.644 1327.9236 1328.606 1329.2932 1329.0956 1330.4573 1333.1292 1334.2396 1335.354 1336.2876 1336.2244 1335.9304 1336.0768 1335.1368 1334.7656 1334.8951 1334.7224 1335.708 1336.0457 1336.7637 1337.426 1338.3779 1339.4828 1341.9768 1343.1056 1343.5828 1344.558 1347.1552 1348.1384 1349.5947 1350.4364 1351.7264 1351.0824 1346.4308 1341.322 1341.3784 1342.4464 1343.6736 1345.9136 1347.6556 1352.7932 1358.5344 1359.4016 1360.5808 1361.2736 1362.0896 1363.2688 1365.0652 1366.806 1368.8612 1369.8964 1370.8672 1371.6608 1371.8988 1371.4244 1370.0144 1368.0664 1368.7128 1371.0745 1374.3972 1377.0988 1379.3296 1380.2664 1381.5048 1382.8568 1383.9164 1385.242 1387.1956 1388.9316 1391.8765 1392.574 1393.0272 1392.7056 1393.7985 1395.2944 1396.9296 1398.6321 1399.9784 1400.8096 1401.7983 1402.8928 1404.0128 1404.7992 1406.488 1407.5072 1410.0704 1412.208 1414.4264 1417.3792 1418.0295 1418.7848 1420.2616 1421.3951 1422.0527 1422.5928 1423.802 1425.2892 1426.574 1427.678 1429.6324 1432.9796 1436.2648 1438.6263 1441.2087 1443.224 1444.8492 1446.9427 1448.5483 1450.0092 1449.9604 1447.8772 1446.5153 1446.884 1447.4984 1448.7008 1450.3431 1452.9896 1455.3828 1457.8724 1459.9072 1460.7448 1461.8772 1462.9011 1463.9603 1465.2347 1466.9792 1468.6888 1470.5211 1472.8923 1475.4224 1476.952 1478.634 1481.0325 1484.6296 1489.4792 1491.2928 1491.7592 1492.3083 1492.4644 1493.1776 1496.2704 1499.7 1501.2024 1507.4464 1513.6504 1518.69 1522.262 1520.8564 1508.8644 1501.5864 1497.4768 1493.3468 1490.2708 1488.564 1483.4808 1481.3676 1484.0812 1484.486 1483.2556 1480.5812 1478.4884 1475.7844 1476.6787 1478.3024 1479.1512 1479.9996 1481.0773 1482.3616 1483.0192 1483.6952 1484.5095 1485.6204 1486.2292 1487.0411 1487.7739 1487.7452 1487.6652 1487.5752 1487.3544 1486.674 1486.1884 1487.17 1488.3732 1490.4172 1492.1132 1493.7375 1498.4568 1505.512 1508.3936 1510.7911 1513.3672 1514.7876 1516.9988 1519.5736 1521.5632 1523.3748 1524.9596 1526.7432 1528.3816 1530.3816 1532.3904 1534.8132 1538.2684 1542.596 1545.484 1547.2252 1549.3315 1552.1572 1554.6676 1557.7524 1562.7356 1568.9332 1574.5771 1577.9932 1579.7876 1584.0112 1585.5912
1250.5164 1249.9692 1249.192 1248.812 1249.1924 1249.9644 1250.5776 1250.8145 1250.0892 1249.0964 1247.8652 1246.5756 1245.2068 1244.3628 1243.3477 1242.5852 1242.3612 1242.3763 1242.6432 1243.2568 1243.9244 1244.318 1244.3324 1244.3765 1244.6855 1245.3552 1246.3029 1247.414 1248.8264 1250.196 1251.6832 1253.5504 1256.2104 1258.116 1260.1196 1262.1348 1264.1536 1265.6864 1267.4812 1269.3164 1271.5704 1273.6312 1275.3593 1277.6968 1281.2625 1286.312 1291.6588 1299.7723 1308.0632 1313.5759 1315.3287 1316.7552 1318.1451 1319.5116 1320.8492 1321.9948 1323.1613 1323.9996 1324.9188 1325.5428 1326.1008 1326.576 1326.9257 1327.132 1328.012 1331.628 1332.5529 1333.284 1333.2668 1331.5748 1330.1616 1330.6448 1331.26 1331.9784 1331.9988 1331.9963 1332.2996 1332.8668 1333.7725 1334.6005 1335.7089 1336.6936 1338.0596 1339.7115 1340.7148 1340.5613 1342.3992 1344.504 1346.4023 1344.3448 1342.8192 1344.4088 1341.01 1338.0076 1339.3624 1340.9832 1342.6093 1344.2196 1346.1532 1352.7412 1356.7064 1356.5032 1357.8296 1359.1727 1360.02 1361.1641 1362.676 1364.6464 1367.302 1368.1796 1368.6984 1369.468 1370.3036 1369.894 1368.1031 1366.344 1366.9264 1369.8593 1372.636 1375.1136 1377.8372 1379.0396 1380.5244 1381.8132 1382.996 1383.9128 1385.0072 1386.0671 1387.5629 1388.5267 1389.6316 1390.7948 1392.3448 1393.884 1395.6244 1397.1372 1398.356 1399.3792 1400.4132 1401.5483 1402.4888 1402.9272 1404.3048 1405.4504 1406.8484 1408.6324 1410.7472 1412.8665 1415.7816 1417.1216 1418.644 1419.6256 1420.6028 1421.4348 1422.0844 1422.7957 1423.9749 1425.3444 1427.9039 1431.8984 1435.9484 1438.7516 1440.442 1441.562 1443.0573 1444.9828 1446.576 1447.964 1446.4884 1444.8644 1444.5388 1445.1132 1446.3756 1447.8652 1449.7296 1452.6536 1454.5072 1455.6191 1457.4652 1458.8092 1460.1528 1461.3104 1462.3408 1463.644 1465.6003 1467.7284 1470.2828 1472.1044 1473.4935 1474.8224 1476.3964 1478.4156 1480.7412 1483.4996 1487.7416 1489.2048 1489.5817 1490.0624 1490.5457 1491.6488 1495.0148 1497.2996 1502.204 1508.7144 1514.5212 1514.3796 1509.1732 1500.302 1496.2784 1492.7496 1487.9167 1482.7632 1480.9104 1477.648 1473.5016 1473.4608 1471.8204 1472.5012 1472.6268 1472.5483 1473.8232 1475.284 1476.7537 1477.6768 1478.6569 1479.632 1480.566 1481.0964 1481.6644 1482.5164 1483.3333 1484.3276 1485.3156 1485.2869 1484.4956 1484.118 1484.0072 1483.8824 1484.0376 1484.9529 1486.1484 1487.778 1490.0404 1491.7252 1494.2616 1499.8048 1506.6945 1509.9144 1512.9183 1515.2336 1516.664 1518.4408 1520.4048 1521.944 1523.7695 1525.3784 1527.126 1528.8157 1530.8976 1532.9032 1535.1372 1538.8853 1543.688 1547.1232 1548.9076 1550.5564 1553.0184 1554.9656 1557.9965 1562.57 1572.376 1577.3217 1580.0684 1582.0444 1585.4636 1588.0004
1249.6628 1249.0164 1248.3096 1248.0912 1248.0035 1248.6044 1250.0808 1250.148 1249.2948 1248.2092 1247.1284 1246.0596 1244.6364 1243.5444 1242.5588 1241.8076 1241.4749 1241.6196 1241.928 1241.9512 1242.238 1242.6012 1242.8932 1243.3004 1243.7784 1244.504 1245.4828 1246.658 1248.1512 1249.3591 1250.5513 1252.7224 1255.4968 1257.2632 1259.5028 1261.6556 1263.7544 1265.4456 1267.3907 1269.4548 1271.2496 1272.84 1274.6168 1277.3768 1281.4216 1286.5432 1290.598 1298.2988 1305.1608 1312.192 1313.8688 1315.4728 1316.7948 1318.2108 1319.7437 1321.0524 1322.2252 1322.8396 1323.4996 1323.834 1324.2904 1324.5352 1324.9496 1325.3752 1326.2192 1329.9872 1331.2904 1330.8424 1328.7828 1326.9484 1325.5648 1325.5856 1327.4327 1328.1049 1328.9692 1329.6757 1329.4749 1330.2772 1331.3011 1332.2635 1333.5288 1334.8368 1335.9364 1336.5771 1337.3188 1337.4067 1338.1927 1341.1152 1340.4152 1337.0664 1334.0792 1334.1344 1335.5084 1336.2788 1338.1472 1339.952 1341.7883 1343.1924 1344.658 1348.4141 1354.0656 1354.2816 1355.2017 1357.2024 1358.2352 1359.2368 1360.5696 1362.3 1364.9893 1366.3724 1366.6624 1367.656 1368.4652 1367.6172 1366.1096 1364.5984 1365.7456 1368.7904 1371.2584 1372.9232 1375.4764 1376.9812 1379.2284 1380.6692 1381.9504 1382.6384 1383.3992 1384.1936 1385.4292 1386.5804 1388.2275 1389.6692 1391.1912 1392.6584 1394.6036 1395.8652 1396.9104 1398.0216 1399.0972 1400.1077 1401.016 1401.8336 1403.0648 1404.1064 1405.8164 1407.506 1409.3584 1411.6904 1413.9896 1415.8112 1417.1528 1417.712 1418.606 1419.7405 1420.3596 1420.7972 1421.8412 1423.3356 1425.2136 1429.296 1434.8876 1437.6956 1439.1652 1439.9828 1441.0988 1442.5588 1444.1976 1444.2944 1442.7284 1442.4308 1442.4908 1443.5596 1445.5956 1446.7076 1448.34 1451.1808 1452.4272 1453.8208 1455.5924 1457.3013 1458.7568 1459.852 1460.8248 1461.9664 1464.098 1466.3444 1468.9148 1471.202 1471.9504 1472.6713 1474.1228 1475.8204 1477.7203 1480.4548 1484.1752 1486.0 1487.092 1487.5856 1488.0 1488.7368 1490.9828 1493.6276 1496.3728 1500.8032 1503.998 1502.5717 1499.5789 1497.4276 1493.6 1487.028 1481.964 1479.0568 1477.4792 1473.0856 1469.3656 1469.3647 1469.2108 1469.8756 1470.4324 1471.4132 1472.8872 1474.196 1475.344 1476.3647 1477.3577 1478.1697 1478.7012 1479.078 1479.7108 1480.662 1481.4596 1482.7451 1482.6964 1482.1332 1481.7516 1481.4908 1481.4712 1482.1112 1483.3888 1484.432 1485.7948 1487.8308 1490.1964 1492.2684 1498.7272 1504.2607 1508.5264 1511.6664 1515.2784 1517.2128 1518.4672 1519.6344 1521.2839 1522.7448 1524.3248 1525.6423 1527.5212 1530.3772 1532.46 1534.464 1536.9628 1540.0947 1544.8593 1549.3536 1550.434 1552.0555 1554.2576 1556.3344 1558.7668 1565.0524 1573.7968 1578.8 1581.6564 1584.1124 1586.426 1588.4604
1249.0592 1248.136 1247.2836 1247.1332 1247.0828 1247.578 1249.2131 1249.0483 1247.9448 1246.9552 1246.1716 1245.4452 1244.1888 1242.9056 1241.7437 1240.9324 1240.5 1240.7976 1241.1556 1240.8164 1240.7888 1241.244 1241.7468 1242.4893 1242.9856 1243.6207 1244.652 1245.876 1247.3784 1248.5056 1249.684 1252.1592 1254.9568 1256.5608 1259.4724 1261.8596 1263.5236 1265.234 1267.6028 1269.8076 1271.3224 1272.6304 1274.556 1276.6024 1278.9104 1283.9703 1289.95 1295.7268 1303.4141 1307.7812 1311.0485 1313.4252 1315.3608 1316.7744 1318.3876 1319.8452 1320.7528 1321.088 1321.5784 1321.876 1322.242 1322.6444 1323.0732 1322.8916 1323.158 1325.4708 1326.7089 1326.4777 1323.946 1323.0548 1322.358 1322.766 1323.5436 1324.878 1326.3489 1327.0648 1327.422 1328.4508 1329.348 1330.0367 1330.9844 1332.1604 1333.5564 1334.3268 1334.4052 1334.3292 1333.96 1333.9904 1331.4744 1330.2231 1330.7432 1331.6768 1333.1165 1334.5404 1336.9628 1338.7964 1340.7804 1342.0109 1343.6912 1345.7192 1348.9816 1351.1128 1352.3888 1354.0808 1355.9991 1357.1824 1358.0944 1359.0856 1359.8972 1362.0444 1363.7596 1365.666 1366.6084 1365.2028 1363.0464 1363.2848 1364.7612 1367.9396 1370.182 1371.53 1372.8888 1374.4288 1376.9039 1378.7224 1379.782 1380.8043 1381.5636 1382.3756 1383.5468 1384.8196 1386.3796 1388.0164 1389.8516 1391.2836 1392.938 1394.278 1395.5844 1396.762 1397.8503 1398.7416 1399.594 1400.53 1401.4944 1402.2032 1403.8284 1406.6252 1408.0251 1410.0996 1412.9476 1414.3572 1415.1752 1415.7 1416.2421 1417.1147 1417.9596 1418.8108 1420.1672 1421.72 1423.1407 1424.864 1430.5508 1434.0724 1436.7161 1438.1888 1439.3208 1440.256 1440.4708 1440.4044 1439.9008 1440.252 1440.7188 1442.3835 1444.05 1445.0524 1447.0184 1448.9816 1450.392 1452.2664 1454.4232 1456.0104 1457.2856 1458.5792 1459.8452 1460.918 1462.8748 1464.6829 1466.8392 1468.6384 1469.0884 1470.0604 1471.5004 1473.302 1475.192 1477.9912 1480.8364 1482.9468 1484.4268 1484.7635 1485.6908 1486.7124 1488.154 1490.0276 1491.7797 1495.606 1498.8376 1500.0833 1498.0544 1494.6168 1489.6244 1481.6172 1475.7312 1472.8751 1469.3967 1466.9608 1467.6772 1467.978 1468.1676 1468.7788 1469.7692 1470.6052 1471.928 1473.0232 1473.8461 1474.6748 1475.5756 1476.3068 1476.61 1476.9108 1477.6488 1478.5728 1479.3904 1479.8896 1479.5452 1479.0645 1479.1221 1479.3315 1480.2428 1481.4589 1482.8776 1484.1056 1486.3816 1489.9471 1492.3984 1495.9176 1504.6172 1507.786 1510.72 1514.1896 1517.9009 1519.64 1520.5192 1521.3152 1522.7008 1524.0912 1525.7104 1527.4025 1531.0472 1533.1232 1535.2637 1537.4348 1539.8124 1543.298 1547.9777 1550.2952 1551.3333 1553.5804 1557.1112 1561.0065 1565.2128 1569.0992 1575.164 1579.8904 1583.3124 1586.0771 1588.7888 1591.5857
1248.2416 1247.5104 1246.2133 1246.0132 1246.1636 1246.6284 1248.0612 1247.8308 1246.512 1246.036 1245.6252 1244.8765 1243.7544 1242.4025 1241.0316 1240.1212 1239.624 1239.6304 1239.7148 1239.7516 1239.9816 1240.2479 1240.6764 1241.4124 1242.096 1242.888 1243.9624 1244.9849 1246.3096 1247.632 1249.0736 1250.9185 1253.916 1255.5696 1258.0532 1261.306 1263.0988 1264.9132 1266.8644 1268.8212 1270.9264 1272.4088 1274.3984 1276.384 1279.2512 1282.0776 1288.7716 1294.4011 1301.8092 1306.81 1309.7908 1311.9692 1314.1296 1315.6216 1317.098 1318.3572 1319.1888 1319.4792 1319.6792 1319.9689 1320.4604 1320.7604 1320.7964 1320.6003 1320.8524 1321.1044 1321.2528 1321.5592 1320.8236 1320.5804 1319.9812 1320.1667 1321.4092 1322.6956 1324.4624 1325.4487 1325.3572 1325.9587 1327.0833 1327.9176 1328.8988 1329.8604 1330.8356 1331.7308 1332.1812 1332.4396 1331.4384 1329.8289 1328.1776 1328.1265 1329.4144 1330.036 1331.202 1332.7252 1334.8708 1337.1572 1339.306 1340.8853 1342.5664 1344.0088 1346.8584 1348.948 1350.5536 1352.1848 1354.0455 1355.5264 1356.3824 1357.0088 1358.1372 1359.4283 1361.1539 1363.0668 1363.7491 1361.5627 1361.4352 1362.3872 1364.614 1367.3652 1368.9628 1370.41 1371.904 1373.1304 1375.0344 1376.8881 1377.9556 1378.8099 1379.6708 1380.6348 1381.8907 1383.2244 1384.6989 1386.7404 1388.6908 1390.1948 1391.4996 1392.7804 1394.274 1395.4628 1396.6288 1397.5424 1398.3116 1399.2924 1400.0632 1400.828 1401.9548 1403.9948 1406.0989 1408.4916 1411.5764 1412.722 1413.112 1413.3552 1413.8531 1414.7644 1416.0436 1417.2196 1418.9336 1420.4097 1421.6096 1422.4255 1424.6973 1427.0652 1430.0975 1434.9464 1435.948 1436.5585 1436.778 1437.8492 1437.976 1438.3433 1439.4612 1441.23 1442.4852 1444.014 1446.168 1447.6193 1449.016 1450.3624 1453.2712 1455.0024 1455.992 1457.396 1458.8188 1459.9556 1461.6827 1463.414 1465.1024 1466.028 1466.4661 1467.5404 1469.6332 1471.4364 1473.012 1476.0063 1478.7147 1480.1868 1481.5756 1482.2004 1483.1716 1484.726 1486.61 1488.1539 1489.8788 1492.0332 1496.208 1497.2391 1493.3384 1489.2607 1481.4213 1470.9724 1465.0833 1464.9984 1464.6016 1465.1208 1465.866 1466.53 1467.0796 1467.8204 1468.8564 1469.7421 1470.7168 1471.7177 1472.234 1472.794 1473.6564 1474.402 1474.7412 1475.018 1475.9136 1476.6792 1476.9264 1476.832 1476.5804 1476.562 1477.27 1478.3245 1479.6796 1481.2156 1482.6927 1484.3912 1488.1008 1492.5272 1498.016 1502.5032 1507.4517 1509.8477 1513.864 1517.8872 1519.7736 1521.5529 1522.5096 1523.2112 1524.3344 1525.5808 1527.5248 1530.4104 1533.7664 1535.4344 1537.9412 1540.1827 1542.5724 1546.282 1549.3456 1550.8776 1552.1436 1557.338 1559.3608 1563.2528 1567.9296 1570.6832 1576.0848 1579.856 1583.8108 1587.6924 1591.1744 1597.5936
1247.1096 1246.5376 1245.1156 1244.91 1245.1708 1245.8044 1246.8464 1246.8073 1245.2024 1244.4849 1244.5632 1243.9824 1242.9624 1241.7465 1240.4432 1239.5232 1238.8176 1238.4792 1238.3552 1238.5991 1238.9404 1239.0948 1239.3696 1240.0872 1241.1356 1242.1292 1243.1488 1244.1 1245.3536 1246.9568 1248.656 1250.3816 1253.0192 1255.0872 1256.3888 1259.4368 1261.8088 1263.6592 1265.5864 1267.492 1270.2008 1272.2424 1273.8208 1275.8024 1278.9196 1280.366 1285.8428 1291.946 1299.4476 1306.0692 1309.3308 1311.0676 1312.8132 1314.2739 1315.5796 1316.6228 1317.3953 1317.9136 1318.2092 1318.2556 1318.59 1318.87 1318.4344 1317.8784 1317.9988 1318.518 1319.1904 1319.5624 1319.1736 1317.9752 1317.1304 1317.0833 1318.9368 1320.6056 1321.606 1322.9932 1323.0272 1323.224 1324.1451 1324.698 1325.7839 1327.1848 1328.6604 1329.5372 1330.3011 1330.114 1329.0356 1328.5413 1325.9928 1326.4008 1327.4875 1328.2932 1329.5552 1331.2928 1333.8212 1336.4644 1338.1968 1339.8593 1341.7268 1342.746 1344.6989 1347.5004 1349.0852 1350.8779 1352.4512 1353.8552 1354.9532 1355.5636 1356.4492 1357.2828 1358.3728 1360.044 1360.1536 1359.2944 1360.4224 1362.1945 1364.8088 1366.8704 1367.9316 1369.154 1370.6685 1371.7739 1373.746 1375.3156 1376.2212 1376.838 1377.868 1379.1792 1380.3259 1381.5956 1383.1648 1385.5529 1387.5364 1388.898 1389.8472 1391.2048 1392.8544 1393.7695 1394.7076 1395.5436 1396.472 1397.7072 1398.5671 1399.5009 1400.0616 1401.6328 1402.7092 1404.2068 1408.4316 1410.762 1411.3315 1411.4716 1411.8969 1413.2424 1414.7444 1415.7115 1417.2968 1418.6664 1419.9865 1421.3816 1422.508 1424.0808 1426.0696 1427.9904 1430.7651 1432.6124 1433.6736 1434.8656 1435.7108 1436.746 1438.34 1439.8328 1441.2347 1443.1732 1445.1165 1446.322 1447.2421 1448.338 1450.9308 1453.4172 1454.484 1456.2904 1457.3324 1457.9052 1459.3956 1461.31 1462.8224 1463.5488 1464.1676 1465.3436 1467.4636 1469.1667 1470.3984 1472.632 1474.358 1475.9156 1477.8888 1479.2976 1480.8368 1482.784 1484.8008 1486.5776 1488.0092 1489.2516 1491.5476 1488.6724 1484.5388 1479.034 1470.3964 1462.2524 1461.3296 1461.8032 1462.6476 1463.6924 1464.3564 1465.1044 1466.04 1466.8616 1467.6729 1468.3976 1469.1469 1469.8124 1470.0784 1470.572 1471.4812 1472.0508 1472.5048 1473.0729 1474.0944 1474.4192 1474.0824 1473.6265 1474.0168 1474.8064 1476.2404 1477.7764 1479.5413 1481.35 1482.8735 1486.8176 1491.5908 1499.6748 1504.338 1507.574 1509.6956 1511.6708 1516.5612 1519.3804 1521.266 1522.9668 1524.4092 1525.4733 1526.6 1527.6064 1530.2795 1533.5573 1536.2236 1538.5323 1540.8672 1543.3464 1546.3041 1549.5392 1551.1344 1551.9512 1554.5344 1560.2855 1562.5756 1564.7572 1568.22 1571.7952 1575.758 1579.6764 1583.782 1590.2507 1595.6824 1599.2872
1246.3544 1245.3888 1244.3387 1244.258 1244.7092 1245.4004 1246.1624 1245.4432 1244.2231 1243.4352 1243.4617 1243.1256 1242.2168 1241.14 1239.9863 1239.068 1238.2312 1237.8176 1237.4576 1237.436 1237.7507 1238.0012 1238.3384 1239.0912 1240.3252 1241.1523 1242.1016 1243.2512 1244.7856 1246.408 1248.0792 1249.8208 1251.8096 1254.34 1255.664 1257.7136 1261.0352 1262.8984 1264.5889 1266.4928 1269.6824 1272.0216 1273.4536 1274.7328 1276.7579 1278.638 1283.9236 1290.9404 1295.602 1303.2124 1308.2084 1310.1228 1311.5692 1312.862 1313.7916 1314.6093 1315.4775 1316.2888 1316.6917 1316.9028 1317.1539 1317.2275 1316.5536 1315.7625 1315.5468 1316.0852 1316.6008 1316.6929 1317.2504 1315.5065 1314.7864 1314.6033 1315.696 1316.9904 1318.2261 1320.0052 1321.1384 1320.8024 1321.2604 1321.3572 1323.0168 1324.8848 1326.5012 1327.498 1328.1116 1327.5852 1326.0292 1325.5876 1324.0216 1324.612 1325.7948 1326.7444 1328.2233 1330.6279 1333.4084 1335.3477 1336.6 1338.5808 1340.6755 1341.7668 1342.9731 1345.8387 1347.7548 1349.4452 1350.9272 1352.3424 1353.4412 1354.3428 1354.8868 1355.1476 1355.9167 1357.1768 1357.1855 1357.9489 1359.8784 1362.3448 1364.0304 1365.5416 1366.8116 1368.1844 1369.6108 1370.4476 1371.5724 1372.9724 1374.1436 1375.0436 1376.3304 1377.7744 1379.0276 1380.3516 1381.9791 1384.18 1386.39 1387.902 1388.6632 1389.8591 1391.6056 1392.2488 1392.978 1393.9612 1394.8352 1395.8944 1397.056 1397.8232 1398.4656 1399.848 1400.0197 1401.1093 1404.7268 1408.854 1409.0012 1409.6516 1410.5137 1411.968 1413.4204 1414.1924 1414.7424 1415.9536 1418.2576 1420.0144 1421.5016 1422.9496 1424.4991 1426.1608 1428.4132 1430.5292 1431.9656 1433.068 1434.254 1435.6268 1437.4376 1438.7913 1440.4644 1442.4731 1443.982 1444.7604 1445.3236 1446.274 1449.3148 1452.2028 1453.884 1455.2664 1455.9836 1456.3644 1457.3348 1458.9501 1460.4888 1461.0344 1461.9612 1463.4028 1465.0476 1466.7556 1468.444 1470.22 1472.0388 1473.5372 1475.2352 1476.8728 1479.2344 1481.2648 1483.0176 1484.7816 1485.9092 1486.3068 1486.9996 1482.8187 1475.9677 1468.6868 1462.4916 1459.602 1459.8953 1460.3593 1461.4132 1462.4229 1463.146 1463.998 1465.1191 1465.9648 1466.3992 1466.9369 1467.5123 1467.9443 1468.1296 1468.5385 1469.53 1470.3076 1470.7496 1471.5 1472.2928 1472.0272 1471.3936 1471.6304 1472.832 1473.9624 1475.8907 1477.8716 1479.1901 1480.562 1485.2832 1490.1552 1496.8044 1504.1748 1507.522 1510.2043 1511.5964 1513.9492 1517.7205 1520.2068 1522.306 1523.9587 1525.6396 1527.2524 1528.8016 1529.9025 1532.5636 1535.1741 1538.5812 1541.1476 1543.6328 1545.84 1548.5511 1550.9304 1552.5536 1553.4775 1556.0808 1561.4464 1564.3308 1566.274 1569.1456 1572.3064 1575.7988 1580.9236 1587.2644 1595.0195 1599.484 1600.5673
1245.098 1243.8652 1243.3052 1243.3853 1244.2484 1244.8972 1245.0424 1244.5592 1243.3904 1242.5208 1242.6068 1242.5172 1241.5516 1240.4204 1239.2535 1238.36 1237.6604 1237.3029 1236.8696 1236.4792 1236.614 1236.9436 1237.2823 1237.952 1238.9617 1239.5912 1240.6616 1242.2776 1244.2552 1245.6423 1246.9092 1248.642 1250.5004 1252.2748 1254.7456 1257.2104 1260.5887 1262.2216 1263.5884 1265.5516 1268.3936 1271.1592 1272.4373 1273.1813 1275.1012 1276.6812 1280.434 1287.5197 1291.2001 1299.2128 1306.6748 1309.0803 1310.308 1310.7704 1311.3092 1312.2476 1313.1495 1314.1776 1314.7712 1315.0936 1315.24 1315.26 1314.8168 1313.8008 1312.766 1313.4677 1314.1516 1313.5931 1313.8508 1312.8956 1312.432 1312.2017 1313.436 1314.7913 1316.5264 1317.4136 1318.3308 1317.8148 1317.8712 1317.852 1318.4512 1320.4937 1322.5831 1323.9775 1324.3969 1323.9768 1322.0956 1322.2852 1322.6256 1323.1544 1324.1404 1325.158 1326.9893 1329.8204 1332.2352 1333.3304 1334.8333 1337.0828 1338.9816 1340.2695 1340.9083 1343.0364 1346.1312 1347.6569 1348.2344 1349.4872 1351.3967 1352.3368 1352.5 1352.6632 1352.6088 1352.968 1354.4543 1357.7504 1359.6896 1361.7303 1362.9172 1364.2284 1365.5312 1367.244 1368.7024 1369.7393 1370.432 1371.1783 1372.2408 1373.4312 1374.65 1376.038 1377.5056 1378.8904 1380.4167 1382.4064 1385.1265 1386.7368 1387.67 1388.9036 1390.3152 1391.1296 1391.946 1392.6156 1393.2888 1393.996 1394.9872 1395.8417 1396.6844 1398.0859 1398.7352 1399.5583 1402.0404 1404.1523 1405.3564 1406.4788 1408.344 1409.7352 1411.592 1412.6848 1413.9052 1415.1003 1416.8744 1418.7393 1420.61 1422.3027 1424.1488 1425.9288 1427.8352 1429.2688 1430.4736 1431.72 1433.2244 1434.8356 1436.448 1437.752 1439.5936 1441.1616 1441.938 1442.402 1443.0688 1444.1729 1448.1848 1451.2375 1453.0044 1453.6852 1454.3756 1454.9868 1455.8257 1456.8472 1457.8536 1458.4487 1459.796 1461.2184 1462.9192 1464.7319 1466.6868 1468.2612 1469.9476 1471.5012 1473.236 1475.0504 1477.4633 1479.7864 1481.3572 1482.4308 1483.2623 1483.9545 1483.402 1480.2507 1471.2952 1464.0496 1458.9452 1457.9684 1458.386 1459.0044 1460.1523 1461.0956 1461.834 1462.806 1463.9528 1464.5529 1464.5508 1464.9708 1465.4944 1465.7231 1465.8524 1466.1172 1466.724 1467.8008 1468.774 1469.3837 1469.5573 1469.314 1469.4736 1470.5016 1471.6444 1473.0469 1475.5988 1477.2867 1478.5668 1479.7133 1487.3884 1496.4364 1503.4984 1507.368 1509.6943 1511.4935 1513.2632 1515.7072 1518.6848 1520.8544 1523.0316 1524.8156 1526.704 1528.82 1530.626 1532.3188 1534.7375 1536.8312 1539.666 1542.9772 1545.6353 1546.8112 1549.062 1551.486 1553.4373 1555.5397 1558.648 1563.1783 1565.74 1567.7823 1570.4352 1573.1088 1575.9736 1584.712 1592.5323 1596.0068 1599.272 1600.7144
1244.0868 1242.8812 1242.2292 1242.4132 1243.3844 1244.6572 1244.376 1243.6943 1242.7616 1241.8328 1241.686 1241.6908 1240.882 1239.8068 1238.7625 1237.8704 1237.1436 1236.7203 1236.4095 1235.8192 1235.6892 1235.934 1236.212 1236.5808 1237.1176 1237.6848 1238.8824 1241.2407 1243.3848 1244.3271 1245.4004 1246.9556 1249.0852 1250.9524 1253.1464 1255.8289 1259.6063 1261.5256 1262.8108 1264.246 1266.1416 1268.5599 1270.2452 1271.2516 1273.0948 1274.6028 1276.8684 1282.9012 1287.5264 1291.2656 1301.3132 1305.6548 1306.6168 1307.6873 1308.1156 1309.6748 1310.388 1312.0096 1312.904 1313.1497 1313.3544 1313.9489 1313.324 1311.8472 1310.5771 1309.634 1310.2852 1310.7828 1310.4908 1309.6284 1309.9272 1309.74 1311.1929 1312.0151 1313.2864 1315.2584 1316.0715 1315.1204 1314.1024 1313.7104 1314.2008 1315.5792 1316.9025 1318.1047 1319.3352 1319.4832 1318.8804 1320.0156 1321.0104 1321.832 1322.6667 1323.7579 1326.538 1329.1964 1331.0664 1331.9296 1333.9116 1335.7468 1337.12 1338.0752 1338.6868 1339.474 1341.7375 1345.6263 1345.624 1346.0848 1347.9401 1349.608 1349.3112 1348.7192 1348.5496 1351.008 1355.3792 1358.032 1359.5079 1360.376 1361.5076 1362.7052 1364.3848 1366.2928 1367.5928 1368.868 1369.4689 1369.9592 1371.072 1372.3552 1373.3156 1374.6268 1376.1752 1377.5664 1379.1088 1380.94 1383.996 1385.7584 1386.6084 1388.106 1389.2272 1389.7072 1390.2076 1390.6644 1391.6016 1392.6384 1393.6031 1394.4705 1395.1588 1396.202 1396.8584 1397.9072 1401.0276 1402.506 1403.9092 1405.0172 1406.3112 1407.7535 1409.6608 1411.2064 1412.7388 1414.4348 1416.1407 1417.8376 1419.8324 1421.7651 1423.532 1425.4095 1426.8807 1428.0297 1429.252 1430.4712 1432.2188 1433.87 1435.3816 1436.7609 1438.4768 1439.3344 1439.9108 1440.4548 1441.012 1441.676 1444.424 1448.9712 1451.7651 1451.9229 1452.6956 1453.294 1454.036 1454.7216 1455.5128 1456.444 1458.0376 1459.732 1461.632 1463.4192 1465.3524 1466.4708 1467.9468 1469.5356 1471.724 1473.5496 1475.784 1478.0256 1479.2748 1479.726 1480.772 1482.1407 1481.8004 1478.7612 1467.9512 1458.7408 1455.3916 1456.0836 1456.8364 1457.6196 1458.6892 1459.666 1460.57 1461.6395 1462.5048 1462.7336 1462.4956 1462.5652 1463.1049 1463.2856 1463.4371 1464.0796 1465.0072 1465.9415 1466.818 1467.458 1467.434 1467.5555 1468.488 1469.7432 1471.1724 1472.6548 1474.8324 1476.4772 1478.3909 1480.9548 1492.9789 1499.1917 1504.9464 1507.9792 1510.3168 1512.0441 1514.1376 1516.3336 1519.1624 1521.3384 1523.446 1525.3564 1527.3368 1529.4272 1531.6284 1533.7115 1536.1047 1538.248 1540.8364 1544.2692 1546.3287 1546.756 1549.8964 1552.8052 1555.2308 1557.482 1563.5752 1566.2208 1567.9608 1569.8208 1572.1263 1574.7712 1577.6608 1585.012 1591.3405 1595.9348 1599.0232 1600.2607
1242.4308 1241.6451 1241.5311 1242.1416 1243.1184 1244.244 1243.9408 1243.0096 1242.0948 1241.2156 1240.83 1240.7244 1240.2811 1239.4276 1238.6184 1237.8208 1236.9476 1236.29 1235.864 1235.4968 1235.252 1235.2344 1235.4252 1235.422 1235.6512 1236.1528 1237.3712 1239.6632 1242.0596 1243.0116 1243.8772 1245.1228 1247.1116 1249.1307 1251.524 1253.9847 1256.6956 1259.3132 1261.5852 1262.914 1264.5164 1265.8892 1267.2504 1268.5392 1270.2212 1272.7275 1275.418 1279.0396 1283.5304 1285.876 1293.5304 1297.0137 1296.5144 1301.004 1303.0037 1304.4436 1305.684 1308.716 1310.7764 1311.0852 1311.3756 1311.6852 1310.808 1309.2856 1307.74 1306.2408 1304.4248 1305.6783 1305.9452 1306.5308 1306.9396 1306.3691 1307.1316 1309.7043 1311.2408 1312.3448 1313.2076 1312.038 1310.9703 1310.3184 1310.376 1310.7112 1310.9896 1312.4128 1314.5116 1314.6028 1315.174 1316.9668 1319.2992 1320.0151 1321.3164 1322.9589 1326.3368 1328.5961 1329.5332 1330.2852 1332.52 1334.3696 1335.0195 1335.8652 1336.85 1337.7324 1338.6064 1341.5656 1342.5476 1343.0308 1344.4517 1345.9076 1345.8953 1344.6697 1346.2839 1351.2672 1353.6604 1355.5636 1357.8396 1358.734 1359.5032 1360.8248 1363.292 1365.4185 1366.456 1367.1736 1367.384 1367.836 1369.1656 1370.712 1371.9972 1373.3284 1375.1307 1376.5684 1378.148 1379.516 1381.8976 1383.888 1385.1432 1386.4912 1387.7836 1388.2756 1388.2856 1388.9816 1390.0353 1391.2416 1392.5424 1393.3591 1393.5648 1394.576 1395.736 1396.708 1399.0812 1400.8308 1402.4752 1403.7751 1404.994 1406.3835 1408.0056 1409.9 1412.0536 1413.7535 1415.488 1417.1136 1419.0916 1421.138 1422.8612 1424.278 1425.6168 1426.9784 1428.2872 1429.5896 1431.0984 1432.5664 1434.0092 1435.3772 1436.6552 1437.2272 1437.7892 1438.2644 1438.9508 1439.6003 1441.3071 1444.504 1448.5564 1449.9188 1450.4552 1450.9448 1451.6012 1452.2795 1453.2432 1454.2424 1455.9784 1457.4792 1459.6956 1461.9644 1463.0752 1463.8744 1465.5316 1467.1901 1469.9 1471.7161 1473.7368 1475.7296 1476.9088 1476.5833 1476.9908 1478.3204 1478.8848 1473.0576 1465.4108 1453.9548 1453.4136 1454.22 1455.2256 1456.2888 1457.504 1458.3784 1459.1528 1459.7928 1460.3456 1460.392 1459.8296 1459.2448 1459.6212 1460.1163 1460.7784 1462.0815 1463.4084 1463.9348 1464.126 1464.618 1465.5544 1466.4712 1467.636 1469.1688 1470.9471 1472.6088 1474.4152 1475.9473 1479.7104 1487.9648 1498.2596 1501.9636 1505.0857 1507.5872 1510.396 1512.5225 1514.7212 1516.9308 1519.3812 1521.5444 1523.6532 1525.614 1527.7811 1529.9717 1532.3484 1534.63 1537.1595 1539.3308 1541.8763 1544.7748 1545.9808 1547.7856 1553.4167 1556.1888 1558.01 1562.3972 1567.6904 1568.8608 1570.7031 1571.9064 1573.6644 1576.0964 1578.1776 1582.8424 1589.3412 1593.9652 1597.7365 1599.3939
1241.2772 1240.8612 1241.2192 1241.996 1243.12 1243.1927 1242.8312 1242.1432 1241.2869 1240.43 1240.0428 1240.0444 1239.766 1238.9764 1238.2056 1237.6592 1236.9076 1236.058 1235.4496 1235.1256 1234.8112 1234.6848 1234.5468 1234.566 1234.7449 1235.1089 1236.3656 1238.5616 1240.7476 1241.8691 1242.8484 1244.1293 1245.7196 1247.3644 1250.1112 1252.6008 1254.0676 1256.7524 1260.1388 1262.17 1263.3148 1264.358 1264.9656 1265.9471 1268.0931 1271.7212 1275.1052 1277.2148 1279.9008 1282.8464 1285.5784 1291.0872 1293.4736 1294.6992 1296.6971 1299.1244 1301.0664 1305.1641 1307.442 1306.4067 1307.3428 1308.0732 1308.2985 1306.9536 1305.2048 1303.5792 1301.268 1300.976 1301.4244 1302.6003 1303.9972 1303.8364 1304.45 1307.4628 1309.2144 1309.7664 1310.0892 1309.2588 1308.4784 1307.9896 1308.3312 1308.884 1308.9176 1309.6512 1310.91 1311.446 1312.942 1315.018 1316.2303 1317.3735 1319.3148 1322.7365 1325.7888 1326.856 1327.6971 1328.238 1329.192 1330.4576 1331.8092 1333.154 1334.6852 1336.2043 1337.5583 1338.9464 1340.274 1341.042 1342.9868 1343.7612 1341.816 1340.6337 1345.2751 1349.8488 1351.0948 1351.2188 1354.0197 1356.93 1357.6584 1358.6104 1361.58 1363.764 1364.0544 1364.1016 1365.0408 1366.136 1367.576 1369.0712 1370.4772 1371.8707 1373.8076 1375.57 1377.404 1378.8055 1380.668 1382.7944 1384.12 1385.1224 1386.0573 1386.8245 1387.0656 1387.928 1388.9888 1389.7968 1391.7017 1392.1312 1391.9984 1393.0784 1394.872 1396.1641 1398.0339 1399.6572 1401.0312 1402.4208 1403.9988 1405.526 1406.9712 1408.8992 1411.3544 1413.2177 1415.2384 1416.8208 1418.782 1420.598 1422.07 1423.2164 1424.556 1426.1641 1427.4728 1428.7096 1430.1816 1431.6112 1432.814 1433.8892 1434.6752 1435.2968 1435.83 1436.1964 1436.7548 1437.5323 1438.9424 1442.1824 1447.1093 1447.6093 1448.2152 1448.8936 1449.3939 1450.0132 1451.1304 1452.1616 1453.86 1455.0232 1456.7867 1458.854 1459.8512 1460.9719 1463.5244 1465.6036 1468.0696 1470.2535 1472.352 1473.6792 1474.2272 1473.8632 1470.6556 1469.2124 1471.0472 1466.2344 1454.6324 1451.2196 1452.2535 1453.0056 1454.0952 1455.1456 1456.3055 1457.012 1457.5864 1457.9064 1458.3744 1458.3776 1457.4456 1456.5104 1456.5555 1457.5916 1459.2592 1460.5 1461.226 1461.2612 1461.8547 1462.9468 1464.3287 1465.6312 1467.288 1468.9904 1470.8304 1472.6952 1474.4937 1477.064 1481.9984 1496.4336 1502.6755 1504.45 1506.0448 1508.1177 1510.5352 1512.8232 1515.2268 1517.6636 1519.9508 1521.8324 1523.93 1526.2028 1528.7156 1530.8069 1533.1068 1535.4445 1538.034 1540.2244 1542.9443 1545.1613 1546.9176 1549.5416 1555.4417 1558.6376 1560.9316 1564.8083 1569.4064 1570.964 1572.5585 1573.6656 1575.1652 1577.0516 1579.604 1583.1696 1587.698 1592.0195 1595.2324 1597.0452
1240.2744 1240.2535 1240.844 1241.736 1242.0544 1241.84 1241.6624 1240.8352 1240.0928 1239.4696 1239.076 1239.0288 1238.8464 1238.216 1237.4708 1237.0676 1236.6412 1235.8228 1234.9408 1234.4464 1234.2017 1234.1328 1234.0148 1234.0908 1234.2152 1234.6664 1235.7672 1237.5968 1239.5328 1240.5072 1241.8016 1243.3752 1244.8496 1246.4016 1248.5288 1251.196 1252.314 1253.9236 1257.6641 1260.3536 1261.2152 1262.0936 1262.6052 1263.0532 1264.9044 1270.4956 1274.662 1276.6508 1278.3243 1279.8851 1280.9489 1282.4984 1285.824 1288.2432 1291.8864 1294.1208 1297.5212 1303.3092 1304.6644 1303.0516 1301.4636 1301.6948 1302.8835 1302.5253 1301.962 1300.118 1298.5048 1297.3809 1297.5251 1298.1116 1298.834 1299.3925 1299.9728 1301.8248 1303.7096 1305.4016 1306.4 1306.0856 1305.6312 1305.5128 1306.0228 1306.6924 1307.1936 1307.9368 1308.928 1310.1224 1311.492 1312.8888 1313.9916 1315.1708 1317.6296 1321.652 1324.0104 1324.732 1325.3519 1326.0232 1327.2203 1327.9891 1328.9668 1330.3796 1331.7001 1333.7944 1335.29 1336.8164 1336.9984 1338.1656 1340.4965 1339.6075 1338.6028 1340.09 1344.6224 1347.7864 1348.6976 1349.5096 1352.45 1355.1796 1355.4896 1356.324 1358.2524 1360.0708 1360.9476 1362.2524 1363.4896 1364.384 1365.7684 1367.4316 1369.1237 1370.7292 1372.6544 1374.696 1376.7588 1378.5413 1380.106 1381.6316 1382.9712 1383.6824 1384.2332 1385.0284 1385.4144 1386.2792 1387.324 1388.1384 1390.4604 1390.0892 1390.6444 1392.2156 1394.024 1395.1704 1396.8085 1398.3684 1399.8044 1401.2828 1403.0204 1404.5748 1406.2625 1408.4952 1411.1428 1412.8549 1414.7001 1416.1744 1417.9432 1419.5632 1420.9891 1422.3173 1423.8252 1424.9373 1426.2189 1427.5508 1429.0376 1430.2432 1431.3116 1432.0292 1432.6448 1433.3688 1433.7556 1433.8676 1434.478 1435.3756 1436.7723 1438.7252 1441.9025 1443.8872 1445.402 1446.4572 1447.008 1447.6376 1448.77 1449.7964 1451.4972 1452.7788 1453.7944 1455.1776 1456.7992 1459.1465 1462.5112 1464.876 1466.9928 1468.8127 1470.5592 1471.7424 1471.0383 1467.7488 1459.7004 1457.1108 1453.6044 1449.558 1448.8756 1449.5323 1450.82 1451.6416 1452.7504 1453.6344 1454.6952 1455.1855 1455.3776 1455.7968 1455.4731 1455.4388 1454.3392 1453.5784 1454.1736 1455.7073 1457.7684 1458.6132 1459.1344 1459.964 1461.0752 1462.1584 1463.5452 1465.3844 1467.48 1468.9775 1471.1664 1474.0984 1476.488 1478.8544 1487.1292 1500.6755 1505.2404 1506.4244 1508.1288 1509.6783 1511.8375 1513.856 1516.4084 1518.922 1521.1436 1522.8156 1524.8788 1527.2948 1529.7208 1531.7064 1534.0137 1536.3304 1539.0511 1541.5416 1543.9705 1545.7697 1547.6952 1551.036 1557.6948 1562.5996 1566.2384 1568.7368 1570.9464 1572.8503 1574.6884 1575.77 1576.9528 1578.832 1582.5457 1585.184 1587.3043 1589.582 1592.3029 1594.4948
1239.6344 1239.956 1240.7048 1241.4113 1241.1832 1240.6664 1240.5032 1239.7384 1238.8375 1238.4496 1238.2144 1238.0232 1237.9456 1237.7103 1236.9916 1236.4492 1236.126 1235.4084 1234.4777 1233.9144 1233.6656 1233.6624 1233.7885 1233.9364 1234.0488 1234.1656 1234.6744 1235.8591 1237.936 1239.1553 1240.5464 1242.168 1243.5928 1245.5223 1247.6984 1249.5304 1250.7509 1251.9492 1254.392 1256.5824 1257.8104 1258.9944 1259.706 1260.762 1262.5948 1269.0771 1272.4756 1274.93 1276.0516 1276.846 1277.5712 1278.5784 1280.2728 1281.5977 1288.3632 1291.4344 1295.6812 1302.7028 1301.602 1299.4548 1298.054 1296.4884 1296.4877 1296.542 1295.622 1295.338 1295.1328 1294.9832 1295.7043 1295.8812 1296.014 1296.1948 1296.4768 1296.8392 1298.5592 1300.2256 1301.4592 1302.1016 1302.9976 1303.6135 1303.8876 1304.2836 1305.2985 1306.4496 1307.6912 1308.9415 1310.2015 1311.3632 1312.5836 1313.9948 1316.7448 1320.2744 1322.2528 1322.7504 1323.3176 1323.7616 1324.5109 1325.7036 1327.0469 1328.4373 1329.6729 1331.3096 1333.606 1334.1019 1332.2528 1332.444 1336.4036 1337.1212 1337.7468 1340.0884 1343.6088 1345.296 1346.7664 1347.6409 1351.3083 1353.3292 1353.5448 1354.3328 1355.7468 1357.3396 1358.6924 1360.7476 1361.9744 1363.168 1364.6316 1366.2948 1368.0789 1369.5916 1371.628 1373.1976 1374.666 1378.106 1379.994 1380.8748 1381.6704 1382.4264 1382.7509 1383.2852 1383.8088 1384.2576 1385.1713 1385.84 1387.4156 1388.2156 1389.7124 1391.3652 1393.1927 1394.6288 1396.022 1397.4443 1398.8835 1400.3876 1402.2604 1404.018 1405.7672 1407.9471 1410.4508 1411.8572 1413.6567 1415.2352 1416.5408 1418.0424 1420.0452 1421.538 1422.7867 1423.6956 1425.1685 1426.4684 1427.8408 1428.7008 1429.47 1430.1412 1430.852 1431.6592 1431.974 1431.7916 1432.4548 1433.5348 1435.3844 1437.1932 1439.2231 1440.8848 1442.61 1443.9004 1444.6031 1445.2808 1446.5172 1447.806 1449.5228 1450.6732 1451.864 1453.1752 1454.908 1457.9976 1461.9736 1463.9048 1465.7048 1467.7983 1468.9608 1469.4224 1467.3217 1461.28 1453.2292 1448.2828 1445.8676 1446.0051 1446.9316 1447.926 1448.948 1450.104 1451.2152 1451.9984 1452.756 1452.9487 1453.0728 1453.6616 1452.8837 1451.982 1451.1768 1451.5792 1452.64 1453.7368 1455.6012 1456.9932 1458.1816 1459.2751 1460.3184 1461.3969 1463.6052 1465.8252 1467.64 1469.0256 1471.8368 1476.0872 1479.4856 1482.6488 1492.1917 1502.066 1506.1996 1507.6973 1509.6064 1511.1864 1513.336 1515.2632 1517.7468 1519.838 1521.6708 1523.3412 1525.4603 1527.7867 1530.1776 1532.3456 1534.6528 1536.8112 1539.6392 1542.3376 1543.9777 1545.4008 1548.6128 1553.0752 1558.5787 1563.8708 1567.316 1569.6288 1572.2712 1573.7913 1575.13 1576.778 1578.2632 1579.8064 1582.372 1584.3816 1586.7004 1589.0068 1590.126 1591.8284
1238.8992 1239.448 1240.4536 1240.8728 1240.3472 1239.5256 1239.2277 1238.8324 1237.792 1237.3505 1237.2244 1236.9812 1237.0884 1237.1556 1236.5072 1235.9104 1235.5079 1234.944 1234.098 1233.5476 1233.4368 1233.532 1233.7233 1233.9336 1234.114 1234.154 1234.3011 1234.6892 1235.8252 1237.3044 1238.6888 1240.3032 1242.0092 1244.9348 1247.3271 1247.9032 1249.0204 1250.3868 1251.4088 1252.5153 1253.7568 1255.2375 1256.7872 1258.7616 1260.278 1264.3092 1270.7756 1272.974 1274.124 1273.864 1274.0208 1274.9608 1275.9912 1277.2776 1283.382 1287.8252 1290.622 1294.4668 1295.314 1295.0804 1294.3064 1292.9224 1292.1888 1292.1104 1292.2112 1292.4023 1292.6973 1293.0956 1293.7477 1294.0181 1294.1604 1294.4587 1294.6312 1294.3577 1294.872 1296.6592 1298.9724 1299.7621 1300.6604 1301.278 1301.7172 1302.374 1303.6936 1305.1337 1306.312 1307.5496 1308.7932 1310.0532 1311.3016 1313.224 1316.542 1319.1996 1319.954 1320.6044 1321.4576 1321.9703 1322.2885 1323.0084 1325.0396 1326.1676 1327.4652 1328.4884 1329.836 1328.6056 1326.9688 1328.2528 1331.9 1335.2368 1337.6047 1339.4984 1341.5676 1343.354 1344.7528 1345.4512 1349.2252 1351.406 1350.9976 1351.328 1352.1552 1354.7496 1357.1288 1358.2744 1360.2252 1361.6757 1363.358 1365.2324 1366.9844 1368.1292 1369.9408 1371.5544 1373.5096 1377.6799 1379.278 1379.7756 1380.0771 1380.6556 1380.8816 1381.3928 1381.986 1382.4308 1382.9849 1383.8776 1385.3923 1386.8308 1388.714 1390.2212 1391.7604 1393.3356 1394.8804 1396.0972 1397.8032 1399.7664 1401.6265 1403.3616 1405.2052 1407.1764 1409.0167 1410.76 1412.7516 1414.1685 1415.486 1417.1804 1418.7867 1419.9332 1421.1312 1422.272 1423.566 1424.7941 1426.1276 1426.934 1427.5996 1428.222 1428.9044 1429.3492 1429.5892 1429.7244 1430.4424 1431.4752 1433.0696 1434.9592 1436.9952 1438.244 1439.5808 1441.0183 1442.1263 1443.0752 1444.8344 1446.0385 1447.4879 1448.3665 1449.522 1450.4468 1452.4788 1456.318 1460.4976 1462.0304 1463.9904 1464.7744 1460.6263 1459.996 1455.9512 1448.644 1445.3644 1443.4596 1443.8788 1444.6564 1445.4532 1446.2844 1447.3296 1448.3624 1449.2421 1449.834 1450.284 1450.3352 1450.0072 1450.3024 1449.4164 1449.3116 1449.402 1450.2484 1451.7872 1453.2352 1454.954 1456.35 1457.8368 1458.2264 1459.222 1461.2604 1464.1792 1466.3376 1468.0544 1469.7872 1472.4355 1476.5148 1482.4604 1490.6812 1495.7064 1502.0328 1506.1827 1508.3236 1510.6512 1512.4984 1514.9928 1516.7872 1518.7008 1520.228 1521.9532 1523.6844 1525.8969 1528.1968 1530.7249 1532.928 1535.2408 1537.2407 1539.74 1541.9904 1543.8088 1545.6569 1548.8148 1554.5052 1558.3868 1562.8972 1567.2244 1569.9677 1571.75 1572.8405 1574.286 1575.6676 1577.3765 1578.6613 1581.2688 1583.0311 1585.562 1587.8196 1588.2084 1589.1532
1238.3303 1239.1497 1240.004 1240.0968 1239.204 1238.0864 1237.7676 1237.622 1236.8264 1236.436 1236.226 1235.9636 1236.2812 1236.4988 1235.8296 1235.2568 1234.8143 1234.5063 1233.8243 1233.3716 1233.4016 1233.5544 1233.7607 1233.9329 1234.11 1234.2045 1234.41 1234.6348 1235.0156 1235.7572 1237.0344 1238.868 1240.9132 1243.978 1245.46 1245.6008 1246.6757 1247.7412 1248.456 1249.2535 1250.96 1252.7015 1254.4424 1257.1432 1258.762 1263.3693 1269.5188 1271.8468 1272.584 1272.1528 1271.8088 1272.1152 1272.7856 1274.1024 1280.2588 1283.8524 1284.7308 1286.2363 1286.4125 1289.1212 1289.6248 1289.356 1289.4376 1289.7656 1290.0824 1290.6096 1291.0636 1291.3308 1291.9468 1292.2604 1292.438 1292.8004 1293.004 1292.8568 1292.9471 1293.5616 1295.734 1297.4916 1298.4668 1299.094 1299.7795 1300.7756 1302.3568 1303.8752 1304.5912 1305.752 1307.3516 1308.69 1310.4023 1312.7936 1316.1588 1317.6788 1318.43 1319.0676 1319.7664 1320.308 1320.6156 1320.974 1322.8652 1323.8492 1325.3052 1326.3076 1325.0176 1323.8048 1323.312 1323.5784 1326.2448 1334.332 1337.1729 1338.452 1340.2212 1340.7948 1340.7168 1342.644 1346.8844 1349.1516 1348.648 1348.0536 1348.6136 1350.8944 1354.7312 1356.9728 1359.1084 1360.5732 1362.066 1364.0748 1366.15 1367.5636 1369.1016 1370.5887 1372.6064 1375.8744 1377.5411 1378.354 1378.7028 1378.7644 1378.7208 1379.1536 1379.6228 1380.2563 1381.052 1382.3864 1384.0612 1385.8756 1387.726 1389.1804 1390.666 1392.0524 1393.4764 1394.8468 1396.7904 1399.1168 1401.2264 1402.8496 1404.6652 1406.6012 1408.2728 1410.5088 1411.8171 1412.8916 1414.6252 1415.9084 1417.1436 1418.2676 1419.5615 1420.9872 1422.0339 1423.1868 1424.4996 1425.2372 1425.694 1426.1611 1426.8092 1427.1708 1427.4524 1427.898 1428.6432 1429.6152 1430.8928 1432.632 1435.0304 1436.6088 1437.444 1438.4464 1439.6224 1441.16 1442.8593 1443.7544 1445.3656 1446.2152 1447.2516 1447.13 1448.9603 1451.502 1455.0192 1457.888 1458.936 1454.0975 1449.4528 1447.6288 1443.2537 1441.5576 1441.3196 1441.5028 1442.3196 1442.9532 1443.5676 1444.4244 1445.3384 1446.3728 1447.286 1447.6973 1448.0448 1448.1072 1447.6064 1447.3127 1447.1788 1447.5028 1448.1829 1449.0564 1451.1648 1452.6353 1453.6644 1454.6124 1455.5784 1456.6368 1459.0627 1461.9252 1464.8608 1467.4384 1469.1776 1470.896 1472.986 1476.4283 1483.0044 1489.942 1495.4376 1500.3992 1504.6235 1507.6156 1511.0024 1513.5536 1516.8536 1518.1792 1519.5256 1520.8289 1522.5748 1524.3652 1526.5752 1528.8224 1531.4672 1533.6832 1535.8888 1537.7112 1539.6848 1541.7625 1544.196 1547.1256 1550.0588 1554.4341 1558.6252 1561.7036 1565.9612 1569.226 1569.4852 1570.7212 1572.6484 1573.7788 1575.7428 1576.7059 1580.0007 1582.208 1583.3844 1584.9668 1586.2651 1587.7812
1238.0712 1238.7015 1239.0312 1238.8296 1237.6917 1236.6989 1236.116 1235.988 1235.938 1235.7412 1235.5536 1235.1216 1235.3431 1235.6504 1235.0972 1234.4492 1233.9464 1233.7864 1233.4348 1233.2708 1233.3204 1233.4884 1233.7372 1233.9908 1234.1608 1234.3368 1234.588 1234.7616 1234.8953 1235.0088 1235.51 1237.0028 1239.2756 1240.7604 1241.644 1243.0952 1244.3593 1245.2249 1246.4176 1247.6416 1249.132 1250.4865 1252.0093 1254.2437 1256.6713 1258.168 1265.1685 1269.0028 1269.778 1269.8029 1269.8008 1269.6768 1270.6068 1271.362 1276.3916 1280.0132 1281.12 1281.7303 1282.062 1282.8484 1283.524 1284.7504 1286.51 1287.1116 1287.0228 1287.9604 1289.0251 1289.4548 1290.0887 1290.4912 1290.826 1291.1044 1291.1764 1291.1908 1291.5176 1292.1472 1293.5372 1295.0004 1296.2347 1296.9083 1297.5232 1299.1952 1301.0052 1302.0708 1302.4296 1303.6368 1305.7896 1307.3584 1309.2864 1311.848 1314.9972 1316.1163 1317.0135 1317.688 1318.2115 1318.7012 1318.7872 1318.5728 1319.4856 1320.6584 1322.496 1324.0488 1322.5223 1321.4952 1321.2904 1322.1112 1324.9404 1331.386 1334.85 1336.0212 1338.0072 1337.8696 1337.6871 1340.8752 1345.0125 1347.8477 1347.1432 1346.2128 1345.9677 1346.9836 1350.5276 1353.3099 1356.6708 1358.858 1361.1396 1363.1613 1365.1407 1366.5856 1368.0404 1369.4204 1371.3124 1372.8011 1374.8693 1376.394 1376.8052 1376.6908 1376.6292 1376.8956 1377.5448 1378.5657 1379.7532 1381.0212 1382.7688 1384.5736 1386.2252 1387.5404 1389.2465 1390.5848 1392.3721 1394.2528 1395.9865 1398.2688 1400.7076 1402.5276 1404.4004 1406.3628 1408.218 1409.5684 1410.5776 1412.0944 1413.4932 1414.4668 1415.6128 1416.7728 1418.1324 1419.4452 1420.3204 1421.4132 1422.3737 1422.8024 1423.0476 1423.5708 1424.1548 1424.7084 1425.4464 1426.0688 1426.8044 1427.85 1429.1212 1430.3085 1432.1216 1433.2968 1434.6204 1435.7076 1436.9832 1438.6481 1439.358 1440.5548 1442.5536 1443.1976 1442.4944 1438.8807 1439.4688 1440.3856 1444.5236 1445.7356 1443.3083 1441.3988 1438.496 1436.6808 1436.3204 1437.0269 1438.2885 1439.3372 1440.0107 1440.2756 1440.976 1442.0673 1442.9456 1443.7816 1444.6484 1445.0956 1445.4705 1445.4736 1445.2769 1445.544 1445.654 1446.042 1446.6912 1447.3392 1449.2648 1450.408 1450.9893 1452.0404 1453.5316 1455.9492 1459.0648 1461.4984 1464.0455 1467.384 1470.4496 1471.8864 1474.2988 1477.9548 1481.9452 1487.4164 1493.5612 1498.0532 1503.0468 1506.6116 1510.8888 1514.2192 1517.5592 1519.296 1520.8604 1522.1973 1523.6685 1525.4028 1527.676 1529.8271 1532.3452 1534.6356 1536.6852 1538.2572 1539.9272 1541.8304 1545.0708 1549.4076 1553.7212 1556.2332 1558.8424 1560.9336 1563.76 1565.428 1566.7028 1567.6492 1569.6196 1571.3268 1572.7284 1574.262 1577.4104 1579.8096 1581.4716 1582.5612 1584.616 1586.5192
1237.4984 1238.076 1237.8048 1237.3712 1236.6492 1236.0516 1235.588 1235.3145 1235.2308 1235.1075 1234.788 1234.2233 1234.5208 1234.9865 1234.6444 1233.9229 1233.3248 1233.1696 1233.0771 1233.1611 1233.3092 1233.5028 1233.8492 1234.1028 1234.2352 1234.3744 1234.5768 1234.7584 1234.9448 1235.0808 1235.2748 1235.8268 1237.246 1238.774 1240.3048 1241.6024 1242.8352 1243.832 1245.1552 1246.3824 1247.4056 1248.2463 1249.6741 1251.7964 1255.1328 1257.5016 1260.1885 1265.5796 1266.9836 1267.2036 1267.1288 1267.424 1268.5012 1269.1476 1272.1829 1276.342 1277.9968 1279.0887 1279.7756 1280.5092 1281.3287 1281.752 1282.6108 1283.7516 1284.322 1285.4948 1286.9044 1287.702 1288.2928 1288.7017 1289.0212 1289.2612 1289.4652 1289.7356 1290.2552 1290.8544 1291.9172 1293.0652 1294.1796 1295.0276 1295.976 1297.6608 1299.446 1300.5372 1300.6472 1301.6064 1304.5624 1306.16 1307.2024 1309.0552 1313.1685 1314.766 1315.3984 1316.0248 1316.6764 1316.3516 1316.5264 1316.688 1317.2504 1318.3575 1320.6816 1320.812 1319.6912 1319.4304 1320.34 1322.2008 1325.0197 1329.8812 1332.3916 1333.9612 1335.5903 1335.9712 1336.7375 1340.2872 1345.1012 1347.0068 1345.7224 1344.6384 1344.458 1345.0964 1347.1732 1349.3588 1353.5773 1356.6604 1359.8405 1362.2043 1364.1672 1365.7913 1367.1667 1368.39 1369.842 1371.2524 1372.7516 1373.9148 1374.4124 1374.778 1375.0148 1375.4972 1376.3776 1377.5056 1378.7284 1380.0573 1381.7208 1383.236 1384.7308 1385.9276 1387.808 1389.3145 1391.7576 1393.8448 1395.8416 1397.9208 1400.2052 1401.9484 1403.7028 1405.7484 1407.1572 1407.8596 1409.368 1410.8577 1411.9764 1412.9388 1414.188 1415.2616 1416.6796 1417.7828 1418.8636 1419.79 1420.3792 1420.7328 1421.0276 1421.354 1421.7725 1422.4812 1423.6464 1424.28 1424.8812 1425.9636 1427.3804 1428.606 1429.8784 1431.1288 1432.6244 1433.7468 1434.8656 1436.0792 1436.4324 1436.6019 1438.6456 1439.8224 1438.484 1435.8848 1433.5176 1432.6808 1432.718 1433.17 1433.03 1434.2452 1434.3159 1433.5616 1434.55 1435.474 1436.7284 1437.5901 1437.954 1438.1036 1438.5896 1439.6456 1440.7936 1441.3304 1442.086 1442.7236 1443.1871 1443.1887 1443.8608 1444.7695 1445.03 1445.306 1445.6696 1446.0441 1447.332 1448.6544 1449.9452 1451.3693 1453.2476 1455.822 1458.516 1460.8217 1463.8384 1467.156 1470.8577 1473.6256 1477.3524 1479.9764 1483.6212 1487.3964 1492.49 1496.9724 1502.2052 1506.1844 1510.9896 1514.4464 1517.9329 1520.0696 1521.8092 1523.402 1524.9436 1526.4589 1528.6552 1530.6064 1533.0444 1535.4069 1537.4308 1539.0444 1540.5184 1542.14 1545.7196 1550.9508 1554.5844 1556.4756 1558.7336 1560.5209 1561.8024 1562.8881 1564.0499 1565.446 1568.2739 1568.8948 1570.3092 1572.39 1574.9304 1576.7104 1578.8452 1580.7764 1582.9401 1584.784
1236.3647 1237.264 1237.0204 1236.5573 1236.0912 1235.6569 1235.068 1234.5704 1234.2944 1234.1504 1233.8696 1233.5833 1234.024 1234.5648 1234.1708 1233.3612 1232.8925 1232.8684 1232.9452 1233.2068 1233.464 1233.7184 1233.9996 1234.2252 1234.3412 1234.4204 1234.6252 1234.8997 1235.1664 1235.2985 1235.5232 1235.8064 1236.2892 1237.742 1239.2104 1240.34 1241.6516 1242.586 1243.594 1244.4988 1245.412 1246.2728 1247.2336 1248.7751 1252.3328 1255.4768 1257.1888 1258.0432 1260.8588 1263.1764 1263.882 1265.0428 1266.2231 1267.1208 1268.0208 1272.2848 1274.4612 1275.554 1276.8864 1277.828 1278.8264 1279.5457 1280.4644 1281.2484 1282.5928 1283.7688 1284.97 1285.9092 1286.384 1286.5848 1286.8417 1287.1641 1287.5732 1288.0276 1288.632 1289.1664 1290.048 1291.0552 1292.1744 1293.2152 1294.3252 1295.5724 1297.0188 1298.5276 1298.8647 1299.1959 1302.5088 1304.4912 1305.06 1306.1024 1311.4736 1312.9401 1313.474 1314.5404 1314.3104 1313.308 1313.8176 1314.4935 1314.872 1315.1776 1316.8032 1317.3688 1317.0864 1318.1224 1320.05 1322.05 1324.6799 1328.1208 1329.9392 1332.3816 1333.7336 1334.5432 1335.2885 1338.5956 1343.636 1345.5472 1343.8308 1342.454 1342.4844 1344.1204 1346.5284 1347.7332 1349.5024 1355.156 1358.1532 1360.3628 1362.4788 1364.3083 1365.9384 1367.268 1368.3988 1369.43 1370.7172 1371.4276 1372.1736 1372.5056 1373.09 1374.21 1375.2592 1376.2584 1377.4872 1378.8073 1380.3256 1381.7688 1383.1884 1384.9884 1387.1884 1389.6124 1392.0588 1393.5836 1395.658 1397.4996 1399.4852 1401.2444 1403.1908 1404.9004 1405.7388 1406.7317 1408.1625 1409.4304 1410.4104 1411.3296 1412.494 1413.8812 1415.3776 1416.1224 1417.0792 1417.9039 1418.0876 1418.778 1419.8848 1419.6912 1419.3904 1420.632 1421.908 1422.288 1422.7664 1423.8752 1425.394 1426.962 1428.4716 1429.5123 1430.6512 1431.9736 1433.3416 1434.0608 1433.4896 1432.2368 1432.4128 1435.0872 1434.3304 1432.2336 1430.7108 1429.6252 1429.736 1430.452 1431.2692 1431.682 1431.8173 1431.7396 1432.6989 1433.7052 1435.004 1435.7056 1435.8972 1436.4268 1436.7764 1437.5332 1438.3936 1438.7032 1439.5604 1440.4924 1441.09 1441.7804 1443.012 1443.8951 1444.3724 1444.8292 1445.2976 1445.6112 1446.7676 1448.326 1449.8564 1451.47 1453.596 1455.8184 1458.3436 1460.8604 1463.932 1466.644 1470.4076 1473.6636 1477.5444 1481.162 1484.1144 1487.6576 1493.9183 1497.3936 1500.5596 1505.662 1511.1324 1514.6788 1518.5476 1520.6836 1522.732 1524.4216 1526.222 1527.4396 1529.2312 1531.16 1533.8024 1536.2175 1538.2344 1539.7472 1541.3668 1542.9084 1545.7725 1550.3011 1552.6832 1554.1943 1556.9448 1558.4176 1559.0024 1559.7432 1561.2108 1563.2468 1565.5916 1566.3804 1568.1628 1570.8892 1573.2844 1574.8772 1576.39 1578.0084 1579.9788 1582.834
1235.2888 1236.116 1236.2236 1235.93 1235.5729 1235.1608 1234.328 1233.7584 1233.3881 1233.2233 1233.0944 1232.9984 1233.5432 1234.0104 1233.6548 1232.9684 1232.7916 1232.7852 1232.91 1233.2244 1233.544 1233.8352 1234.0172 1234.2797 1234.4692 1234.5789 1234.8252 1235.0931 1235.3856 1235.5369 1235.8073 1236.196 1236.4972 1237.1884 1238.0992 1239.3088 1240.4276 1241.3732 1242.246 1242.8212 1243.532 1244.3864 1245.4176 1246.62 1249.4144 1253.1265 1255.1544 1256.2056 1257.8477 1259.5204 1261.4684 1263.0244 1264.1328 1265.1744 1266.084 1269.5815 1271.5732 1271.8116 1273.932 1275.36 1276.4489 1277.2784 1278.5332 1279.714 1281.1816 1282.4487 1283.5164 1284.3212 1284.7144 1284.8224 1285.0312 1285.4 1285.8628 1286.2836 1286.8273 1287.4095 1288.4336 1289.428 1290.6208 1291.7128 1293.0476 1294.25 1295.3972 1295.9589 1296.5457 1297.7616 1300.8176 1302.8496 1303.3464 1304.4128 1309.968 1311.108 1312.246 1313.4884 1311.8536 1311.1936 1311.6688 1311.876 1312.5664 1313.4608 1314.232 1315.1912 1315.8584 1317.2751 1319.51 1321.2043 1323.8848 1325.8488 1327.9192 1330.7936 1332.1456 1333.0256 1334.45 1336.7876 1341.392 1343.0297 1341.7316 1340.1212 1340.2491 1342.834 1345.2059 1346.2076 1347.404 1351.6272 1356.0804 1358.5972 1360.7764 1362.574 1364.2336 1365.4064 1366.4276 1367.1964 1368.6604 1369.6124 1369.912 1370.3848 1371.0116 1372.434 1373.8792 1374.728 1375.9144 1377.2136 1379.1576 1380.9368 1383.0764 1384.8763 1387.026 1389.2869 1391.5684 1393.3763 1395.2372 1396.8948 1398.73 1400.166 1401.8171 1403.4229 1404.4332 1405.5381 1406.9736 1408.2017 1408.8368 1409.7816 1411.0388 1412.4548 1413.9264 1414.6968 1415.4352 1415.6472 1415.6804 1416.182 1416.9896 1417.1272 1417.2216 1418.6711 1419.7168 1420.2584 1420.9832 1421.7816 1423.4828 1425.6876 1426.9875 1427.0012 1427.68 1429.5016 1431.7736 1431.9489 1431.0488 1429.5688 1428.5936 1430.0776 1429.916 1429.528 1427.6212 1426.7804 1427.5256 1428.3104 1428.97 1429.058 1429.1364 1429.6971 1430.8324 1432.1268 1433.2328 1433.5583 1433.75 1434.5452 1434.9731 1435.6613 1436.3647 1436.6296 1437.6644 1438.7164 1439.7797 1440.9612 1442.3248 1443.3568 1443.9764 1444.5836 1445.2008 1445.7352 1447.0212 1448.618 1450.1732 1451.7708 1453.8665 1456.0376 1458.7932 1462.4092 1465.212 1467.34 1470.7028 1473.202 1475.9908 1480.2756 1484.424 1488.9336 1494.6824 1498.1864 1500.4004 1505.5573 1511.2772 1514.2972 1518.5996 1521.0444 1523.236 1525.1207 1526.8972 1528.0156 1529.5736 1531.3744 1533.8984 1535.5472 1537.4 1539.1 1541.2084 1542.9772 1545.9868 1549.7604 1550.8312 1551.384 1555.2584 1556.1952 1556.5007 1557.248 1558.7452 1560.9508 1562.7164 1563.8188 1565.8468 1569.2356 1571.8004 1573.0251 1574.4299 1575.9828 1577.8436 1581.4764
1234.0557 1234.5596 1234.9844 1234.8572 1234.4443 1234.2452 1233.54 1233.1088 1232.9615 1232.6472 1232.4032 1232.2112 1232.668 1233.1392 1233.1204 1232.7068 1232.6068 1232.6804 1232.842 1233.0596 1233.3428 1233.6372 1233.8704 1234.2024 1234.5276 1234.742 1235.0427 1235.2596 1235.5432 1235.7352 1236.134 1236.6996 1237.0304 1237.2144 1237.4568 1238.3624 1239.0364 1239.7365 1240.5472 1241.0784 1241.6124 1241.91 1242.9008 1244.1232 1245.4352 1249.5367 1253.3972 1254.3796 1255.4596 1256.7708 1258.7412 1260.7924 1261.7556 1263.1268 1264.6407 1266.524 1267.9596 1268.758 1270.3528 1272.2512 1273.7985 1274.9304 1276.3756 1277.8804 1279.5847 1280.8632 1281.6316 1282.3925 1282.9868 1282.9963 1283.1864 1283.6368 1284.0304 1284.3448 1284.8972 1285.7092 1286.8632 1288.0056 1289.2275 1290.2275 1291.3928 1292.62 1293.7228 1294.3029 1294.8489 1295.98 1298.3788 1300.1516 1301.378 1302.1764 1307.0984 1309.0576 1310.2971 1311.0037 1309.3032 1308.7424 1309.3336 1309.8088 1311.1472 1312.4392 1312.8708 1313.7268 1315.1656 1316.8688 1318.2756 1319.3188 1322.1971 1324.4772 1326.4596 1328.6163 1330.0044 1331.266 1333.23 1335.3732 1338.8556 1339.2156 1338.3228 1337.4924 1338.3632 1340.8856 1343.1713 1344.4448 1345.8976 1349.1432 1353.4788 1356.9756 1359.0615 1360.2864 1361.1031 1362.852 1363.9772 1365.002 1366.3452 1367.6868 1367.566 1367.9956 1368.8364 1369.8276 1371.1439 1372.328 1373.7448 1375.9401 1378.5144 1380.772 1383.1044 1384.9772 1386.8665 1388.7032 1390.734 1392.5636 1394.5452 1395.994 1397.7588 1398.8876 1400.1624 1401.1624 1402.4692 1403.9373 1405.4664 1406.592 1407.3528 1408.2128 1409.4069 1410.6332 1412.0212 1412.9332 1413.4468 1413.114 1413.1945 1413.6959 1414.3236 1414.47 1414.516 1416.1224 1416.7375 1417.4023 1418.4401 1419.1425 1420.52 1422.5984 1423.8304 1424.0392 1425.0276 1426.8292 1429.3236 1429.5323 1427.9072 1425.4504 1424.2416 1425.9744 1425.7448 1423.8424 1423.4875 1424.3029 1424.9424 1425.4241 1425.7333 1426.158 1426.9176 1428.008 1429.13 1430.4445 1431.4296 1431.1912 1431.1976 1431.8352 1432.5592 1433.36 1434.218 1434.918 1436.1248 1437.3 1438.81 1440.1724 1441.7076 1443.1508 1444.1381 1444.7565 1445.2609 1445.9199 1447.4308 1449.2404 1451.0472 1452.3792 1454.2404 1456.8724 1462.0348 1465.4692 1467.8257 1470.6624 1472.9324 1474.2549 1476.6436 1480.41 1486.2421 1490.1908 1494.6196 1499.1676 1501.5728 1507.7032 1511.8884 1514.4348 1517.8593 1519.8728 1521.8412 1524.2716 1527.3312 1528.764 1529.7028 1530.5684 1532.6093 1534.1572 1536.0903 1537.6648 1540.2428 1542.8333 1544.534 1546.1172 1548.1428 1548.9316 1551.046 1553.1908 1554.08 1555.2816 1556.918 1558.5724 1560.0392 1561.4808 1563.4664 1566.1943 1569.3328 1570.468 1571.956 1573.5792 1575.242 1578.0188
1232.9476 1233.2804 1233.6068 1233.494 1233.0316 1232.962 1232.5216 1232.38 1232.6272 1232.2792 1231.7632 1231.6432 1232.0464 1232.4856 1232.6676 1232.4908 1232.4548 1232.6116 1232.806 1232.9564 1233.1508 1233.3988 1233.7504 1234.0696 1234.5308 1234.9164 1235.3083 1235.5444 1235.764 1235.9032 1236.1876 1236.7372 1237.1648 1237.3696 1237.6031 1237.8912 1238.2012 1238.4788 1239.1016 1239.6553 1240.242 1240.2644 1240.5952 1241.4448 1242.04 1244.7144 1249.8828 1252.1372 1253.386 1254.6636 1256.6636 1258.71 1259.394 1260.9508 1262.6792 1263.9 1265.3228 1266.6892 1268.236 1269.7056 1271.228 1272.7056 1274.7052 1276.6147 1277.96 1278.7999 1279.3644 1280.1381 1280.862 1281.0555 1281.4696 1282.0 1282.2848 1282.5336 1283.2444 1284.442 1285.6792 1286.8296 1288.1028 1289.154 1290.0392 1291.1335 1292.0308 1292.694 1293.2712 1294.332 1295.8876 1297.5836 1299.134 1300.5164 1303.228 1306.1711 1308.35 1307.7684 1306.1112 1306.7712 1308.056 1309.1472 1310.3944 1310.8992 1311.2188 1312.8108 1315.0416 1316.22 1316.2556 1317.4204 1320.03 1322.3948 1325.1309 1326.6075 1327.9788 1329.1652 1330.3732 1331.9484 1334.7852 1336.3484 1335.7133 1335.6156 1337.2001 1339.3032 1341.6688 1342.968 1344.7264 1347.6184 1354.6804 1356.8652 1357.8712 1356.304 1358.0568 1360.0216 1361.274 1361.4924 1363.3516 1364.026 1364.6827 1365.6116 1366.938 1368.2428 1369.4991 1370.9296 1372.9768 1375.6232 1378.1776 1380.3696 1382.8068 1384.7468 1386.5511 1388.252 1390.1307 1391.682 1393.4355 1394.9067 1396.9828 1397.742 1398.8152 1399.692 1401.0212 1402.3436 1403.5664 1404.6887 1405.8647 1406.5568 1407.5348 1408.8589 1410.4508 1411.3452 1411.3812 1410.7205 1410.5984 1411.4471 1412.0524 1412.0964 1412.2288 1412.5887 1413.3584 1414.0712 1415.3152 1416.2656 1418.0135 1419.796 1420.012 1421.3168 1422.8004 1424.234 1426.5972 1427.1595 1424.9775 1422.46 1421.3591 1420.7336 1420.18 1420.5624 1421.0612 1421.6188 1422.3568 1423.0144 1423.5812 1424.2892 1425.4904 1426.7152 1427.6012 1428.89 1429.4448 1429.0928 1429.288 1429.7928 1430.5928 1431.5728 1432.854 1434.0372 1435.2856 1436.6704 1438.2732 1439.8452 1441.6732 1443.2572 1444.654 1445.2277 1445.3665 1446.1536 1448.0859 1449.9932 1451.912 1453.4056 1456.4661 1460.5253 1466.1084 1468.3604 1469.9775 1472.6448 1474.77 1476.1356 1478.6196 1482.5204 1488.142 1491.15 1494.8892 1500.0836 1502.4064 1507.5833 1512.2188 1514.3828 1516.8336 1518.1128 1519.8676 1522.2964 1526.1351 1527.9248 1528.4548 1529.3428 1531.062 1532.778 1534.428 1535.9224 1537.8652 1541.8524 1543.5116 1544.3812 1545.8412 1546.926 1548.6876 1550.7651 1552.3048 1553.3304 1555.3204 1557.0212 1558.5856 1560.432 1562.444 1563.996 1566.5864 1567.872 1570.0304 1571.9192 1573.782 1575.1956
1231.9095 1231.8312 1231.9624 1231.912 1231.7948 1231.354 1230.934 1231.3932 1231.7524 1231.1868 1230.8448 1231.016 1231.5344 1232.0016 1232.3104 1232.2784 1232.3088 1232.5496 1232.7736 1232.964 1233.2319 1233.46 1233.7532 1234.0212 1234.4545 1234.8864 1235.3468 1235.6716 1235.9211 1236.1453 1236.4324 1236.8044 1237.1848 1237.4816 1237.772 1237.984 1238.146 1238.286 1238.6228 1239.0276 1239.6052 1239.8268 1239.996 1240.2216 1240.5817 1242.3416 1246.108 1249.4888 1251.0692 1252.2716 1254.0123 1255.6019 1256.228 1257.4624 1259.9148 1261.4604 1262.9492 1264.318 1266.2144 1267.7496 1268.8448 1269.8512 1272.614 1275.1052 1276.1992 1276.652 1277.0511 1277.6528 1278.4164 1279.0004 1279.5812 1280.1005 1280.5024 1281.0079 1282.0135 1283.1896 1284.3616 1285.5696 1286.7303 1287.9016 1288.7324 1289.4587 1290.2832 1290.9888 1291.6193 1292.3665 1293.7277 1295.274 1296.7944 1298.6536 1300.0128 1300.228 1303.5756 1303.5532 1303.9343 1305.3984 1307.1156 1308.306 1309.2272 1309.5712 1310.6644 1312.702 1314.1144 1314.4176 1314.5903 1316.084 1319.3073 1320.9208 1323.2556 1324.6156 1326.0204 1327.5516 1329.2957 1330.4548 1331.8448 1333.328 1333.5708 1333.8364 1335.0223 1337.128 1339.8997 1341.482 1343.024 1344.1072 1347.5012 1353.5476 1355.3976 1352.9863 1354.5264 1356.0056 1357.7172 1358.2708 1359.5812 1360.6467 1362.1812 1363.6084 1365.1416 1367.0297 1368.71 1370.5092 1373.0771 1375.6284 1377.8424 1379.8832 1382.2196 1384.0627 1385.8596 1387.4492 1389.3728 1390.7656 1392.1252 1393.3564 1395.416 1396.0903 1397.3064 1398.4424 1399.708 1400.6936 1401.7476 1402.8389 1403.9324 1404.4188 1405.2028 1407.1628 1408.9532 1409.3212 1408.9023 1407.7377 1407.8496 1408.6945 1409.394 1409.7452 1409.9832 1410.2175 1410.6005 1410.8164 1412.3624 1413.996 1415.0856 1416.0264 1416.5251 1417.3676 1419.9752 1421.5887 1422.5292 1422.9532 1421.4348 1419.6748 1418.1724 1417.6508 1417.5604 1418.15 1418.5432 1419.0776 1419.9088 1420.8809 1421.8328 1422.8145 1424.06 1424.968 1426.0276 1426.9517 1427.1312 1426.9296 1427.25 1428.1284 1429.5109 1430.9868 1432.3208 1433.632 1435.1792 1436.692 1438.4104 1440.0072 1441.728 1443.272 1444.8988 1445.5012 1445.9916 1447.4644 1449.4299 1450.9371 1452.9152 1454.5992 1460.4384 1466.5903 1468.9633 1470.5112 1472.6976 1475.2184 1476.5884 1478.0996 1480.9388 1485.406 1489.9052 1492.37 1495.4288 1500.5072 1503.1376 1507.6497 1511.7247 1513.5079 1515.5272 1516.6296 1518.4271 1520.1864 1522.454 1524.814 1526.0352 1527.6984 1529.7584 1531.5176 1533.0664 1534.568 1536.4169 1538.5944 1541.5372 1543.3148 1544.5176 1545.6072 1547.3396 1548.954 1550.5676 1551.9684 1553.72 1555.1664 1557.2421 1559.1476 1560.8647 1562.1968 1563.5908 1564.998 1567.4515 1569.5787 1571.7753 1574.0599
1231.1808 1230.832 1230.9784 1231.0624 1231.3884 1231.0323 1230.5236 1230.746 1230.6908 1229.962 1229.9032 1230.3192 1231.0112 1231.6368 1231.9672 1231.9849 1232.264 1232.5304 1232.5599 1232.8192 1233.1927 1233.4528 1233.674 1233.9244 1234.2552 1234.5831 1235.0372 1235.4388 1235.8676 1236.3076 1236.7324 1236.9908 1237.2616 1237.568 1237.8984 1238.1472 1238.3036 1238.3732 1238.6188 1239.1469 1239.7244 1240.0021 1240.2368 1240.4752 1240.5032 1240.972 1243.2328 1246.9896 1249.1084 1250.2003 1251.5684 1253.1595 1254.132 1254.7472 1256.9156 1258.5636 1260.0413 1261.3444 1263.6088 1265.4543 1266.464 1267.5824 1269.274 1271.922 1274.4601 1274.7528 1274.9464 1275.4808 1276.3364 1277.0516 1277.5756 1277.9875 1278.564 1279.6392 1280.7904 1282.0096 1283.468 1284.6263 1285.3287 1286.4888 1287.4652 1288.1084 1288.792 1289.512 1290.2792 1290.9944 1292.3444 1293.8011 1295.1176 1296.5671 1298.0656 1298.444 1299.59 1301.23 1302.932 1304.5975 1306.326 1307.718 1308.6248 1309.2664 1310.6404 1312.0172 1312.9144 1312.9489 1312.9696 1313.5112 1318.3552 1320.2712 1321.9011 1323.042 1324.39 1326.3196 1328.4364 1329.7396 1330.8256 1331.3823 1331.6012 1332.1163 1333.2576 1335.048 1338.0732 1339.8156 1341.504 1342.7936 1344.0604 1346.7068 1349.4216 1350.4921 1352.388 1354.1232 1355.7572 1356.5172 1357.622 1358.8524 1360.5956 1362.2932 1364.1968 1366.2832 1368.5532 1370.5411 1373.0164 1375.2059 1377.2368 1379.2424 1381.494 1383.2476 1385.0132 1386.5388 1388.2264 1389.3809 1390.9893 1391.838 1393.336 1394.4056 1395.6896 1397.1824 1398.2728 1399.1049 1400.2548 1401.3556 1402.4532 1402.9556 1402.9612 1403.5483 1406.2131 1406.8148 1405.7848 1405.316 1405.596 1406.1096 1406.8029 1407.5364 1407.8936 1407.6448 1407.8981 1408.5284 1410.0432 1411.9664 1412.8807 1413.2472 1413.5125 1413.7388 1415.2952 1417.3712 1418.7804 1418.7596 1417.9324 1416.966 1415.89 1415.3652 1415.4828 1416.0804 1416.8928 1417.672 1418.352 1419.4824 1420.4952 1421.576 1422.9072 1423.7432 1424.6116 1425.2349 1425.1873 1425.432 1426.4141 1427.822 1429.5348 1430.8477 1432.1488 1433.5704 1435.16 1436.6744 1438.4088 1439.9128 1441.5032 1442.9048 1444.3556 1445.9724 1448.0428 1450.0564 1451.0908 1452.2972 1454.068 1455.9088 1463.6943 1469.3152 1470.8816 1472.4424 1474.5833 1476.4095 1478.5028 1480.3804 1483.1764 1486.3588 1490.6124 1493.4612 1496.4288 1500.3312 1503.4376 1506.5833 1510.0104 1512.3232 1514.0328 1515.6392 1517.5304 1519.3152 1521.458 1523.0452 1524.8552 1526.6016 1528.6544 1530.3528 1531.9856 1533.5977 1535.6936 1537.5 1539.634 1541.5588 1543.0856 1544.2823 1545.79 1547.23 1548.8804 1550.5789 1552.2408 1553.5272 1555.5148 1557.3964 1558.8649 1559.968 1561.386 1562.8972 1564.9476 1567.166 1569.9104 1572.3232
1230.452 1229.9896 1230.218 1230.3628 1230.44 1230.204 1229.6539 1229.3092 1229.0004 1228.7996 1229.154 1229.7828 1230.4935 1231.2184 1231.5508 1231.6483 1232.08 1231.9904 1231.9856 1232.356 1232.7653 1233.0701 1233.3408 1233.604 1233.9392 1234.2584 1234.676 1235.004 1235.4636 1236.094 1236.7244 1237.1548 1237.49 1237.7797 1238.0864 1238.3264 1238.5457 1238.6368 1238.9012 1239.474 1239.974 1240.2108 1240.5396 1240.7723 1240.7765 1241.0372 1242.5297 1244.6608 1246.8248 1248.4304 1249.5701 1250.9324 1252.3212 1253.1996 1254.6771 1256.554 1258.2723 1259.762 1261.406 1262.754 1264.0352 1264.9489 1266.5833 1268.9448 1271.2 1271.304 1271.8591 1272.496 1273.6613 1274.59 1275.1248 1275.5687 1276.4336 1277.6648 1278.9252 1280.0916 1281.9576 1283.6696 1283.8737 1284.8505 1285.8784 1286.5992 1287.2092 1287.9884 1288.9167 1289.6304 1290.928 1292.4984 1293.5892 1294.686 1296.3519 1297.4543 1298.7131 1300.5557 1302.3164 1303.7651 1305.3192 1306.8696 1307.8828 1308.7716 1310.0028 1310.6484 1311.0732 1311.2412 1311.45 1312.1036 1316.7012 1319.6732 1320.3656 1321.3256 1322.7089 1323.9496 1327.3772 1329.6516 1329.8951 1329.7784 1329.5065 1330.1112 1331.436 1332.7089 1335.1075 1337.4965 1339.9564 1341.7452 1343.5339 1344.9956 1347.0048 1349.2104 1351.4009 1352.6216 1353.6075 1354.6003 1355.9672 1357.7208 1359.7087 1361.7576 1363.9008 1366.0272 1368.2983 1370.0864 1372.2992 1374.4192 1376.408 1378.5616 1380.4949 1382.154 1383.844 1385.172 1386.4596 1387.6676 1389.1184 1390.2616 1391.426 1392.5876 1394.3584 1395.6152 1396.6964 1397.5148 1398.6804 1399.6724 1400.5339 1400.9036 1401.066 1400.9076 1402.1992 1402.4048 1402.2992 1403.0223 1403.3828 1403.6564 1404.2028 1404.7948 1405.0388 1404.8756 1405.3436 1406.2676 1407.9028 1409.6228 1410.4712 1410.7864 1410.3724 1410.7444 1411.9844 1412.6156 1413.408 1414.168 1414.1564 1413.4532 1413.1252 1413.1932 1413.5168 1414.2144 1415.1748 1416.1005 1416.9288 1417.996 1419.3204 1420.598 1421.642 1422.4012 1423.046 1423.2388 1423.4705 1424.572 1426.3428 1427.734 1429.0984 1430.2864 1431.6492 1433.15 1434.8544 1436.5304 1438.1284 1439.5676 1440.9916 1442.438 1444.4327 1447.948 1450.458 1453.0316 1454.2212 1454.6356 1456.0269 1457.7957 1465.1713 1471.6952 1472.744 1475.2776 1477.792 1478.9456 1480.7504 1482.2087 1484.2812 1486.8763 1491.1664 1494.8864 1497.7792 1500.2177 1503.9904 1506.38 1508.9956 1510.9508 1512.7479 1515.0 1517.0472 1518.6608 1520.524 1522.1168 1523.798 1525.4084 1527.1316 1528.8508 1530.6528 1532.2864 1534.3744 1536.2408 1538.1132 1539.6613 1540.9216 1542.496 1544.0564 1545.5588 1547.0416 1548.4976 1550.056 1551.5424 1553.2832 1555.0896 1556.7424 1557.9167 1559.3844 1560.9612 1563.2424 1564.8688 1567.0544 1569.5432
1229.7665 1229.2592 1229.2692 1229.4716 1229.3352 1229.0464 1228.6748 1228.4948 1228.5068 1228.6116 1228.8684 1229.3835 1230.1184 1230.7568 1231.0284 1231.2444 1231.5367 1231.4055 1231.9039 1232.2936 1232.5933 1232.8372 1233.096 1233.372 1233.7191 1234.0448 1234.3992 1234.7096 1235.2043 1235.7484 1236.406 1237.1084 1237.626 1237.9764 1238.2648 1238.428 1238.7144 1239.0167 1239.4196 1239.938 1240.3387 1240.478 1240.7563 1241.01 1241.1532 1241.4172 1242.3488 1243.3568 1244.9176 1246.4048 1247.73 1249.1436 1250.6276 1251.9044 1253.6755 1255.3732 1257.2308 1258.8052 1260.0555 1260.9283 1262.1567 1262.624 1264.3096 1266.2936 1267.7416 1267.7017 1268.6119 1269.6808 1271.1732 1272.286 1272.9528 1273.5472 1274.5504 1275.7352 1277.1996 1278.374 1279.8232 1281.3704 1282.2992 1283.3656 1284.3152 1285.1288 1286.0532 1286.7653 1287.6344 1288.4327 1289.5168 1291.0984 1292.642 1294.0573 1295.8217 1297.2744 1298.6388 1300.1324 1301.6003 1302.91 1304.3416 1305.7448 1306.8916 1307.8156 1308.7212 1309.1364 1309.578 1309.9124 1310.3212 1311.4164 1315.3988 1318.3148 1319.1544 1320.0007 1321.3168 1322.212 1325.59 1328.25 1328.2424 1327.7064 1327.6328 1328.5784 1329.9417 1331.3984 1333.1667 1335.3524 1338.322 1340.442 1342.4652 1343.9556 1345.6256 1347.9672 1350.0511 1350.7488 1352.026 1353.4924 1355.3608 1357.2456 1359.4672 1361.3944 1363.6112 1365.8048 1367.8232 1369.5759 1371.656 1373.6256 1375.7089 1377.8704 1379.6523 1381.2635 1382.6104 1383.7368 1385.1228 1386.1165 1387.1936 1388.1608 1389.6957 1391.4524 1392.9656 1393.9376 1394.8636 1395.8387 1397.29 1398.0276 1398.522 1398.8612 1399.0524 1399.206 1399.2057 1398.688 1399.9095 1400.5896 1401.2043 1401.6204 1402.2028 1402.4668 1402.466 1402.738 1403.3628 1404.2725 1406.1412 1407.85 1408.5992 1408.5128 1408.0188 1408.6836 1410.0604 1410.6453 1410.6592 1410.8 1410.862 1410.7028 1410.9076 1411.4429 1412.02 1412.6456 1413.5348 1414.486 1415.576 1416.7985 1418.2748 1419.4996 1420.358 1420.8356 1421.0308 1421.582 1422.8809 1424.6832 1426.1724 1427.2275 1428.4559 1429.756 1431.2612 1432.8356 1434.564 1436.2177 1438.1237 1439.7452 1441.37 1442.9012 1444.7192 1449.3881 1453.3052 1455.4564 1456.326 1456.8412 1458.31 1458.9396 1469.2751 1472.8584 1475.5144 1478.6272 1480.128 1481.6208 1483.0096 1484.2136 1486.1852 1488.4684 1492.8232 1496.1368 1499.2872 1501.7432 1504.4456 1506.36 1508.3997 1510.2188 1511.8737 1513.916 1516.0704 1517.5385 1519.144 1520.868 1522.6316 1524.3076 1525.9596 1527.658 1529.4232 1530.8584 1532.7648 1534.4952 1536.3804 1538.4612 1539.72 1540.9921 1542.514 1544.1989 1545.7656 1547.0344 1548.3552 1549.9921 1551.7825 1553.5472 1555.2432 1556.3744 1557.9324 1559.8069 1561.8328 1563.1168 1565.1425 1566.7032
1228.7856 1228.0455 1228.072 1228.8735 1228.812 1228.492 1228.3632 1228.4232 1228.5488 1228.676 1228.8276 1229.2124 1229.9512 1230.3344 1230.5092 1230.7588 1230.9636 1231.198 1231.8264 1232.3224 1232.574 1232.7604 1233.0564 1233.342 1233.6672 1234.0336 1234.4836 1235.1068 1235.4916 1235.6917 1236.1792 1236.8289 1237.3503 1237.8816 1238.3464 1238.5729 1238.9172 1239.3596 1239.8672 1240.3488 1240.7045 1240.8108 1241.0024 1241.2872 1241.6584 1241.98 1242.4296 1242.9376 1244.004 1245.1423 1246.4176 1247.8127 1249.3756 1250.7948 1252.4596 1253.8748 1255.5524 1257.2068 1258.6952 1259.5912 1260.572 1260.7448 1261.144 1263.568 1264.5573 1264.9404 1266.0009 1267.3552 1268.6628 1269.9236 1270.8115 1271.5988 1272.5413 1273.6708 1275.3492 1276.738 1277.796 1278.8792 1280.568 1281.6472 1282.5184 1283.6528 1285.1667 1285.6917 1286.5844 1287.8916 1289.376 1290.7432 1292.1896 1293.692 1295.3368 1296.92 1298.3315 1299.5364 1301.0197 1302.2092 1303.3984 1304.5153 1305.59 1306.3228 1306.9252 1307.5668 1308.3164 1308.6276 1308.8452 1310.2444 1313.61 1315.4124 1317.4136 1318.5784 1319.7496 1320.2944 1320.5068 1323.494 1325.4076 1325.4236 1326.2048 1327.5696 1329.3508 1331.0195 1333.0135 1334.7944 1336.698 1338.8612 1341.1552 1342.8984 1344.6532 1346.3492 1348.0385 1349.3584 1351.0364 1352.8668 1355.0112 1357.02 1359.0483 1360.8804 1363.6031 1365.4904 1367.1595 1368.8684 1370.8248 1372.7936 1375.1428 1377.1588 1378.8085 1380.1323 1380.8624 1381.8904 1383.682 1384.4204 1385.3317 1386.5645 1388.5527 1390.0392 1391.1876 1392.0717 1392.9965 1394.1685 1395.5676 1396.2612 1396.5312 1396.7648 1397.0536 1397.2672 1397.3208 1397.3848 1397.796 1398.2224 1398.918 1399.9012 1400.4192 1400.5104 1400.2788 1400.582 1401.2528 1402.3008 1404.2972 1405.7491 1405.986 1405.5044 1405.0916 1405.79 1407.9156 1408.454 1408.1792 1408.0216 1407.9227 1408.2316 1408.9448 1409.6248 1410.4524 1411.0892 1412.058 1413.1028 1414.3544 1415.74 1417.0168 1418.012 1418.6268 1418.8635 1419.6188 1420.9875 1422.7521 1424.0256 1425.3632 1426.5232 1427.824 1429.0968 1430.8108 1432.502 1434.5543 1436.8008 1439.9064 1441.5472 1443.6516 1445.0356 1447.098 1451.7556 1456.3057 1457.7808 1458.9991 1459.9824 1461.0204 1463.902 1469.8248 1474.6711 1478.3944 1480.3872 1482.4628 1483.9308 1485.3575 1487.3503 1489.3969 1491.288 1494.1232 1497.1984 1500.0511 1502.172 1504.09 1505.8083 1507.572 1509.4744 1511.0692 1512.7491 1514.8375 1516.3447 1518.0228 1519.6788 1521.59 1523.3083 1524.5964 1526.4211 1528.376 1529.3503 1530.996 1532.624 1534.0864 1536.2328 1537.9893 1539.2788 1540.8607 1542.468 1544.2196 1545.4677 1546.458 1548.1532 1550.7596 1552.7428 1553.9568 1554.8969 1556.6108 1558.51 1560.1292 1561.5107 1563.8333 1565.5789
1228.0496 1227.1704 1227.4025 1228.4424 1228.5248 1228.4127 1228.2384 1228.3336 1228.5592 1228.7856 1228.9628 1229.1892 1229.7864 1230.0511 1230.2028 1230.4668 1230.8324 1231.2524 1231.9376 1232.7456 1233.0428 1233.154 1233.3531 1233.4788 1233.8071 1234.3608 1234.9684 1235.4652 1235.65 1235.7444 1236.0376 1236.4792 1237.0328 1237.7 1238.3192 1238.7456 1239.1827 1239.6012 1240.1296 1240.5984 1240.9548 1241.1156 1241.2839 1241.5352 1241.9976 1242.5048 1242.7728 1243.0392 1243.6248 1244.3264 1245.4424 1246.772 1248.4036 1249.9252 1251.4628 1252.8477 1254.4956 1256.1548 1257.5448 1258.0696 1258.6112 1258.7233 1258.6544 1260.0304 1262.1516 1263.0516 1264.4888 1265.5745 1266.3853 1267.9436 1269.1996 1270.1372 1271.038 1272.1036 1273.8252 1274.9548 1276.3384 1277.6952 1279.2472 1280.296 1281.2576 1282.8448 1284.4132 1285.3173 1286.4508 1287.758 1289.1744 1290.468 1291.7888 1293.192 1294.6936 1296.248 1297.7212 1298.974 1300.4452 1301.4604 1302.4968 1303.3352 1304.1165 1304.8604 1305.5197 1306.1724 1306.97 1307.1804 1307.6548 1308.6748 1310.65 1313.0188 1315.6864 1317.1136 1318.3224 1319.1136 1320.07 1321.4108 1323.022 1323.7516 1325.2456 1327.1641 1329.3204 1331.146 1333.1144 1334.7736 1336.6036 1338.3636 1340.3936 1342.2616 1344.1676 1345.7852 1347.1648 1348.6528 1350.6508 1352.4972 1354.6857 1356.6128 1358.6412 1360.582 1363.0833 1364.692 1366.3884 1368.1613 1370.2352 1372.4136 1374.7516 1376.5469 1377.9572 1378.6636 1379.1104 1380.22 1382.0068 1383.0044 1384.1165 1385.7635 1387.3816 1388.6104 1389.7028 1390.5452 1391.5629 1392.9956 1393.9124 1394.4875 1394.8096 1394.8544 1395.1584 1395.316 1395.4272 1395.6096 1395.804 1396.2096 1397.2812 1398.3524 1398.6783 1398.8064 1398.5604 1398.7628 1399.6727 1400.7896 1402.5037 1403.3812 1403.162 1402.642 1402.7115 1403.0612 1403.6613 1404.5388 1405.136 1405.636 1406.0044 1406.79 1407.5288 1408.1096 1408.838 1409.718 1410.8923 1411.7756 1413.1616 1414.6191 1415.6567 1416.4935 1417.0532 1417.8788 1419.2004 1420.5132 1421.6855 1423.0153 1424.6184 1426.0344 1427.4128 1428.9336 1430.8405 1432.6469 1436.2695 1438.5752 1441.2528 1443.356 1445.1884 1446.4716 1448.4724 1452.9364 1457.2776 1459.972 1462.5248 1462.9032 1464.9429 1467.5717 1471.8728 1475.8984 1480.4856 1482.0768 1483.834 1485.4956 1487.4008 1489.1279 1491.5048 1493.3416 1495.4496 1497.656 1499.9104 1501.6696 1503.1956 1504.6836 1506.5887 1508.3472 1510.1772 1511.7756 1513.5576 1515.0568 1516.2916 1517.698 1519.2124 1520.9116 1522.6996 1524.67 1527.0153 1527.924 1529.2488 1531.3584 1532.8737 1534.4744 1536.1708 1537.7084 1539.3472 1540.5032 1542.7867 1544.1467 1544.5428 1546.3564 1549.3988 1551.6812 1552.4512 1553.4327 1555.1412 1556.9188 1558.478 1560.3572 1562.7988 1564.2308
1227.2424 1226.5304 1226.72 1227.5688 1228.122 1228.2844 1228.1752 1228.3593 1228.6453 1229.0244 1229.262 1229.3204 1229.5228 1229.71 1230.0016 1230.5128 1231.142 1231.4236 1231.934 1232.8099 1233.118 1233.4268 1233.7916 1233.7916 1233.9296 1234.5112 1235.1144 1235.5496 1235.6265 1235.6544 1235.8628 1236.2059 1236.9559 1237.6456 1238.0668 1238.5037 1239.114 1239.7548 1240.3632 1240.7 1240.9752 1241.2656 1241.5184 1241.7816 1242.2048 1242.7089 1243.0961 1243.476 1243.972 1244.3688 1244.9204 1245.8804 1247.7115 1249.1324 1250.1848 1251.5367 1253.474 1254.9156 1255.9417 1256.2407 1256.4192 1256.86 1257.4364 1258.4677 1260.0468 1261.4036 1262.7324 1263.7948 1264.6936 1266.2104 1267.8284 1268.8892 1269.8477 1270.9445 1272.3416 1273.5616 1275.2672 1276.6407 1277.9896 1279.276 1280.7404 1282.3444 1283.98 1285.3488 1286.5604 1287.67 1288.9536 1290.1959 1291.5236 1292.8252 1294.1636 1295.5684 1296.9916 1298.2716 1299.2697 1300.084 1301.0732 1301.766 1302.5815 1303.5096 1304.322 1304.9468 1305.53 1305.834 1306.7408 1307.9329 1309.4452 1311.5845 1313.8988 1315.614 1316.8549 1317.7971 1318.808 1320.0016 1321.6332 1322.61 1324.3108 1326.7836 1329.3152 1331.1688 1333.0312 1334.6248 1336.4615 1338.0912 1339.7556 1341.666 1343.3644 1344.878 1346.5544 1348.3152 1350.5016 1352.2888 1354.3331 1356.1676 1358.1783 1360.0239 1362.048 1363.7592 1365.5996 1367.3668 1369.6096 1372.0392 1374.2736 1375.6929 1376.8396 1377.1876 1377.7728 1378.9872 1380.2496 1381.4719 1383.2092 1384.6708 1385.718 1386.758 1387.918 1388.7612 1389.9724 1391.6564 1391.8408 1392.3744 1392.88 1392.912 1393.0009 1393.0608 1393.1744 1393.424 1393.748 1394.348 1395.5808 1396.2384 1396.5748 1396.838 1396.7952 1397.0352 1397.8944 1399.0239 1400.106 1400.7349 1400.752 1400.3248 1400.6672 1401.0632 1401.0961 1401.8928 1403.0007 1404.0544 1404.7596 1405.3412 1405.8868 1406.4436 1407.2408 1408.2393 1409.3691 1410.4172 1412.2284 1413.5596 1414.4376 1415.028 1415.9288 1417.0385 1418.0588 1419.1771 1420.5864 1422.0464 1424.2064 1426.3296 1427.8884 1430.3907 1432.6172 1435.7068 1439.7548 1441.4108 1443.3076 1445.274 1446.9893 1448.4716 1450.4991 1454.0153 1457.8348 1461.35 1465.1732 1467.5773 1469.2292 1471.0444 1475.002 1478.506 1480.9116 1482.6428 1484.2388 1485.89 1487.7252 1489.3708 1491.4396 1493.1595 1495.0107 1497.1147 1499.1388 1500.6356 1502.0977 1503.6536 1505.3468 1506.9236 1508.8252 1510.3884 1511.912 1513.4568 1514.8704 1516.0352 1517.5956 1518.9196 1520.5396 1522.4412 1525.0424 1526.6864 1527.8572 1529.7476 1531.628 1533.4448 1535.0432 1536.3064 1537.6641 1538.512 1539.8456 1541.1768 1542.2676 1544.306 1547.3104 1549.3512 1550.6156 1551.882 1553.2396 1554.7628 1556.4508 1558.4965 1560.6328 1561.9336
1226.6072 1226.1608 1226.4072 1226.872 1227.4589 1227.8804 1228.2256 1228.5952 1228.7924 1229.106 1229.3763 1229.462 1229.5348 1229.7028 1230.1968 1230.868 1231.3196 1231.2748 1231.4148 1231.9612 1232.3948 1232.8428 1233.3972 1233.5876 1233.7463 1234.2256 1234.792 1235.3231 1235.4584 1235.4896 1235.8188 1236.1924 1236.8447 1237.3696 1237.5964 1237.9548 1238.6268 1239.4084 1240.1752 1240.552 1240.9255 1241.3424 1241.6335 1241.9993 1242.5568 1242.9792 1243.5288 1244.0032 1244.4576 1244.7952 1245.1124 1245.5892 1246.862 1248.2892 1249.436 1250.5944 1252.1876 1253.2916 1254.0887 1254.5385 1255.0808 1256.0656 1257.4508 1258.5573 1259.45 1260.3477 1261.4476 1262.9948 1264.5295 1265.6768 1266.99 1268.1388 1269.5028 1270.8828 1272.1047 1273.2256 1274.6136 1275.8737 1277.2584 1278.7112 1280.3412 1281.7772 1283.412 1284.7456 1286.006 1287.2725 1288.8055 1290.1232 1291.4644 1292.7948 1294.0844 1295.2556 1296.2484 1297.0197 1297.7208 1298.5768 1299.5836 1300.2924 1301.5208 1302.6567 1303.3556 1303.8812 1304.378 1304.9747 1306.0815 1307.224 1308.6005 1310.2628 1312.302 1314.542 1316.0541 1316.8925 1317.9264 1319.2463 1321.0812 1322.3204 1324.1324 1326.5332 1329.0808 1330.8575 1332.4928 1334.1072 1335.816 1337.0599 1338.6412 1340.6844 1342.6516 1344.4468 1346.3264 1348.2872 1350.4176 1352.096 1354.1276 1355.8083 1357.6729 1359.424 1361.3832 1363.1152 1364.9156 1366.6428 1368.82 1371.1296 1373.2896 1374.6464 1375.6436 1376.0892 1376.9672 1377.996 1378.928 1380.4816 1382.1796 1383.2684 1384.0908 1385.0364 1386.1716 1387.2468 1387.9332 1388.8684 1389.6384 1390.364 1390.5975 1391.308 1391.2424 1391.0369 1391.0176 1391.3328 1391.864 1392.8416 1393.992 1394.3136 1394.646 1394.9492 1395.0848 1395.3584 1396.0304 1396.792 1397.4076 1398.03 1398.3568 1398.1552 1398.6425 1399.1168 1399.9111 1401.0264 1402.0016 1402.7944 1403.3188 1403.6316 1404.2156 1404.9196 1405.6992 1406.6768 1407.8484 1409.1188 1411.0555 1412.462 1413.1376 1413.4624 1414.8688 1415.8936 1417.0325 1418.2756 1420.0032 1422.9257 1427.296 1429.7936 1431.3092 1433.554 1437.5012 1439.6676 1442.2723 1443.9877 1445.25 1446.6852 1448.2332 1449.7972 1451.7913 1454.8271 1458.702 1462.174 1466.9652 1469.5323 1471.3612 1473.5125 1476.1036 1478.5356 1480.5028 1481.938 1483.478 1485.0508 1486.8173 1488.8691 1490.73 1492.4132 1494.1084 1495.8508 1497.8171 1499.5364 1501.1624 1502.7184 1504.1771 1505.5668 1507.4468 1508.994 1510.48 1511.9703 1513.6216 1515.0984 1516.8876 1518.4004 1519.9427 1521.798 1523.9417 1525.552 1526.7468 1528.4916 1530.3488 1532.0792 1533.86 1534.984 1535.9585 1536.7344 1537.5687 1538.9 1540.562 1542.41 1544.7697 1547.1384 1549.3556 1550.5292 1551.5468 1552.9196 1554.794 1556.9836 1558.2983 1559.3512
1226.3184 1226.1104 1226.3984 1226.6544 1226.9884 1227.4396 1228.0764 1228.6252 1228.952 1229.1497 1229.3628 1229.4908 1229.6597 1229.966 1230.4928 1230.9401 1231.0164 1231.0188 1231.66 1232.084 1232.6088 1233.148 1233.7208 1233.9136 1233.944 1234.1272 1234.5448 1235.0441 1235.2115 1235.3083 1235.7247 1236.1552 1236.5181 1236.8324 1237.0624 1237.3832 1237.9036 1238.5908 1239.472 1240.1776 1240.8619 1241.4636 1241.8252 1242.234 1242.9888 1243.504 1244.2664 1244.736 1245.15 1245.486 1245.8956 1246.2708 1247.2751 1248.5 1249.498 1250.3243 1251.2509 1252.146 1252.9484 1253.7412 1254.9996 1256.3292 1257.6664 1258.6672 1259.4688 1260.5592 1261.9052 1263.0972 1264.4492 1265.4731 1266.6396 1267.7205 1268.868 1270.192 1271.6588 1272.9532 1274.3744 1275.6432 1277.0887 1278.5297 1279.8676 1281.1716 1282.4984 1283.7015 1285.034 1286.498 1288.2172 1289.5172 1290.8168 1291.9656 1293.1567 1294.0896 1294.8372 1295.4517 1296.0771 1296.9596 1298.1729 1299.2208 1300.4596 1301.678 1302.4355 1302.8228 1303.3608 1304.2328 1305.4004 1306.534 1307.8652 1309.262 1310.9052 1312.9069 1314.7368 1315.8217 1317.2908 1319.0796 1320.8992 1322.436 1324.4111 1326.2688 1328.3748 1330.198 1331.69 1333.1412 1334.7625 1336.136 1337.9344 1339.9312 1342.1888 1344.0903 1346.0225 1347.8976 1349.8464 1351.8336 1353.7568 1355.2152 1356.9677 1358.6188 1360.4976 1362.2672 1364.2592 1365.9408 1367.8024 1369.7656 1371.8591 1372.936 1373.7751 1374.6056 1375.6044 1376.578 1377.8584 1379.3296 1380.824 1381.9376 1382.3816 1383.2512 1384.3868 1385.4211 1386.2776 1387.1832 1387.838 1388.0316 1388.0557 1388.6453 1388.618 1388.5684 1388.6964 1388.9587 1389.4376 1390.2952 1391.3896 1392.1799 1392.4404 1392.6724 1392.9784 1393.3912 1393.932 1394.4136 1394.736 1394.8816 1395.2156 1395.858 1396.6323 1397.3923 1398.5016 1399.6008 1400.4891 1400.9124 1401.0468 1401.4548 1402.3304 1403.1312 1404.1116 1405.5107 1406.8865 1408.1472 1410.0264 1411.096 1410.832 1411.5599 1413.4708 1414.7732 1416.0328 1418.0232 1420.572 1425.1191 1430.7797 1433.254 1436.0704 1438.3688 1440.7948 1442.7579 1444.5688 1445.8665 1447.0312 1448.4792 1449.9196 1451.0645 1452.958 1457.3452 1460.3724 1462.7725 1467.044 1469.7216 1471.7808 1474.2247 1476.474 1477.8524 1479.7957 1481.2316 1482.7607 1484.1328 1485.6528 1487.4664 1489.6276 1491.5004 1493.1204 1494.5483 1496.3916 1498.2363 1500.0724 1501.8477 1503.3184 1504.4615 1506.1132 1507.6508 1509.1344 1510.6656 1512.4556 1514.0933 1515.884 1517.252 1518.928 1520.8145 1522.618 1524.2772 1525.636 1526.9255 1528.7091 1530.1804 1532.0645 1533.2532 1534.0905 1534.9144 1535.908 1537.184 1538.9185 1540.6223 1542.9264 1545.7168 1547.6748 1548.646 1549.7535 1551.0367 1552.712 1554.6472 1556.1852 1557.354
1225.9208 1225.8055 1226.1799 1226.516 1226.9236 1227.45 1227.99 1228.4396 1228.8016 1228.9784 1229.3124 1229.618 1229.8756 1230.2268 1230.5408 1230.7192 1230.7131 1231.066 1232.1168 1232.4896 1232.7264 1233.1168 1233.528 1233.7848 1234.0184 1234.2832 1234.7472 1235.128 1235.2068 1235.3164 1235.6648 1235.9592 1236.1644 1236.4244 1236.7032 1236.9647 1237.4012 1238.0996 1239.1832 1240.0743 1240.7883 1241.4156 1241.9436 1242.3572 1242.9664 1243.5392 1244.3721 1245.032 1245.6237 1245.9612 1246.3907 1246.9276 1247.7728 1248.6312 1249.4276 1250.3531 1251.3164 1252.2228 1253.1973 1254.3276 1255.6932 1256.7604 1257.648 1258.4584 1259.3792 1260.5192 1261.8196 1262.7012 1263.9427 1265.1012 1266.5204 1267.606 1268.7463 1270.016 1271.4652 1272.854 1274.2736 1275.4064 1276.7496 1277.84 1278.8477 1279.9548 1281.3944 1282.7112 1284.2324 1285.7028 1287.1412 1288.3405 1289.6592 1290.7136 1291.8672 1292.6351 1293.318 1293.958 1294.57 1295.5244 1296.9136 1298.2913 1299.5364 1300.6876 1301.514 1301.8788 1302.524 1303.5223 1304.8835 1306.2108 1307.4211 1308.434 1309.642 1311.2324 1312.8951 1315.0297 1317.0876 1318.7612 1320.5504 1322.116 1324.06 1325.876 1327.7236 1329.3468 1330.8884 1332.4963 1334.176 1335.6376 1337.2704 1339.28 1341.6943 1343.5288 1345.5424 1347.3632 1349.1072 1351.1664 1353.132 1354.7936 1356.3292 1357.7356 1359.4993 1361.336 1363.5184 1365.264 1366.8832 1368.2767 1369.8816 1371.04 1372.1112 1373.1992 1374.4355 1375.5436 1376.8384 1378.0712 1379.3744 1380.4368 1380.8145 1381.7224 1382.9844 1383.9532 1384.708 1385.6232 1385.7068 1385.6683 1385.4708 1386.1084 1386.582 1386.2156 1386.7563 1387.3707 1387.7064 1388.2872 1389.2816 1390.0063 1390.3252 1390.7092 1391.1384 1391.556 1392.0385 1392.424 1392.7208 1392.9384 1393.342 1394.1235 1395.0684 1395.9132 1397.068 1397.988 1398.5348 1398.7421 1399.0643 1399.8756 1401.0328 1402.0223 1403.29 1404.6652 1405.7697 1406.7632 1408.8368 1409.5576 1409.1344 1410.6128 1412.6539 1413.7356 1415.4664 1418.0248 1420.8888 1425.3688 1431.7028 1435.7532 1438.9064 1441.2064 1443.2836 1444.6532 1446.068 1447.0968 1448.2512 1449.7136 1451.3508 1452.9644 1455.8724 1459.4116 1461.7205 1464.1716 1466.9976 1469.2096 1471.3696 1473.3849 1475.2428 1476.9764 1478.9388 1480.2885 1481.8448 1483.3575 1484.9167 1486.6136 1488.6381 1490.5109 1492.0771 1493.4236 1495.306 1497.1332 1499.0323 1500.7804 1502.2537 1503.4736 1504.842 1506.186 1507.932 1509.6008 1511.4596 1513.1212 1514.8665 1516.2712 1517.8951 1519.5544 1521.4084 1523.2244 1524.6096 1525.624 1527.1028 1528.6268 1530.4517 1531.6005 1532.3608 1533.1848 1534.4744 1535.9056 1537.5448 1539.3127 1541.84 1544.5104 1545.7892 1546.522 1547.8512 1549.2272 1550.6624 1552.4408 1554.3531 1555.7476
1225.1525 1225.4164 1225.9868 1226.3284 1226.9775 1227.648 1228.0028 1228.1724 1228.3724 1228.7668 1229.4624 1229.8672 1230.1244 1230.3516 1230.4865 1230.5488 1230.6136 1231.1423 1232.144 1232.3496 1232.3737 1232.648 1233.0164 1233.2292 1233.496 1233.8424 1234.4053 1235.022 1235.4008 1235.6288 1235.8732 1235.9972 1236.17 1236.3796 1236.6144 1236.7816 1237.1323 1237.9733 1239.2368 1240.1128 1240.7532 1241.182 1241.8336 1242.4705 1243.0787 1243.45 1244.0116 1244.718 1245.5176 1246.1376 1246.7332 1247.3124 1247.9176 1248.5448 1249.3088 1250.208 1251.3228 1252.4084 1253.6772 1254.7676 1255.8384 1256.5745 1257.3008 1258.1608 1259.3273 1260.6927 1262.1272 1262.9304 1264.0768 1265.2888 1266.3916 1267.4227 1268.5792 1269.6625 1270.768 1271.9336 1273.2008 1274.3152 1275.4648 1276.4784 1277.6652 1279.046 1280.6116 1281.9388 1283.5088 1284.7096 1285.9376 1287.2216 1288.5063 1289.4167 1290.4036 1290.978 1291.4044 1292.1091 1292.9752 1294.0608 1295.6152 1297.2249 1298.5612 1299.518 1300.4312 1300.964 1301.6412 1302.6412 1304.0576 1305.488 1306.7084 1307.7308 1308.81 1310.3779 1312.4004 1314.446 1316.5292 1318.3956 1320.3884 1321.5956 1323.158 1325.1667 1327.0748 1328.5388 1330.2512 1332.0912 1333.7056 1335.0135 1336.6692 1338.5844 1340.9128 1342.8928 1344.7769 1346.2607 1348.182 1350.1132 1352.1688 1353.9183 1355.402 1356.8732 1358.498 1360.3956 1362.7 1364.324 1365.7344 1366.9576 1368.2856 1369.3984 1370.522 1371.7428 1373.2535 1374.488 1375.6428 1376.6124 1377.742 1378.6484 1379.1968 1380.136 1381.0784 1381.7216 1382.4167 1383.3984 1383.6892 1383.2725 1382.6316 1382.8972 1383.9136 1383.5752 1384.4896 1385.0857 1385.6792 1386.4608 1387.634 1388.2876 1388.7028 1388.9691 1389.302 1389.6364 1390.0828 1390.3835 1390.6312 1390.9808 1391.536 1392.3488 1393.28 1394.0104 1395.0264 1395.8312 1396.1804 1396.89 1397.9865 1399.1624 1400.1384 1401.1184 1402.452 1403.6152 1404.6808 1405.652 1406.3953 1407.4208 1408.8068 1410.3932 1411.9368 1413.5736 1416.3057 1418.9432 1421.9984 1425.0928 1431.4288 1436.5712 1439.5416 1442.6368 1444.9965 1446.2932 1447.4355 1448.4636 1449.716 1451.2864 1453.0508 1454.6235 1457.2036 1459.8916 1462.3228 1464.5956 1466.6664 1468.5065 1470.5072 1472.2152 1474.0892 1475.8036 1477.6771 1479.15 1480.75 1482.5107 1484.1432 1485.7767 1487.5796 1489.4677 1491.1464 1492.56 1494.3647 1495.9696 1497.8308 1499.3796 1500.832 1502.108 1503.38 1504.9167 1506.7404 1508.3531 1510.2456 1511.8816 1513.4056 1515.0248 1516.742 1518.366 1520.2316 1521.9508 1523.254 1524.3549 1525.854 1527.406 1529.0344 1529.8672 1530.574 1531.5172 1533.112 1534.6208 1536.2084 1538.042 1540.3296 1542.1312 1543.3824 1544.3416 1545.8616 1547.2537 1548.462 1550.0531 1552.1344 1553.8312
1224.8444 1225.3356 1225.6611 1226.0156 1227.0144 1227.72 1227.9429 1227.906 1228.0892 1228.7092 1229.4752 1229.9473 1230.2036 1230.3268 1230.4257 1230.5504 1230.6288 1230.9528 1231.6096 1231.8376 1231.9984 1232.3032 1232.6525 1232.9852 1233.2528 1233.4952 1233.8644 1234.4684 1235.2393 1235.7216 1236.0828 1236.2148 1236.3916 1236.5629 1236.7328 1236.8584 1237.102 1237.7188 1238.8217 1239.7632 1240.4012 1240.6204 1241.3016 1242.4984 1243.3995 1243.71 1243.9875 1244.5292 1245.2144 1245.9432 1246.7764 1247.4229 1248.0088 1248.5624 1249.2312 1250.06 1251.1676 1252.2772 1253.5436 1254.4452 1255.2976 1256.0752 1257.0536 1258.04 1259.2303 1260.5048 1261.8856 1262.6744 1263.7048 1264.6288 1265.442 1266.3196 1267.3384 1268.5063 1269.6976 1270.804 1272.0664 1273.264 1274.4888 1275.6064 1276.9875 1278.4932 1280.002 1281.2876 1282.7448 1283.8976 1285.0856 1286.3104 1287.392 1288.1808 1288.998 1289.462 1289.9292 1290.8228 1291.7528 1292.872 1294.6688 1296.3359 1297.5508 1298.4404 1299.296 1299.9712 1300.8556 1301.7372 1302.8616 1304.2648 1305.8756 1307.3268 1308.7516 1310.1436 1312.0012 1313.7108 1315.718 1317.8212 1319.9572 1321.198 1322.67 1324.5892 1326.4067 1327.8259 1329.5664 1331.392 1333.032 1334.4312 1336.366 1338.1212 1340.1144 1342.0736 1344.0792 1345.648 1347.4172 1349.3276 1351.1936 1352.7177 1354.2964 1355.8173 1357.5972 1359.4772 1361.6968 1363.2552 1364.6552 1365.8992 1367.136 1368.0297 1369.0323 1370.3907 1371.9144 1373.296 1374.3804 1375.2524 1376.1564 1377.1508 1377.8584 1378.8505 1379.5872 1380.1632 1381.1608 1381.9808 1382.038 1381.5844 1381.1012 1380.4213 1380.4633 1381.224 1382.528 1383.2616 1384.0887 1385.0304 1386.2133 1386.9148 1387.2804 1387.3596 1387.5476 1387.8948 1388.3708 1388.6476 1388.8488 1389.3472 1389.9095 1390.5961 1391.5272 1392.152 1392.8431 1393.8304 1395.1124 1396.1532 1397.196 1398.2584 1399.3312 1400.3944 1401.6504 1402.756 1403.8055 1404.668 1405.8519 1407.2024 1408.5244 1410.0964 1412.2512 1414.6576 1417.5408 1420.7352 1423.9088 1426.0079 1432.5208 1436.7528 1439.4624 1442.052 1444.5908 1447.0204 1448.4364 1449.6868 1451.1448 1452.7152 1454.5308 1456.1884 1457.938 1460.0116 1462.57 1464.6188 1466.3593 1467.8456 1469.6968 1471.3872 1473.3484 1475.0627 1476.866 1478.4492 1479.9556 1481.6075 1483.1888 1484.7616 1486.67 1488.5355 1490.3392 1492.0056 1493.5887 1495.008 1496.9028 1498.266 1499.5112 1500.808 1502.1112 1503.7648 1505.6156 1507.1436 1509.0104 1510.7504 1512.3512 1514.1384 1515.7941 1517.4596 1519.0844 1520.4677 1521.7972 1523.1412 1524.8516 1526.0532 1527.1824 1528.0808 1528.926 1530.2244 1531.852 1533.1768 1534.9524 1536.834 1538.6729 1540.1208 1541.5288 1542.6448 1544.0872 1545.3303 1546.7635 1548.454 1550.568 1552.4296
1224.8324 1225.0652 1225.1636 1225.9324 1227.0968 1227.6335 1227.578 1227.5037 1227.852 1228.4543 1229.1572 1229.7292 1230.0717 1230.254 1230.4572 1230.7059 1230.9136 1231.06 1231.3708 1231.6316 1231.9324 1232.2188 1232.4252 1232.818 1233.2428 1233.4956 1233.738 1234.1348 1234.7988 1235.438 1236.248 1236.6351 1236.6827 1236.6868 1236.8633 1237.0264 1237.1676 1237.466 1238.328 1239.1952 1239.7268 1240.1508 1241.1096 1242.4816 1243.6816 1244.0312 1244.2472 1244.6688 1245.2388 1245.8788 1246.6855 1247.3568 1248.1316 1248.7396 1249.452 1250.1704 1251.3268 1252.4988 1253.4148 1253.9996 1254.7516 1255.5555 1256.6564 1257.7653 1259.0752 1260.1409 1261.094 1261.6532 1262.6337 1263.4536 1264.3528 1265.4296 1266.716 1267.896 1268.9875 1270.0452 1271.2885 1272.5756 1273.9172 1275.0756 1276.4612 1277.898 1279.5588 1280.8572 1282.1364 1283.2075 1284.2596 1285.1716 1286.1075 1286.9069 1287.5125 1287.8723 1288.5168 1289.448 1290.41 1291.6732 1293.4227 1294.718 1295.9764 1297.0771 1297.8024 1298.5135 1299.9792 1301.0216 1302.072 1303.4208 1305.148 1306.6553 1308.312 1310.0944 1311.9032 1313.2992 1315.1381 1317.2491 1319.1064 1320.5239 1322.35 1324.1692 1325.8835 1327.0684 1328.73 1330.3876 1332.0643 1333.7516 1335.7484 1337.434 1339.4548 1341.2509 1343.1307 1344.7268 1346.3372 1348.0988 1349.936 1351.46 1353.1804 1354.9044 1357.2112 1358.96 1360.5092 1361.8884 1363.344 1364.52 1365.594 1366.5348 1367.8192 1368.9712 1370.264 1371.7272 1372.868 1373.7952 1374.8575 1376.0671 1376.5516 1377.1572 1378.1732 1379.0356 1379.7404 1380.086 1379.828 1379.4768 1379.1628 1378.894 1379.0844 1379.7148 1381.1608 1382.3248 1382.7744 1383.4608 1384.4032 1385.0576 1385.334 1385.3027 1385.5032 1385.9464 1386.5004 1386.8403 1387.2472 1387.7576 1388.2836 1388.9788 1390.0192 1390.9792 1392.2552 1393.4224 1394.51 1395.274 1396.3192 1397.3768 1398.3556 1399.426 1400.7112 1401.7767 1402.808 1403.8248 1405.1328 1406.1112 1407.7512 1410.8944 1414.0608 1419.2056 1423.1064 1424.6943 1425.9392 1428.3359 1432.4487 1435.5408 1439.5977 1442.1912 1444.4988 1447.15 1448.9868 1450.386 1452.056 1453.752 1455.5952 1457.1392 1458.5717 1460.1252 1462.222 1464.0469 1465.7032 1467.3112 1469.0536 1470.6232 1472.5339 1474.2196 1476.0673 1477.7048 1479.4304 1480.8816 1482.2164 1483.6356 1485.5964 1487.438 1489.3296 1491.2192 1492.7697 1494.0153 1495.6049 1496.844 1498.2465 1499.628 1501.022 1502.462 1504.2052 1505.77 1507.602 1509.3868 1511.2788 1512.9652 1514.442 1516.1428 1517.8176 1518.9169 1520.2992 1521.852 1523.8204 1524.6812 1525.1077 1526.11 1527.4543 1528.9104 1530.4716 1531.9404 1533.8972 1535.8148 1537.1945 1538.3232 1539.6628 1540.8892 1542.3156 1543.6901 1545.4803 1547.4236 1549.8331 1551.7396
1224.5204 1224.4668 1224.8229 1225.7612 1226.7424 1227.1672 1226.998 1227.0933 1227.5831 1228.0192 1228.4908 1229.0516 1229.6188 1230.1372 1230.5269 1230.8092 1231.1072 1231.2168 1231.3835 1231.6444 1232.0251 1232.3052 1232.7308 1233.2964 1234.1772 1234.358 1234.038 1233.9788 1234.3252 1234.9564 1235.9768 1236.6968 1236.8748 1236.8292 1236.9336 1237.1624 1237.3748 1237.5804 1238.0808 1238.6008 1239.2236 1240.0652 1241.2448 1242.5352 1244.1736 1244.6576 1244.5712 1244.7528 1245.2284 1245.9292 1246.7992 1247.3872 1248.2612 1249.0292 1249.9288 1250.6008 1251.4364 1252.4324 1253.114 1253.51 1254.2236 1255.1508 1256.3116 1257.4427 1258.788 1259.6808 1260.3187 1260.8652 1261.9504 1262.844 1263.9448 1265.188 1266.66 1267.5504 1268.5748 1269.754 1271.0316 1272.2244 1273.5564 1274.9148 1276.274 1277.5092 1279.0836 1280.3693 1281.4468 1282.3164 1283.2867 1284.074 1284.978 1285.7148 1286.0684 1286.4348 1287.2832 1288.1648 1289.2252 1290.4308 1291.7068 1292.9155 1294.066 1294.9716 1295.9464 1296.9888 1298.692 1300.1248 1301.4183 1302.716 1304.3464 1306.0281 1307.8904 1309.6456 1311.4336 1312.9928 1314.882 1316.6348 1318.2551 1319.8792 1321.826 1323.3652 1324.9868 1326.2148 1328.0684 1329.8124 1331.5884 1333.434 1335.4236 1337.1172 1338.998 1340.5844 1342.2924 1343.8068 1345.3844 1347.0148 1348.8744 1350.4896 1352.4332 1354.4227 1356.3688 1358.1864 1359.47 1360.3868 1361.7416 1363.02 1364.21 1365.4628 1366.6288 1367.6288 1368.9376 1370.0295 1371.2512 1372.3688 1373.6648 1374.8024 1375.3444 1375.8173 1376.7612 1377.398 1377.7444 1377.9427 1377.844 1377.616 1377.1876 1377.1812 1377.6956 1378.254 1379.4824 1380.6448 1381.3336 1382.0056 1382.668 1383.244 1383.4299 1383.3475 1383.6648 1384.2264 1384.822 1385.1924 1385.8752 1386.6544 1387.5195 1388.2804 1389.4937 1390.5432 1391.8217 1392.728 1393.5892 1394.5771 1395.5992 1396.4615 1397.47 1398.6829 1400.0048 1400.9344 1402.092 1403.088 1404.2424 1406.904 1411.0256 1413.2697 1417.5352 1423.2656 1426.064 1427.084 1428.272 1430.8577 1433.7528 1436.4944 1440.004 1442.4615 1444.7365 1447.2084 1449.1892 1450.8636 1452.7312 1454.2544 1455.9808 1457.376 1458.594 1459.9812 1461.7988 1463.342 1465.0416 1466.7969 1468.5441 1469.7168 1471.5436 1473.3364 1475.236 1476.8704 1478.6584 1480.0936 1481.3844 1482.626 1484.5028 1486.2484 1488.0776 1489.9368 1491.7456 1492.996 1494.3104 1495.5673 1497.36 1498.8967 1500.2748 1501.6395 1503.1796 1504.5587 1506.3988 1507.9661 1509.8364 1511.638 1513.294 1514.8796 1516.752 1517.9232 1519.1232 1520.4712 1522.0107 1522.6971 1523.6052 1524.8396 1526.1992 1527.4376 1529.0269 1530.7596 1532.766 1534.3492 1535.5448 1536.6688 1538.106 1539.4907 1541.0701 1542.6989 1544.518 1546.6324 1549.0684 1550.5875
1223.4524 1223.7236 1224.4548 1225.2899 1226.0044 1226.3684 1226.3872 1226.6512 1227.1232 1227.4104 1227.7404 1228.3884 1229.2092 1230.0028 1230.3972 1230.486 1230.6641 1230.8792 1231.1952 1231.5728 1232.1744 1232.5496 1233.0616 1233.812 1235.2344 1235.648 1234.972 1234.4392 1234.2988 1234.6732 1235.5137 1236.2823 1236.7504 1236.9832 1237.1708 1237.3572 1237.6008 1237.8568 1238.2463 1238.5144 1239.4468 1240.4956 1241.4531 1242.5132 1244.2496 1245.4264 1245.2532 1244.9916 1245.184 1245.836 1246.9224 1247.828 1248.6296 1249.1248 1249.8424 1250.4816 1251.224 1251.984 1252.786 1253.3556 1254.162 1255.0004 1256.0316 1256.9531 1257.9404 1258.7372 1259.9064 1260.8064 1261.9188 1262.8804 1264.0836 1265.2748 1266.4408 1267.3112 1268.5316 1269.5836 1270.8464 1271.9656 1273.402 1274.6724 1275.8243 1276.9436 1277.97 1278.9916 1279.9708 1280.9652 1281.918 1282.6804 1283.392 1284.0024 1284.4512 1284.936 1285.8452 1286.7972 1287.9083 1288.9692 1289.9991 1290.9952 1291.9724 1292.8444 1294.0532 1295.3684 1297.3752 1299.1752 1300.4628 1301.582 1303.1936 1305.0968 1307.4327 1309.3408 1311.112 1312.7184 1314.5436 1316.0109 1317.4844 1319.1453 1321.0208 1322.3735 1323.9427 1325.4348 1327.4396 1329.2996 1331.2375 1333.0887 1334.9132 1336.5948 1338.3944 1339.9832 1341.6444 1342.9364 1344.4996 1346.01 1347.8136 1349.6488 1351.7609 1353.6544 1355.1072 1356.4392 1357.8192 1358.6704 1359.5084 1361.286 1363.0212 1364.1068 1365.2096 1366.2672 1367.5817 1368.6256 1370.052 1371.4784 1372.6948 1373.6188 1374.2808 1374.8552 1375.4993 1375.736 1375.8536 1376.1504 1375.9352 1375.5209 1375.0308 1375.2612 1376.0833 1376.9329 1377.7252 1378.9972 1379.9568 1380.3168 1380.8348 1381.2853 1381.41 1381.5516 1382.072 1382.68 1383.3188 1383.946 1384.9056 1385.5168 1386.1932 1387.3412 1388.8417 1390.0104 1390.9937 1391.7648 1392.8876 1393.9156 1394.842 1395.6964 1396.9176 1398.1624 1399.2628 1400.0771 1401.8132 1405.9868 1408.8824 1411.7776 1414.2112 1415.6335 1418.706 1424.4412 1427.6304 1428.8391 1430.4268 1432.606 1435.0144 1437.8384 1441.0336 1443.1528 1445.3292 1447.3243 1449.3104 1451.1472 1453.0896 1454.3577 1455.9812 1457.3452 1458.3964 1459.6676 1461.2231 1462.6904 1464.5771 1466.4348 1468.1528 1469.0968 1470.5599 1472.3 1474.3512 1475.9775 1477.4744 1478.9631 1480.3916 1481.5532 1483.5656 1485.2512 1486.9443 1488.6276 1490.43 1491.8876 1493.3048 1494.4952 1496.1528 1497.6144 1499.0712 1500.5457 1502.0007 1503.2784 1505.1031 1506.7576 1508.5676 1510.3083 1512.1184 1513.564 1515.1156 1516.4332 1517.5848 1518.7305 1519.842 1520.8204 1522.1188 1523.3052 1524.6924 1526.0316 1527.6996 1529.3596 1531.1128 1532.4376 1533.7932 1535.2076 1536.88 1538.4424 1539.9376 1541.6456 1543.3628 1545.3204 1547.6244 1549.0404
1223.146 1223.6604 1224.3948 1225.0251 1225.4148 1225.6316 1225.9136 1226.2384 1226.5344 1226.7976 1227.2852 1228.146 1228.9884 1229.6652 1229.9956 1230.0428 1230.2568 1230.6224 1231.0153 1231.4167 1232.0752 1232.4872 1232.9504 1233.7184 1234.8488 1235.5745 1235.676 1235.3448 1234.9436 1234.71 1235.2728 1235.9536 1236.4672 1236.9176 1237.3756 1237.6292 1237.824 1238.1263 1238.6641 1239.052 1240.3348 1241.214 1241.8468 1242.7244 1243.7848 1244.8784 1245.7092 1245.7004 1245.5088 1245.6696 1246.4048 1247.632 1248.772 1249.1904 1249.676 1250.3969 1251.1288 1251.7672 1252.5852 1253.3468 1254.2108 1254.8636 1255.5988 1256.3076 1257.2692 1258.3461 1260.0049 1261.1608 1262.0724 1262.8916 1264.1396 1265.2828 1266.3256 1267.2456 1268.3892 1269.3052 1270.436 1271.616 1273.0413 1274.2156 1275.3772 1276.0116 1276.7612 1277.6372 1278.8083 1279.99 1280.878 1281.426 1281.944 1282.564 1283.1592 1283.5624 1284.4283 1285.4492 1286.5436 1287.478 1288.4832 1289.564 1290.69 1291.914 1293.0573 1294.7628 1297.2017 1298.6193 1300.0028 1301.0164 1302.54 1304.5824 1307.0464 1308.9401 1310.792 1312.3792 1314.174 1315.686 1317.1604 1318.7045 1320.512 1321.9144 1323.47 1325.0148 1326.946 1328.8156 1330.8289 1332.5696 1334.282 1335.9796 1337.7089 1339.2161 1340.9396 1342.2203 1343.5292 1345.0076 1346.9343 1348.9872 1351.012 1352.5745 1353.684 1354.2368 1355.7089 1356.8127 1357.9116 1359.7308 1361.5828 1362.5532 1363.7233 1365.1552 1366.5153 1367.7096 1368.9095 1370.6096 1371.8372 1372.4125 1373.1984 1373.7424 1374.3273 1374.26 1373.884 1373.6992 1373.3376 1373.4255 1373.4812 1373.9772 1374.928 1375.7535 1376.3531 1377.398 1378.4072 1378.5864 1378.9956 1379.3676 1379.7941 1380.2844 1380.7969 1381.5472 1382.4412 1383.1068 1383.4552 1383.9688 1385.2156 1386.6436 1388.1952 1389.356 1390.3289 1391.3127 1392.4036 1393.2412 1394.0325 1394.9796 1396.4496 1397.8368 1399.1132 1400.31 1404.5212 1410.0084 1411.6344 1413.9185 1415.8064 1417.4752 1419.3116 1423.6516 1428.008 1429.764 1431.1492 1433.1124 1435.772 1438.5752 1441.1448 1443.1168 1445.6917 1447.602 1449.3584 1451.008 1452.8088 1454.1888 1455.6915 1456.9803 1457.9652 1459.15 1460.512 1461.8752 1463.8724 1465.9141 1467.5887 1468.4656 1469.8512 1471.4056 1473.4064 1475.1736 1476.6632 1477.8976 1479.1595 1480.438 1482.5176 1484.0592 1485.746 1487.4308 1489.1924 1490.6676 1492.3456 1493.7184 1495.1168 1496.6136 1498.0432 1499.4952 1501.0896 1502.3848 1504.0256 1505.6912 1507.4636 1509.1132 1510.8737 1512.452 1513.91 1515.0852 1516.1423 1517.1119 1518.2635 1519.4196 1520.6309 1521.918 1523.4692 1524.978 1526.6876 1528.2628 1529.8536 1531.188 1532.6996 1534.1156 1535.8984 1537.648 1539.3704 1540.9744 1542.3588 1543.6924 1545.79 1547.4396
1223.13 1223.7572 1224.314 1224.7228 1224.9928 1225.2208 1225.7744 1225.9896 1226.1488 1226.4536 1227.072 1227.9432 1228.7572 1229.2036 1229.4996 1229.8596 1230.418 1230.8236 1231.0848 1231.4185 1231.9672 1232.3752 1232.908 1233.6407 1234.4932 1235.1444 1235.958 1235.8628 1235.4111 1234.9471 1234.9764 1235.5004 1236.0072 1236.6344 1237.3531 1237.8348 1238.3256 1238.6729 1238.878 1239.3707 1240.9504 1241.6088 1242.264 1243.2416 1243.962 1244.5812 1245.6132 1246.3196 1246.5812 1246.5197 1246.7393 1247.0712 1248.206 1249.1332 1249.9603 1250.4364 1250.9865 1251.6672 1252.3572 1253.2292 1254.3136 1254.9784 1255.5184 1256.0056 1256.886 1258.0627 1259.7089 1261.048 1262.0284 1262.7491 1263.7208 1264.6272 1265.5701 1266.59 1267.6832 1268.7216 1270.0764 1271.1788 1272.3772 1273.6627 1274.7324 1274.9884 1275.7992 1276.556 1277.6172 1278.8052 1279.7576 1280.2472 1280.592 1281.1407 1281.7277 1282.1613 1283.0084 1284.0564 1285.2532 1286.2164 1287.36 1288.6648 1289.9552 1291.2136 1292.4164 1294.2788 1296.4996 1297.8948 1299.4373 1300.7692 1302.744 1304.8568 1306.9095 1308.672 1310.3644 1311.8708 1313.6632 1315.3208 1317.0687 1318.5688 1320.0028 1321.3572 1322.9417 1324.4736 1326.3663 1328.2584 1330.2396 1331.8484 1333.6368 1335.668 1337.262 1338.278 1339.842 1341.2516 1342.5975 1344.1064 1346.0604 1348.0068 1349.978 1351.3331 1352.2776 1353.128 1354.3264 1355.5223 1357.3048 1358.7704 1359.896 1360.7552 1362.1827 1364.01 1365.4688 1366.568 1367.6724 1369.2244 1370.7052 1371.2428 1371.9744 1372.5256 1372.8588 1372.5044 1371.9891 1371.6044 1371.2928 1371.544 1371.9896 1372.7 1373.5764 1374.2228 1374.8788 1375.398 1375.9692 1376.6012 1377.0332 1377.7556 1378.5272 1379.0367 1379.7352 1380.5048 1380.986 1381.3972 1382.3744 1383.5264 1384.744 1385.9768 1387.4392 1388.6168 1389.7524 1390.6748 1391.6316 1392.594 1394.1188 1396.0164 1397.8837 1399.6588 1400.8807 1402.8864 1408.7832 1411.6296 1414.1104 1416.0248 1417.5068 1418.8588 1420.5708 1423.8804 1428.1019 1430.0676 1431.6984 1434.1472 1436.8029 1438.982 1441.604 1444.5496 1446.606 1448.1188 1449.4484 1450.738 1452.3647 1454.028 1455.3248 1456.3936 1457.4668 1458.526 1459.7788 1460.9644 1462.8552 1464.788 1466.264 1467.3936 1469.1119 1470.7024 1472.4272 1474.072 1475.7072 1476.7384 1477.9543 1479.4888 1481.2563 1482.678 1484.4188 1486.2028 1488.0304 1489.5024 1491.2452 1492.6292 1494.0529 1495.64 1497.0084 1498.3925 1500.156 1501.568 1502.9993 1504.604 1506.5016 1508.1296 1509.6896 1511.1711 1512.5568 1513.536 1514.472 1515.4792 1516.8317 1518.154 1519.4023 1520.7424 1522.3376 1523.8696 1525.6432 1527.292 1528.828 1530.1504 1531.5264 1532.8456 1534.7512 1537.0232 1539.1536 1540.1696 1541.504 1542.6711 1544.01 1545.3988
1223.1116 1223.55 1223.8333 1224.2421 1224.6096 1225.0712 1225.8064 1226.092 1226.3312 1226.636 1227.0576 1227.58 1228.3461 1228.8932 1229.2507 1229.7756 1230.6044 1230.9875 1231.2632 1231.7024 1232.2312 1232.6664 1233.0704 1233.5376 1234.3324 1234.8461 1235.7484 1236.058 1236.1504 1235.744 1235.4357 1235.3405 1235.6112 1236.2368 1237.0972 1237.7516 1238.6312 1239.1688 1239.4204 1239.8236 1240.9072 1241.6265 1242.4712 1243.4888 1244.39 1244.9564 1245.41 1246.0684 1246.7668 1247.2172 1247.6927 1247.4728 1247.7797 1248.574 1249.7228 1250.506 1250.9736 1251.5344 1252.2708 1253.1716 1254.316 1255.072 1255.6512 1256.0792 1256.774 1257.85 1259.3273 1260.6024 1261.8259 1262.7852 1263.6256 1264.4088 1265.3099 1266.3492 1267.5367 1268.6265 1269.966 1270.8492 1271.7996 1272.9427 1273.5323 1274.0492 1274.856 1275.6224 1276.5483 1277.4677 1278.6328 1279.4072 1279.472 1279.9023 1280.5764 1281.1188 1281.8972 1282.8524 1284.1956 1285.594 1286.8424 1287.9983 1289.3856 1290.5223 1292.0172 1294.2412 1295.8828 1297.3708 1299.194 1300.8763 1303.0536 1305.0817 1306.7823 1308.5176 1309.9924 1311.4364 1313.2393 1314.9865 1316.7704 1318.2432 1319.6453 1321.126 1322.6344 1324.0688 1325.824 1327.6056 1329.4828 1331.1268 1332.6655 1334.7128 1336.6324 1337.5476 1339.0125 1340.4972 1341.9304 1343.4808 1345.286 1346.8981 1348.6852 1349.9956 1351.108 1352.4545 1353.5272 1354.632 1356.3912 1357.7528 1358.3591 1359.0024 1360.4756 1362.7444 1364.8575 1365.9167 1366.9596 1368.07 1369.6036 1370.7108 1371.0808 1371.0688 1371.2885 1370.8988 1370.302 1369.9716 1369.708 1369.9865 1370.652 1371.3624 1372.2108 1372.8315 1373.5269 1374.1388 1374.5627 1375.0364 1375.6428 1376.5125 1377.0312 1377.6288 1378.616 1378.9487 1379.3403 1380.4844 1381.9176 1383.068 1384.048 1385.1256 1386.5792 1387.8096 1389.2252 1390.2885 1391.5116 1392.8932 1395.9269 1398.338 1400.2205 1401.8196 1403.2944 1404.7896 1410.8904 1412.0424 1413.8593 1416.8217 1418.0156 1419.254 1421.038 1423.9556 1427.4316 1429.9427 1432.1672 1434.9489 1437.6556 1439.8364 1442.8752 1445.9856 1447.0388 1448.054 1449.2292 1450.3364 1451.6384 1453.172 1454.5511 1455.532 1456.6868 1457.7332 1458.9868 1460.2651 1462.0176 1463.7808 1465.2472 1466.4536 1468.1056 1469.7087 1471.4008 1472.9496 1474.6047 1475.7944 1477.1536 1478.4816 1480.0859 1481.5555 1483.3484 1485.062 1486.8271 1488.4111 1490.2036 1491.5076 1493.0496 1494.6432 1496.1467 1497.4731 1499.248 1500.7175 1502.1448 1503.6567 1505.5223 1507.056 1508.5616 1509.7792 1510.8816 1511.84 1512.9937 1514.1656 1515.6124 1516.978 1518.3073 1519.5944 1521.208 1522.796 1524.704 1526.4904 1527.9048 1529.0464 1530.3992 1531.9264 1534.096 1536.3057 1538.04 1538.9104 1540.6544 1541.9368 1543.0596 1544.0931
1222.8188 1223.0172 1223.3608 1223.8264 1224.2112 1224.8424 1225.5532 1225.9996 1226.3608 1226.7008 1227.058 1227.3452 1227.8848 1228.5688 1229.0912 1229.6641 1230.6212 1231.0931 1231.4069 1231.8348 1232.5457 1233.156 1233.3984 1233.456 1233.8528 1234.3624 1235.1012 1235.5684 1236.1552 1236.4976 1236.8148 1236.4076 1235.9316 1235.926 1236.5416 1237.2208 1238.1436 1238.9924 1239.786 1240.4357 1241.24 1241.8752 1242.7303 1243.6024 1244.5636 1245.27 1245.6772 1246.0924 1246.5852 1247.1884 1248.1276 1248.3364 1248.3264 1248.624 1249.3788 1250.2772 1250.9684 1251.6588 1252.486 1253.3652 1254.7168 1255.656 1256.3596 1257.0476 1257.6752 1258.3807 1259.5804 1260.6404 1261.8575 1263.0544 1264.104 1264.8575 1265.7648 1266.7264 1267.7064 1268.4608 1269.4452 1270.2131 1271.1764 1272.0325 1272.6304 1273.4183 1274.1704 1274.9288 1275.754 1276.5251 1277.5328 1278.1992 1278.322 1278.7612 1279.446 1280.0404 1280.9084 1281.9652 1283.3596 1284.8948 1286.2275 1287.334 1288.7124 1289.8804 1291.5441 1293.8424 1295.8196 1297.4124 1299.1964 1300.9324 1302.8416 1304.5216 1306.3044 1307.9852 1309.6316 1311.1757 1312.834 1314.3524 1315.8312 1317.2303 1318.8468 1320.4661 1322.1548 1323.7876 1325.2769 1326.9208 1328.7233 1330.3273 1331.5128 1333.0392 1335.5824 1336.7535 1338.154 1339.7908 1341.2988 1342.8108 1344.5164 1345.8387 1347.3008 1348.4904 1349.6276 1351.1156 1352.4504 1353.564 1354.968 1356.0648 1356.876 1357.644 1358.8208 1360.8232 1363.5892 1365.1757 1366.2336 1367.068 1368.6581 1369.6764 1369.7188 1369.1757 1368.9401 1368.5576 1368.1976 1368.1024 1368.1884 1368.6044 1369.278 1369.9373 1370.842 1371.7115 1372.4688 1372.752 1372.9011 1373.2972 1373.7572 1374.3652 1375.01 1375.97 1376.9216 1377.7896 1378.822 1379.9164 1381.356 1382.5385 1383.6128 1385.0336 1386.6407 1387.88 1389.0876 1390.3412 1392.0608 1393.8665 1396.4572 1398.93 1401.3907 1403.1147 1404.9603 1406.4357 1408.4788 1411.5948 1413.0529 1415.072 1417.3892 1419.2563 1421.396 1424.2136 1427.256 1429.776 1431.7832 1434.2375 1437.0944 1439.5984 1442.3804 1445.162 1446.8468 1447.5428 1448.7236 1449.8756 1450.7672 1451.8289 1453.2076 1454.3636 1455.4408 1456.6664 1457.9612 1459.3619 1461.266 1463.0332 1464.3988 1465.5748 1467.1304 1468.7535 1470.3256 1471.7751 1473.3069 1474.5508 1476.018 1477.2028 1478.64 1480.2832 1482.19 1483.8628 1485.5328 1487.204 1489.248 1490.76 1492.2684 1493.6901 1495.0396 1496.51 1498.2184 1499.5457 1501.1816 1502.5872 1504.2983 1505.6688 1506.9631 1507.9792 1508.9052 1510.0148 1511.4932 1512.818 1514.2916 1515.606 1516.9924 1518.382 1520.2532 1521.9148 1523.6785 1525.3375 1526.5933 1527.8004 1529.5416 1531.3392 1533.3376 1534.96 1536.344 1537.5063 1540.0276 1541.4125 1542.216 1543.0552
1222.0292 1222.2788 1222.9032 1223.3336 1223.9496 1224.6608 1225.3477 1225.8148 1226.1968 1226.5496 1226.9692 1227.3203 1227.6504 1228.1536 1228.7952 1229.32 1230.3372 1231.254 1231.5892 1231.742 1232.6544 1233.452 1233.6871 1233.7576 1233.8984 1234.1952 1234.5916 1234.8909 1235.6536 1236.2681 1237.0652 1237.362 1236.9508 1236.5404 1236.4752 1236.724 1237.2421 1238.2604 1239.5228 1240.5244 1241.6576 1242.3488 1243.0488 1243.692 1244.382 1245.1685 1245.7532 1246.3477 1246.926 1247.5612 1248.434 1249.11 1249.4712 1249.444 1249.7476 1250.4252 1251.1948 1251.8468 1252.5916 1253.5044 1254.9792 1255.9648 1256.5532 1257.0972 1257.6072 1258.2681 1259.454 1260.6372 1261.8624 1263.0464 1264.1536 1265.016 1265.8751 1266.5889 1267.444 1268.2656 1269.0148 1269.8148 1270.7252 1271.4308 1272.1528 1272.9072 1273.7408 1274.424 1275.0668 1275.7867 1276.5728 1277.1177 1277.4819 1277.9884 1278.5251 1279.1324 1280.218 1281.4443 1282.726 1284.0485 1285.482 1286.8475 1288.3516 1289.8076 1291.608 1293.5848 1295.7404 1297.426 1299.0796 1300.7437 1302.4552 1303.9113 1305.6852 1307.3085 1309.2788 1310.6692 1312.1451 1313.4972 1314.9392 1316.5272 1318.2284 1319.7404 1321.4788 1323.0476 1324.8536 1326.7168 1328.2832 1329.5977 1330.5664 1332.1056 1334.3168 1335.6304 1337.27 1339.078 1340.6451 1342.0724 1343.6868 1344.926 1346.128 1347.1688 1348.3468 1349.9404 1351.3776 1352.2 1353.2584 1354.1328 1355.2632 1356.7224 1358.316 1360.0112 1362.2596 1363.8972 1365.0264 1366.0208 1367.634 1368.2444 1367.8676 1367.286 1366.7432 1366.4937 1366.5135 1366.5977 1366.8604 1367.3916 1368.1492 1368.9924 1369.9996 1370.546 1370.832 1370.9968 1371.3596 1371.8997 1372.3516 1372.5836 1373.6061 1374.8315 1376.1112 1377.376 1378.4508 1379.3724 1380.8456 1382.3832 1383.8712 1385.2823 1387.0664 1388.448 1389.8099 1391.3868 1393.3528 1395.24 1397.1469 1399.2916 1401.5548 1403.49 1405.3004 1406.9517 1408.066 1409.9515 1412.8057 1414.0648 1416.1508 1418.802 1421.2312 1423.2328 1426.7391 1429.4288 1431.1896 1432.8953 1435.1256 1438.084 1440.51 1442.77 1445.142 1446.4092 1447.79 1449.0732 1450.1752 1451.088 1452.6172 1453.85 1454.7465 1455.924 1457.154 1458.4828 1460.3092 1462.0796 1463.5332 1464.8468 1466.3969 1468.0328 1469.4448 1470.8688 1472.2635 1473.4053 1474.918 1476.202 1477.62 1479.204 1481.1084 1482.7524 1484.4343 1486.2625 1488.3728 1489.9808 1491.4517 1492.6492 1493.8724 1495.3204 1496.9464 1498.2352 1499.9568 1501.3656 1503.012 1504.1312 1505.156 1506.1816 1507.3547 1508.7797 1510.4644 1511.7908 1513.2684 1514.6404 1516.1564 1517.6003 1519.4132 1520.9772 1522.5392 1523.9327 1525.426 1527.0732 1529.0 1530.748 1532.316 1533.5079 1534.9008 1536.2952 1539.0204 1540.1685 1540.8888 1541.9104
1221.1844 1221.8605 1222.4956 1222.8828 1223.5295 1224.1984 1224.8904 1225.3456 1225.7435 1226.1604 1226.5544 1226.8881 1227.2972 1227.7268 1228.3512 1228.896 1229.9364 1231.0756 1231.68 1231.8665 1232.7988 1233.5676 1233.8604 1234.1124 1234.284 1234.384 1234.5096 1234.8624 1235.9924 1236.5964 1236.8964 1237.5428 1237.8212 1237.6764 1237.362 1237.2563 1237.3936 1237.9703 1239.0588 1240.1836 1241.41 1242.1964 1242.8832 1243.5544 1244.238 1245.0228 1245.7876 1246.7788 1247.5916 1248.1804 1249.008 1249.7296 1250.324 1250.4224 1250.4904 1250.7832 1251.4652 1252.2068 1252.9661 1253.722 1254.7284 1255.5996 1256.2368 1256.7472 1257.3024 1258.1584 1259.5408 1260.644 1261.7688 1262.8112 1263.9008 1264.7136 1265.3892 1266.1332 1267.0212 1267.8196 1268.6792 1269.3752 1270.1852 1270.7957 1271.3923 1272.0708 1273.1204 1273.738 1274.292 1274.9633 1275.6124 1276.1604 1276.714 1277.278 1277.8212 1278.7059 1280.0112 1281.1376 1282.2296 1283.3953 1284.9573 1286.518 1288.1804 1289.8724 1291.7412 1293.4044 1295.4348 1297.0411 1298.6112 1300.2456 1301.9268 1303.3876 1304.7231 1306.4344 1308.7692 1309.9069 1311.334 1312.702 1314.1604 1315.7972 1317.6508 1319.346 1320.7996 1321.9963 1323.956 1325.1072 1326.7444 1328.39 1329.7672 1331.3864 1333.0868 1334.6003 1336.4612 1338.2324 1339.8036 1341.2028 1342.6425 1343.7296 1344.78 1345.8577 1347.2449 1348.6992 1349.9132 1350.526 1351.3644 1352.3236 1353.7188 1355.6444 1357.906 1359.19 1361.2596 1362.7924 1363.9141 1364.774 1365.6644 1365.958 1365.344 1365.0304 1364.762 1364.5964 1364.7208 1364.996 1365.4868 1366.1309 1367.1188 1368.2012 1368.796 1368.7848 1368.9668 1369.602 1370.36 1370.8359 1371.4417 1372.4104 1373.2992 1374.1656 1375.4536 1376.5592 1377.7296 1379.2872 1381.558 1383.2869 1385.3275 1387.2556 1388.9136 1390.3568 1391.8392 1393.0192 1394.6492 1396.3252 1398.4111 1400.2465 1401.5812 1402.9476 1404.158 1405.662 1407.6 1408.6112 1410.7764 1412.6917 1414.444 1418.1848 1421.1279 1422.6768 1425.4548 1428.5972 1431.2548 1432.5292 1433.8828 1435.6228 1438.054 1440.4668 1442.6388 1444.162 1446.1384 1447.6064 1448.7723 1449.8676 1451.4032 1452.7112 1453.944 1455.1528 1456.392 1457.6472 1459.168 1460.78 1462.5912 1464.1104 1465.5804 1467.1436 1468.5896 1469.7888 1471.07 1472.3212 1473.96 1475.4392 1476.8252 1478.2172 1479.9524 1481.5548 1483.3036 1485.03 1486.7089 1488.448 1490.2844 1491.4316 1492.7424 1494.2224 1495.7096 1496.9072 1498.506 1499.8972 1501.2504 1502.3008 1503.4756 1504.8083 1506.6488 1508.2032 1509.5432 1510.7944 1512.452 1514.0184 1515.5736 1516.8528 1518.4816 1520.1088 1521.876 1523.3809 1524.926 1526.5292 1528.2256 1529.7864 1531.1667 1532.3301 1533.8011 1535.054 1536.5012 1538.2212 1539.8088 1540.6857
1221.5044 1221.9292 1222.174 1222.4476 1222.736 1223.1808 1223.8575 1224.4008 1224.87 1225.4452 1225.8431 1226.1672 1226.7452 1227.4388 1228.1416 1228.72 1229.6948 1230.7523 1231.5952 1231.956 1232.7324 1233.5524 1234.0444 1234.3589 1234.5288 1234.6016 1234.8992 1235.58 1236.4956 1236.962 1237.2524 1237.7212 1238.0588 1238.4292 1238.4053 1238.0884 1238.2024 1238.4576 1238.974 1239.9404 1240.958 1241.6116 1242.2288 1243.0344 1244.146 1245.1196 1245.83 1246.9445 1248.2621 1248.7115 1249.2944 1249.8384 1250.3064 1250.648 1251.2823 1251.3912 1251.5676 1252.4084 1253.3268 1253.99 1254.6771 1255.3964 1256.24 1256.9872 1257.7056 1258.5696 1259.8368 1260.692 1261.6304 1262.5592 1263.4736 1264.144 1264.9204 1265.7635 1266.5796 1267.3204 1268.1351 1268.668 1269.3779 1269.9501 1270.5844 1271.098 1271.8756 1272.722 1273.6344 1274.3792 1274.906 1275.3884 1276.0717 1276.818 1277.5051 1278.4524 1279.7272 1280.6968 1281.66 1282.6992 1284.4227 1286.1931 1288.0332 1289.826 1291.7292 1293.4036 1295.2372 1296.5988 1298.056 1299.4856 1300.974 1302.5323 1303.9272 1305.4176 1307.5164 1308.8204 1310.3348 1311.7844 1313.2836 1314.6964 1316.4844 1318.4213 1319.9963 1321.2332 1322.6696 1323.9088 1325.6708 1327.4572 1329.1783 1330.7769 1332.498 1334.0116 1335.8156 1337.3468 1338.8236 1340.2148 1341.5616 1342.6184 1343.8224 1344.9976 1346.3304 1347.3848 1348.2412 1349.0859 1350.3932 1351.7764 1353.2228 1354.8716 1356.9564 1358.4084 1359.7484 1361.278 1362.7932 1363.1523 1363.2804 1363.446 1363.0583 1362.9192 1362.826 1362.8444 1363.2 1363.7328 1364.4747 1365.3204 1366.4373 1367.2268 1367.376 1367.5936 1368.2043 1368.9484 1369.4824 1370.1711 1371.244 1371.7456 1372.2272 1373.4136 1374.772 1375.916 1377.6976 1379.8728 1382.6132 1384.7772 1386.7452 1388.7052 1390.3809 1391.864 1393.316 1394.752 1396.1284 1397.2892 1398.908 1399.9272 1400.8596 1401.8196 1402.7828 1404.1604 1406.2512 1407.6337 1409.1428 1410.7284 1412.2913 1415.8895 1419.8704 1422.3215 1423.8604 1427.0364 1430.262 1431.6212 1433.1876 1434.8333 1436.702 1438.5132 1440.3876 1442.146 1444.364 1445.9296 1447.1876 1448.15 1449.8024 1451.464 1453.044 1454.2832 1455.6752 1456.9528 1458.3665 1459.8969 1461.68 1463.2073 1464.786 1466.3844 1467.9009 1469.0952 1470.3756 1471.5773 1473.092 1474.616 1476.1044 1477.5251 1479.2124 1480.69 1482.4364 1484.1003 1485.7623 1487.5048 1489.0492 1490.2412 1491.8208 1493.4208 1494.8152 1495.7888 1497.202 1498.5708 1499.8217 1501.0383 1502.3756 1503.774 1506.0936 1508.0032 1509.0272 1510.3503 1512.0063 1513.368 1514.8616 1516.2128 1517.8768 1519.6304 1521.524 1523.0112 1524.6316 1526.078 1527.4144 1528.6456 1530.1372 1531.5116 1533.1044 1534.4148 1535.4884 1536.9492 1538.568 1539.3936
1221.7804 1221.7588 1221.8292 1221.9692 1222.18 1222.7048 1223.298 1223.754 1224.1912 1224.7616 1225.0936 1225.316 1225.9268 1226.9612 1227.9536 1228.6641 1229.5132 1230.3605 1231.224 1231.92 1232.7148 1233.538 1234.1936 1234.5992 1234.7336 1234.7136 1235.1324 1236.026 1236.7684 1237.114 1237.5636 1238.014 1238.214 1238.302 1238.988 1239.2112 1239.276 1239.4327 1239.6332 1240.03 1240.71 1241.57 1242.444 1242.9113 1243.646 1244.8796 1245.7732 1246.6772 1248.1504 1248.8872 1249.2904 1249.7864 1250.5072 1251.1376 1252.0125 1252.1188 1251.8668 1252.4508 1253.464 1254.0599 1254.7512 1255.6697 1256.7384 1257.5312 1258.1116 1258.6724 1259.5884 1260.4292 1261.2988 1262.2108 1263.1885 1264.0204 1264.866 1265.6484 1266.5267 1267.1307 1267.7628 1268.3668 1268.9796 1269.5645 1270.3132 1270.8188 1271.2512 1272.0616 1273.2688 1274.0815 1274.554 1274.9517 1275.7396 1276.5332 1277.2751 1278.0912 1279.1768 1280.0664 1281.1896 1282.4832 1284.2867 1286.0532 1287.958 1289.7668 1291.6464 1293.104 1294.6608 1295.9991 1297.4348 1298.5828 1299.8892 1301.522 1303.0596 1304.3164 1306.0564 1307.602 1309.4208 1311.0072 1312.4213 1313.8116 1315.3944 1317.0704 1318.6368 1320.0784 1321.6288 1322.9904 1324.6984 1326.5536 1328.4487 1330.1744 1331.8352 1333.208 1334.9268 1336.1492 1337.522 1338.9612 1340.366 1341.522 1342.848 1343.8096 1344.9008 1345.8176 1346.8456 1348.0736 1349.7288 1351.3912 1352.8408 1354.1783 1355.9044 1357.7308 1359.1672 1360.0168 1360.6152 1360.6105 1360.3916 1360.6844 1360.8605 1360.8524 1361.1632 1361.5696 1362.0596 1362.7028 1363.5696 1364.4912 1365.336 1365.832 1366.4344 1367.0536 1367.6456 1368.4097 1369.1425 1369.7272 1370.0828 1370.3259 1371.434 1373.1012 1374.9368 1376.5168 1377.922 1379.5468 1381.8488 1384.42 1386.6328 1388.7864 1390.9092 1392.6724 1394.1556 1395.3236 1396.4628 1397.2028 1398.0717 1398.7484 1399.66 1400.6232 1401.8352 1403.0248 1404.9692 1406.5708 1407.9572 1409.1772 1410.4528 1413.5536 1417.2216 1420.5632 1423.1996 1425.1268 1428.4756 1430.3572 1432.5176 1434.3888 1436.048 1437.7056 1439.5868 1441.4244 1443.1732 1444.7563 1446.2284 1447.266 1448.6412 1450.134 1451.7688 1453.1976 1454.6912 1455.972 1457.502 1459.0796 1460.714 1462.1708 1463.8259 1465.5444 1467.1912 1468.4633 1469.782 1470.9236 1472.266 1473.7756 1475.434 1477.0244 1478.7616 1480.1304 1481.8276 1483.4515 1484.8127 1486.2272 1487.4652 1488.73 1490.3644 1491.7388 1493.0836 1494.1428 1495.618 1497.0868 1498.5583 1500.088 1501.5903 1503.2512 1505.3552 1507.052 1508.288 1509.604 1511.084 1512.3352 1513.9703 1515.6569 1517.382 1519.0892 1520.8932 1522.342 1524.0076 1525.4445 1526.5112 1527.532 1529.0648 1530.5864 1532.0748 1533.3204 1534.4612 1535.6084 1536.9508 1537.882
1221.534 1221.4628 1221.6268 1221.7668 1222.1873 1222.904 1223.5804 1224.0684 1224.3536 1224.7896 1225.212 1225.4792 1225.9907 1226.8428 1227.7208 1228.4104 1229.1708 1229.8756 1230.756 1231.7688 1232.718 1233.4612 1234.1288 1234.5728 1234.9392 1234.9752 1234.9828 1235.5612 1236.5148 1237.2668 1237.7892 1238.1772 1238.4788 1238.6196 1239.0312 1239.68 1240.2537 1240.612 1240.7684 1240.7156 1240.982 1241.8403 1242.9152 1243.2672 1243.5404 1244.2156 1245.4508 1246.6396 1247.7024 1248.3145 1249.1407 1250.0304 1251.1376 1251.9471 1252.4548 1252.5068 1252.3844 1252.5828 1253.236 1253.5696 1254.3512 1255.4777 1256.7048 1257.5696 1258.2491 1258.818 1259.6572 1260.5076 1261.3756 1262.2156 1263.238 1264.2045 1265.054 1265.83 1266.4836 1266.918 1267.3652 1267.758 1268.5035 1269.3636 1270.4445 1271.0908 1271.456 1272.2216 1273.0784 1273.8944 1274.81 1275.47 1276.1604 1276.7651 1277.448 1278.1328 1278.7976 1279.7832 1281.2368 1282.6824 1284.3572 1285.9604 1287.7612 1289.6196 1291.5704 1292.6952 1293.7432 1294.9937 1296.4052 1297.6556 1299.0876 1300.7732 1302.3796 1303.6685 1305.3331 1307.0132 1308.9128 1310.4113 1311.726 1313.1755 1314.6824 1316.1888 1317.8104 1319.3593 1320.9904 1322.4703 1324.4032 1326.212 1328.0144 1329.668 1331.1704 1332.3448 1333.9371 1335.094 1336.4572 1337.946 1339.4148 1340.5244 1341.6232 1342.3352 1343.1736 1344.2632 1345.9368 1347.3344 1348.988 1350.6776 1352.3032 1353.756 1355.1196 1356.4708 1357.9568 1358.5583 1358.4432 1358.2272 1358.142 1358.518 1359.0076 1359.4812 1359.9169 1360.3632 1361.118 1361.8268 1362.644 1363.4329 1364.228 1364.956 1365.82 1366.4072 1367.2032 1367.7465 1368.1016 1368.496 1369.1683 1370.2772 1371.726 1373.3932 1375.3672 1376.6272 1377.838 1379.514 1381.6896 1383.8528 1386.1855 1388.4272 1390.6492 1392.31 1393.7444 1394.5859 1395.6235 1396.3524 1397.0364 1397.7548 1398.7968 1399.8784 1401.1088 1402.38 1403.8477 1405.438 1406.8923 1408.0499 1409.2648 1411.5225 1415.2352 1417.8647 1421.5524 1424.486 1426.6628 1429.2068 1431.7568 1433.6456 1435.2249 1436.8552 1438.546 1440.4956 1442.1316 1443.486 1445.1244 1446.4644 1447.9067 1449.3083 1450.8656 1452.328 1453.9113 1455.2015 1456.8596 1458.4308 1460.0012 1461.4052 1462.914 1464.5253 1466.3392 1467.7568 1468.994 1470.0956 1471.5652 1472.9324 1474.6084 1476.4868 1478.2 1479.6392 1481.386 1482.682 1483.6407 1484.6792 1485.8763 1487.1572 1488.5012 1489.9172 1491.5148 1492.5645 1494.1036 1495.6908 1497.5264 1499.3904 1501.0896 1503.0511 1504.7208 1505.8224 1507.1927 1508.6736 1510.1832 1511.596 1513.5552 1515.3536 1516.726 1518.1996 1520.0692 1521.5116 1523.1692 1524.5789 1525.4921 1526.7015 1528.1248 1529.608 1531.058 1532.2797 1533.9373 1535.3644 1536.8508 1538.198
1221.1176 1221.3472 1221.7852 1222.2036 1222.8271 1223.5024 1224.0908 1224.4996 1224.842 1225.2228 1225.5616 1225.8856 1226.4072 1227.0367 1227.5629 1227.9548 1228.3951 1228.9608 1229.918 1231.118 1232.2205 1232.9188 1233.774 1234.262 1234.8083 1235.178 1235.4344 1235.5088 1235.9396 1236.7316 1237.5276 1238.3732 1238.762 1239.0468 1239.2864 1239.5496 1240.2584 1241.4032 1241.7867 1241.7028 1242.0044 1242.6884 1243.4596 1243.8356 1244.0063 1244.3704 1245.0864 1246.3744 1247.708 1248.2056 1249.04 1250.0032 1251.1495 1252.0104 1252.5444 1252.8171 1253.1033 1253.212 1253.4988 1253.9371 1254.602 1255.3116 1256.2292 1257.1932 1257.8336 1258.5488 1259.7292 1260.7804 1261.7753 1262.6152 1263.3344 1263.9865 1264.7872 1265.5808 1266.352 1266.9496 1267.4584 1267.6672 1268.4875 1269.4587 1270.582 1271.2012 1271.588 1272.6711 1273.4196 1274.2268 1275.2072 1275.8215 1276.2913 1276.9088 1277.7832 1278.68 1279.5164 1280.2772 1281.3832 1282.7263 1284.322 1285.81 1287.4116 1289.0253 1290.8948 1292.0356 1292.9756 1294.2228 1295.7648 1297.0544 1298.4388 1300.0732 1301.6704 1302.9816 1304.738 1306.426 1308.2576 1309.6047 1310.9865 1312.4816 1313.9948 1315.5972 1317.4517 1319.0084 1320.6425 1322.2112 1324.062 1325.6156 1327.344 1328.8032 1330.0176 1331.2391 1332.8452 1334.2043 1335.6172 1337.0436 1338.3516 1339.354 1340.146 1340.9067 1341.862 1343.2437 1345.6216 1346.8864 1348.2437 1349.7524 1351.4564 1353.434 1354.6104 1354.6792 1355.5624 1356.1337 1356.2996 1356.3188 1356.522 1357.0676 1357.8224 1358.316 1358.666 1359.278 1360.2156 1360.918 1361.6492 1362.5164 1363.5896 1364.3 1365.1483 1365.782 1366.3772 1366.5492 1367.0792 1367.9192 1369.0592 1370.2017 1371.3972 1373.0308 1374.9095 1376.416 1378.1788 1379.9956 1381.9417 1384.0544 1386.8088 1388.8976 1390.3392 1391.3424 1392.538 1393.5564 1394.272 1394.968 1395.8252 1396.7452 1397.8556 1399.206 1400.4764 1401.606 1402.8752 1404.2104 1405.7468 1406.934 1408.5104 1410.308 1413.4316 1415.6892 1418.1188 1421.694 1424.168 1426.8208 1430.044 1432.3536 1434.0024 1435.5009 1437.2988 1439.2148 1441.01 1442.4468 1443.9636 1445.3212 1446.8912 1448.3712 1449.9696 1451.456 1452.996 1454.3744 1456.2064 1457.7672 1459.3124 1460.7604 1462.2356 1463.6772 1465.3593 1466.7976 1468.0576 1469.2424 1470.8428 1472.2932 1473.9023 1475.6952 1477.4552 1478.9088 1480.5585 1481.4185 1482.3628 1483.2532 1484.0887 1484.9847 1486.2368 1487.824 1489.6888 1490.9167 1492.5948 1494.4596 1496.6248 1498.524 1500.168 1501.8624 1503.4036 1504.6476 1506.1061 1507.6868 1509.3716 1511.0348 1513.0688 1514.5432 1515.5544 1516.9032 1518.884 1520.2672 1521.8477 1523.2651 1524.25 1525.4364 1526.8712 1528.4216 1529.9476 1531.2076 1533.2548 1535.0244 1536.792 1538.236
1221.1168 1221.5768 1222.0332 1222.5107 1223.2344 1223.916 1224.4012 1224.7957 1225.2316 1225.6732 1226.088 1226.3032 1226.6544 1227.1512 1227.4612 1227.6244 1227.792 1228.1704 1229.066 1230.2372 1231.1548 1231.9731 1232.9796 1233.6772 1234.4052 1234.9283 1235.472 1235.9288 1236.2684 1236.4044 1237.1156 1238.286 1238.9028 1239.1748 1239.3944 1239.6 1240.3936 1241.4471 1241.9292 1242.202 1242.8124 1243.5588 1244.582 1244.6827 1244.7056 1244.8345 1245.1968 1245.7968 1247.1296 1248.48 1249.3024 1250.0608 1250.8392 1251.4489 1252.2507 1252.7268 1253.3784 1254.172 1254.7012 1255.2277 1255.682 1256.1244 1256.3245 1257.0404 1257.9176 1258.5288 1259.4812 1260.4668 1261.6511 1262.6033 1263.7064 1264.6576 1265.1 1265.5192 1266.352 1267.0984 1267.8104 1268.0544 1268.5652 1269.314 1270.2068 1270.7156 1271.24 1272.288 1273.4756 1274.4332 1275.364 1275.996 1276.5743 1277.2625 1278.2625 1279.1432 1280.0372 1280.7484 1281.6096 1282.892 1284.3524 1285.7491 1287.1484 1288.394 1289.8884 1291.1876 1292.3964 1293.7812 1295.3352 1296.4792 1297.8076 1299.4004 1300.988 1302.2384 1303.9004 1305.4604 1307.4976 1308.9344 1310.4543 1311.876 1313.3436 1315.05 1317.03 1318.582 1320.1416 1321.8208 1323.5933 1325.0828 1326.704 1327.9648 1329.1432 1330.488 1332.022 1333.4116 1334.7444 1335.926 1336.9805 1337.9332 1338.8461 1339.9459 1341.1284 1342.6444 1345.4312 1346.4912 1347.6163 1348.9684 1350.6508 1352.6604 1353.6832 1353.6384 1354.2015 1354.584 1354.6868 1354.8853 1355.438 1356.0828 1356.7319 1357.1904 1357.6996 1358.478 1359.438 1360.1196 1361.2563 1362.1971 1363.1088 1363.9552 1364.7189 1365.1172 1365.378 1365.6908 1366.8704 1368.08 1368.8368 1369.4849 1370.8292 1372.5573 1374.3248 1376.2249 1378.5267 1380.71 1382.8127 1385.0024 1387.2087 1388.376 1389.5768 1390.3816 1391.1812 1392.246 1393.056 1393.7424 1394.6237 1395.6284 1397.1228 1398.5916 1400.0092 1401.1595 1402.1472 1403.0009 1404.5125 1405.9508 1407.5088 1409.3737 1411.902 1414.0188 1416.3029 1418.918 1420.9928 1423.5128 1426.9728 1429.9752 1432.184 1433.78 1436.0717 1438.1332 1439.894 1441.4524 1443.1165 1444.6676 1446.2927 1447.8352 1449.4824 1450.9559 1452.5192 1453.9376 1455.6824 1457.1664 1458.758 1460.2507 1461.8044 1463.2347 1464.7177 1466.0295 1467.3665 1468.6425 1470.2788 1471.9036 1473.416 1475.0488 1476.7032 1477.7616 1479.0144 1479.8536 1480.8004 1481.7372 1482.6056 1483.4952 1484.92 1486.4512 1487.9768 1489.1632 1490.9756 1493.1732 1495.524 1497.3289 1499.1528 1500.8345 1502.4652 1503.874 1505.2628 1506.7764 1508.5948 1510.2964 1512.0232 1513.3088 1514.3312 1515.5808 1517.2728 1518.6128 1520.1444 1521.49 1522.934 1524.1523 1525.836 1527.4136 1528.998 1530.4484 1532.7524 1534.5332 1536.2952 1537.72
1221.426 1221.7964 1222.17 1222.5588 1223.2607 1224.0295 1224.6188 1225.1332 1225.6516 1226.1667 1226.6716 1226.8475 1227.1904 1227.5599 1227.5828 1227.6436 1227.8776 1228.1584 1228.928 1230.5 1231.3484 1231.8173 1232.016 1232.8624 1233.7592 1234.2952 1234.8832 1235.4489 1236.1128 1236.8647 1237.2256 1237.96 1238.8252 1239.3148 1239.6488 1239.9336 1240.4248 1240.9777 1241.5116 1242.0956 1242.8624 1243.6984 1244.61 1245.1523 1245.7668 1245.9492 1246.1237 1246.1028 1246.4056 1247.664 1249.0192 1250.4991 1251.2365 1251.3492 1251.9847 1252.66 1253.8737 1255.1376 1255.68 1256.1128 1256.6288 1257.136 1257.41 1257.5148 1258.1556 1258.8868 1259.4543 1260.1481 1261.3268 1262.41 1263.6232 1264.8376 1265.5516 1266.1484 1266.904 1267.4543 1268.0736 1268.6696 1269.2964 1269.9132 1270.358 1270.802 1271.6104 1272.4288 1273.3997 1274.1196 1274.8271 1275.4176 1276.1288 1277.3352 1278.6628 1279.4924 1280.2716 1280.9724 1281.9812 1283.054 1284.4803 1285.8004 1286.9856 1288.0664 1289.2556 1290.4652 1291.762 1293.1052 1294.4976 1295.7767 1297.2437 1298.6268 1300.2196 1301.6204 1302.8876 1304.0116 1306.13 1308.074 1309.8064 1311.308 1312.8192 1314.5416 1316.5028 1318.1453 1319.7268 1321.1292 1322.71 1324.0668 1325.4696 1326.852 1328.3492 1329.7164 1331.176 1332.42 1333.6077 1334.6812 1335.5984 1336.4865 1337.5204 1339.0852 1340.4805 1341.734 1344.2072 1345.3969 1346.5197 1348.0197 1349.522 1351.222 1352.2017 1352.4088 1352.6816 1352.768 1353.0096 1353.664 1354.4652 1354.994 1355.4777 1356.1008 1356.8851 1357.7228 1358.4664 1359.5336 1360.9543 1361.7152 1362.6208 1363.1688 1363.5944 1363.8856 1364.1388 1364.9548 1366.504 1367.5848 1367.9476 1369.0107 1370.7284 1371.9236 1373.4872 1375.8287 1378.4111 1380.7184 1382.9188 1384.8572 1386.412 1387.3168 1388.384 1388.9592 1389.4944 1390.3528 1391.2844 1392.4132 1393.3477 1394.3004 1396.1068 1397.7004 1399.0764 1400.3173 1401.5708 1402.1228 1403.1456 1404.8224 1406.9248 1408.452 1410.2563 1412.2957 1414.8824 1417.5063 1419.4956 1421.3932 1424.4244 1427.2396 1429.8052 1432.3132 1434.6932 1436.9484 1438.6711 1439.9696 1441.7792 1443.9111 1445.864 1447.568 1449.2736 1450.6304 1452.1688 1453.58 1455.1112 1456.5496 1458.1075 1459.6005 1461.4744 1463.0009 1464.2435 1465.4628 1466.9276 1468.1741 1469.6248 1471.3048 1472.7336 1474.152 1475.5712 1476.3888 1477.3969 1478.0112 1479.1644 1480.5132 1481.9296 1483.032 1484.3344 1485.6824 1487.162 1488.474 1490.0564 1492.1204 1494.1632 1495.8488 1498.0272 1499.9592 1501.8503 1503.256 1504.5063 1505.9496 1507.76 1509.3888 1510.7391 1511.8096 1512.8828 1513.9884 1515.4724 1516.7797 1518.3004 1519.834 1521.9784 1523.4863 1525.1628 1526.734 1528.4724 1529.9644 1532.0388 1533.8956 1535.744 1536.8248
1221.6075 1222.0084 1222.3716 1222.6548 1223.144 1223.8951 1224.6332 1225.1683 1225.7347 1226.3765 1227.2228 1227.6276 1227.9648 1228.1263 1228.1764 1228.4612 1228.8127 1229.1016 1229.6176 1230.8904 1231.6588 1232.1436 1232.4 1232.9664 1233.4792 1233.956 1234.5151 1235.4264 1236.5424 1237.3679 1237.6 1238.3104 1238.9132 1239.3916 1239.9937 1240.2544 1240.5704 1240.8881 1241.4204 1242.2604 1242.968 1243.6488 1244.4524 1245.2396 1246.5676 1246.7869 1247.018 1247.3636 1247.1248 1247.6952 1248.6656 1249.9136 1251.1964 1251.898 1252.2168 1252.764 1254.3416 1255.7816 1256.2864 1256.5208 1256.9896 1257.4808 1257.9956 1258.1467 1258.262 1258.9292 1259.6472 1260.1152 1260.8099 1261.9236 1263.1792 1264.4192 1265.362 1266.3619 1267.3104 1268.0223 1268.7552 1269.4631 1270.5323 1271.2452 1271.3564 1271.578 1272.28 1273.1736 1273.962 1274.5875 1275.3032 1275.8823 1276.5496 1277.6136 1279.05 1279.982 1280.6996 1281.5956 1282.4988 1283.1268 1284.5084 1285.8923 1286.948 1287.9072 1289.0844 1290.2764 1291.6964 1293.102 1294.28 1295.332 1296.5564 1297.8372 1299.5228 1300.9092 1302.2588 1303.4324 1305.0692 1307.1492 1308.8456 1310.632 1312.5 1314.3104 1316.1188 1317.7437 1319.1228 1320.0917 1321.3884 1322.9084 1324.5944 1326.2792 1327.8708 1329.046 1330.1392 1331.0583 1332.0708 1333.1764 1334.5264 1335.5184 1336.5564 1338.6108 1340.2156 1341.5524 1343.3632 1344.5385 1345.7964 1347.114 1348.2756 1349.382 1350.4512 1350.7496 1350.884 1351.0552 1351.6816 1352.4991 1353.6052 1353.6636 1354.2296 1355.1152 1356.202 1356.99 1358.0776 1359.2168 1360.2256 1360.9656 1361.6855 1361.9921 1362.2985 1362.6873 1363.4492 1364.8892 1366.2592 1367.164 1368.03 1369.2692 1370.2748 1371.1244 1373.1049 1375.5905 1378.1064 1380.5065 1382.4708 1384.1948 1385.3328 1386.0905 1387.0048 1387.5208 1388.0712 1388.8145 1389.7828 1390.8412 1391.998 1393.2563 1395.006 1396.5212 1397.8756 1399.0859 1400.5068 1401.19 1402.1184 1403.5824 1405.8201 1407.6655 1409.4004 1411.2476 1413.2736 1415.9312 1418.082 1419.8308 1422.0236 1423.9283 1426.8317 1429.594 1432.6572 1435.0483 1436.8184 1438.3008 1440.2712 1442.536 1444.9991 1447.1304 1448.9496 1450.3176 1451.8496 1453.168 1454.6943 1455.9615 1457.142 1458.4188 1460.596 1462.6296 1463.9396 1465.1508 1466.7052 1467.8876 1468.8784 1470.1904 1471.66 1473.0896 1474.4296 1475.0872 1475.772 1476.3 1477.5764 1479.4036 1481.5112 1482.6873 1483.8712 1485.1376 1486.6827 1488.1804 1489.8412 1491.6396 1493.5225 1495.28 1497.364 1499.2256 1501.0288 1502.4376 1503.7465 1505.132 1506.8784 1508.3584 1509.5448 1510.4136 1511.4468 1512.6644 1514.0756 1515.4436 1517.0172 1518.6772 1521.2623 1523.1256 1524.7924 1526.266 1528.0044 1529.49 1531.1901 1533.7396 1535.2249 1536.1472
1221.7172 1222.1724 1222.568 1222.8145 1223.112 1223.4856 1223.9788 1224.5996 1225.4984 1226.3896 1227.6228 1228.3477 1228.5732 1228.6996 1229.086 1229.5197 1230.0132 1230.3997 1230.7312 1231.3864 1231.9304 1232.26 1232.4604 1232.73 1233.1024 1233.6 1234.4028 1235.2388 1236.23 1236.3668 1236.302 1236.7084 1237.476 1238.3224 1239.0156 1239.6356 1240.3988 1241.0573 1241.8424 1242.7832 1243.7384 1244.432 1244.9572 1245.278 1245.7161 1246.2568 1246.7076 1247.1188 1247.6456 1248.2832 1248.8612 1249.3396 1250.3804 1251.6324 1252.5992 1253.3984 1254.8236 1256.162 1256.7908 1257.0668 1257.3632 1257.752 1258.3201 1258.7303 1258.8312 1258.808 1259.4784 1260.3632 1260.9452 1261.7388 1263.1711 1264.5864 1265.7144 1266.62 1267.4348 1268.2444 1269.0444 1269.6644 1270.5376 1271.412 1272.2892 1273.0492 1273.712 1274.5944 1275.382 1275.926 1276.2828 1277.09 1277.7104 1278.292 1279.5192 1280.4888 1281.1569 1281.9617 1283.0328 1283.8424 1284.8792 1286.0232 1287.0833 1287.9368 1289.058 1290.3212 1291.6752 1293.1144 1294.528 1295.532 1296.38 1297.4575 1298.884 1300.3568 1301.9604 1303.322 1304.7804 1306.3724 1307.7656 1309.804 1312.5325 1314.402 1315.8068 1316.9355 1318.0316 1319.386 1321.1193 1322.8969 1324.7133 1325.942 1326.898 1327.7668 1328.6608 1329.3672 1330.166 1331.2316 1332.6124 1334.0364 1335.4908 1337.5469 1339.6124 1341.0476 1342.3632 1343.5385 1344.8356 1345.97 1346.9048 1347.7384 1348.7203 1349.0964 1349.2988 1349.7236 1350.2368 1350.8336 1351.6852 1352.406 1353.4552 1354.4808 1355.5092 1356.458 1358.0748 1359.0652 1359.3776 1359.6592 1359.8196 1360.1628 1360.9684 1361.8876 1363.5065 1365.1407 1366.2744 1367.1704 1367.9283 1368.4733 1369.2452 1370.5028 1372.8232 1375.5496 1377.9471 1380.3431 1381.8984 1383.0455 1384.0472 1384.6792 1385.6003 1386.25 1386.6096 1387.4832 1388.6224 1389.4224 1390.7665 1392.1711 1393.8584 1395.3616 1396.6799 1397.6576 1398.956 1400.012 1401.1472 1402.3912 1404.38 1406.4232 1408.312 1410.4104 1412.868 1414.2728 1416.0016 1418.3168 1420.6704 1422.1664 1423.3916 1425.7732 1429.426 1432.0852 1434.62 1436.7985 1439.08 1441.18 1443.5964 1446.154 1448.2913 1449.8024 1451.2607 1452.4696 1453.968 1455.084 1456.1904 1456.9456 1459.3828 1462.0724 1463.6481 1464.7463 1466.198 1467.2435 1468.0292 1469.1908 1470.4208 1471.6936 1473.0088 1473.7609 1474.5831 1475.3872 1476.5544 1478.164 1480.2808 1481.948 1483.4095 1484.772 1486.2839 1487.672 1489.2976 1491.0488 1493.004 1494.7911 1496.7216 1498.4368 1500.042 1501.382 1502.744 1504.136 1505.8073 1507.1655 1508.2744 1509.0168 1510.016 1511.1936 1512.4248 1513.8 1515.5536 1517.3928 1520.574 1522.3196 1523.7852 1525.5068 1527.4028 1529.1108 1530.9032 1532.604 1534.6268 1535.51
1221.6484 1222.0348 1222.5248 1222.7904 1223.0511 1223.2568 1223.5972 1224.3876 1225.552 1226.6049 1227.738 1228.3812 1228.6724 1228.9108 1229.418 1229.9124 1230.5037 1230.9652 1231.3488 1231.6936 1232.0032 1232.232 1232.414 1232.5204 1232.7064 1232.9016 1233.274 1233.7836 1234.638 1234.7716 1235.1212 1235.8652 1236.2728 1236.7832 1237.506 1238.5483 1239.6588 1240.8403 1241.9752 1242.5784 1242.8145 1243.0616 1243.4564 1244.134 1244.8816 1245.6704 1246.4172 1246.8876 1247.7216 1248.8969 1249.7012 1249.7205 1250.1652 1250.982 1252.124 1253.4271 1254.8108 1256.1124 1256.9236 1257.3868 1257.7913 1258.0712 1258.4736 1258.9865 1259.4849 1259.4648 1259.5608 1260.2999 1261.2428 1261.9772 1263.1088 1264.4296 1265.8145 1266.6752 1267.6772 1268.482 1269.1812 1269.9692 1270.9696 1271.7848 1272.682 1273.4308 1274.1128 1274.712 1275.2653 1275.6796 1276.1284 1277.1996 1278.0928 1278.8856 1280.26 1281.3224 1281.9216 1282.5856 1283.328 1284.272 1285.6552 1286.8152 1288.0432 1288.7496 1289.3676 1290.5156 1291.944 1293.196 1294.4976 1295.4968 1296.532 1297.7072 1299.0376 1300.5441 1302.0892 1303.3868 1304.83 1306.2332 1307.5815 1309.0712 1311.9749 1313.8508 1314.7804 1315.7172 1317.134 1319.0212 1321.3096 1322.9576 1324.038 1324.8876 1325.5396 1326.3556 1327.38 1328.112 1328.9956 1330.0292 1331.5884 1333.4924 1335.0524 1336.6204 1338.614 1340.142 1341.332 1342.3536 1343.5251 1344.57 1345.5128 1346.5704 1347.602 1347.8916 1348.0724 1348.5068 1349.0544 1349.7808 1350.7948 1351.8788 1353.1536 1354.1409 1355.1755 1356.4124 1357.8043 1358.3612 1357.8984 1357.8264 1358.2676 1359.1964 1360.3076 1361.7277 1363.8552 1365.1664 1365.9392 1366.72 1367.0555 1367.3604 1368.602 1370.5332 1373.0232 1376.852 1378.2808 1379.8336 1381.1448 1381.9592 1382.8552 1383.3593 1384.0388 1384.7955 1385.4056 1386.3624 1387.3536 1388.2976 1389.7001 1390.988 1392.5817 1394.2272 1395.6848 1396.552 1397.7128 1398.9431 1400.188 1401.4816 1403.2352 1404.8431 1406.4976 1409.2296 1412.1552 1413.8672 1414.8344 1416.6729 1419.2728 1420.8024 1422.1964 1424.0868 1426.9932 1429.4972 1432.2336 1434.7336 1438.6664 1440.8464 1442.8876 1445.2516 1447.2616 1448.9408 1450.42 1451.5408 1452.8008 1453.8721 1455.0632 1455.604 1457.7324 1460.4668 1462.3735 1463.6512 1465.3588 1466.2365 1466.7788 1467.7996 1469.0745 1470.6752 1472.2048 1473.2161 1474.316 1475.4128 1476.6688 1478.1664 1479.7056 1481.2352 1482.9104 1484.3256 1485.7632 1487.1144 1488.7625 1490.5408 1492.4968 1494.1672 1496.0176 1497.8448 1499.4211 1500.462 1501.6656 1503.0529 1504.6783 1506.0048 1506.9633 1507.648 1508.8784 1510.112 1511.3024 1512.5416 1513.972 1516.8271 1519.8405 1521.4341 1522.8116 1523.9076 1525.6396 1528.0308 1531.7976 1533.9095 1535.5732 1536.5796
1221.4921 1221.9448 1222.4568 1222.7872 1223.0508 1223.2164 1223.6392 1224.5944 1225.78 1226.884 1227.9624 1228.476 1228.8217 1229.0864 1229.6752 1230.2416 1230.6348 1230.8748 1231.3412 1231.71 1231.9736 1232.212 1232.444 1232.5608 1232.8248 1233.1 1233.27 1233.6116 1234.2177 1234.7104 1235.9136 1236.8608 1237.2068 1237.2196 1237.2908 1237.7228 1238.6072 1239.6432 1240.5396 1241.1523 1241.7212 1242.3204 1243.2507 1244.4724 1245.1711 1245.932 1246.8264 1247.628 1248.8881 1250.0752 1250.9545 1250.7623 1250.5497 1250.9705 1251.6316 1252.6036 1253.9868 1255.2972 1256.4012 1257.046 1257.7667 1258.2292 1258.5492 1258.9604 1259.5251 1260.086 1260.526 1260.6003 1260.8672 1261.532 1262.6248 1263.9752 1265.538 1266.4028 1267.5792 1268.54 1269.488 1270.296 1271.1655 1271.832 1272.4644 1272.9436 1273.3911 1273.6968 1274.1208 1274.6624 1275.3212 1276.302 1277.3812 1278.6036 1280.0592 1281.1768 1282.2188 1282.9963 1283.7911 1284.844 1286.0308 1287.278 1288.9327 1289.8776 1290.216 1290.6416 1291.9684 1293.2316 1294.39 1295.3876 1296.8171 1298.2036 1299.5388 1300.8892 1302.2672 1303.4703 1304.8173 1306.2277 1307.7556 1308.8876 1310.8152 1312.4576 1313.7957 1315.1292 1316.606 1318.2428 1320.2812 1321.7964 1322.5116 1323.4124 1324.2716 1325.1476 1326.2772 1327.2852 1328.324 1329.4401 1331.2247 1333.0457 1334.5316 1335.8412 1337.4664 1338.8936 1340.032 1340.9473 1342.0088 1343.0009 1344.4872 1345.8344 1346.614 1346.5035 1346.7416 1347.4336 1348.4208 1349.384 1350.6848 1351.6736 1352.66 1353.7544 1354.9592 1355.9008 1356.7231 1356.8264 1356.5604 1356.7444 1357.54 1358.6128 1359.9764 1361.6901 1363.4417 1364.3624 1365.2365 1365.8252 1365.8452 1366.5516 1368.6604 1371.2308 1373.4152 1376.164 1377.416 1378.9296 1380.1536 1380.7544 1381.4896 1382.0599 1382.7388 1383.3588 1384.0527 1384.996 1385.8604 1386.77 1388.2648 1389.7336 1391.2228 1392.646 1394.0724 1395.0884 1396.3928 1397.6688 1398.9357 1400.1971 1401.69 1403.3916 1405.1356 1407.05 1409.216 1411.5448 1412.6332 1414.3171 1417.3588 1420.1235 1422.2268 1424.1636 1426.6196 1428.6525 1431.3104 1432.8088 1435.5587 1438.9731 1441.644 1443.9952 1446.2404 1447.9076 1449.1848 1450.2456 1451.3032 1452.3663 1453.2788 1454.1116 1455.762 1457.9692 1459.9608 1461.7479 1463.5645 1464.626 1465.5712 1466.4784 1468.2672 1470.4216 1472.1404 1473.1147 1474.3352 1475.5184 1476.7084 1477.9355 1479.4408 1480.94 1482.662 1484.2708 1486.1488 1487.34 1488.6436 1490.262 1491.8344 1493.204 1495.0104 1496.8192 1498.2444 1499.1005 1500.226 1501.5052 1502.9888 1504.2751 1505.2855 1506.4025 1507.9464 1509.1232 1510.3171 1511.5028 1513.8188 1517.902 1519.768 1520.9192 1521.7312 1522.1848 1523.55 1526.6956 1532.196 1534.9672 1537.526 1537.9661
1221.216 1221.7312 1222.3632 1222.7688 1223.0908 1223.2916 1223.7168 1224.7249 1225.8744 1227.0232 1228.1816 1228.7192 1228.9872 1229.2375 1229.8145 1230.3536 1230.558 1230.6732 1231.0348 1231.5796 1231.9128 1232.1272 1232.3264 1232.6016 1233.3505 1234.1616 1234.4116 1234.8124 1235.5432 1235.996 1237.2064 1238.0144 1238.5492 1238.9875 1238.8252 1238.822 1239.288 1239.8904 1240.5428 1241.2452 1242.1772 1242.8452 1243.8907 1244.9908 1245.8384 1246.8232 1247.752 1248.5552 1249.6664 1250.8696 1251.8737 1251.9744 1251.5568 1251.4752 1251.91 1252.2964 1253.1332 1254.0068 1255.2388 1256.1908 1257.0787 1257.954 1258.6237 1259.0812 1259.6244 1260.2444 1260.8356 1261.342 1261.5232 1262.0216 1262.9008 1263.5887 1264.7324 1265.778 1266.6567 1267.4784 1268.4761 1269.316 1270.1672 1270.92 1271.8684 1272.7316 1273.5808 1274.144 1274.74 1275.4768 1276.4036 1277.026 1277.8868 1278.7012 1279.5648 1280.3593 1281.4949 1282.5332 1283.676 1284.9608 1286.2188 1287.5492 1289.2528 1290.2664 1290.7839 1291.3408 1292.3212 1293.2867 1294.1827 1295.2716 1296.9052 1298.458 1300.0109 1301.2412 1302.4752 1303.5984 1304.8524 1306.3333 1307.8076 1308.8228 1310.1943 1311.7776 1313.5588 1314.8364 1316.042 1317.6885 1319.4188 1320.3948 1321.3428 1322.346 1323.4164 1324.3564 1325.574 1326.6876 1327.744 1328.9288 1330.5952 1332.184 1333.706 1334.8348 1336.028 1337.252 1338.4816 1339.584 1340.8647 1341.996 1344.256 1345.168 1345.2516 1345.2692 1345.8647 1346.6592 1347.78 1348.9928 1350.3416 1351.052 1352.2168 1353.4408 1354.1871 1354.6729 1355.0831 1355.3176 1355.4076 1355.7324 1356.996 1358.224 1360.046 1361.5485 1362.8864 1363.7096 1364.4172 1364.6844 1365.1372 1366.714 1368.7876 1371.2828 1373.3832 1375.2231 1376.4185 1377.9417 1378.8289 1379.3881 1380.2303 1380.98 1381.6365 1382.2516 1382.9072 1383.6136 1384.458 1385.4956 1386.9984 1388.5824 1390.258 1391.2892 1392.5292 1393.8092 1395.1344 1396.4552 1397.8676 1399.1868 1400.5627 1401.9124 1404.174 1406.0933 1407.4448 1409.1016 1410.99 1413.6724 1417.1748 1420.274 1423.0308 1424.9324 1427.042 1428.7308 1431.048 1432.7896 1434.3844 1436.6036 1439.3184 1441.8953 1444.4332 1446.6539 1448.1176 1449.0376 1449.9464 1451.0192 1451.8644 1452.7869 1454.2205 1455.8916 1457.82 1459.948 1462.11 1464.01 1465.5104 1466.7424 1468.7303 1470.9264 1472.4668 1473.4364 1474.4408 1475.4832 1476.6836 1477.8292 1479.3408 1480.9216 1482.5172 1483.9276 1485.6976 1487.0712 1488.3236 1489.5947 1490.8496 1491.8864 1493.3848 1495.1296 1496.6597 1497.6068 1498.8796 1500.1348 1501.4104 1502.7 1504.0936 1505.6425 1507.276 1508.432 1509.7052 1511.0251 1513.738 1517.8243 1519.6832 1520.5144 1521.1224 1521.6704 1522.918 1524.9164 1530.6495 1533.952 1537.6572 1538.686
1220.8348 1221.4803 1222.28 1222.7303 1223.1412 1223.478 1223.8752 1224.7944 1226.0629 1227.2885 1228.302 1228.906 1229.1971 1229.3796 1229.6625 1229.98 1230.2992 1230.4752 1230.6268 1231.0244 1231.362 1231.5251 1231.7133 1232.17 1233.2572 1234.314 1234.896 1235.3752 1235.8352 1236.2368 1237.59 1238.2612 1238.392 1239.16 1239.9064 1240.2192 1240.6799 1241.2896 1242.0336 1242.9224 1243.56 1244.0568 1244.8036 1245.3932 1245.9292 1246.6852 1247.7808 1248.7208 1249.8584 1251.1353 1252.2052 1252.79 1252.7064 1252.2368 1252.5223 1253.1112 1253.7396 1254.078 1254.8224 1255.588 1256.4292 1257.434 1258.4155 1259.0724 1259.7405 1260.29 1260.6548 1261.002 1261.758 1262.5396 1263.5616 1264.4167 1265.2664 1266.188 1266.8776 1267.5656 1268.4148 1269.4564 1270.318 1270.8099 1271.72 1272.836 1273.8647 1274.3392 1275.0464 1275.8104 1277.1276 1278.0044 1278.9991 1280.0336 1280.7001 1281.4264 1282.2361 1282.992 1283.9592 1284.8616 1285.8848 1287.2664 1288.5272 1289.4728 1290.5112 1291.468 1292.4188 1293.4044 1294.3691 1295.474 1296.8904 1298.3544 1299.9388 1300.9429 1302.2089 1303.4808 1304.8616 1306.232 1307.6685 1308.9396 1310.3792 1311.7448 1313.1692 1314.302 1315.6404 1317.0988 1318.3672 1319.296 1320.5511 1321.5297 1322.5612 1323.678 1325.0712 1326.2296 1327.2872 1328.4344 1329.908 1331.272 1332.656 1333.76 1334.9576 1336.1968 1337.4283 1338.5956 1339.9952 1341.1335 1342.5872 1343.1512 1343.6927 1344.408 1345.2748 1346.3644 1347.6212 1348.7148 1349.7008 1350.6376 1351.8737 1352.4696 1352.7156 1352.858 1353.4896 1353.9496 1354.2596 1354.9164 1356.7089 1358.3073 1360.0732 1361.3988 1362.2212 1362.9692 1363.5824 1364.1208 1365.2616 1367.2488 1369.5344 1371.6335 1373.0856 1374.6808 1375.678 1376.5645 1377.3564 1378.2284 1379.05 1379.7372 1380.2748 1380.7588 1381.3635 1382.3243 1383.46 1384.5856 1386.0536 1387.5216 1389.2452 1390.5292 1391.4744 1392.4784 1393.7216 1395.1952 1396.8872 1397.984 1399.3884 1400.25 1401.9036 1404.1924 1406.2277 1407.4764 1409.2052 1412.2435 1417.3593 1420.8737 1423.4088 1425.8928 1428.1824 1429.9417 1431.6884 1433.214 1434.7156 1436.3364 1438.2096 1440.1232 1442.4828 1444.8356 1446.6552 1447.6384 1448.446 1449.4324 1450.2672 1451.3967 1452.8668 1454.4276 1456.624 1458.8008 1461.1532 1462.9172 1465.0452 1467.1019 1468.8048 1470.4559 1472.0996 1473.3452 1474.306 1475.2172 1476.2828 1477.334 1478.8925 1480.358 1481.5968 1482.776 1483.7249 1485.2472 1487.128 1488.7352 1489.9196 1490.67 1491.6096 1493.4633 1495.2764 1496.634 1497.9976 1499.336 1500.8292 1502.0756 1503.4916 1504.8868 1506.4268 1507.7412 1509.2628 1510.7572 1513.154 1517.2756 1518.73 1519.5044 1520.7375 1521.4984 1522.3356 1522.7012 1525.8547 1531.5492 1535.7421 1537.822
1220.9756 1221.85 1222.3663 1222.7048 1223.198 1223.6068 1224.0784 1225.0472 1226.4348 1227.5836 1228.3043 1228.8812 1229.2076 1229.3835 1229.4448 1229.5112 1229.8296 1230.2328 1230.2964 1230.3484 1230.406 1230.4156 1230.9932 1231.8724 1232.7236 1233.4893 1234.3768 1234.9937 1235.3728 1235.8464 1236.7308 1237.1892 1237.604 1238.3721 1239.6 1240.436 1241.0568 1241.7161 1242.3057 1242.8472 1243.3032 1243.8016 1244.2563 1244.8477 1245.61 1246.246 1247.1136 1248.0056 1249.288 1250.7888 1251.9172 1252.7452 1253.3472 1253.1864 1253.2496 1253.7616 1254.1597 1254.514 1255.1848 1255.696 1256.3124 1257.3268 1258.3804 1258.8452 1259.6052 1260.4252 1260.8436 1260.8468 1261.6108 1262.3652 1263.6904 1265.0336 1265.9313 1266.576 1267.5009 1268.256 1268.9308 1269.8477 1270.7196 1271.2196 1271.8192 1272.5336 1273.1481 1273.4113 1274.4937 1275.6832 1276.6252 1277.8524 1278.928 1280.0504 1281.156 1282.276 1283.2999 1284.104 1284.8688 1285.64 1286.1224 1286.872 1287.8073 1288.972 1290.3503 1291.5472 1292.6044 1293.6235 1294.6764 1295.8132 1297.1448 1298.3608 1299.7476 1300.7964 1302.108 1303.1672 1304.6528 1306.0745 1307.654 1309.0692 1310.2823 1311.2896 1312.482 1313.6595 1314.99 1316.3444 1317.588 1318.6511 1320.0007 1320.9808 1322.0276 1323.2196 1324.5497 1325.6936 1326.852 1328.092 1329.6024 1330.7983 1332.048 1333.2144 1334.6265 1335.952 1337.1404 1338.2852 1339.464 1340.348 1341.1808 1341.9705 1342.9392 1343.9615 1345.0021 1346.2484 1347.5717 1348.286 1349.3512 1350.8129 1351.0312 1351.0352 1350.81 1351.1604 1352.2408 1352.9056 1353.6523 1354.9108 1356.8064 1358.3424 1359.934 1361.1412 1361.7196 1362.4868 1363.3368 1364.664 1366.2697 1367.8136 1369.476 1371.1288 1372.5585 1373.7168 1374.354 1375.0884 1376.2124 1377.1755 1377.838 1378.3556 1378.8068 1379.1548 1379.5836 1381.0852 1382.9872 1384.228 1385.5063 1386.5312 1387.9276 1389.386 1390.2496 1391.0583 1392.704 1394.4304 1396.0745 1396.6544 1397.6572 1398.3732 1400.1667 1402.43 1404.6796 1406.3604 1407.9355 1409.7388 1413.6848 1419.3593 1422.952 1426.4473 1429.3792 1431.116 1432.7996 1433.7316 1435.062 1436.7324 1438.6887 1440.684 1442.2036 1443.6556 1445.2249 1446.2368 1447.2124 1448.2548 1449.392 1450.904 1452.4828 1453.9508 1455.9097 1458.2336 1460.886 1462.4116 1464.4668 1466.9092 1468.54 1469.9 1471.3884 1472.5844 1473.5356 1474.5668 1475.598 1476.646 1478.214 1479.4908 1480.4216 1481.1335 1481.9705 1483.1648 1485.088 1487.0135 1488.6044 1489.5692 1490.52 1492.1528 1494.0164 1495.3964 1496.7072 1498.596 1500.5748 1501.5876 1502.834 1504.2133 1505.7684 1507.3596 1509.4204 1510.8556 1512.214 1515.03 1517.5195 1518.3835 1519.6976 1521.0312 1521.9476 1522.4332 1523.5924 1528.4772 1533.3956 1535.6212
1221.34 1222.2656 1222.7328 1223.0511 1223.5708 1223.978 1224.428 1225.2632 1226.6488 1227.6808 1228.2952 1228.8231 1229.0092 1229.0645 1229.2012 1229.5109 1229.592 1229.6976 1230.0096 1230.0416 1229.986 1230.0012 1230.8148 1232.0052 1232.7152 1233.4777 1234.5024 1235.032 1235.3688 1235.7784 1236.3812 1236.9548 1237.6332 1238.3027 1238.9296 1239.5056 1240.2144 1240.7609 1241.4088 1241.5583 1241.8824 1242.5944 1243.314 1244.134 1245.054 1245.7692 1246.3456 1247.1288 1248.3232 1249.8577 1251.24 1252.2303 1253.232 1253.7216 1253.9004 1254.1669 1254.496 1254.9023 1255.7152 1256.5671 1256.9928 1257.5776 1258.354 1258.814 1259.6576 1260.5511 1261.2751 1261.5112 1261.6536 1262.1808 1263.6044 1264.7756 1265.6248 1266.0977 1267.0784 1267.8552 1268.6276 1269.6492 1270.536 1271.0919 1271.3796 1271.8364 1272.3932 1272.9116 1274.018 1275.2012 1276.3428 1277.694 1278.7828 1279.834 1281.1484 1282.3436 1283.4705 1284.2896 1285.2196 1286.5789 1287.5004 1287.8171 1288.1353 1288.9136 1290.048 1291.1904 1292.6748 1293.9285 1294.8524 1295.7772 1296.8488 1297.8768 1298.9849 1300.3032 1301.7844 1302.79 1304.1544 1305.7544 1307.5244 1308.9988 1310.1692 1310.998 1312.0323 1313.0724 1314.2161 1315.4304 1316.9124 1318.1683 1319.5764 1320.6652 1321.8073 1323.0543 1324.248 1325.304 1326.4589 1327.8925 1329.5564 1330.7308 1331.9048 1333.1119 1334.4628 1335.6788 1336.9324 1337.65 1338.4912 1339.4329 1340.5236 1341.4708 1342.5555 1343.8676 1345.1364 1346.1572 1346.8531 1347.6852 1348.834 1349.2908 1348.7668 1348.6309 1348.9232 1349.8904 1351.0176 1351.9849 1353.4016 1355.0712 1356.8608 1358.2911 1359.6917 1360.6676 1361.3964 1362.382 1363.6832 1365.2832 1366.58 1367.6096 1368.9108 1370.1915 1371.58 1372.5961 1373.0828 1373.5692 1374.7792 1375.632 1376.1669 1376.6812 1377.166 1377.418 1377.652 1379.0808 1381.5063 1383.4536 1384.7695 1385.3096 1386.042 1387.3564 1388.5304 1389.2192 1391.0188 1393.9004 1395.872 1395.3048 1394.9352 1395.9584 1398.2203 1401.3348 1403.5197 1405.2076 1406.7284 1408.0708 1410.3468 1414.1395 1419.1244 1423.4156 1427.6624 1430.0656 1432.012 1433.4944 1435.3928 1437.3967 1439.416 1440.8152 1442.016 1443.148 1444.4832 1445.5856 1446.4172 1447.174 1448.374 1450.1237 1452.3588 1453.422 1455.2012 1457.678 1460.5388 1462.2372 1464.2772 1466.3171 1467.9424 1469.3217 1470.4712 1471.5728 1472.8011 1473.77 1474.67 1475.7076 1477.1356 1478.3588 1479.2231 1479.884 1480.8876 1482.2732 1483.9355 1485.3812 1486.9668 1488.342 1489.6068 1491.19 1492.9836 1494.2507 1495.7648 1497.712 1499.7644 1500.8468 1502.244 1503.9376 1505.7092 1507.5028 1509.5256 1511.0272 1512.7168 1514.4417 1517.4852 1518.4252 1518.4148 1519.8196 1521.2192 1522.1296 1523.0164 1525.1748 1531.064 1534.3008
1221.9991 1222.5248 1222.8192 1223.1808 1223.7852 1224.3124 1225.0176 1225.4944 1226.3928 1227.404 1228.0864 1228.5248 1228.6644 1228.5116 1228.6307 1228.8108 1228.7216 1228.7712 1229.5544 1229.796 1229.8956 1230.2708 1231.0228 1231.9668 1232.7177 1233.6384 1234.4559 1234.8433 1234.9584 1235.2656 1236.0004 1236.6859 1237.4796 1238.1188 1238.2848 1238.96 1239.564 1240.048 1240.2704 1240.3448 1240.872 1241.7823 1242.5396 1243.3644 1244.1124 1245.1523 1246.1384 1246.928 1248.0104 1249.3064 1250.556 1251.46 1252.228 1252.8984 1253.5627 1254.1539 1254.848 1255.496 1256.5457 1257.4952 1257.9608 1257.944 1258.146 1258.9515 1260.036 1260.8096 1261.544 1262.2456 1262.6752 1262.6312 1263.0685 1263.8076 1264.4552 1265.1407 1266.2432 1267.0344 1267.8988 1269.162 1270.0288 1270.2393 1270.4677 1271.3148 1272.118 1272.8268 1273.9341 1274.9733 1276.3204 1277.7277 1278.7365 1279.7349 1280.9508 1282.1075 1283.2936 1284.2904 1285.6292 1286.8716 1288.006 1288.5468 1289.2184 1289.9248 1290.788 1291.4888 1292.9388 1294.282 1295.2612 1295.9908 1296.7528 1297.6191 1298.764 1299.9768 1301.3292 1302.4916 1304.0312 1305.7096 1307.4644 1308.7836 1309.9348 1311.0868 1312.1829 1313.2292 1314.3728 1315.4816 1316.8564 1318.0916 1319.4332 1320.61 1321.864 1323.0984 1324.1224 1325.0472 1326.4884 1328.05 1329.4692 1330.6757 1331.9664 1333.1064 1334.2284 1335.1741 1336.0668 1336.85 1337.8951 1339.056 1340.3116 1341.4844 1342.6948 1343.8596 1344.7756 1345.1788 1345.6588 1347.1451 1347.4749 1347.186 1347.0708 1347.2756 1348.248 1349.3176 1350.4777 1351.8608 1353.6648 1355.3376 1357.0504 1358.252 1359.2275 1360.1652 1361.4332 1362.8972 1364.1736 1364.8793 1365.6047 1366.6632 1368.1492 1369.23 1370.4584 1371.3976 1372.23 1372.5388 1373.4023 1374.2568 1374.8907 1375.29 1375.5868 1375.8452 1376.1144 1377.3848 1380.02 1381.6119 1382.9559 1383.7968 1384.546 1385.9196 1387.1 1387.4064 1388.7844 1392.6836 1394.4768 1393.2744 1393.1191 1394.0944 1396.5789 1400.1108 1402.5868 1403.9084 1405.0676 1406.5364 1409.1892 1412.326 1415.6436 1419.4772 1423.8224 1427.3665 1429.9088 1432.1448 1434.7168 1436.5048 1438.5608 1440.1664 1441.3016 1442.6272 1444.1864 1445.2504 1445.8684 1446.51 1447.5668 1449.1948 1451.2828 1452.5876 1454.3308 1457.5388 1460.0452 1461.7388 1464.0796 1465.9355 1467.0608 1468.1088 1468.9617 1470.188 1471.6093 1472.4948 1473.4364 1474.6068 1475.9819 1477.2788 1478.1736 1479.0009 1480.0356 1481.2292 1482.9156 1484.3644 1486.0092 1487.4724 1488.8876 1490.6516 1492.4916 1493.746 1495.1488 1496.904 1498.8468 1500.5035 1502.124 1503.8848 1505.822 1507.5292 1509.3104 1510.9928 1512.7576 1514.1512 1516.3796 1517.7148 1517.8164 1519.0436 1520.5696 1521.792 1522.8412 1524.0364 1528.4384 1531.8704
1221.9004 1222.274 1222.6704 1223.1632 1223.6772 1224.1292 1224.9388 1225.446 1225.9896 1226.9656 1227.4932 1227.6075 1227.8524 1227.8436 1227.7512 1227.5304 1227.6412 1228.1676 1229.0009 1229.496 1229.5872 1230.2104 1231.042 1231.638 1232.61 1233.3636 1233.8988 1234.0068 1233.832 1234.1824 1235.2676 1236.0636 1236.7452 1237.082 1238.0968 1239.2 1239.9484 1240.1237 1239.6384 1239.6432 1240.1908 1241.022 1241.8936 1242.9728 1244.1116 1245.1836 1246.1652 1246.8853 1247.8192 1248.9152 1249.7704 1250.4056 1251.308 1252.3593 1253.3036 1254.582 1255.4436 1256.0892 1256.92 1257.688 1258.4545 1258.7512 1258.6381 1259.138 1260.3772 1261.17 1261.8096 1262.4104 1263.03 1263.6404 1263.5872 1263.4568 1264.3619 1265.3732 1266.0288 1266.4703 1267.3071 1268.5176 1269.1235 1269.0645 1269.9023 1271.192 1272.1844 1272.9828 1273.8412 1274.7133 1276.2612 1277.4644 1278.672 1279.536 1280.3969 1281.42 1282.4452 1283.6124 1285.5688 1286.736 1287.9736 1288.5808 1289.5485 1290.4764 1291.394 1292.1964 1293.536 1294.716 1295.8011 1296.6901 1297.6748 1298.6356 1299.7104 1300.9169 1302.158 1303.2836 1305.0132 1306.2972 1307.7384 1308.8881 1309.9023 1311.1191 1312.0641 1313.0592 1314.4196 1315.6204 1316.894 1318.0228 1319.1628 1320.2804 1321.6732 1322.8972 1323.9304 1325.0768 1326.6003 1327.8333 1329.2175 1330.3552 1331.3712 1332.4664 1333.664 1334.6864 1335.5956 1336.6364 1337.8333 1338.934 1340.2472 1341.3433 1342.4656 1343.0336 1342.9705 1343.612 1344.9844 1345.5483 1345.328 1345.4144 1346.0743 1346.9592 1348.11 1349.3372 1351.054 1352.5652 1353.8856 1355.256 1356.6044 1357.534 1358.6932 1359.802 1361.164 1362.332 1363.1228 1363.7275 1364.508 1365.656 1367.0912 1368.1272 1368.9712 1369.7008 1370.538 1371.094 1371.8236 1372.6836 1373.4167 1373.7008 1373.8192 1374.0048 1374.1973 1375.0028 1378.3484 1379.6908 1380.8368 1381.2496 1381.9468 1384.6564 1385.8464 1385.9928 1387.2616 1389.5905 1390.818 1390.418 1391.832 1393.5688 1395.5344 1397.6088 1400.3636 1401.9884 1403.0088 1404.1304 1407.0804 1410.8164 1415.2744 1419.088 1422.6 1425.5776 1428.5052 1431.0092 1432.9589 1434.91 1437.172 1439.0968 1440.7076 1442.1611 1443.7384 1444.7 1445.4764 1446.2924 1447.1356 1448.3652 1450.0627 1451.5404 1453.2904 1456.4048 1459.7128 1461.1912 1462.806 1464.562 1465.9724 1466.7596 1467.3531 1468.6381 1470.0311 1470.8593 1471.9512 1473.2944 1474.686 1475.9708 1476.9772 1478.0107 1479.16 1480.3792 1482.0452 1483.5188 1485.2896 1486.7776 1488.0996 1489.894 1491.7396 1493.1924 1495.5508 1497.39 1498.8184 1500.4536 1502.1924 1503.8972 1505.8008 1507.3951 1509.0332 1510.6204 1512.1128 1513.2672 1514.8387 1516.3508 1517.3632 1518.6104 1520.2496 1521.492 1522.646 1523.7932 1525.674 1528.53
1221.606 1222.1028 1222.5872 1223.016 1223.3612 1223.7924 1224.4508 1225.0251 1225.4528 1226.0656 1226.5684 1226.7115 1227.1252 1227.414 1227.2848 1226.8145 1227.1708 1227.8396 1228.6632 1229.216 1229.26 1229.6927 1230.9427 1231.2588 1232.1436 1232.6876 1232.9316 1232.9884 1232.8472 1233.26 1234.4156 1235.3171 1236.0756 1236.5037 1237.7017 1238.6848 1239.3925 1239.4556 1238.9336 1239.1592 1239.5812 1240.2316 1241.5151 1242.948 1244.1476 1244.962 1245.8619 1246.4684 1247.4064 1248.7616 1249.7231 1250.3232 1251.4088 1252.4777 1253.382 1254.6204 1255.4484 1256.2203 1256.9705 1257.676 1258.4016 1259.3176 1259.706 1259.686 1260.3964 1261.4052 1262.1224 1262.5664 1262.9972 1263.6732 1264.296 1264.5063 1264.7579 1265.1068 1265.568 1265.6608 1266.5992 1267.6016 1268.2484 1268.498 1269.636 1270.9865 1272.2052 1273.3171 1274.1228 1275.0204 1276.4348 1277.2108 1278.2656 1279.2032 1279.9272 1280.8384 1281.7324 1282.6276 1284.2568 1285.784 1286.9224 1287.8273 1289.018 1290.0356 1291.214 1292.546 1293.9879 1295.016 1295.9893 1296.894 1298.0444 1299.05 1300.2744 1301.6472 1303.03 1304.274 1305.7172 1306.7003 1308.4719 1309.772 1310.672 1311.5208 1312.444 1313.308 1314.37 1315.4427 1316.8092 1317.93 1318.9443 1319.9341 1321.1844 1322.3508 1323.7128 1324.7488 1326.082 1327.3853 1328.612 1329.6792 1330.9648 1332.1544 1333.2968 1334.4487 1335.7028 1336.7788 1337.7844 1338.7043 1339.8328 1340.7672 1341.544 1341.3649 1341.964 1343.4088 1343.6532 1343.406 1343.7664 1344.6368 1345.8784 1346.9312 1348.1316 1349.6901 1351.4893 1352.6788 1353.9856 1355.052 1355.8477 1356.7725 1358.262 1359.4124 1360.52 1361.2992 1361.8948 1362.7651 1363.696 1364.7769 1366.0808 1366.9984 1367.6008 1368.1416 1368.9852 1369.6244 1370.2739 1370.9517 1371.7424 1372.1064 1372.2032 1372.3248 1372.4836 1373.1708 1376.4532 1378.0964 1378.7751 1378.4568 1378.282 1380.6827 1382.7296 1383.0168 1385.1584 1386.9991 1387.6804 1388.73 1390.7024 1392.5673 1394.3744 1395.98 1398.1868 1400.1284 1401.5104 1402.7697 1405.218 1407.7332 1412.2344 1417.7087 1420.9432 1425.2472 1429.2612 1431.3284 1432.9004 1434.2437 1436.4489 1438.4023 1440.0172 1441.5396 1443.1104 1443.9937 1445.0516 1445.9652 1446.4564 1447.6829 1449.6356 1451.2268 1453.2625 1455.2952 1457.2992 1459.5792 1461.7916 1462.3652 1463.77 1464.7412 1465.4188 1467.006 1468.7231 1469.8168 1470.8232 1472.1569 1473.518 1474.7244 1476.0468 1477.3317 1478.812 1480.3113 1481.994 1483.2628 1484.976 1486.5808 1488.0548 1489.55 1491.186 1493.994 1496.3925 1497.6588 1498.9712 1500.3424 1502.0492 1503.6772 1505.4849 1507.0344 1508.6212 1510.1237 1511.5408 1512.7015 1514.2788 1515.866 1517.0608 1518.3832 1520.036 1521.28 1522.4796 1523.7036 1525.2332 1527.0764
1221.312 1221.8143 1222.256 1222.7008 1223.116 1223.5352 1223.9708 1224.3292 1224.5892 1224.9132 1225.464 1225.9712 1226.4868 1226.8156 1226.6288 1226.1968 1226.6476 1227.498 1228.4172 1228.9436 1229.0688 1229.036 1229.8964 1230.382 1231.314 1231.8333 1231.9232 1231.9248 1232.4104 1233.1528 1234.1312 1234.9576 1235.6996 1236.1268 1237.164 1237.8152 1238.4148 1238.7284 1238.648 1239.2328 1239.6748 1240.2588 1241.6672 1243.0912 1244.1392 1244.8192 1245.5323 1245.9805 1247.09 1248.5876 1249.5724 1250.3988 1251.3156 1251.9196 1252.6929 1254.0272 1255.1016 1255.9095 1256.6744 1257.3503 1258.0715 1259.1212 1259.8136 1260.1344 1260.5007 1261.4417 1262.2017 1262.7648 1263.2216 1263.7 1264.3124 1264.7612 1265.1569 1265.3488 1265.0896 1265.116 1265.9972 1266.922 1267.7076 1268.2572 1269.34 1270.6312 1272.0592 1273.4584 1274.6667 1275.7292 1276.7516 1277.4492 1278.1451 1278.7748 1279.6927 1280.6416 1281.5977 1282.4408 1283.5072 1284.7896 1286.1816 1287.3591 1288.6096 1289.8489 1291.34 1292.752 1294.098 1295.2156 1296.2637 1297.058 1298.1132 1299.166 1300.432 1301.6713 1303.008 1304.0416 1305.0004 1306.4819 1308.9285 1310.2324 1311.2524 1312.01 1312.9916 1313.7509 1314.6276 1315.6228 1316.9417 1317.9984 1318.9868 1320.0676 1321.2828 1322.2108 1323.62 1324.6119 1325.8568 1327.0745 1328.2056 1329.5905 1331.0928 1332.2688 1333.5264 1334.6 1335.6328 1336.2767 1337.0092 1337.9468 1338.9656 1339.3856 1339.678 1340.47 1341.5636 1341.9012 1341.7316 1341.9332 1342.7192 1343.9392 1345.6132 1347.0107 1348.3748 1349.9084 1351.5356 1352.7043 1353.8812 1354.454 1355.086 1356.0588 1357.4064 1358.4424 1359.4252 1360.2043 1360.9116 1361.89 1362.9408 1363.8992 1364.8732 1365.682 1366.2375 1366.7231 1367.392 1367.9584 1368.5092 1369.0436 1369.7936 1370.2648 1370.4587 1370.5107 1370.6539 1370.9132 1374.1652 1376.1764 1376.264 1375.4504 1375.2563 1375.3628 1376.6992 1378.2776 1380.9512 1384.2904 1385.9836 1388.0636 1389.7488 1391.1968 1392.6272 1394.1288 1395.7992 1397.4576 1399.8068 1401.6724 1404.772 1406.552 1410.0228 1416.2324 1419.7164 1422.9276 1425.7347 1429.4884 1432.678 1434.6052 1436.5088 1437.7368 1439.2292 1440.6028 1441.9164 1443.0485 1443.9556 1444.8763 1445.5413 1446.9108 1448.78 1450.66 1452.9248 1454.6696 1456.1104 1457.6016 1459.636 1460.2391 1460.5432 1461.6792 1463.4376 1464.8519 1466.3737 1467.8359 1469.3688 1470.5144 1472.2412 1473.8612 1475.8127 1477.3344 1479.0616 1480.5153 1482.4324 1483.9028 1485.3136 1486.6672 1488.1372 1489.5236 1491.334 1494.4412 1496.0511 1497.5728 1499.0312 1500.236 1501.7444 1503.2396 1505.0044 1506.5717 1508.1292 1509.5956 1511.1628 1512.5564 1514.0004 1515.4844 1516.8864 1518.2625 1519.9023 1521.16 1522.388 1523.5975 1524.8784 1525.9712
1221.0457 1221.5928 1222.1792 1222.6528 1223.0743 1223.4088 1223.642 1223.618 1223.7596 1224.0789 1224.5975 1225.2856 1225.978 1225.8396 1225.4128 1225.64 1226.178 1226.9468 1227.7676 1228.4604 1228.8688 1228.8408 1229.3549 1230.1732 1230.9796 1231.0236 1230.9496 1231.4056 1232.4928 1233.3488 1234.1992 1234.7681 1235.5396 1236.3812 1237.1855 1237.6512 1237.9148 1238.1804 1238.6528 1239.4424 1240.1724 1240.774 1241.8616 1243.0824 1244.056 1244.7008 1245.1852 1245.4684 1246.5012 1247.8292 1248.8868 1250.2988 1251.4052 1251.7484 1252.1016 1253.2087 1254.58 1255.3688 1256.008 1256.556 1257.4524 1258.3853 1258.9608 1260.008 1261.1729 1261.72 1261.9904 1262.6416 1263.2648 1263.9417 1264.5916 1265.0164 1265.5328 1266.1567 1265.9993 1265.7648 1266.238 1266.886 1267.5836 1268.2996 1269.0448 1270.2416 1271.7072 1273.0632 1274.4036 1275.5956 1276.638 1277.5468 1278.1685 1278.6892 1279.5688 1280.4617 1281.4448 1282.4816 1283.8951 1285.0385 1286.3376 1287.5328 1288.7432 1290.0208 1291.5872 1292.9432 1294.166 1295.3236 1296.3932 1297.2596 1298.3356 1299.4652 1300.6335 1301.5896 1302.5712 1303.5632 1304.7076 1306.1716 1308.1796 1309.6836 1310.8772 1311.814 1312.766 1313.6884 1314.8916 1315.9236 1317.0704 1317.9993 1318.9668 1320.0428 1321.3572 1322.514 1323.8552 1325.1224 1326.7728 1327.6544 1328.7648 1329.868 1331.1184 1332.2256 1333.3512 1334.108 1334.888 1335.7704 1336.7828 1337.3652 1337.7776 1338.1992 1339.054 1339.6156 1339.8092 1339.99 1340.4963 1341.1108 1342.1464 1343.6976 1345.5859 1347.1372 1348.6116 1350.2012 1351.5884 1352.3604 1353.122 1353.6852 1354.4972 1355.446 1356.4176 1357.2504 1358.3004 1359.3083 1360.1669 1361.0604 1362.0688 1362.992 1363.682 1364.3405 1364.9615 1365.5065 1365.9296 1366.3936 1366.8148 1367.3044 1367.9504 1368.4712 1369.0292 1369.1516 1368.9252 1368.5476 1369.3868 1370.2797 1370.5736 1371.1632 1372.6324 1373.1244 1373.7625 1376.2625 1379.8575 1383.0079 1385.4252 1387.5197 1388.8416 1389.816 1390.9128 1392.6208 1394.4417 1395.9368 1397.9948 1400.8204 1403.9248 1405.9847 1407.73 1411.1237 1415.4907 1419.1436 1423.682 1425.5316 1429.0052 1433.0508 1435.3792 1436.6952 1438.5516 1439.8853 1441.1908 1441.8923 1442.2509 1443.3636 1444.458 1445.8916 1447.6088 1449.5256 1452.1648 1454.2856 1455.3744 1455.2992 1456.34 1456.5784 1457.3575 1458.8536 1461.168 1462.888 1464.1776 1465.56 1467.4216 1469.3784 1471.7852 1473.9572 1476.1031 1477.9113 1479.7424 1481.0153 1482.7284 1484.3029 1485.6864 1486.9248 1488.3468 1489.7124 1491.1044 1493.418 1495.5032 1497.4424 1498.9384 1500.2408 1501.6852 1503.0348 1504.7476 1506.2716 1507.7164 1509.114 1510.7804 1512.3916 1513.7932 1515.0612 1516.4504 1517.9368 1519.6296 1520.852 1522.1224 1523.3304 1524.768 1525.9905
1220.8092 1221.4004 1222.2448 1222.8152 1223.1309 1223.3596 1223.2008 1222.8152 1222.9504 1223.2681 1223.6632 1224.1569 1224.72 1224.6328 1224.8348 1225.3444 1225.8004 1226.4012 1226.994 1227.6028 1228.3748 1228.702 1229.0144 1229.4095 1229.7753 1229.9984 1230.2664 1231.0552 1232.1711 1233.1456 1234.046 1234.882 1235.688 1236.5912 1237.1384 1237.536 1237.8124 1238.1412 1238.9344 1239.7216 1240.4515 1241.0428 1241.8751 1242.6744 1243.4764 1243.8925 1244.3624 1244.7463 1245.738 1246.9819 1248.2936 1249.744 1251.0416 1251.8287 1252.2816 1252.7688 1253.6888 1254.1792 1254.7212 1255.0956 1255.794 1256.778 1258.0511 1259.5464 1260.8904 1261.7904 1262.5717 1262.9285 1263.1876 1263.9572 1264.8029 1265.446 1266.2712 1267.156 1267.4116 1266.8644 1267.0573 1267.4484 1268.046 1268.8468 1269.2916 1270.0452 1271.4324 1272.5532 1273.9116 1275.1812 1276.2697 1277.3552 1278.4072 1279.1047 1279.7635 1280.4796 1281.4608 1282.5376 1283.9636 1285.2892 1286.5887 1287.6672 1288.8575 1289.9944 1291.41 1292.8372 1294.2416 1295.5905 1296.6927 1297.5496 1298.822 1299.978 1300.9584 1301.6528 1302.536 1303.6224 1304.756 1305.9633 1307.6896 1308.924 1310.17 1311.3596 1312.2224 1313.5736 1314.8464 1315.7992 1316.8196 1317.7844 1319.0016 1320.1432 1321.4124 1322.6276 1323.812 1325.1888 1326.996 1327.764 1328.9016 1330.0376 1331.068 1331.9336 1332.6716 1333.4244 1334.3936 1335.264 1335.818 1336.2804 1337.1569 1338.0328 1338.0912 1338.0009 1338.3995 1339.0604 1339.9216 1341.0328 1342.5656 1344.032 1345.68 1347.2688 1348.8308 1350.2092 1351.0295 1351.5344 1352.0852 1352.8372 1353.6716 1354.4084 1355.2732 1356.0988 1357.2375 1358.3304 1359.2816 1360.0984 1360.826 1361.6188 1362.3468 1362.9677 1363.7024 1364.0441 1364.256 1364.7456 1365.1528 1365.5984 1366.29 1366.866 1367.2144 1367.3936 1367.14 1366.9264 1366.7228 1366.8988 1368.4724 1369.9067 1370.4896 1370.6688 1371.8229 1374.3245 1378.5792 1382.12 1384.268 1386.2528 1387.4025 1388.4872 1389.7488 1391.9216 1393.676 1394.9792 1396.7913 1398.264 1401.3988 1404.4285 1406.2856 1407.6873 1408.5756 1410.7516 1417.21 1419.7653 1423.2045 1426.1084 1428.7004 1432.3844 1436.4928 1438.2888 1439.1124 1439.3436 1439.3763 1441.002 1443.3196 1445.0428 1446.5724 1447.7532 1449.8712 1451.8751 1452.0304 1451.6104 1453.0004 1454.034 1455.7484 1457.6332 1459.5656 1461.2927 1463.2324 1465.2484 1467.5104 1469.6072 1472.1628 1474.4004 1476.3896 1478.1312 1479.9912 1481.3024 1482.81 1484.3652 1485.896 1487.204 1488.6632 1490.0096 1491.5096 1493.2368 1495.1864 1496.9672 1498.764 1500.2175 1501.666 1502.9956 1504.5968 1505.988 1507.4104 1508.8944 1510.5803 1512.0508 1513.5339 1514.7388 1516.0135 1517.4888 1519.1873 1520.5016 1521.7992 1523.0353 1524.4012 1525.5139
1220.4708 1220.8732 1221.6248 1222.2 1222.3964 1222.4668 1222.336 1222.1344 1222.3832 1222.6688 1222.9688 1223.264 1223.6008 1223.9792 1224.6252 1225.098 1225.6685 1226.3461 1226.5804 1226.9044 1228.086 1228.5972 1228.8289 1228.9568 1228.8649 1229.1824 1229.7872 1230.5457 1231.5544 1232.5977 1233.6469 1234.8284 1235.6984 1236.4543 1237.2424 1237.8256 1238.1492 1238.35 1239.3032 1240.2855 1240.866 1241.3612 1241.8984 1242.3632 1243.0444 1243.6525 1244.2096 1244.7375 1245.6653 1246.5172 1247.4615 1248.8816 1250.3264 1251.8127 1252.6144 1252.7625 1253.2032 1253.6936 1254.1732 1254.5748 1255.2748 1256.134 1257.3856 1258.3752 1259.344 1260.6312 1262.3212 1263.0972 1263.6813 1264.1437 1264.9436 1265.7212 1266.8273 1267.9471 1267.9875 1267.402 1267.5573 1268.0892 1268.6525 1269.3333 1269.5804 1269.83 1271.0037 1272.1627 1273.5413 1274.7708 1275.8632 1277.0416 1278.336 1279.2528 1280.134 1281.066 1281.9415 1282.7736 1283.9724 1285.3252 1286.7537 1287.9167 1289.1744 1290.1224 1291.166 1292.5532 1294.1569 1295.7312 1297.0599 1297.9633 1299.1885 1300.1523 1300.9664 1301.5632 1302.4761 1303.596 1304.6711 1305.7216 1307.2393 1308.3344 1309.41 1310.5852 1311.932 1313.2672 1314.4471 1315.4672 1316.5116 1317.5627 1318.8704 1320.1224 1321.4012 1322.474 1323.6592 1324.9608 1326.5529 1327.788 1329.0632 1330.068 1330.9016 1331.5896 1332.4852 1333.3004 1333.8816 1334.3888 1334.982 1335.6235 1336.1608 1336.344 1336.4408 1336.8816 1337.8044 1338.7036 1340.0248 1341.5295 1343.1064 1344.3647 1345.984 1347.3424 1348.542 1349.5188 1350.1648 1350.5369 1350.9636 1351.77 1352.6156 1353.33 1354.2228 1355.274 1356.5151 1357.6208 1358.5464 1359.2625 1359.786 1360.3516 1361.0012 1361.478 1362.1272 1362.5007 1362.8055 1363.2568 1363.7872 1364.2697 1364.9211 1365.3804 1365.536 1365.6992 1365.6112 1365.4232 1365.3876 1365.8644 1367.8252 1368.6276 1368.7024 1368.6176 1369.2308 1371.1356 1376.1016 1379.78 1381.9543 1384.2463 1385.696 1387.4016 1389.172 1390.9528 1392.3768 1393.7184 1395.7208 1396.6368 1398.1316 1399.9548 1402.3008 1404.3344 1405.9292 1408.2588 1411.1196 1413.374 1416.362 1418.162 1419.6012 1424.1924 1430.3904 1434.2344 1435.8652 1435.9652 1436.3252 1438.7493 1441.882 1444.2308 1445.7356 1446.3756 1447.924 1449.1056 1448.9255 1449.5599 1451.05 1452.9875 1455.3092 1457.1572 1459.224 1461.1256 1463.4731 1465.7563 1467.8328 1469.9696 1472.5868 1474.786 1476.7249 1478.2552 1479.9097 1481.3024 1482.8812 1484.4476 1485.9144 1487.264 1488.8568 1490.3168 1491.908 1493.4816 1495.284 1497.0024 1499.0728 1500.4352 1501.786 1503.0228 1504.5135 1505.8665 1507.3992 1508.9568 1510.5836 1511.894 1513.426 1514.8164 1516.1952 1517.616 1519.0416 1520.1992 1521.484 1522.8256 1524.3204 1525.6204
1220.2056 1220.3024 1220.6368 1220.8896 1220.9384 1221.0536 1221.4596 1221.794 1222.192 1222.4208 1222.5636 1222.7788 1223.082 1223.5084 1224.2563 1224.758 1225.4552 1225.9224 1226.2468 1226.842 1227.9644 1228.3756 1228.5656 1228.6064 1228.7628 1228.9708 1229.2572 1229.8612 1230.5492 1231.3804 1232.816 1234.4064 1235.4552 1236.2792 1237.2539 1237.9988 1238.4183 1238.6504 1239.6732 1240.7028 1241.3895 1241.9912 1242.3812 1242.5413 1243.108 1243.9777 1244.5112 1245.1288 1246.062 1246.6293 1247.1843 1248.1044 1249.7308 1251.2948 1252.6616 1253.0984 1253.2844 1254.0875 1254.6288 1254.7928 1255.5076 1256.4132 1257.3716 1258.1885 1258.8444 1259.6667 1261.0804 1262.5444 1263.5604 1263.974 1264.8055 1265.7375 1267.0344 1268.3431 1268.5472 1268.0192 1267.8287 1268.2832 1269.0588 1269.79 1270.144 1270.128 1270.6031 1271.916 1273.2465 1274.3488 1275.626 1276.786 1277.9865 1279.1064 1280.16 1281.2231 1282.3333 1283.2957 1284.4224 1285.3896 1286.7192 1288.052 1289.3793 1290.1857 1291.0692 1292.3853 1294.0496 1295.6656 1297.1708 1298.1964 1299.322 1300.1212 1300.9996 1301.6708 1302.6276 1303.5092 1304.5195 1305.5596 1306.844 1307.8127 1309.002 1310.2491 1311.7312 1312.9816 1314.1927 1315.3392 1316.652 1317.932 1319.2388 1320.2388 1321.5468 1322.5348 1323.5824 1324.9008 1326.5708 1327.9524 1329.2723 1330.0212 1330.6105 1331.3232 1331.9141 1332.25 1332.9512 1333.6776 1334.2347 1334.642 1334.4932 1334.6428 1335.2177 1336.1193 1337.286 1338.6147 1340.35 1341.9731 1343.4108 1344.7468 1346.0304 1346.7839 1347.57 1348.2908 1348.8032 1349.1432 1349.6772 1350.4596 1351.3549 1352.3036 1353.3212 1354.282 1355.4388 1356.502 1357.3904 1357.9327 1358.4868 1358.9548 1359.5992 1360.044 1360.618 1361.01 1361.1896 1361.5392 1362.1084 1362.5052 1363.0928 1363.5552 1363.9012 1364.1628 1364.17 1363.7635 1363.598 1364.0444 1365.8208 1366.3969 1366.7224 1366.8832 1367.8024 1369.3232 1371.4084 1375.4963 1379.4529 1381.668 1384.1932 1386.122 1387.9916 1389.3907 1390.25 1391.5323 1393.5236 1394.8364 1396.364 1397.976 1400.0544 1402.2064 1404.462 1407.5132 1410.2528 1412.3912 1414.9048 1416.676 1418.1072 1421.1512 1424.846 1427.466 1429.428 1431.3809 1434.344 1437.3632 1439.9568 1442.4288 1443.8997 1444.4996 1445.656 1446.6888 1447.6328 1448.616 1450.4371 1452.7212 1454.7932 1456.5916 1459.6024 1462.1 1464.4352 1466.4016 1468.2444 1470.3292 1472.9136 1475.4097 1477.6808 1478.8663 1480.0388 1481.3259 1482.9144 1484.5056 1486.044 1487.5511 1489.3636 1490.8732 1492.352 1493.9144 1496.486 1498.142 1499.7365 1500.9701 1502.2449 1503.4503 1505.0452 1506.3068 1507.7249 1509.08 1510.6444 1511.974 1513.526 1515.0116 1516.5028 1517.878 1519.0905 1520.1464 1521.5511 1522.9568 1524.6276 1526.0443
1220.0504 1219.9536 1220.1105 1220.3264 1220.5024 1220.736 1221.0956 1221.3916 1221.8488 1222.2407 1222.5044 1222.8333 1223.1924 1223.4348 1223.9373 1224.5924 1225.2128 1225.6945 1226.3276 1227.0204 1227.8076 1228.0748 1228.3168 1228.532 1228.7316 1228.9364 1229.222 1229.4772 1229.982 1230.858 1232.3528 1233.844 1235.1688 1236.1384 1237.2036 1237.958 1238.4664 1238.8073 1239.9628 1240.9844 1241.6608 1242.256 1242.7476 1243.1381 1243.5657 1244.0928 1244.512 1245.2128 1246.1852 1246.7268 1247.3011 1248.0468 1249.3932 1250.8691 1252.3384 1253.1416 1253.5924 1254.3315 1255.0944 1255.2968 1255.814 1256.7212 1257.6724 1258.558 1259.1163 1259.5404 1260.33 1261.4052 1262.4156 1262.946 1264.4064 1265.6279 1266.8512 1268.3712 1269.3984 1268.8577 1268.3024 1268.4896 1269.2205 1270.0636 1270.8152 1270.8312 1270.7648 1271.748 1273.2073 1274.4408 1275.9396 1276.9427 1277.8976 1279.0336 1280.2816 1281.5768 1282.7437 1283.6708 1284.7056 1285.452 1286.5736 1287.932 1289.196 1290.0009 1291.0076 1292.2596 1293.7112 1295.2328 1296.7244 1297.8156 1298.9708 1299.8356 1300.8884 1301.6556 1302.658 1303.5812 1304.5028 1305.4548 1306.6504 1307.7424 1308.986 1310.2507 1311.688 1312.844 1314.0448 1315.3384 1316.7504 1318.0944 1319.3564 1320.1836 1321.226 1322.2156 1323.604 1325.1304 1326.7932 1328.2532 1329.258 1329.5476 1330.068 1330.552 1330.7804 1331.3052 1332.5657 1333.0536 1333.2396 1333.3844 1333.374 1333.6676 1334.564 1335.8448 1337.3748 1338.8892 1340.674 1342.2764 1343.4796 1344.4141 1345.1024 1345.528 1346.3004 1347.0676 1347.5256 1347.9056 1348.6404 1349.4532 1350.3796 1351.458 1352.4532 1353.2205 1354.2684 1355.0564 1355.896 1356.4128 1357.0588 1357.6948 1358.2368 1358.6832 1359.1484 1359.446 1359.6337 1360.0232 1360.65 1361.034 1361.5288 1362.1 1362.47 1362.4852 1362.4589 1362.0796 1361.7844 1362.1844 1363.2552 1364.2664 1365.2328 1365.6208 1366.56 1368.0104 1369.994 1372.6292 1376.7616 1379.5736 1381.9436 1384.6932 1386.4188 1387.0852 1387.6924 1388.8628 1391.2852 1393.1692 1395.3512 1397.384 1399.376 1402.0223 1404.326 1407.0107 1409.9128 1412.1648 1414.5792 1416.4784 1418.2792 1420.7024 1424.8676 1426.6539 1428.6256 1430.828 1434.0504 1436.7161 1438.5776 1439.8896 1441.326 1442.4427 1443.7312 1444.8904 1446.4856 1447.8928 1450.3324 1452.6324 1454.7156 1456.3044 1459.6688 1463.1456 1465.4192 1466.976 1468.7708 1470.7756 1473.0977 1475.5457 1477.9952 1479.0833 1480.202 1481.6156 1483.2504 1484.7375 1486.3352 1487.9432 1489.9324 1491.6772 1492.9208 1494.4528 1497.3348 1499.1572 1500.3628 1501.5132 1502.8032 1504.0696 1505.7148 1506.954 1508.2472 1509.5928 1511.2244 1512.5764 1514.0355 1515.3932 1516.8724 1518.1548 1519.4703 1520.6943 1522.1536 1523.484 1525.0404 1526.3148
1219.6172 1219.5428 1219.7904 1219.9672 1220.1052 1220.238 1220.5444 1220.9283 1221.586 1222.302 1222.7651 1223.2084 1223.512 1223.8647 1224.37 1224.8851 1225.3016 1225.7152 1226.4116 1227.0868 1227.4904 1227.8544 1228.2908 1228.5364 1228.6124 1228.89 1229.2384 1229.6304 1230.3477 1231.2036 1232.4069 1233.7516 1234.9188 1235.8972 1236.9276 1237.7692 1238.5392 1238.9768 1239.9996 1241.1812 1241.9736 1242.5656 1243.2767 1243.9088 1244.1512 1244.2064 1244.5656 1245.3544 1246.2856 1246.9712 1247.6952 1248.2504 1249.0627 1250.3132 1251.7628 1252.7604 1253.5192 1254.2064 1255.0844 1255.7164 1256.2396 1257.2004 1258.1876 1258.994 1259.6351 1260.184 1260.562 1261.118 1262.042 1262.5068 1264.0388 1265.242 1266.3772 1267.9141 1269.3812 1269.6276 1269.0583 1268.9264 1269.3912 1270.0632 1270.9819 1271.3724 1271.7444 1272.222 1273.338 1274.5492 1276.0128 1276.9952 1278.038 1279.1492 1280.5288 1281.8728 1282.9312 1283.916 1285.0156 1285.7452 1286.7133 1287.894 1288.9877 1289.8452 1290.9216 1292.0752 1293.2544 1294.584 1295.9025 1297.0624 1298.2224 1299.2136 1300.4587 1301.49 1302.5815 1303.5608 1304.5132 1305.5308 1306.6852 1307.7996 1308.9991 1310.1992 1311.6176 1312.6873 1313.9204 1315.278 1316.6412 1317.798 1319.098 1320.1908 1321.29 1322.402 1324.172 1325.5768 1326.692 1327.844 1328.5032 1329.0032 1329.1553 1329.104 1329.6936 1330.8536 1331.5251 1331.6372 1331.7432 1331.9576 1332.5316 1333.1813 1334.5052 1336.2164 1337.9524 1339.2653 1341.0164 1342.3164 1342.9364 1343.5028 1344.0372 1344.2635 1344.864 1345.5592 1346.146 1346.7676 1347.6188 1348.59 1349.7036 1350.7108 1351.5585 1352.1008 1352.8884 1353.5516 1354.3396 1354.9012 1355.5172 1356.2292 1356.7192 1357.108 1357.4968 1357.7216 1358.0824 1358.552 1358.9524 1359.4067 1359.8224 1360.1423 1360.3644 1360.2972 1360.3273 1360.1896 1360.0764 1360.6252 1361.7916 1363.0107 1364.1896 1364.7472 1365.7911 1367.5815 1369.334 1371.2509 1374.3468 1377.1588 1378.8853 1379.8531 1378.9408 1380.568 1384.5808 1387.5112 1390.7816 1392.9952 1395.0192 1396.628 1398.5583 1402.5887 1405.1476 1407.742 1410.116 1412.1296 1414.362 1416.4749 1418.4252 1420.3668 1424.9972 1427.1971 1429.0576 1431.0848 1433.9564 1436.5397 1437.4576 1438.376 1439.2808 1440.5696 1442.0197 1443.178 1444.7528 1446.7288 1450.13 1452.3668 1454.3 1456.1744 1460.1284 1463.6052 1466.3099 1467.8036 1469.6764 1471.4819 1473.2476 1475.1252 1477.3984 1478.9432 1480.344 1481.8328 1483.4896 1485.0416 1486.6404 1487.8932 1489.4872 1492.3647 1493.53 1495.0476 1497.2012 1499.0564 1501.1296 1502.3807 1503.6848 1504.916 1506.4576 1507.844 1509.2372 1510.5828 1512.1252 1513.4012 1514.898 1516.3052 1517.732 1518.976 1520.2277 1521.5116 1522.9991 1524.2017 1525.4592 1526.5905
1219.1412 1219.2572 1219.536 1219.604 1219.6843 1219.934 1220.3796 1220.8981 1221.5588 1222.43 1222.9995 1223.2972 1223.6504 1224.2656 1224.8724 1225.178 1225.4984 1226.0096 1226.53 1226.8004 1227.2249 1227.8271 1228.1764 1228.3837 1228.5645 1228.8036 1229.1816 1229.9224 1230.8477 1231.7212 1232.6476 1233.4564 1234.4803 1235.6492 1236.8636 1237.766 1238.7249 1239.2632 1240.0972 1241.322 1242.1776 1242.656 1243.3464 1244.0648 1244.3647 1244.5048 1245.0944 1245.8016 1246.5464 1247.464 1248.5208 1249.1177 1249.5636 1250.0636 1251.2523 1252.2723 1252.9896 1253.7249 1254.6467 1255.6917 1256.8228 1257.9388 1258.8732 1259.6396 1260.3816 1261.0472 1261.4388 1262.1628 1262.842 1262.6428 1263.6036 1264.4308 1265.6492 1267.1012 1268.7292 1269.8331 1269.748 1269.568 1269.6855 1270.0712 1270.7596 1271.4236 1272.5956 1273.0348 1273.5684 1274.3156 1275.776 1276.9136 1278.0636 1279.2788 1280.5656 1281.548 1282.4576 1283.612 1284.9229 1285.8444 1286.8972 1287.9836 1289.0076 1289.8556 1290.8312 1291.8584 1292.9792 1294.0592 1295.2288 1296.4496 1297.6096 1298.6488 1299.9708 1301.1812 1302.4432 1303.4176 1304.5284 1305.5524 1306.702 1307.8452 1309.0063 1310.0992 1311.4016 1312.6296 1313.9404 1315.1572 1316.3563 1317.5468 1318.87 1320.158 1321.626 1322.9396 1324.9048 1325.964 1326.7336 1326.9912 1327.6376 1328.2593 1328.0912 1328.1984 1329.2688 1329.9968 1330.194 1330.2853 1330.588 1331.0455 1332.078 1333.3164 1335.1685 1336.9404 1338.338 1339.2588 1340.766 1341.7284 1342.1748 1342.4596 1342.734 1343.018 1343.5176 1344.2784 1345.0732 1345.8756 1346.9628 1348.0125 1349.002 1349.8461 1350.664 1351.1904 1351.8092 1352.37 1353.0676 1353.7748 1354.2612 1354.794 1355.3024 1355.7087 1356.1544 1356.36 1356.5608 1357.064 1357.5652 1358.0004 1358.2936 1358.4951 1358.7131 1358.782 1358.876 1358.6729 1358.8396 1359.3148 1360.2365 1361.358 1363.1488 1363.8392 1365.1296 1367.1216 1368.69 1369.9283 1372.5181 1374.2836 1374.3036 1374.718 1376.356 1380.4456 1385.4584 1387.8752 1391.1808 1393.324 1394.9232 1396.252 1397.9376 1402.8816 1406.078 1408.1604 1409.9039 1411.9241 1414.0676 1416.1003 1418.1956 1420.2668 1423.53 1425.8628 1428.4648 1430.2328 1432.826 1435.2635 1435.7776 1436.4352 1437.448 1439.0472 1440.6451 1441.7205 1443.1384 1445.6425 1449.714 1452.1124 1454.0488 1456.0304 1459.2444 1462.8956 1466.3964 1468.6228 1470.6052 1472.222 1473.7004 1475.0916 1477.1432 1479.1711 1480.6056 1482.0688 1483.8584 1485.5 1487.114 1488.3732 1489.4296 1491.9072 1494.3044 1495.5756 1497.1284 1499.2924 1502.392 1503.4272 1504.6727 1505.8656 1507.2983 1508.848 1510.3004 1511.4427 1512.8389 1513.9276 1515.4285 1516.8389 1518.1785 1519.4304 1520.706 1521.942 1523.3832 1524.496 1525.6711 1526.7416
1218.8052 1219.0308 1219.2412 1219.3396 1219.3967 1219.6864 1220.3232 1220.9608 1221.3756 1221.9875 1222.6608 1223.1528 1223.8308 1224.4132 1225.0724 1225.374 1225.786 1226.0844 1226.288 1226.7463 1227.3073 1227.784 1228.1296 1228.3696 1228.6049 1228.8904 1229.2644 1229.9445 1231.1268 1232.0748 1232.896 1233.4248 1234.2161 1235.2736 1236.5933 1237.7036 1238.8252 1239.4348 1240.1084 1241.3099 1242.3756 1242.8492 1243.4192 1243.884 1244.2372 1244.6595 1245.38 1246.0424 1246.8704 1247.8264 1248.8656 1249.656 1250.2516 1250.5452 1251.35 1252.1604 1252.7556 1253.3892 1254.4348 1255.5964 1256.7256 1257.4688 1258.3584 1259.2968 1260.2108 1260.6844 1261.3256 1262.2607 1263.192 1263.276 1263.52 1263.9128 1264.9036 1266.454 1268.1335 1269.7128 1270.3424 1270.5472 1270.4536 1270.6128 1270.9025 1271.3359 1272.6288 1273.5952 1274.3096 1274.6432 1275.5339 1276.5148 1277.7388 1279.1732 1280.58 1281.4512 1282.3691 1283.4972 1284.7563 1285.7196 1286.9104 1288.1984 1289.1908 1290.0212 1291.0116 1291.8964 1292.9248 1293.8264 1294.8691 1295.9332 1297.136 1298.2128 1299.5272 1300.6768 1301.8516 1302.8428 1304.0771 1305.1532 1306.3665 1307.5328 1308.8096 1310.0576 1311.4716 1312.8868 1314.24 1315.4928 1316.7384 1317.9456 1319.15 1320.2948 1321.7688 1323.4528 1325.09 1325.5021 1326.1536 1326.1864 1326.388 1326.304 1326.9 1327.8217 1328.3304 1328.5 1328.7131 1328.9452 1329.6196 1330.5388 1332.146 1333.886 1335.8496 1337.1031 1338.22 1339.1136 1340.0464 1340.6376 1341.0072 1341.0968 1341.3048 1341.8472 1342.4963 1343.2668 1344.172 1345.056 1346.188 1347.0464 1347.924 1348.6656 1349.366 1349.9076 1350.4116 1350.9084 1351.6324 1352.498 1352.986 1353.3628 1353.858 1354.3236 1354.7228 1354.9476 1355.1696 1355.568 1356.024 1356.3336 1356.55 1356.7932 1357.1871 1357.4457 1357.4092 1357.1556 1357.1816 1356.7288 1356.9128 1359.312 1361.792 1362.2712 1362.7068 1365.622 1367.2872 1368.6864 1369.7316 1370.474 1371.9004 1373.1908 1375.6516 1381.1652 1385.602 1388.402 1391.1423 1392.8809 1394.6752 1396.0311 1398.0125 1402.326 1405.4524 1407.7844 1409.4893 1411.5796 1413.7303 1415.5872 1417.8568 1419.7 1421.5121 1424.1232 1427.4556 1429.4092 1430.8 1432.0496 1433.032 1434.0504 1435.7537 1437.6056 1439.2904 1440.7391 1442.3384 1445.0208 1447.9764 1451.002 1453.262 1455.0604 1457.2844 1461.9452 1467.2756 1469.7133 1471.3475 1472.7133 1474.1196 1475.3796 1477.1788 1479.9332 1481.3672 1482.7952 1484.5728 1486.1335 1487.768 1489.1047 1490.2156 1491.746 1494.552 1495.9368 1497.5032 1499.9664 1503.2737 1504.3832 1505.3588 1506.5804 1508.1232 1509.8304 1511.1768 1512.1368 1513.376 1514.3552 1515.5248 1516.8488 1518.2825 1519.6265 1520.8368 1522.0176 1523.4512 1524.6927 1525.9384 1527.0424
1218.5396 1218.8756 1219.126 1219.0643 1219.1864 1219.6584 1220.3224 1220.8768 1221.1868 1221.5908 1222.3064 1223.0192 1223.8844 1224.4172 1224.9636 1225.2957 1225.7092 1225.8652 1226.1792 1226.6729 1227.1528 1227.6104 1227.9768 1228.2648 1228.5928 1229.0016 1229.4076 1229.8796 1231.0588 1232.1908 1233.2256 1233.7048 1234.2968 1235.0536 1236.214 1237.4396 1238.5731 1239.0692 1239.9332 1241.3171 1242.4844 1243.0652 1243.5208 1243.8256 1244.1276 1245.0123 1245.9104 1246.3359 1246.9192 1247.7216 1248.4896 1249.1168 1249.7045 1250.4124 1251.2524 1251.882 1252.5228 1253.1901 1254.2068 1255.154 1255.9241 1256.5168 1257.5673 1258.6288 1259.5852 1260.2332 1261.1832 1262.0736 1262.9456 1263.5048 1263.8944 1264.0776 1264.6476 1265.8124 1267.4752 1269.0784 1270.5496 1271.2233 1271.3593 1271.2992 1271.2896 1271.5424 1272.4545 1273.5376 1274.7848 1275.6384 1276.194 1276.626 1277.5573 1278.8796 1280.3944 1281.6448 1282.9172 1283.8868 1284.7972 1285.6548 1286.6736 1288.064 1289.1108 1289.9316 1291.0148 1291.9028 1292.8728 1293.872 1294.8868 1295.8596 1297.0312 1298.0616 1299.14 1300.2816 1301.4884 1302.4589 1303.6428 1304.7365 1306.0151 1307.2744 1308.7936 1310.296 1311.8099 1313.4108 1314.8896 1316.0304 1316.9608 1317.7551 1318.978 1320.102 1321.7072 1323.0745 1324.154 1324.8364 1325.5184 1325.1576 1324.9288 1325.3088 1326.1744 1326.7008 1326.996 1327.204 1327.542 1328.0283 1329.0988 1330.4805 1332.4211 1334.1595 1335.5704 1336.5648 1337.6232 1338.5408 1339.0704 1339.316 1339.676 1339.8696 1340.312 1341.0656 1341.9548 1342.6757 1343.564 1344.3809 1345.2544 1345.876 1346.7112 1347.3856 1347.9893 1348.5212 1349.0052 1349.5356 1350.242 1350.9891 1351.638 1352.0164 1352.4996 1353.0197 1353.3492 1353.6428 1353.8864 1354.1216 1354.508 1354.7024 1354.8596 1355.1667 1355.6504 1356.0416 1356.0125 1355.7156 1355.7096 1355.3577 1354.6688 1355.764 1357.8352 1359.052 1360.0372 1363.5764 1365.1544 1366.0592 1367.1667 1368.7812 1370.4788 1372.4443 1375.7837 1381.134 1384.3588 1387.5476 1390.3312 1391.6423 1393.8416 1395.8359 1397.5972 1401.554 1404.6892 1406.7635 1409.126 1411.346 1413.5392 1415.2856 1417.4528 1419.1119 1420.7216 1422.5824 1425.3324 1427.374 1428.7976 1430.0583 1431.3528 1432.7856 1434.8384 1436.7048 1438.4032 1439.9736 1441.8408 1444.44 1446.7563 1448.9452 1451.6293 1453.5109 1455.5588 1459.6757 1468.0251 1470.6708 1472.126 1473.2468 1474.5164 1475.7092 1477.4972 1480.7924 1482.2769 1483.4872 1485.0208 1486.4248 1488.14 1489.6672 1490.8596 1491.9229 1493.9808 1496.2808 1497.8064 1499.428 1503.628 1505.3632 1505.906 1506.8364 1508.4824 1510.1432 1511.4392 1512.4631 1513.5688 1514.5896 1515.748 1516.9408 1518.444 1519.7448 1520.8433 1522.0496 1523.484 1524.6855 1526.0176 1527.0784
1218.2312 1218.5176 1218.5488 1218.536 1218.896 1219.508 1220.0796 1220.5035 1221.0128 1221.4896 1221.9731 1222.5388 1223.3832 1223.9104 1224.2089 1224.552 1225.0128 1225.4744 1226.1276 1226.7347 1227.1296 1227.4633 1227.7812 1228.274 1228.7472 1229.1248 1229.594 1230.0924 1231.0848 1232.1888 1233.3556 1233.9412 1234.446 1235.0964 1236.1688 1237.2375 1238.25 1239.046 1240.1112 1241.2024 1242.2756 1243.1332 1243.6448 1243.9329 1244.2043 1244.8124 1246.1432 1246.8776 1247.442 1248.0924 1248.764 1249.152 1249.5404 1250.162 1251.244 1251.9991 1252.5608 1253.2296 1254.1764 1255.0492 1255.8696 1256.4904 1257.4644 1258.5436 1259.7 1260.6697 1261.5508 1262.2076 1262.7188 1263.6292 1264.4276 1264.6732 1264.8596 1265.342 1266.7916 1268.4979 1270.1908 1271.5388 1272.1288 1272.1024 1271.9684 1272.0555 1272.4705 1273.1816 1274.484 1276.0432 1277.202 1277.6788 1278.0852 1279.0308 1280.0529 1281.2936 1282.7368 1283.7888 1284.8268 1285.6996 1286.7017 1288.0385 1289.0072 1289.8143 1290.7972 1291.762 1292.8656 1293.944 1295.0223 1295.9937 1297.1504 1298.2104 1299.1307 1300.1836 1301.3232 1302.3992 1303.652 1304.7776 1306.2532 1307.7076 1309.3032 1310.704 1311.9028 1313.3428 1314.454 1315.2252 1315.9656 1316.7808 1318.2913 1319.5376 1321.1156 1322.2356 1323.264 1324.0256 1324.1052 1323.782 1324.0348 1324.8356 1325.3756 1325.5028 1325.6943 1326.0432 1326.6024 1327.5496 1329.1632 1331.0223 1332.3104 1333.4023 1334.7932 1335.862 1336.6732 1337.3732 1337.7844 1338.13 1338.3884 1338.4891 1339.1836 1340.0541 1341.034 1341.8444 1342.8064 1343.5352 1344.0496 1344.5552 1345.0956 1345.6172 1346.33 1346.946 1347.6497 1348.2384 1348.8405 1349.4812 1350.1488 1350.516 1350.9832 1351.4568 1351.9376 1352.1704 1352.396 1352.5664 1352.7712 1352.9464 1353.1832 1353.6929 1354.218 1354.7228 1354.8424 1354.4744 1354.4092 1354.4604 1354.0692 1353.1132 1353.0968 1354.8112 1357.4672 1360.5848 1362.05 1363.0668 1364.5452 1367.1852 1369.1156 1370.7108 1374.4192 1379.8264 1382.4856 1386.2888 1388.7712 1390.1407 1392.074 1395.186 1398.1288 1400.9847 1404.2484 1405.9596 1408.6204 1411.1228 1413.3936 1415.2048 1417.0988 1418.6523 1419.9696 1421.3448 1422.9648 1424.632 1426.4515 1428.2732 1430.0112 1431.8672 1433.6888 1435.3944 1437.2168 1438.9312 1441.3456 1443.8936 1446.4264 1448.144 1450.1592 1452.4528 1454.3127 1456.7352 1464.704 1470.6344 1473.2288 1474.0961 1475.1384 1476.3744 1477.608 1480.656 1482.7604 1483.9196 1485.3384 1486.616 1488.334 1490.0021 1491.4255 1492.5936 1493.7156 1495.8948 1498.4264 1500.624 1505.3468 1505.9492 1506.2344 1507.208 1508.4893 1509.7428 1511.258 1512.4211 1513.5457 1514.5424 1515.8052 1516.978 1518.2472 1519.4272 1520.6896 1521.9728 1523.1917 1524.0701 1525.396 1526.464
1217.928 1218.08 1218.1256 1218.4471 1219.0048 1219.4968 1220.166 1220.734 1221.208 1221.552 1221.826 1222.2396 1222.8176 1223.2216 1223.5488 1224.0568 1224.796 1225.432 1226.1516 1226.8516 1227.3431 1227.4624 1227.7444 1228.346 1228.8528 1229.3184 1229.9308 1230.7316 1231.4336 1232.3344 1233.4812 1234.1932 1234.7428 1235.3707 1236.1616 1237.0032 1237.8884 1238.6973 1239.7808 1240.864 1242.0276 1242.9028 1243.6912 1244.1265 1244.5028 1244.7955 1245.4536 1246.468 1247.6964 1248.6204 1249.1736 1249.5216 1250.074 1250.6108 1251.3312 1252.0831 1252.6536 1253.3721 1254.2668 1255.1748 1256.084 1256.644 1257.546 1258.6108 1259.8544 1260.9664 1262.0364 1262.754 1263.2836 1264.09 1264.8732 1265.1332 1265.3164 1265.738 1267.0164 1268.2668 1269.8564 1271.3436 1272.5472 1272.9832 1272.7284 1272.6188 1272.7712 1273.1096 1274.1744 1275.572 1277.4884 1278.4452 1278.9731 1279.6451 1280.3232 1281.2024 1282.2976 1283.364 1284.6028 1285.626 1286.6696 1287.7792 1288.8552 1289.8336 1290.8876 1291.8396 1292.8384 1293.936 1295.088 1296.0399 1297.2528 1298.2616 1299.1964 1300.2716 1301.632 1302.8856 1303.9327 1305.2456 1307.01 1308.3252 1309.4976 1310.412 1311.3099 1312.1724 1313.1741 1313.9708 1314.984 1316.0743 1317.6368 1319.0048 1320.5116 1321.654 1322.9216 1322.9584 1322.8148 1322.8596 1323.3916 1324.1172 1324.3108 1324.4589 1324.7112 1325.2808 1326.344 1327.7344 1329.5864 1330.7864 1331.5144 1332.3584 1333.8492 1335.054 1335.7092 1336.1884 1336.6108 1336.9116 1337.022 1337.19 1338.126 1339.2284 1340.3308 1341.1572 1341.9856 1342.5288 1343.104 1343.528 1343.7653 1344.202 1344.8276 1345.49 1346.492 1347.1031 1347.5764 1348.2444 1348.8248 1349.152 1349.592 1349.9264 1350.3881 1350.7792 1351.0576 1351.2537 1351.4095 1351.4984 1351.7968 1352.4216 1352.8164 1353.2284 1353.516 1353.3097 1353.1628 1353.0812 1353.3876 1352.766 1351.8824 1352.9856 1355.5784 1358.0416 1359.5555 1360.8092 1362.4963 1364.9124 1368.0868 1369.754 1371.9528 1376.848 1379.476 1383.452 1386.5912 1388.1416 1391.0037 1393.1556 1397.496 1400.8737 1404.6492 1406.1172 1408.2133 1410.9108 1413.1776 1414.8896 1416.5836 1417.9357 1419.2305 1420.6472 1422.2136 1423.4376 1424.9427 1427.0476 1429.1376 1431.3328 1433.008 1434.6783 1436.8352 1438.556 1440.9208 1443.1792 1446.0632 1447.976 1449.4896 1451.8647 1454.1232 1455.48 1460.076 1468.9025 1473.1024 1474.2576 1475.66 1476.9296 1477.9912 1479.8024 1482.8868 1484.3068 1485.6088 1486.888 1488.5764 1490.2236 1491.6984 1492.836 1493.8636 1495.6892 1498.3345 1500.4248 1504.1804 1505.6676 1506.1064 1506.92 1507.8964 1509.0044 1510.8652 1512.1292 1513.2336 1514.2272 1515.4443 1516.5933 1517.8208 1519.0569 1520.3928 1521.7112 1522.8044 1523.6716 1524.7288 1525.5167
1217.642 1217.8405 1218.0052 1218.5123 1219.058 1219.6724 1220.5583 1221.2177 1221.4948 1221.7332 1222.1036 1222.554 1222.9564 1223.2324 1223.708 1224.224 1224.8148 1225.4668 1226.144 1226.8488 1227.478 1227.4283 1227.812 1228.3568 1228.8712 1229.3392 1230.2716 1231.3916 1231.9865 1232.6945 1233.7068 1234.402 1235.1416 1235.7535 1236.2408 1236.8544 1237.7052 1238.3004 1239.1351 1240.2952 1241.7 1242.7296 1243.6584 1244.3176 1244.7377 1245.0984 1245.5176 1246.1072 1247.3928 1248.2192 1248.6804 1248.8988 1249.578 1250.2275 1250.9471 1251.776 1252.4928 1253.2175 1253.962 1254.6876 1255.7036 1256.3853 1257.2625 1258.2056 1259.1548 1260.0052 1261.2108 1262.5308 1263.8068 1264.606 1265.4044 1265.6364 1265.9545 1266.3352 1267.2864 1268.356 1269.4932 1270.8011 1272.2804 1273.3196 1273.5527 1273.3 1273.1792 1273.3217 1273.9417 1274.932 1276.7764 1278.2196 1279.43 1280.106 1280.7228 1281.2565 1281.9229 1282.9204 1284.3289 1285.6736 1286.8856 1287.872 1289.2196 1290.0916 1291.3668 1292.1244 1293.2024 1294.2864 1295.2968 1296.4928 1297.708 1298.6608 1300.064 1301.3328 1302.5996 1303.8356 1304.5184 1305.6945 1307.206 1307.8796 1308.4348 1309.0636 1309.8848 1310.6984 1312.1068 1313.162 1314.4828 1315.7924 1317.2867 1318.702 1320.1556 1321.1868 1321.58 1321.4688 1321.4357 1321.73 1322.3844 1322.8268 1323.1036 1323.5012 1324.0032 1324.9473 1326.54 1328.0752 1328.9972 1329.6829 1330.406 1331.186 1332.4404 1333.6012 1334.314 1334.8236 1335.2548 1335.6492 1335.836 1336.148 1337.1676 1338.4556 1339.6516 1340.3348 1340.8907 1341.2052 1341.7424 1342.1927 1342.594 1343.042 1343.434 1344.1924 1345.042 1345.6492 1346.2292 1346.8212 1347.4164 1347.7421 1348.106 1348.4348 1348.8108 1349.0292 1349.2644 1349.6012 1349.94 1350.088 1350.6353 1351.2031 1351.3972 1351.8284 1352.1852 1352.0156 1352.0536 1352.1224 1352.1028 1351.7484 1350.8604 1351.3348 1352.6276 1354.9197 1356.4956 1358.222 1360.6351 1363.4976 1367.358 1368.7252 1369.9828 1372.1932 1375.2957 1378.6068 1384.1516 1386.0668 1387.1056 1390.8104 1394.9928 1400.556 1404.0984 1406.3464 1408.0056 1410.396 1412.5812 1414.174 1415.8508 1417.0532 1418.2725 1419.7131 1421.6708 1422.8748 1423.7904 1425.3704 1427.8289 1430.4976 1432.4373 1434.2421 1437.1035 1438.5852 1440.4996 1442.7388 1445.1836 1447.2028 1449.1324 1451.1492 1453.6309 1455.3997 1457.3752 1461.8937 1470.3517 1473.8972 1475.708 1476.764 1478.176 1479.7024 1482.2772 1484.1987 1485.5996 1486.9756 1488.5636 1490.2316 1491.902 1492.9548 1494.1917 1495.6268 1497.924 1500.6648 1502.6852 1504.6796 1505.6364 1506.4252 1507.6016 1508.4664 1510.0176 1511.3096 1512.4216 1513.4888 1514.6432 1515.6783 1516.896 1518.14 1519.4484 1520.7924 1521.9604 1522.9012 1523.62 1524.192
1216.97 1217.714 1217.9652 1218.378 1219.0988 1219.8604 1220.444 1220.8744 1221.1876 1221.6628 1222.2244 1222.6235 1223.0771 1223.5068 1223.9792 1224.4185 1224.9652 1225.59 1226.2056 1226.824 1227.246 1227.2812 1228.0096 1228.8328 1229.22 1229.784 1230.6757 1231.4211 1231.8888 1232.5056 1233.5764 1234.614 1235.5936 1236.236 1236.7535 1237.1592 1237.7349 1238.2196 1238.784 1239.6768 1241.092 1242.1696 1243.2072 1244.2504 1244.9664 1245.3656 1245.7976 1246.0768 1246.7312 1247.4888 1247.7844 1248.1005 1248.926 1249.5468 1250.5872 1251.6193 1252.5416 1253.2296 1253.9893 1254.6829 1255.5197 1256.3212 1257.0608 1257.8136 1258.538 1259.0557 1260.1683 1261.6516 1263.3148 1264.5028 1265.6005 1266.122 1266.4847 1266.7072 1267.44 1268.4904 1269.5292 1270.6772 1272.066 1273.1309 1274.0504 1274.2328 1273.9424 1273.808 1274.2864 1274.976 1276.1764 1277.6692 1279.2885 1280.2684 1281.17 1281.6989 1282.298 1282.8892 1284.88 1286.6808 1288.0815 1289.1976 1290.3516 1290.91 1292.4803 1293.6156 1294.6008 1295.3632 1295.9023 1297.0808 1298.636 1299.8512 1300.7839 1301.6272 1302.6532 1303.7725 1304.584 1305.3647 1306.082 1306.4373 1306.9364 1307.7428 1308.9272 1310.1776 1311.7196 1312.9492 1314.5212 1315.842 1317.1716 1318.486 1319.7252 1320.1469 1320.2496 1319.9928 1320.0236 1320.5996 1321.382 1321.8292 1322.3148 1322.9283 1323.7184 1325.1536 1326.7216 1327.3992 1327.8444 1328.4996 1329.3387 1330.1316 1331.2036 1332.2604 1332.9661 1333.5204 1333.7612 1334.2133 1334.9336 1335.4824 1336.5652 1337.6724 1338.7532 1339.2284 1339.7205 1340.2476 1340.7312 1340.9576 1341.3276 1341.7996 1342.2756 1342.8549 1343.5276 1344.2596 1345.1451 1345.6523 1346.142 1346.4404 1346.7869 1347.0933 1347.2756 1347.4188 1347.6996 1347.99 1348.3472 1348.6472 1349.2208 1349.768 1350.198 1350.8932 1351.1708 1350.8796 1350.8984 1351.4232 1351.0645 1350.43 1349.8068 1350.0588 1351.0212 1352.5964 1354.8772 1356.3171 1358.7384 1362.6423 1366.2708 1367.246 1368.798 1371.2117 1373.8212 1376.7084 1381.434 1384.5284 1385.72 1388.5975 1392.9543 1398.0024 1403.164 1405.6871 1407.6488 1409.5432 1411.6453 1413.4092 1415.0676 1416.1964 1417.2372 1418.5724 1420.5933 1422.074 1422.9944 1424.0768 1426.4512 1428.6592 1431.0012 1434.0956 1436.7644 1438.3884 1440.3188 1442.5469 1444.8524 1446.7885 1448.7772 1450.514 1452.5172 1455.1595 1457.6704 1459.704 1467.1436 1473.8173 1475.8328 1476.6104 1477.5728 1480.4048 1482.2284 1483.8844 1485.494 1486.87 1488.4204 1490.1012 1491.8644 1492.858 1494.2444 1495.4283 1497.328 1500.7952 1502.2892 1503.7556 1504.9108 1505.722 1506.9023 1507.868 1508.9921 1510.2136 1511.4896 1512.5872 1513.716 1514.6423 1515.904 1517.124 1518.3052 1519.5916 1520.8923 1521.8027 1522.5784 1523.1504
1216.6124 1217.5764 1217.996 1218.2344 1219.0328 1219.796 1220.1112 1220.4849 1221.04 1221.5656 1222.1124 1222.6133 1223.1812 1223.6252 1224.2012 1224.7004 1225.2416 1225.772 1226.3296 1226.9088 1227.0192 1227.1279 1228.0292 1229.1876 1229.864 1230.3912 1231.1005 1231.6484 1231.9772 1232.4772 1233.508 1234.7913 1235.972 1236.6488 1237.2976 1237.868 1238.2852 1238.7972 1239.328 1239.6873 1240.646 1241.8156 1242.946 1244.0284 1245.0436 1245.6996 1246.3461 1246.5251 1246.7528 1247.3704 1247.8705 1248.2192 1248.9208 1249.644 1250.8796 1251.8204 1252.6072 1253.3512 1254.436 1255.3792 1256.0952 1256.884 1257.42 1257.8737 1258.3696 1258.7648 1259.5764 1260.7004 1262.3092 1263.6892 1264.9108 1265.8108 1266.5428 1267.0428 1267.6504 1268.484 1269.4768 1270.4656 1271.8368 1273.1464 1274.1108 1274.7852 1275.164 1275.1608 1275.3048 1275.54 1276.1556 1277.342 1278.8896 1280.1128 1281.51 1282.5892 1283.4772 1283.91 1286.77 1288.4204 1289.158 1289.9404 1290.7087 1291.4296 1292.5452 1293.8212 1294.7192 1295.4167 1295.9872 1296.944 1298.5884 1299.7252 1300.33 1300.9164 1301.834 1302.6316 1303.3824 1304.14 1304.8997 1305.3596 1306.3992 1307.6224 1308.8252 1309.9572 1311.5789 1312.9436 1314.5956 1315.9548 1317.0356 1318.1708 1318.6648 1318.7856 1318.6012 1318.5508 1319.1792 1319.868 1320.4764 1321.082 1321.8936 1322.5464 1323.5063 1324.7856 1325.324 1326.1752 1326.962 1327.5604 1328.3032 1329.12 1330.0928 1330.9615 1331.6064 1332.2769 1332.6205 1333.1636 1333.9932 1334.6724 1335.838 1336.7332 1337.488 1337.9768 1338.4696 1338.968 1339.4617 1339.7728 1340.1193 1340.4872 1341.1196 1341.734 1342.2723 1342.9155 1343.8472 1344.2896 1344.75 1345.1188 1345.4388 1345.618 1345.6492 1345.8036 1346.1404 1346.4164 1346.6752 1346.8696 1347.3472 1348.1752 1349.1896 1350.004 1350.188 1349.7864 1349.674 1350.2844 1350.3824 1349.3152 1348.5424 1348.7888 1349.4819 1351.114 1353.5316 1355.0532 1356.8424 1360.2576 1363.7544 1365.1544 1367.1664 1370.5232 1373.3029 1375.15 1377.7544 1380.664 1383.448 1387.3136 1391.57 1396.7756 1402.6407 1404.9712 1406.932 1408.3416 1410.1392 1411.788 1413.5248 1414.8456 1416.0248 1417.4744 1419.6388 1421.0076 1422.0269 1422.954 1424.9617 1426.8208 1428.9624 1432.472 1436.214 1438.3916 1440.4956 1442.5596 1444.9148 1446.7676 1448.4752 1449.9752 1451.7 1453.8688 1457.3832 1459.9456 1462.2632 1469.084 1475.0432 1475.8768 1477.1915 1480.398 1483.2032 1484.644 1485.6228 1486.9316 1488.5471 1489.832 1491.1412 1492.2532 1494.0156 1495.25 1496.1636 1498.9819 1501.278 1502.6388 1504.0225 1504.868 1506.0776 1507.0457 1508.0771 1509.2563 1510.5323 1511.6005 1512.7556 1513.618 1514.9364 1516.1748 1517.2404 1518.4355 1519.7144 1520.616 1521.5432 1522.1344
1216.6724 1217.4668 1218.088 1218.1984 1218.8096 1219.4241 1219.8392 1220.48 1220.9777 1221.2936 1221.8317 1222.4508 1223.1196 1223.6276 1224.198 1224.7676 1225.3336 1225.7328 1226.1968 1226.7087 1226.8496 1227.0416 1227.8004 1228.8693 1229.9912 1230.8448 1231.694 1232.3524 1232.8788 1233.1244 1233.8176 1234.9921 1236.112 1236.9872 1237.7904 1238.5288 1238.99 1239.5692 1240.0048 1240.1096 1240.6652 1241.7437 1242.9524 1244.0188 1245.0372 1245.842 1246.5188 1246.9076 1247.1128 1247.7512 1248.3456 1248.6592 1249.1584 1250.0513 1251.5476 1252.498 1253.2816 1254.0543 1255.0616 1256.0128 1256.8464 1257.672 1257.988 1258.3248 1258.6335 1259.0144 1259.6396 1260.3029 1261.5028 1262.7052 1263.918 1264.7268 1265.4788 1266.3243 1267.264 1268.2368 1269.316 1270.1304 1271.424 1273.124 1274.358 1274.9236 1275.5024 1276.0576 1276.5472 1276.9136 1277.214 1277.6932 1278.6088 1279.7344 1281.1532 1282.562 1283.6892 1285.2372 1288.4276 1288.7452 1288.5492 1289.3636 1290.3472 1290.9672 1291.774 1292.8788 1293.9728 1294.9775 1295.8936 1296.5048 1297.6628 1298.5884 1299.2892 1299.898 1300.6323 1301.4332 1302.5608 1303.5712 1304.4996 1305.2396 1306.6344 1307.9504 1309.3405 1310.4548 1312.0316 1313.3004 1314.77 1316.0109 1316.5564 1317.2948 1317.2992 1317.3624 1317.4229 1317.8317 1318.6848 1319.3528 1319.8684 1320.642 1321.4304 1322.224 1323.2184 1323.5856 1324.056 1325.4064 1326.4188 1326.8508 1327.42 1328.2592 1329.2544 1329.9584 1330.624 1331.2017 1331.8259 1332.4972 1333.114 1333.8092 1334.9299 1335.7532 1336.4784 1337.0599 1337.552 1337.892 1338.2192 1338.4648 1338.7864 1339.2216 1340.0396 1340.718 1341.3068 1342.0684 1342.6592 1342.996 1343.5364 1343.8156 1343.9877 1344.1316 1344.278 1344.5076 1344.8724 1345.0828 1345.188 1345.4336 1346.1736 1347.2224 1348.428 1349.2168 1349.2792 1348.8872 1348.7036 1349.122 1348.9865 1348.0328 1347.244 1347.5464 1348.6244 1350.4692 1351.8428 1354.0381 1355.2192 1357.6088 1361.136 1362.7823 1365.1576 1369.6488 1373.0452 1375.1068 1376.604 1378.2448 1381.7751 1386.1641 1391.2948 1396.0876 1401.9208 1404.2864 1405.9752 1407.2184 1408.5496 1410.0065 1412.0992 1413.8073 1415.1544 1416.4248 1418.562 1419.6796 1420.4292 1421.7484 1424.0392 1425.8809 1427.7736 1430.1873 1434.5868 1438.494 1440.7476 1442.7588 1444.7108 1446.6165 1448.3312 1449.5128 1451.3055 1453.0104 1456.816 1460.5176 1464.1832 1468.276 1473.6672 1475.0896 1477.578 1479.8788 1483.1815 1485.04 1485.986 1487.1492 1488.6592 1489.6464 1490.6348 1491.8444 1493.6676 1495.1356 1496.2468 1497.662 1500.17 1501.5452 1503.076 1504.168 1505.316 1506.2776 1507.3292 1508.478 1509.682 1510.7676 1512.0037 1512.97 1514.1788 1515.2684 1516.2892 1517.3612 1518.5312 1519.3496 1520.2856 1520.904
1216.8148 1217.366 1218.1752 1218.3096 1218.6372 1219.1884 1219.7885 1220.5397 1220.9432 1221.2928 1221.736 1222.1696 1222.8708 1223.502 1224.022 1224.5499 1225.104 1225.452 1225.9108 1226.334 1226.6096 1226.9097 1227.3668 1228.2332 1229.2296 1230.3792 1231.9844 1233.002 1233.658 1233.774 1234.3013 1235.1956 1236.3608 1237.5632 1238.3972 1239.0828 1239.6984 1240.348 1240.8408 1240.7576 1241.076 1241.9272 1243.024 1244.2552 1245.1228 1245.9996 1246.8408 1247.1808 1247.3184 1247.8359 1248.4596 1248.8916 1249.4329 1250.5616 1252.2704 1253.2416 1254.1528 1255.032 1255.8276 1256.5596 1257.5732 1258.5676 1258.7723 1259.1132 1259.326 1259.4893 1259.7972 1260.1724 1260.8925 1261.8612 1262.9016 1263.5552 1264.4536 1265.4856 1266.5544 1267.592 1268.884 1269.7968 1271.0204 1272.7316 1274.2872 1275.0328 1275.658 1276.1309 1277.162 1278.39 1278.5752 1278.6688 1279.0536 1279.728 1280.9429 1282.3909 1283.3696 1284.1544 1285.0352 1284.9888 1286.8572 1288.0931 1289.0244 1289.8628 1290.8588 1291.9844 1293.2424 1294.3848 1295.2823 1295.6448 1296.6381 1297.8124 1298.5928 1299.296 1300.2648 1301.3688 1302.4388 1303.1716 1304.4893 1305.818 1307.5936 1308.9792 1310.5316 1311.7764 1313.0576 1313.7488 1314.4808 1315.2872 1315.6212 1315.8044 1316.012 1316.2568 1316.6528 1317.2017 1318.0148 1318.6741 1319.3456 1320.2303 1321.1544 1321.768 1322.0424 1322.1927 1323.384 1324.6119 1325.3644 1325.89 1326.4492 1327.2556 1328.2015 1328.8663 1329.4036 1329.982 1330.8512 1331.556 1332.2012 1332.9796 1333.8848 1334.58 1335.332 1335.8951 1336.184 1336.4056 1336.7272 1337.0511 1337.4764 1338.0244 1338.8735 1339.6224 1340.2324 1340.87 1341.2537 1341.6344 1342.1716 1342.3916 1342.4471 1342.4888 1342.6564 1342.9364 1343.2524 1343.398 1343.72 1344.244 1345.2252 1346.0868 1347.13 1347.8252 1347.9016 1347.6567 1347.4524 1347.9052 1347.7928 1346.8936 1346.1808 1346.484 1347.6512 1349.428 1350.1052 1351.89 1353.6304 1355.0736 1357.856 1359.8848 1361.852 1365.584 1372.1616 1375.2625 1376.8444 1378.222 1379.5924 1382.506 1388.3224 1393.004 1399.0248 1403.1376 1404.8008 1405.8304 1407.2004 1408.7709 1410.8168 1412.6104 1413.9836 1415.6147 1415.6172 1416.4299 1417.2404 1420.714 1423.1956 1425.1757 1427.0868 1428.6844 1432.4816 1436.8104 1440.1732 1442.6276 1444.8452 1446.1244 1447.4032 1448.2256 1450.7465 1453.0648 1455.59 1459.6771 1464.1497 1468.2249 1472.3364 1475.846 1479.8904 1481.916 1483.9255 1485.4464 1486.7424 1487.6504 1488.8264 1489.7792 1490.6108 1491.4108 1492.9312 1494.5135 1495.9808 1497.2288 1499.1652 1500.7692 1502.2131 1503.2916 1504.3217 1505.2688 1506.3477 1507.4988 1508.706 1509.7988 1511.0548 1512.1276 1513.24 1514.244 1515.3076 1516.3604 1517.5035 1518.2764 1519.0125 1519.6852
1217.0916 1217.7996 1218.6783 1218.624 1218.7012 1219.3932 1219.9285 1220.2972 1220.7928 1221.4752 1221.928 1222.1328 1222.7036 1223.314 1223.7437 1224.182 1224.7216 1225.0743 1225.734 1226.1636 1226.4504 1226.6848 1226.9364 1227.8092 1228.764 1229.968 1231.6075 1232.7196 1233.8324 1234.2892 1234.6908 1235.2524 1236.2808 1237.592 1238.6307 1239.4412 1240.2528 1240.9424 1241.5671 1241.5225 1241.6008 1242.2456 1243.3649 1244.7816 1245.5251 1246.4052 1247.2992 1247.2952 1247.56 1247.932 1248.43 1249.07 1249.808 1250.8488 1252.3127 1253.4039 1254.3248 1255.2408 1256.1741 1256.9731 1257.9515 1258.9188 1259.3596 1259.6508 1259.8204 1259.9724 1260.0988 1260.266 1260.6667 1261.5588 1262.672 1263.4601 1264.4489 1265.3016 1266.1992 1267.1024 1268.2184 1269.3424 1270.8132 1272.382 1273.696 1274.6736 1275.6748 1276.2788 1277.1948 1278.514 1279.5344 1280.1512 1280.1016 1280.1855 1281.1156 1282.2628 1283.1049 1283.7072 1284.2224 1285.4736 1286.9229 1287.482 1288.1901 1288.9373 1290.1372 1291.3317 1292.5936 1293.616 1294.6128 1295.4968 1296.4508 1297.6012 1298.6328 1299.6176 1300.888 1301.9952 1302.8148 1303.8116 1305.3228 1306.4357 1308.392 1310.0288 1311.1244 1311.8763 1312.688 1313.184 1313.9688 1314.524 1314.5356 1314.7412 1315.1096 1315.5576 1316.1616 1316.6912 1317.4156 1318.142 1319.0192 1319.9329 1320.5281 1320.6711 1320.8472 1321.3304 1322.7296 1323.6616 1324.2651 1324.9443 1325.5771 1326.2028 1327.1304 1327.8864 1328.3148 1329.1812 1330.192 1330.7704 1331.2748 1332.0516 1332.6904 1333.1312 1333.7056 1334.2976 1334.7224 1334.9744 1335.3032 1335.8096 1336.5332 1337.0076 1337.8264 1338.4712 1338.922 1339.374 1339.8864 1340.3472 1340.7924 1340.9276 1340.9536 1341.056 1341.2716 1341.4684 1341.7484 1341.9084 1342.2656 1343.052 1343.958 1344.8068 1345.7244 1346.2788 1346.416 1346.3456 1346.0956 1346.2076 1346.1744 1345.68 1345.2712 1345.6416 1346.7632 1347.956 1348.9052 1349.6228 1351.556 1353.4104 1355.1945 1357.1049 1358.9872 1362.0151 1367.7672 1373.2776 1376.8292 1378.378 1379.7885 1381.1469 1385.3776 1390.2448 1394.5416 1399.8976 1403.172 1404.4 1405.9164 1407.2836 1408.4216 1409.1592 1406.7076 1408.2043 1410.3612 1413.3052 1415.5645 1419.9244 1422.7788 1424.4708 1426.3333 1427.406 1429.7073 1433.9113 1437.5972 1441.2676 1444.1381 1445.1772 1446.0616 1446.8793 1449.3145 1452.6232 1455.4884 1458.3788 1462.588 1467.8616 1472.9796 1478.1356 1483.424 1484.4 1484.8431 1486.1448 1487.3744 1488.0376 1489.04 1489.9176 1490.8044 1491.542 1492.5592 1493.8984 1495.5056 1496.7424 1498.5188 1500.0988 1501.4908 1502.4348 1503.3793 1504.36 1505.4852 1506.5916 1507.774 1508.8779 1510.1133 1511.2164 1512.34 1513.3632 1514.4731 1515.51 1516.6716 1517.526 1518.1564 1518.7476
1218.1304 1218.8368 1219.3424 1219.1857 1218.9427 1219.846 1220.5188 1220.422 1220.6128 1221.1232 1221.6996 1222.082 1222.4965 1222.966 1223.3115 1223.7356 1224.3236 1224.8196 1225.6432 1226.0424 1226.2437 1226.1788 1226.41 1227.3884 1228.2867 1229.3932 1230.8832 1232.7393 1234.088 1234.584 1234.9213 1235.2148 1235.9136 1237.032 1238.4048 1239.5824 1240.5448 1241.308 1241.964 1241.9712 1241.9808 1242.5024 1243.6268 1244.9972 1245.8396 1246.8124 1247.7808 1247.5079 1247.928 1248.4847 1249.1472 1249.9808 1250.8984 1251.412 1252.1716 1253.1908 1254.234 1255.0676 1256.0573 1257.0557 1258.0833 1258.9136 1259.5908 1259.866 1260.0817 1260.3864 1260.5996 1260.7084 1261.05 1261.7421 1262.8881 1263.8024 1264.782 1265.598 1266.4443 1267.0676 1267.784 1268.8888 1270.2792 1271.6353 1272.9968 1274.0856 1275.1956 1276.1724 1276.9692 1277.7668 1279.0529 1280.4865 1281.1971 1281.4188 1281.8444 1282.3844 1283.0924 1283.7188 1284.5905 1286.0153 1287.2408 1287.8768 1288.5485 1289.078 1289.8088 1290.9464 1292.3152 1293.3856 1294.7256 1295.868 1296.8776 1297.9072 1299.1768 1300.3888 1301.732 1302.5815 1303.4596 1304.2684 1304.9341 1305.5508 1307.6785 1309.364 1310.2072 1310.884 1311.6356 1312.7284 1313.7089 1313.3688 1313.304 1313.6536 1313.8417 1314.3488 1315.3315 1316.0692 1316.8468 1317.886 1318.8544 1319.2856 1319.2275 1319.1276 1319.5272 1320.3208 1321.658 1322.458 1323.3536 1324.1936 1324.7115 1324.9661 1325.8204 1326.5044 1327.372 1328.5448 1329.3136 1329.868 1330.3417 1330.932 1331.4587 1332.0244 1332.4148 1332.8636 1333.2876 1333.6132 1334.0056 1334.4615 1335.0336 1335.5104 1336.3508 1336.994 1337.4749 1337.9268 1338.458 1338.9556 1339.3064 1339.2928 1339.4884 1339.7797 1340.028 1340.1504 1340.3096 1340.3776 1340.9204 1341.802 1342.6688 1343.516 1344.4329 1344.864 1345.0056 1344.9775 1344.6813 1344.2772 1344.542 1344.7291 1344.546 1344.8083 1345.6868 1346.5588 1347.746 1348.9132 1350.7308 1352.5524 1354.2532 1355.826 1357.2563 1359.8691 1363.6553 1369.5168 1375.3816 1378.04 1379.8188 1381.2188 1383.2203 1387.826 1391.2983 1395.4952 1399.4664 1401.9329 1402.2064 1401.7432 1401.3484 1401.5427 1401.9272 1404.9664 1408.2604 1410.7723 1414.4427 1418.3644 1422.11 1423.538 1425.0316 1426.2205 1428.0936 1432.1256 1436.5469 1438.6764 1441.664 1443.7264 1444.6084 1445.3004 1447.5645 1450.2548 1453.6901 1457.398 1460.8304 1465.3735 1475.4064 1478.8704 1483.4445 1485.3292 1486.3405 1486.954 1487.7792 1488.4271 1489.474 1490.1548 1490.9652 1491.8868 1492.8164 1493.926 1495.3552 1496.3784 1497.7957 1499.1772 1500.592 1501.5632 1502.5208 1503.6008 1504.6656 1505.6432 1506.7948 1507.8988 1509.1116 1510.1971 1511.3644 1512.4412 1513.5748 1514.5828 1515.652 1516.5192 1517.2308 1517.9524
1218.8344 1219.1855 1219.4473 1219.4808 1219.1204 1219.6348 1220.3765 1220.6716 1221.0552 1221.332 1221.7491 1222.1252 1222.5212 1222.9749 1223.2556 1223.9708 1224.7012 1225.2948 1225.7017 1225.8832 1225.762 1225.7212 1226.2676 1227.0988 1227.9404 1229.186 1230.9368 1233.06 1234.1096 1234.1896 1234.6005 1235.0253 1235.6744 1236.7368 1238.1945 1239.5 1240.664 1241.5216 1242.1328 1242.268 1242.3304 1242.8264 1243.802 1244.9788 1246.17 1247.0212 1248.0432 1247.9896 1248.2272 1248.8528 1249.7823 1250.8944 1251.8784 1252.4208 1252.6484 1253.0933 1253.97 1254.6564 1255.5796 1256.6757 1257.8704 1258.816 1259.5492 1259.9972 1260.2344 1260.3696 1260.6908 1261.1516 1261.67 1262.3364 1263.2424 1264.0529 1265.2117 1266.2579 1267.1388 1267.4644 1267.8712 1268.6288 1269.8073 1271.0112 1272.2944 1273.1464 1274.1412 1275.1516 1276.0924 1276.9716 1277.9592 1279.164 1280.8788 1281.9803 1282.962 1283.6156 1284.29 1284.7212 1285.392 1286.4744 1287.8064 1288.6664 1289.2236 1289.6924 1290.2303 1291.1776 1292.6224 1293.7776 1295.4248 1296.8152 1297.7888 1298.6664 1299.8032 1300.9624 1301.8416 1302.3296 1302.958 1303.5267 1304.2236 1304.9364 1306.6224 1308.2152 1308.9976 1309.9528 1311.3004 1312.5404 1312.6904 1312.0448 1312.2184 1312.4464 1312.5856 1313.2096 1314.3533 1315.2284 1316.39 1317.5348 1318.2616 1318.2208 1317.8508 1317.7316 1318.276 1319.4824 1320.778 1321.3268 1322.1448 1322.8472 1323.3308 1323.8236 1324.7723 1325.4564 1326.268 1327.2648 1328.1248 1328.8424 1329.3953 1329.936 1330.4316 1331.122 1331.522 1331.87 1332.1885 1332.3268 1332.7432 1333.1528 1333.732 1334.3704 1335.1003 1335.7004 1336.1548 1336.6611 1337.2148 1337.6484 1337.9241 1338.0176 1338.3348 1338.6948 1338.9688 1339.0576 1339.2144 1339.4424 1339.878 1340.6908 1341.6248 1342.6096 1343.336 1343.652 1343.8904 1343.7073 1343.318 1343.2148 1343.7396 1343.89 1343.686 1344.0828 1344.9316 1345.7509 1347.2676 1348.718 1350.4828 1352.1108 1353.8907 1355.446 1356.5988 1358.2356 1362.248 1366.1288 1373.0833 1377.5833 1379.0284 1380.6268 1382.2108 1385.2148 1388.0184 1389.0297 1391.7528 1393.5632 1394.016 1394.6648 1396.6005 1398.9164 1400.372 1403.0048 1406.3348 1408.8628 1412.726 1417.0988 1420.9108 1422.3389 1423.8076 1424.8988 1426.5768 1429.4552 1434.8788 1437.9988 1439.8248 1441.1608 1442.6396 1444.074 1446.0044 1447.6868 1450.0037 1455.8492 1459.5887 1463.532 1474.3593 1480.2584 1483.598 1485.558 1486.9132 1487.8516 1488.3224 1488.844 1489.8923 1490.5652 1491.3324 1492.2156 1493.1284 1494.118 1495.3215 1496.1497 1497.2244 1498.262 1499.5784 1500.7448 1501.8224 1502.9904 1504.0687 1504.9568 1506.038 1507.1628 1508.3524 1509.374 1510.526 1511.6476 1512.8076 1513.7964 1514.7864 1515.6425 1516.4819 1517.4373
1218.874 1219.0652 1219.2448 1219.4048 1219.328 1219.5488 1220.3032 1221.0608 1221.8052 1222.0629 1222.3588 1222.7188 1223.13 1223.6244 1224.0612 1224.6804 1225.0511 1225.2888 1225.4148 1225.2268 1225.2333 1225.7732 1226.4677 1227.2036 1228.24 1229.6873 1231.072 1232.2808 1233.022 1233.2924 1233.9476 1234.6132 1235.3556 1236.454 1237.9788 1239.3333 1240.6744 1241.6112 1242.2476 1242.4803 1242.5573 1243.0116 1243.7856 1244.6927 1246.002 1246.7972 1247.8649 1248.4304 1248.9248 1249.4912 1250.3308 1251.3964 1252.346 1253.0413 1253.2336 1253.4808 1254.0856 1254.624 1255.2964 1256.1396 1257.2864 1258.3864 1259.3348 1260.0557 1260.5156 1260.6204 1260.8296 1261.3328 1262.0496 1262.8384 1263.6892 1264.5748 1265.7584 1266.8488 1267.8344 1268.188 1268.366 1268.9083 1269.9668 1271.0116 1271.9796 1272.8004 1273.8064 1274.6641 1275.3448 1276.1656 1277.2388 1278.4108 1279.866 1281.046 1282.1676 1283.4452 1284.8356 1285.7101 1286.2568 1287.1031 1288.5128 1289.58 1290.0784 1290.6832 1291.3301 1292.2852 1293.5676 1294.802 1296.172 1297.388 1298.0936 1298.6912 1299.3972 1300.3405 1301.0392 1301.3593 1302.0292 1302.89 1303.8376 1304.7767 1305.9048 1307.2728 1308.6265 1309.8224 1311.0928 1311.16 1310.3308 1310.4932 1310.7228 1310.87 1311.5156 1312.3564 1313.5024 1314.4968 1315.8816 1316.5176 1316.7628 1316.682 1316.3547 1316.518 1317.516 1318.7736 1319.442 1320.1228 1320.81 1321.2708 1321.8763 1322.5571 1323.3984 1324.1296 1324.8956 1325.8052 1326.8152 1327.608 1328.072 1328.5576 1329.1792 1329.7408 1330.2303 1330.5472 1330.8628 1331.0156 1331.3004 1331.7388 1332.4749 1333.2867 1333.9912 1334.392 1334.8616 1335.4536 1335.9731 1336.3796 1336.5968 1336.8152 1337.0564 1337.2653 1337.5696 1337.6968 1338.0197 1338.4443 1338.822 1339.4532 1340.2156 1341.0308 1341.7648 1342.0872 1342.254 1341.9868 1341.6272 1341.8456 1342.7512 1342.6392 1342.3752 1343.2177 1344.2692 1345.1212 1346.6149 1348.1829 1349.8317 1351.554 1353.5404 1354.9828 1356.0748 1357.4332 1360.2867 1364.126 1369.0312 1373.9064 1377.102 1379.6012 1381.576 1382.9808 1384.1588 1385.8013 1387.4777 1388.908 1390.2744 1391.8976 1394.5116 1396.786 1398.8888 1401.2512 1404.3647 1407.9832 1411.086 1414.4244 1418.6829 1421.37 1422.518 1423.7372 1424.8292 1427.5933 1432.1316 1435.7788 1438.3776 1440.5544 1441.4896 1443.5673 1446.2408 1448.024 1450.1384 1454.2208 1457.8596 1461.6996 1471.6984 1480.4 1484.1832 1485.588 1487.3104 1488.276 1488.7 1489.2816 1490.268 1491.0239 1491.8492 1492.6108 1493.4731 1494.3405 1495.3572 1496.21 1497.1028 1497.8052 1498.856 1499.9863 1501.1207 1502.2576 1503.4255 1504.3728 1505.4097 1506.5864 1507.7268 1508.5963 1509.77 1510.9436 1512.0472 1513.0632 1513.946 1514.6844 1515.5612 1516.498
1218.41 1218.8604 1218.9543 1219.2776 1219.4705 1219.5952 1220.5776 1221.644 1222.5077 1222.7572 1222.9924 1223.3828 1223.7628 1224.1068 1224.3412 1224.5492 1224.8568 1225.1056 1225.2556 1225.3187 1225.362 1226.3484 1227.6316 1228.566 1229.384 1230.2233 1231.1128 1231.7792 1232.4076 1232.9196 1233.5668 1234.3011 1235.0732 1236.0468 1237.5348 1238.9948 1240.4664 1241.5072 1242.2852 1242.5916 1242.7164 1243.142 1243.9928 1244.6232 1245.4108 1246.3292 1247.7368 1248.656 1249.3792 1249.8912 1250.6348 1251.606 1252.5596 1253.3284 1253.7 1253.9504 1254.3872 1254.8232 1255.3315 1255.81 1256.64 1257.7832 1258.9916 1259.9124 1260.6996 1261.19 1261.3176 1261.7377 1262.776 1263.656 1264.3252 1265.1165 1266.3176 1267.4064 1268.2688 1268.7136 1269.1716 1269.6068 1270.2844 1271.0267 1272.0197 1273.0308 1273.9672 1274.7704 1275.5225 1276.292 1277.3124 1278.2716 1279.0573 1280.4196 1281.35 1282.2437 1283.782 1284.8099 1285.9888 1287.0912 1288.3008 1289.2 1289.9496 1290.5513 1291.4996 1292.7428 1293.8412 1294.6564 1295.7319 1296.9336 1297.8248 1298.3088 1298.8372 1299.5676 1300.3792 1300.9152 1301.67 1302.5244 1303.4912 1304.5328 1305.912 1307.4064 1308.5673 1309.4128 1309.8136 1309.5511 1309.314 1309.566 1309.4724 1309.7637 1310.7043 1311.8716 1313.2128 1314.1864 1315.1376 1314.9352 1314.9355 1315.1044 1315.0892 1315.6556 1317.1936 1318.2368 1318.4484 1318.9963 1319.6724 1320.106 1320.8405 1321.5212 1322.2177 1322.8688 1323.6437 1324.5197 1325.448 1326.0648 1326.5424 1327.2504 1327.9471 1328.3231 1328.8953 1329.3256 1329.6628 1329.9069 1330.1852 1330.606 1331.2653 1332.0197 1332.7823 1333.2377 1333.8248 1334.3976 1334.7732 1335.2277 1335.5504 1335.7656 1335.9796 1336.1804 1336.4008 1336.5216 1336.9188 1337.4028 1337.878 1338.33 1338.9868 1339.754 1340.536 1340.9512 1341.0125 1340.7372 1340.2224 1340.8296 1341.8296 1341.556 1341.5096 1342.6943 1343.602 1344.6124 1346.1764 1347.722 1349.2189 1350.9572 1353.0717 1354.378 1355.3524 1356.4357 1359.5012 1362.7084 1367.248 1371.0304 1374.9012 1378.1508 1380.74 1382.5272 1383.8004 1385.3212 1386.9232 1388.2432 1389.7001 1391.2913 1393.6827 1395.5924 1397.74 1399.8544 1403.3287 1407.6335 1410.1453 1412.2356 1416.1235 1419.4893 1421.3036 1422.7788 1424.0636 1426.0197 1429.7852 1432.802 1435.5328 1438.6088 1440.1672 1441.688 1445.5272 1448.8224 1451.204 1454.3712 1457.2916 1458.6964 1468.88 1481.4937 1484.2416 1485.7968 1488.0712 1488.9296 1489.3712 1489.8104 1490.8744 1491.6353 1492.3765 1493.066 1493.8068 1494.5444 1495.614 1496.5868 1497.254 1497.8396 1498.752 1499.6567 1500.7008 1501.7592 1502.98 1504.0472 1505.14 1506.1216 1507.162 1508.1019 1509.3763 1510.558 1511.5424 1512.4832 1513.3644 1513.9268 1514.6068 1515.3628
1217.2644 1218.262 1218.6372 1219.322 1219.7236 1219.682 1220.6776 1221.9417 1222.7948 1223.2196 1223.552 1223.9528 1224.3364 1224.2372 1224.1288 1224.4712 1225.0084 1225.298 1225.7375 1226.2712 1226.3396 1227.0076 1228.3988 1229.2572 1230.0532 1230.6772 1231.3013 1231.8804 1232.6495 1233.2472 1233.4612 1233.8948 1234.7032 1235.6072 1236.9652 1238.478 1239.9824 1241.148 1242.108 1242.5552 1242.7864 1243.1216 1243.9937 1244.7479 1245.4852 1246.3245 1247.5803 1248.5972 1249.486 1250.05 1250.6404 1251.4196 1252.524 1253.452 1254.0852 1254.354 1254.6284 1254.9492 1255.3452 1255.6508 1256.3508 1257.458 1258.6576 1259.4312 1260.4716 1261.2885 1261.8472 1262.4264 1263.5135 1264.448 1264.9636 1265.4772 1266.556 1267.5168 1268.226 1268.8364 1269.7103 1270.2496 1270.6672 1271.1896 1272.2656 1273.3184 1274.3292 1275.2172 1275.9097 1276.6 1277.6908 1278.778 1279.8132 1280.5868 1281.2332 1281.7156 1282.658 1283.7347 1285.0352 1286.188 1287.1572 1287.9788 1288.928 1289.7472 1290.5608 1291.4392 1292.6252 1293.67 1295.0044 1296.298 1297.2697 1297.8152 1298.356 1299.0568 1300.0304 1300.5232 1301.0912 1301.9097 1303.0428 1304.2356 1305.8372 1307.2588 1307.372 1307.3152 1307.9348 1308.1084 1308.2616 1308.2312 1308.2656 1309.02 1310.3644 1311.7844 1312.7808 1313.2952 1313.3907 1312.9556 1313.1488 1313.6553 1314.0768 1314.9496 1316.0048 1316.6624 1317.0776 1317.6376 1318.2308 1318.8524 1319.7216 1320.3496 1320.9705 1321.5504 1322.3531 1323.1597 1323.9252 1324.4604 1324.9965 1325.7468 1326.4768 1326.9744 1327.5276 1328.0404 1328.5037 1328.7148 1328.9248 1329.3145 1330.054 1330.7644 1331.3696 1331.8792 1332.5125 1333.2043 1333.734 1334.0612 1334.2668 1334.6012 1334.9032 1335.1416 1335.3212 1335.4364 1335.7656 1336.124 1336.5833 1337.0992 1337.6912 1338.3536 1339.126 1339.5684 1339.564 1339.2911 1339.0267 1339.8732 1340.5961 1340.5352 1341.0516 1342.2196 1343.0732 1344.194 1345.7988 1347.2491 1348.6611 1350.2996 1352.1608 1353.5536 1354.7096 1355.4448 1358.6696 1362.3112 1365.792 1369.7568 1373.3057 1376.6208 1379.2623 1381.28 1383.3284 1385.0037 1386.6888 1388.1696 1389.5295 1390.8768 1393.0544 1395.8392 1398.322 1399.5548 1401.9448 1406.776 1409.7332 1411.6827 1414.2 1417.3136 1419.582 1421.598 1423.6428 1425.3948 1428.0156 1430.274 1433.4404 1436.654 1438.8928 1441.0184 1443.2324 1446.9747 1451.226 1453.87 1456.4288 1460.872 1476.67 1483.1492 1484.4524 1485.6796 1489.2312 1490.1713 1490.6068 1491.3884 1492.6748 1492.7957 1493.1196 1493.486 1494.0323 1494.8204 1495.908 1496.8752 1497.4796 1498.0228 1498.8192 1499.5824 1500.4524 1501.3604 1502.4668 1503.5868 1504.9232 1505.7472 1506.6416 1507.716 1509.0107 1510.0052 1510.9652 1511.8691 1512.538 1513.0468 1513.8345 1514.4633
1216.1268 1217.038 1218.0908 1219.1804 1219.7684 1219.7972 1220.4176 1221.7535 1222.5852 1223.2084 1223.7792 1224.2744 1224.6212 1223.8484 1224.1376 1224.944 1225.6428 1226.006 1226.4872 1227.016 1227.2876 1227.6564 1228.73 1229.4988 1230.1597 1230.814 1231.4445 1232.486 1233.5536 1234.14 1234.3196 1234.6028 1234.9128 1235.4344 1236.406 1237.9492 1239.4464 1240.6119 1241.7744 1242.2999 1242.7017 1243.0624 1243.6855 1244.5264 1245.3884 1246.1989 1247.2924 1248.3092 1249.3997 1250.194 1250.6309 1250.9443 1251.9336 1252.8872 1253.6196 1254.2004 1254.614 1254.9156 1255.2748 1255.67 1256.3436 1257.3964 1258.7017 1259.2064 1259.9388 1260.834 1261.7936 1262.72 1263.7952 1264.8304 1265.4652 1265.8268 1266.3672 1267.0673 1267.8092 1268.4484 1269.4432 1270.2352 1270.7224 1271.3136 1272.3928 1273.4248 1274.5541 1275.6228 1276.2999 1277.0671 1278.3412 1279.3196 1280.7516 1282.0404 1282.7115 1283.1892 1283.63 1284.1035 1284.8824 1285.7537 1286.5868 1287.4596 1288.412 1289.3129 1290.184 1291.0032 1292.1444 1293.2068 1294.606 1295.7444 1296.4912 1297.12 1297.7911 1298.5896 1299.4912 1300.0944 1300.812 1301.7825 1303.0988 1304.4708 1305.914 1306.6091 1305.5568 1305.2264 1306.282 1306.7484 1306.8112 1306.9183 1307.5088 1308.6104 1310.194 1311.3995 1311.9336 1312.0544 1311.6484 1311.4708 1311.9384 1312.5472 1313.3696 1314.5416 1315.3136 1315.5471 1315.9768 1316.3832 1316.8691 1317.6604 1318.6049 1319.1193 1319.6968 1320.2672 1321.1172 1321.8804 1322.514 1323.054 1323.698 1324.4963 1325.1744 1325.7344 1326.3396 1326.774 1327.0804 1327.2804 1327.5824 1328.0887 1328.934 1329.6492 1330.2144 1330.6729 1331.3387 1332.0164 1332.8036 1333.4076 1333.546 1333.6788 1333.9032 1334.0952 1334.2844 1334.4316 1334.688 1334.976 1335.3953 1335.98 1336.68 1337.4064 1338.11 1338.33 1338.1 1337.696 1337.934 1338.6924 1339.2568 1339.9415 1340.8732 1341.8333 1342.7476 1344.0892 1345.5284 1346.9963 1348.61 1350.2468 1351.8616 1352.9631 1354.1552 1355.0856 1357.0592 1360.712 1364.7064 1368.604 1371.872 1374.8624 1377.2416 1379.8447 1382.486 1384.1548 1386.1912 1387.616 1388.9568 1390.2496 1392.3488 1395.4167 1398.1692 1399.5492 1401.3544 1404.9248 1408.7756 1411.6484 1414.1783 1416.6216 1418.814 1421.0828 1423.3331 1425.2196 1427.346 1429.3372 1432.3756 1436.3156 1438.8984 1440.9633 1443.3068 1444.8668 1449.8364 1453.8948 1455.8568 1464.0824 1481.6116 1484.1884 1484.9404 1485.4877 1488.9152 1491.86 1493.0684 1493.7428 1494.6716 1495.3684 1494.154 1494.1685 1494.5323 1495.2708 1495.9968 1497.0135 1498.0859 1498.49 1499.0608 1499.6785 1500.3909 1501.1036 1501.9724 1502.9355 1504.4264 1505.4248 1506.172 1507.168 1508.4788 1509.3867 1510.3315 1511.2404 1511.9517 1512.2844 1512.9784 1513.5817
1216.0968 1216.344 1217.084 1218.2856 1219.6904 1219.9152 1220.1404 1221.0316 1222.0244 1222.7628 1223.5992 1224.1344 1223.8496 1223.3793 1224.9288 1225.944 1226.5668 1226.9412 1227.436 1227.8816 1228.2288 1228.4257 1228.9388 1229.4196 1229.866 1230.7452 1231.8456 1232.94 1233.6388 1234.3076 1235.0344 1235.4768 1235.7708 1236.1604 1236.4144 1237.3217 1238.4464 1239.5599 1241.0048 1241.6184 1242.3289 1243.0928 1243.7532 1244.4916 1245.0872 1245.7983 1246.8904 1247.8665 1249.0372 1250.0148 1250.5364 1250.4636 1250.8468 1251.8076 1252.7072 1253.624 1254.274 1254.8428 1255.3024 1255.812 1256.4412 1257.302 1258.5713 1259.3616 1260.0812 1260.61 1261.3932 1262.5948 1263.8464 1264.8352 1265.5496 1265.8568 1266.198 1266.8029 1267.5168 1268.1392 1269.04 1269.8176 1270.5596 1271.4236 1272.5608 1273.7128 1274.8068 1275.8596 1276.6492 1277.4788 1278.5887 1279.4968 1280.9076 1282.3372 1283.5817 1284.5216 1285.0168 1285.0856 1285.4564 1285.9772 1286.814 1287.5612 1288.486 1289.3132 1290.1808 1291.1096 1292.3684 1293.3619 1294.3348 1295.2437 1295.5892 1296.0524 1296.784 1297.5272 1298.4473 1299.5032 1300.844 1302.5024 1303.8512 1304.7192 1304.9628 1304.8268 1304.0896 1304.3232 1304.7911 1304.9264 1305.2296 1305.8584 1307.2952 1308.8073 1309.9587 1310.0676 1310.4296 1310.6328 1309.9988 1309.5717 1310.8188 1311.6003 1312.5072 1313.6744 1314.1729 1314.3744 1314.7096 1314.9944 1315.6772 1316.6309 1317.4373 1317.8276 1318.3912 1319.0712 1319.9712 1320.6768 1321.2632 1321.7112 1322.36 1323.152 1323.8772 1324.3732 1324.928 1325.332 1325.6208 1325.8712 1326.2697 1326.7744 1327.5344 1328.2848 1328.906 1329.4877 1330.1768 1330.9128 1331.718 1332.2725 1332.4796 1332.5573 1332.7124 1332.8884 1333.124 1333.3616 1333.6284 1333.91 1334.3508 1334.9612 1336.0004 1336.9204 1337.0736 1337.0513 1336.4568 1335.8624 1336.0148 1337.4252 1339.1472 1340.1544 1340.5796 1341.698 1343.0236 1344.1724 1345.4224 1346.9816 1349.0276 1350.238 1351.6068 1352.8484 1354.2368 1355.4768 1356.8188 1358.5876 1362.8428 1366.5868 1370.1444 1373.0332 1375.2563 1377.5356 1380.4436 1382.4116 1385.0745 1386.8127 1388.4376 1389.9128 1391.9324 1394.446 1396.9517 1399.0789 1401.27 1403.9236 1408.1453 1411.5948 1414.2375 1416.8143 1418.8693 1420.8428 1423.194 1425.422 1427.3756 1429.1324 1431.4584 1434.9512 1438.75 1440.9443 1443.5812 1445.2365 1447.6112 1452.4104 1455.0209 1463.704 1480.2247 1484.3503 1485.4596 1486.3804 1488.7708 1492.1396 1494.2152 1495.0288 1497.1016 1497.9368 1497.238 1496.1052 1496.4847 1496.56 1496.602 1497.522 1498.792 1499.1112 1499.4832 1499.7896 1500.3508 1500.9572 1501.7783 1502.7512 1503.9132 1504.8004 1505.6212 1506.5188 1507.6237 1508.5773 1509.5464 1510.3055 1510.9484 1511.326 1512.1316 1512.714
1216.4304 1216.5367 1216.7681 1217.1904 1218.8528 1219.8536 1220.2036 1220.4868 1221.378 1222.15 1222.6641 1222.7544 1222.8647 1223.5544 1225.4048 1226.4008 1227.1003 1227.542 1227.9768 1228.3408 1228.6752 1228.8256 1229.0228 1229.1852 1229.5012 1230.334 1231.3712 1232.2272 1233.0283 1233.9276 1234.9457 1235.6744 1236.27 1236.8148 1237.1688 1237.9624 1239.0592 1240.056 1240.8168 1241.304 1242.476 1243.4496 1244.2532 1244.9692 1245.432 1245.8488 1246.7247 1247.6368 1248.5708 1249.4731 1250.1068 1250.082 1250.2412 1251.0148 1251.6912 1252.4944 1253.3173 1254.2092 1255.1608 1256.0128 1256.5884 1257.2092 1258.3784 1259.4456 1260.262 1260.6996 1261.3484 1262.4316 1263.6423 1264.4888 1265.1344 1265.6049 1266.1964 1266.7948 1267.5872 1268.24 1269.0311 1269.7592 1270.7148 1271.7932 1273.12 1274.4752 1275.3468 1276.0348 1276.8315 1277.5828 1278.3088 1279.228 1280.5548 1281.7812 1283.1576 1284.1552 1285.0168 1285.7465 1286.298 1286.9276 1287.3556 1287.882 1288.7708 1289.5051 1290.2616 1291.0352 1292.0964 1292.93 1293.6003 1294.5748 1294.73 1294.9211 1295.376 1296.1576 1297.3816 1299.044 1301.2352 1302.892 1303.1664 1303.0872 1302.9891 1302.954 1303.2607 1303.44 1303.3928 1303.5824 1304.4568 1305.8312 1307.5184 1308.6512 1308.9515 1308.7725 1308.964 1308.996 1308.2076 1308.0524 1309.5012 1310.4796 1311.452 1312.4592 1312.8232 1313.0441 1313.5583 1314.088 1314.9636 1315.6852 1316.1996 1316.6716 1317.3568 1318.0416 1318.7496 1319.4968 1320.3448 1320.9176 1321.5232 1322.0432 1322.6364 1323.1436 1323.7584 1324.3112 1324.6376 1324.7697 1325.124 1325.6592 1326.3424 1327.0912 1327.7644 1328.3461 1329.0817 1329.9232 1330.838 1331.3444 1331.33 1331.3916 1331.6316 1331.9324 1332.2704 1332.5992 1332.7437 1332.9596 1333.5253 1334.198 1335.234 1335.9124 1335.896 1335.5889 1335.0063 1334.3016 1334.3531 1335.8884 1338.064 1339.5608 1340.126 1341.7052 1343.5692 1344.6956 1345.7136 1346.8184 1348.7068 1350.2916 1351.7772 1353.126 1354.6024 1355.8008 1357.0204 1358.4324 1360.8228 1364.3236 1367.8772 1371.8236 1374.0388 1375.5532 1378.2612 1381.0084 1384.2512 1386.5496 1388.4792 1390.1976 1392.2772 1394.306 1396.5771 1399.0516 1401.5468 1404.9476 1408.3844 1411.562 1414.0336 1416.6744 1418.954 1420.8188 1423.1932 1425.5076 1427.3252 1429.2628 1431.7192 1433.9576 1437.1523 1440.9116 1443.8628 1445.7596 1447.3096 1449.848 1454.5944 1465.5367 1478.8064 1484.5815 1486.0724 1487.526 1490.0931 1492.7133 1494.6696 1495.912 1497.4688 1498.4304 1498.7996 1498.2955 1498.7104 1498.6208 1498.3531 1498.2156 1498.8544 1499.5128 1499.688 1499.9272 1500.3884 1500.9404 1501.7983 1502.7744 1503.5844 1504.286 1505.1428 1505.9445 1506.842 1507.8308 1508.5544 1509.0592 1509.5172 1510.058 1511.0844 1511.9805
1216.7124 1216.7052 1216.9408 1217.1592 1217.7048 1219.1232 1220.3492 1220.5717 1220.9617 1221.4344 1221.8168 1222.16 1222.9432 1224.4248 1225.5035 1226.0564 1226.6989 1227.4004 1227.9904 1228.2625 1228.62 1228.8224 1228.9464 1229.1968 1229.4008 1229.7056 1229.9868 1231.3564 1232.8296 1233.792 1234.8224 1235.7144 1236.5704 1237.276 1237.9172 1238.93 1240.1016 1240.724 1241.4348 1242.3772 1243.5348 1244.2308 1244.9144 1245.9128 1246.4304 1246.7336 1247.314 1247.9644 1248.53 1249.0188 1249.5796 1250.038 1250.5532 1251.3013 1251.7644 1252.1844 1253.0376 1253.888 1254.9084 1255.9364 1256.6772 1257.4308 1258.378 1259.3333 1260.2712 1260.8145 1261.5028 1262.3475 1263.3776 1264.2616 1264.9424 1265.6376 1266.4592 1266.932 1267.524 1268.2576 1269.308 1270.4241 1271.6592 1272.7872 1274.0323 1274.8693 1275.436 1275.8384 1276.5408 1277.3737 1278.1748 1278.9508 1280.0404 1281.2756 1282.6624 1283.6727 1284.5012 1285.2404 1286.046 1287.01 1287.4148 1287.7572 1288.46 1289.1344 1289.876 1290.536 1291.2596 1291.9684 1292.4508 1292.9213 1293.3296 1294.2728 1295.276 1296.4424 1297.7797 1299.7172 1301.4675 1302.1989 1301.7936 1301.4984 1301.5996 1301.7596 1301.85 1301.9069 1302.3508 1303.1924 1304.6604 1306.2244 1307.308 1307.5592 1307.6016 1307.4832 1307.5704 1307.2288 1306.42 1306.964 1308.2168 1309.3528 1310.4592 1311.0599 1311.4028 1311.9589 1312.6852 1313.374 1314.1512 1314.74 1315.0896 1315.568 1316.3524 1317.1276 1317.736 1318.1945 1318.92 1319.7688 1320.6481 1320.9128 1321.3624 1322.0192 1322.6425 1323.1136 1323.316 1323.4352 1323.824 1324.4048 1325.072 1325.7616 1326.5151 1327.0776 1327.8055 1328.6857 1329.6328 1330.0815 1330.084 1330.2704 1330.5323 1330.834 1331.3164 1331.63 1331.5952 1331.74 1332.456 1333.2985 1334.2361 1334.6368 1334.2688 1333.6736 1333.302 1333.0715 1333.2208 1335.2656 1337.368 1338.7504 1339.7512 1341.1528 1343.0295 1344.5312 1346.1504 1347.2456 1348.3928 1350.3816 1352.4344 1353.4905 1354.7388 1355.8252 1357.406 1359.1829 1360.7184 1362.4648 1365.62 1369.5295 1372.3944 1374.0009 1376.5272 1379.54 1383.1544 1387.2672 1389.6268 1391.1572 1393.0304 1394.9113 1397.2549 1399.8652 1401.8672 1405.0272 1408.8672 1411.3448 1414.3085 1416.7437 1419.0452 1420.9308 1423.2421 1425.6804 1427.4196 1429.0836 1431.348 1434.0304 1436.98 1439.2488 1443.3505 1445.8512 1447.74 1449.6584 1452.9548 1462.7468 1477.0583 1484.6553 1485.7504 1486.7584 1490.3392 1492.8848 1494.202 1495.6996 1497.1364 1498.3171 1499.186 1499.2036 1499.0729 1499.1832 1496.1453 1495.1444 1497.656 1499.7736 1499.8948 1500.2476 1500.622 1501.0396 1501.5804 1502.0828 1502.9935 1503.7896 1504.7488 1505.424 1505.9856 1506.7592 1507.0204 1506.922 1507.3315 1508.0004 1509.2272 1510.604
1216.9908 1216.9692 1217.204 1217.4464 1217.6256 1218.6696 1220.3492 1220.7604 1220.956 1221.1984 1221.564 1222.1344 1223.6024 1224.8408 1225.5972 1225.7324 1225.9868 1226.8308 1227.5088 1227.8816 1228.4128 1228.812 1229.5223 1230.1232 1230.2896 1230.8264 1230.6683 1231.4733 1232.6248 1233.704 1234.816 1235.8856 1236.972 1238.0585 1238.8044 1239.3916 1240.4464 1240.9008 1241.4388 1242.2612 1243.258 1243.8948 1244.6056 1245.7 1246.3536 1246.9688 1247.6412 1248.1812 1248.8636 1249.3027 1249.922 1250.654 1251.2437 1252.0972 1252.9819 1253.4708 1254.2024 1254.896 1255.6028 1256.3972 1257.118 1257.9772 1258.8612 1259.6644 1260.556 1261.1648 1261.9436 1262.7484 1263.5616 1264.316 1265.0432 1265.6711 1266.3448 1266.7184 1267.296 1268.332 1269.9016 1271.16 1272.3807 1273.3647 1273.9684 1274.458 1274.9736 1275.5072 1276.252 1276.9904 1277.9211 1278.646 1279.5172 1280.7604 1282.3984 1283.5543 1284.3916 1284.8716 1285.3204 1286.1595 1286.8684 1287.0828 1287.7233 1288.468 1289.2177 1289.8312 1290.4204 1290.9373 1291.2388 1291.6613 1292.8792 1294.4768 1295.8352 1297.088 1298.6292 1299.9572 1300.6989 1300.8076 1300.5648 1300.3512 1300.3844 1300.5524 1300.7692 1301.2356 1302.1932 1303.4636 1304.9612 1305.8964 1306.6488 1306.828 1306.4144 1306.1536 1306.2208 1305.884 1305.344 1306.1328 1307.6832 1308.9536 1309.708 1309.9008 1310.2428 1311.0836 1311.9188 1312.6892 1313.296 1313.7056 1314.1729 1314.776 1315.4708 1316.0476 1316.5336 1316.8912 1317.8577 1319.5496 1320.1976 1320.0656 1320.3992 1320.928 1321.4856 1321.8192 1322.0576 1322.2424 1322.7177 1323.2504 1323.8016 1324.4543 1325.2424 1325.936 1326.7808 1327.5887 1328.488 1329.0648 1329.248 1329.3368 1329.5052 1329.7396 1330.4404 1330.8708 1330.7992 1330.8575 1331.5344 1332.4904 1333.352 1333.4376 1332.844 1332.2231 1331.982 1331.6508 1331.3992 1332.2456 1336.2488 1338.3032 1339.0728 1340.4968 1342.376 1344.116 1346.0745 1347.5072 1348.6648 1350.1495 1352.2623 1353.552 1354.8387 1356.0035 1357.63 1359.2228 1360.6376 1363.0352 1366.8552 1368.9072 1371.0768 1373.5776 1376.0408 1378.5912 1382.0328 1386.8928 1390.9004 1392.4052 1393.9376 1395.6456 1397.6692 1399.5627 1401.5304 1405.6312 1409.232 1412.572 1415.3228 1417.1724 1419.2852 1421.15 1423.3564 1425.4269 1427.4756 1429.0724 1431.3136 1433.6344 1436.4904 1438.0905 1442.0975 1445.5232 1447.7856 1449.496 1452.7668 1462.2164 1473.9896 1481.9304 1484.4136 1486.5673 1489.4432 1492.5792 1494.0996 1495.4084 1497.0476 1498.4155 1499.114 1496.0244 1494.4192 1492.0288 1484.3212 1489.8948 1495.3048 1498.8224 1499.8004 1500.3516 1500.6188 1500.6989 1500.7509 1500.474 1502.0352 1503.0824 1504.3232 1504.984 1505.2008 1505.4432 1505.154 1504.8268 1505.2308 1506.1876 1507.912 1509.4327
1217.226 1217.2172 1217.5432 1217.8217 1217.9559 1218.5792 1219.8948 1220.8011 1221.1752 1221.3608 1221.6636 1222.454 1223.6724 1224.6428 1225.2528 1225.4312 1225.748 1226.5312 1227.2244 1227.6892 1228.2504 1229.036 1230.2045 1230.8636 1231.4156 1232.166 1232.6423 1232.3784 1232.664 1233.6263 1235.0 1236.5048 1237.6711 1238.6128 1239.2604 1239.134 1239.7172 1240.3036 1240.8092 1241.3851 1242.1108 1243.2676 1244.6852 1245.3187 1245.8336 1246.5208 1247.1248 1247.5472 1248.0768 1248.6344 1249.3412 1250.218 1251.228 1252.1584 1253.0424 1253.8055 1254.7864 1255.2992 1256.1049 1256.7024 1257.1328 1257.9568 1258.8588 1259.5748 1260.27 1260.9252 1261.7261 1262.5308 1263.1152 1264.0032 1264.826 1265.4244 1266.1312 1266.8512 1267.692 1268.6992 1270.1512 1271.3568 1272.3124 1272.6836 1272.9264 1273.4688 1274.2136 1275.0392 1275.8972 1276.5771 1277.598 1278.3236 1278.9888 1280.0272 1281.512 1282.6583 1283.3372 1283.8732 1284.3096 1285.0448 1285.8712 1286.3872 1287.0568 1287.6768 1288.3544 1288.8712 1289.2784 1289.6608 1290.154 1291.5092 1293.5604 1294.9932 1296.112 1297.4232 1298.816 1298.9752 1298.9576 1299.1272 1299.0988 1298.9884 1299.0876 1299.5251 1300.3816 1301.2168 1302.5076 1303.6917 1304.7491 1305.4004 1305.454 1305.4515 1304.9912 1304.6704 1304.5632 1304.328 1304.316 1305.2952 1307.3728 1308.5 1308.5216 1308.4696 1308.846 1309.7635 1310.7512 1311.68 1312.2948 1312.7684 1313.298 1313.7653 1314.3032 1314.6873 1315.0016 1315.6312 1317.0408 1318.5784 1319.1469 1319.422 1319.6768 1319.9705 1320.3472 1320.5752 1320.776 1321.0297 1321.4487 1321.9216 1322.508 1323.1328 1323.8624 1324.6896 1325.6237 1326.3884 1327.264 1328.0032 1328.2876 1328.1917 1328.3516 1328.5652 1329.2904 1329.8896 1330.0376 1330.208 1330.7472 1331.476 1331.9236 1331.886 1331.274 1330.5388 1330.116 1329.4536 1328.9412 1329.382 1332.9127 1336.3 1338.0396 1339.598 1341.854 1343.6572 1345.3387 1347.1932 1348.7416 1350.1216 1351.8907 1353.3995 1354.8488 1356.0216 1357.6068 1359.126 1360.4052 1363.1556 1367.3372 1369.642 1371.2292 1373.158 1375.4556 1377.0812 1379.9016 1384.78 1390.4912 1392.832 1394.6324 1396.2068 1397.6193 1399.2087 1401.286 1405.7684 1409.8928 1414.3057 1416.3044 1417.8549 1419.5676 1421.3171 1423.614 1425.4747 1427.488 1429.2208 1431.5383 1433.5833 1435.8315 1437.3564 1440.1492 1445.2596 1447.6168 1448.7632 1451.1252 1458.6428 1468.52 1478.6544 1483.18 1483.9536 1487.3923 1491.4108 1494.066 1495.1484 1495.8416 1498.0815 1497.0135 1487.4808 1483.5645 1478.9572 1476.952 1483.4512 1493.038 1496.9515 1495.2108 1498.254 1499.382 1499.2404 1498.0436 1496.7988 1500.132 1502.22 1503.3524 1504.0868 1503.8276 1503.3893 1502.5332 1502.5116 1503.36 1504.2928 1506.816 1508.2672
1217.6228 1217.5355 1217.8 1218.1567 1218.2568 1218.4272 1219.0692 1219.998 1221.3752 1221.6344 1221.8604 1222.3676 1223.4052 1224.3243 1224.8608 1225.172 1225.5673 1226.2656 1227.1844 1227.942 1228.4865 1229.1088 1229.966 1230.6332 1231.6523 1232.3724 1233.3552 1233.5457 1233.1119 1233.6664 1235.0992 1236.4615 1237.2688 1237.7927 1238.4156 1238.7068 1239.2404 1239.9772 1240.7268 1241.4357 1242.514 1243.9636 1245.234 1246.186 1246.4896 1247.0056 1247.5096 1247.764 1248.0992 1248.3816 1249.0989 1250.1212 1251.048 1251.7528 1252.4991 1253.2848 1254.1552 1254.764 1255.392 1255.9832 1256.6776 1257.4025 1258.1973 1258.8972 1259.678 1260.3668 1261.074 1261.826 1262.6504 1263.6024 1264.0931 1264.6852 1265.5712 1266.6512 1267.8464 1268.8215 1270.0784 1271.004 1271.1908 1271.4276 1272.1056 1273.024 1273.9255 1274.7384 1275.5732 1276.3828 1277.326 1278.0836 1278.828 1279.6729 1280.7544 1281.6832 1282.2236 1282.8972 1283.568 1284.2968 1285.1855 1285.676 1286.1873 1286.7352 1287.4095 1287.8368 1288.504 1289.4816 1290.6989 1292.3148 1293.9868 1295.0164 1296.1105 1297.46 1298.0264 1297.3503 1297.4136 1297.7432 1297.8549 1297.9412 1298.3364 1299.0172 1300.168 1301.1968 1302.4436 1303.6788 1304.2955 1304.2156 1304.1204 1304.3068 1304.092 1303.9952 1303.6376 1303.1096 1303.18 1304.396 1306.6688 1307.2584 1307.1864 1307.1567 1307.734 1308.834 1309.7672 1310.6288 1311.3492 1311.9877 1312.5532 1312.87 1313.2512 1313.5664 1313.9152 1314.8424 1316.1656 1317.2264 1318.2236 1318.9196 1318.984 1319.076 1319.4656 1319.6328 1319.7032 1319.9136 1320.308 1320.8256 1321.4552 1322.1135 1322.832 1323.544 1324.4227 1325.2548 1326.14 1326.8376 1327.2028 1327.3259 1327.6163 1327.7516 1328.1472 1328.7769 1329.268 1329.5984 1330.0872 1330.6016 1331.022 1330.8533 1329.7444 1328.8204 1328.0952 1327.5704 1327.5188 1328.2444 1331.096 1335.456 1337.698 1338.7972 1341.1156 1343.3396 1344.6469 1346.3156 1348.2144 1350.0408 1351.8396 1353.3356 1354.6968 1355.828 1357.3997 1358.9636 1360.0676 1362.426 1367.0125 1369.506 1371.7996 1373.498 1375.202 1376.722 1378.4368 1382.5712 1388.5336 1392.3129 1394.878 1396.2732 1397.2904 1398.7904 1400.8212 1405.6652 1410.2089 1414.4664 1416.5908 1417.842 1419.4283 1421.162 1423.386 1425.1989 1427.2024 1429.2072 1431.4904 1433.3656 1435.2524 1436.7228 1438.5212 1443.6316 1447.6656 1448.7432 1450.0692 1458.2941 1470.1736 1475.6024 1480.6176 1480.5448 1484.9724 1488.7491 1491.002 1491.9004 1487.2272 1489.1488 1485.1335 1477.9928 1474.4012 1471.7572 1470.868 1477.2776 1488.33 1486.1444 1483.1036 1487.3148 1493.3468 1494.6932 1493.186 1492.8612 1497.9417 1500.668 1501.3564 1501.9708 1501.5629 1501.3052 1500.2812 1500.3204 1501.4296 1502.4872 1504.7032 1506.2168
1218.3856 1218.2825 1218.2556 1218.4204 1218.5253 1218.5388 1218.8696 1219.3008 1220.9596 1221.9084 1222.1864 1222.368 1222.8596 1223.654 1224.3612 1224.6708 1225.2249 1225.9696 1227.1388 1228.114 1228.6768 1229.228 1229.7152 1230.188 1231.136 1231.884 1233.1132 1233.958 1234.2032 1234.5023 1235.1084 1235.7772 1236.5752 1237.5272 1238.4436 1238.8691 1239.6792 1240.6096 1241.2795 1241.8556 1242.808 1243.9128 1245.1368 1246.216 1246.6956 1247.2588 1247.8892 1248.0236 1248.698 1249.3796 1249.984 1250.644 1251.6708 1252.4141 1252.872 1253.3503 1254.0608 1254.7272 1255.6407 1256.6432 1257.4028 1257.8972 1258.3735 1258.772 1259.4368 1260.1744 1261.018 1262.0236 1263.1232 1264.0297 1264.4213 1264.874 1265.3696 1266.3824 1267.91 1269.1572 1269.892 1269.7336 1269.902 1270.5724 1271.7172 1272.7212 1273.674 1274.45 1275.346 1276.2365 1277.1292 1278.074 1279.12 1279.7968 1281.0236 1281.7365 1281.866 1282.4364 1283.1272 1283.7104 1284.3788 1284.7964 1285.318 1286.0116 1286.9492 1287.67 1288.776 1290.1177 1291.6896 1292.7848 1293.7493 1294.8148 1296.1952 1296.7432 1296.152 1296.18 1296.5156 1296.7604 1297.0079 1297.2576 1297.9916 1299.0004 1300.04 1300.9456 1302.2888 1303.3784 1303.0344 1302.4504 1302.884 1303.3503 1303.3765 1303.478 1302.9229 1301.9412 1302.234 1303.6827 1305.3236 1305.4083 1305.6824 1306.1672 1307.1584 1308.1976 1308.8436 1309.4948 1310.0864 1310.6929 1311.318 1311.7244 1312.0444 1312.2692 1312.9285 1313.9908 1315.2712 1316.3392 1317.2551 1317.8584 1317.948 1318.08 1318.4589 1318.5508 1318.6147 1318.7852 1319.146 1319.6516 1320.1836 1320.8547 1321.6832 1322.4167 1323.3068 1324.0956 1324.7684 1325.4587 1326.106 1326.5332 1326.8953 1327.0728 1327.4136 1327.8096 1328.1324 1328.4724 1328.9689 1329.2344 1329.6508 1329.5172 1328.4176 1327.268 1326.2788 1326.0812 1326.2616 1327.144 1328.9368 1331.764 1334.1904 1336.1576 1339.7656 1342.6072 1344.2396 1345.5868 1347.2708 1349.05 1351.1624 1352.9536 1354.424 1355.756 1357.4615 1358.7087 1359.7448 1361.8488 1366.4824 1369.404 1371.9076 1373.8844 1375.5452 1377.0236 1378.41 1380.7036 1385.3925 1390.2421 1394.3591 1396.052 1396.6848 1398.0208 1399.9452 1404.9076 1409.4604 1413.6324 1416.1832 1417.4648 1419.0468 1420.806 1422.6971 1424.3148 1426.4844 1428.5452 1430.7196 1432.4972 1434.3907 1436.0197 1437.7216 1440.4545 1446.1768 1447.3881 1449.2048 1454.9689 1462.2452 1465.4644 1466.5984 1465.708 1474.0884 1472.4508 1465.4327 1466.3792 1467.2524 1471.0852 1470.1263 1468.1992 1465.788 1463.444 1460.7616 1467.8256 1479.9048 1479.1873 1478.3796 1478.5181 1486.022 1485.2628 1484.3619 1489.4756 1494.9152 1496.7024 1498.68 1498.8464 1498.4508 1498.7932 1498.1312 1497.7985 1498.84 1499.1152 1497.3721 1497.9257
1218.9984 1218.8104 1218.7117 1218.7004 1218.7924 1218.8812 1219.0392 1219.4752 1220.4052 1221.8884 1222.5144 1222.736 1222.814 1223.1204 1223.8405 1224.4156 1225.2952 1226.056 1226.9476 1227.8765 1228.472 1229.0632 1229.0624 1229.2535 1230.2792 1231.3104 1232.6252 1233.4573 1234.1536 1234.9152 1235.8844 1236.7084 1237.4976 1238.1425 1238.594 1238.8308 1239.5529 1240.4816 1241.1772 1241.8605 1242.7144 1243.4703 1244.7256 1245.5009 1245.9053 1246.382 1246.8308 1247.178 1248.4204 1249.4556 1250.2208 1250.8888 1251.8997 1252.9756 1253.7816 1254.116 1254.672 1255.3512 1256.3969 1257.3784 1258.0164 1258.578 1259.1641 1259.7272 1259.7456 1260.2192 1261.3572 1262.8076 1264.1272 1264.744 1265.3436 1265.8076 1266.4113 1267.104 1268.1716 1269.0044 1268.7104 1268.48 1269.1604 1270.3268 1271.6228 1272.6012 1273.5172 1274.2756 1275.2188 1276.1332 1277.0428 1278.2324 1279.492 1279.7751 1280.3524 1281.326 1281.4868 1281.8108 1282.6335 1283.0887 1283.5356 1284.0188 1284.9852 1286.0116 1287.1724 1288.0852 1289.1848 1290.2832 1291.2944 1292.1 1293.0701 1294.3164 1295.7456 1295.548 1295.0184 1295.4576 1295.7277 1296.0684 1296.5208 1296.8408 1297.8196 1298.8907 1299.5815 1300.9064 1302.0408 1302.2249 1301.8904 1301.4601 1302.0615 1302.2625 1302.4932 1302.7084 1302.118 1301.0645 1301.5388 1303.3348 1304.2692 1304.0931 1304.5896 1305.5864 1306.8256 1307.6088 1308.0548 1308.4884 1308.9528 1309.6328 1310.1028 1310.5204 1311.0717 1311.3444 1312.1196 1313.1948 1314.4504 1315.5007 1316.0792 1316.5833 1316.8848 1317.0952 1317.2676 1317.3997 1317.61 1317.7708 1318.1147 1318.51 1319.0092 1319.7635 1320.872 1321.6119 1322.4949 1323.0548 1323.478 1324.242 1324.9052 1325.5116 1325.9993 1326.228 1326.6632 1326.9872 1327.1564 1327.4963 1327.8488 1328.0216 1328.3925 1328.2653 1327.4624 1325.74 1324.574 1324.8853 1325.24 1325.5192 1327.7288 1329.2391 1330.6584 1333.4144 1337.7664 1340.52 1343.8516 1345.2723 1346.7491 1348.4148 1350.4624 1352.4504 1354.2928 1355.8728 1357.728 1358.884 1359.78 1360.8408 1365.0745 1369.2264 1371.9517 1374.002 1375.8444 1377.3212 1378.55 1380.1971 1384.0571 1388.1724 1392.5144 1394.1864 1395.192 1397.4241 1399.0228 1403.5292 1408.69 1412.6093 1415.8881 1417.3376 1418.7156 1420.1868 1421.9052 1423.3052 1425.2797 1427.8156 1429.6716 1431.2924 1432.8948 1434.4677 1435.408 1436.6816 1439.9736 1435.4888 1437.8424 1451.5936 1453.6876 1453.7133 1454.94 1453.2368 1456.186 1458.0364 1456.5288 1455.1968 1456.6595 1459.5804 1461.4944 1461.6392 1457.9368 1452.0968 1451.7089 1453.8768 1466.2712 1470.5905 1468.5476 1470.1292 1473.0156 1473.5557 1476.3252 1480.9204 1490.0664 1493.9127 1494.3944 1494.5833 1494.562 1495.058 1494.86 1494.7352 1493.0936 1493.348 1493.0905 1494.7352
1218.7368 1219.1567 1219.1984 1218.944 1218.9684 1219.2548 1219.4996 1219.8644 1220.1688 1221.248 1222.4812 1223.0076 1223.4183 1223.3809 1223.6356 1224.1644 1225.0297 1225.7488 1226.5311 1227.416 1227.9252 1228.1724 1228.3271 1229.072 1230.2261 1231.0964 1232.1956 1232.89 1233.408 1234.0944 1235.456 1236.4856 1237.1956 1237.8508 1238.322 1238.7084 1239.3531 1240.042 1240.8173 1241.5251 1242.2347 1242.9164 1244.1768 1244.9984 1245.6964 1246.4276 1246.9856 1247.6144 1248.6472 1249.3616 1249.908 1250.5376 1251.3716 1252.262 1253.0276 1253.7347 1254.5232 1254.8992 1256.0936 1257.2664 1257.7988 1258.082 1258.8665 1259.5144 1259.454 1259.99 1261.4677 1262.6683 1263.6 1264.4 1265.3868 1265.9875 1266.7504 1267.2272 1267.5624 1267.656 1267.2152 1267.6312 1268.8704 1270.3152 1271.6504 1272.5312 1273.2688 1273.972 1274.9264 1275.84 1276.7932 1277.87 1278.7856 1278.9937 1279.062 1279.494 1280.23 1280.9572 1281.9744 1282.448 1282.9211 1283.826 1285.214 1286.2579 1287.2725 1287.9916 1288.8416 1289.5704 1290.46 1291.316 1292.4612 1293.8923 1295.1292 1294.5164 1294.4056 1294.6472 1294.7788 1295.3076 1295.9268 1296.5884 1297.5392 1298.1335 1299.2697 1300.7856 1301.448 1301.0632 1300.7728 1300.6816 1301.2744 1300.9528 1301.0668 1301.3756 1300.8916 1300.0364 1301.1824 1302.8129 1303.2212 1303.1908 1304.1228 1305.1437 1306.1508 1306.846 1307.2437 1307.4283 1307.838 1308.6523 1309.4448 1310.0264 1310.5009 1310.7656 1311.3636 1312.3748 1313.6248 1314.5928 1315.1904 1315.6855 1315.8895 1316.0009 1316.1324 1316.2612 1316.4336 1316.6392 1317.1044 1317.4476 1318.074 1318.9731 1320.0752 1320.7664 1321.572 1321.9568 1322.278 1322.9668 1323.5768 1324.1024 1324.6592 1325.0024 1325.5511 1326.1176 1326.5844 1326.7284 1326.8083 1327.0516 1327.3052 1326.7844 1325.7128 1323.9592 1323.0844 1323.4677 1323.8964 1323.5084 1325.2332 1327.242 1329.1307 1331.4172 1335.4644 1338.5732 1342.14 1345.0936 1346.5692 1348.1996 1350.1992 1352.156 1354.2732 1355.8508 1357.3884 1358.6948 1360.0176 1361.0344 1362.8176 1368.2303 1372.0009 1374.1056 1375.9772 1377.39 1378.8436 1380.4236 1382.9752 1385.4304 1389.3004 1390.5483 1392.5128 1396.6064 1399.1112 1401.756 1407.2048 1410.4905 1414.7332 1417.154 1418.3352 1419.372 1421.0804 1422.5188 1423.9336 1426.8896 1428.7488 1429.9113 1430.3948 1430.0564 1429.248 1426.6888 1421.8352 1419.288 1419.0787 1429.7277 1438.9088 1440.4705 1440.2108 1442.8333 1448.9283 1451.2556 1451.5956 1450.7164 1450.3071 1452.2264 1450.732 1449.316 1444.3828 1445.3036 1445.8188 1447.2092 1451.562 1452.5627 1452.9944 1456.7303 1460.444 1462.9672 1467.916 1472.5016 1482.526 1488.4373 1484.6168 1487.3728 1484.9968 1484.4816 1488.5172 1488.0172 1484.29 1482.666 1485.7476 1490.7676
1217.5392 1218.212 1218.8416 1218.88 1219.0908 1219.694 1220.2205 1220.4236 1220.364 1220.4784 1221.482 1222.1252 1223.4888 1223.6288 1223.9229 1224.3108 1224.8088 1225.3392 1226.0887 1226.7177 1227.0195 1227.2988 1227.8352 1228.7096 1230.0052 1231.0692 1231.9276 1232.526 1233.0223 1233.7664 1235.0048 1235.8936 1236.6876 1237.4452 1238.1636 1238.8796 1239.3844 1239.718 1240.3684 1241.046 1241.694 1242.3452 1243.3704 1244.4417 1245.702 1246.7996 1247.592 1248.3152 1249.1407 1249.6569 1250.1056 1250.6152 1251.3044 1251.8972 1252.3276 1252.9084 1253.6128 1254.1088 1255.0961 1256.1776 1256.834 1257.3588 1258.0887 1258.828 1259.3452 1260.0109 1261.1757 1262.2324 1262.8751 1263.4528 1264.418 1265.214 1266.0176 1266.6191 1266.584 1266.0792 1266.2927 1267.5728 1268.8984 1270.2632 1271.1488 1271.7672 1272.6 1273.4888 1274.6168 1275.4888 1276.2909 1277.1036 1277.6855 1277.8552 1278.0756 1278.514 1279.3484 1280.3619 1281.4775 1282.1864 1283.1516 1284.2996 1285.3868 1286.0372 1286.7404 1287.4468 1288.3584 1289.0968 1289.976 1290.856 1292.0564 1293.4893 1293.8484 1293.482 1293.5576 1293.6216 1293.8763 1294.562 1295.3652 1296.2347 1296.9568 1297.5304 1299.1688 1300.536 1301.3944 1300.9968 1300.1423 1299.8784 1300.024 1299.4752 1299.7708 1300.1212 1299.666 1299.2876 1300.7312 1301.8303 1302.2068 1302.5859 1303.6604 1304.7452 1305.5652 1306.0876 1306.4269 1306.6244 1306.8684 1307.71 1308.6376 1309.1888 1309.6512 1310.0392 1310.6868 1311.6996 1312.9152 1313.8064 1314.4672 1314.7384 1314.8737 1314.9944 1315.1309 1315.186 1315.2944 1315.5192 1316.1708 1316.7043 1317.4404 1318.3284 1319.184 1319.824 1320.4833 1320.7753 1321.1165 1321.7604 1322.312 1322.8536 1323.5457 1324.0297 1324.6608 1325.2465 1325.6204 1325.7228 1325.7844 1326.0724 1326.3372 1325.634 1324.2432 1322.9473 1322.0212 1321.8765 1322.1036 1322.3716 1323.75 1325.5428 1327.838 1330.094 1333.298 1336.2804 1341.076 1345.0135 1346.582 1348.0076 1350.0968 1351.9208 1353.9963 1355.4652 1356.9443 1358.5068 1360.216 1361.3256 1362.5864 1366.82 1372.384 1374.2312 1376.0708 1377.5717 1379.3556 1381.0732 1382.9487 1383.9928 1386.886 1389.1932 1390.8433 1394.6056 1399.2697 1402.1655 1407.032 1409.4696 1412.55 1416.1244 1417.6664 1418.7688 1420.0812 1421.3164 1422.264 1425.9865 1428.0192 1428.4023 1428.5156 1422.7725 1421.6785 1418.5688 1412.7896 1409.172 1410.0852 1414.4796 1417.8672 1420.1296 1423.5812 1429.1908 1435.2052 1439.1469 1443.194 1442.6156 1438.8352 1436.2249 1434.388 1433.7528 1435.0364 1437.6788 1440.1116 1442.2748 1445.3636 1447.2972 1448.224 1449.88 1451.676 1453.7 1457.1727 1459.536 1459.9427 1462.1548 1466.1528 1473.6112 1475.2592 1474.0752 1473.2219 1474.3284 1474.4812 1475.8604 1478.57 1485.8124
1217.238 1217.5972 1217.8331 1218.1044 1218.448 1219.2161 1220.1848 1220.64 1220.7496 1220.7312 1220.7565 1221.1852 1222.0184 1223.1193 1223.8907 1224.5092 1225.028 1225.4536 1225.944 1226.4008 1226.8328 1227.1504 1227.506 1227.95 1229.3352 1230.7744 1231.414 1231.8772 1232.5288 1233.472 1234.5916 1235.3276 1236.3212 1237.2115 1238.0088 1238.9136 1239.5148 1239.6396 1240.066 1240.8204 1241.438 1241.954 1242.844 1244.028 1245.4216 1246.6407 1247.6868 1248.5884 1249.3008 1249.7664 1250.1191 1250.5992 1251.1588 1251.566 1251.6172 1251.8396 1252.5336 1253.2823 1254.1444 1254.9124 1255.5872 1256.3951 1257.3052 1258.3988 1259.2124 1259.906 1260.534 1261.1868 1261.6927 1262.1168 1263.122 1264.1836 1265.1096 1265.484 1265.0332 1264.5571 1266.0208 1267.5457 1268.6425 1269.3728 1269.942 1270.7092 1271.8528 1272.8073 1273.9615 1274.8312 1275.4016 1276.0583 1276.682 1276.9164 1277.4016 1278.3296 1279.4408 1280.2704 1281.4268 1282.4141 1283.4396 1284.2932 1285.0232 1285.6736 1286.3336 1287.132 1288.158 1288.8348 1289.6328 1290.6855 1291.8376 1292.324 1292.3188 1292.3157 1292.2 1292.3912 1292.9688 1293.9808 1295.1172 1295.866 1295.9285 1296.3923 1298.788 1300.5583 1301.6136 1301.5209 1300.2936 1298.8312 1298.1592 1297.956 1298.3108 1298.3268 1298.0392 1298.6752 1300.1556 1301.062 1301.434 1302.054 1303.004 1304.1464 1304.8044 1305.026 1305.2811 1305.6044 1306.0596 1306.814 1307.7653 1308.3027 1308.638 1309.2332 1310.0845 1311.0132 1312.254 1313.1412 1313.804 1313.8488 1313.826 1313.9508 1314.0316 1314.0068 1314.0212 1314.2924 1315.0128 1315.74 1316.6492 1317.6212 1318.3296 1318.7537 1319.1248 1319.5288 1320.0156 1320.4204 1320.8744 1321.5696 1322.4636 1323.066 1323.7017 1324.0928 1324.4048 1324.5664 1324.5112 1324.7576 1324.9208 1324.4128 1323.1056 1321.9392 1320.9808 1320.5376 1320.7144 1321.7128 1322.8245 1324.354 1326.7396 1328.9348 1331.49 1334.47 1338.8032 1344.308 1346.6772 1348.0956 1349.9244 1351.4716 1353.4432 1355.088 1356.6316 1358.2028 1359.8116 1360.8389 1362.1616 1366.548 1371.8032 1374.1288 1375.7404 1377.5636 1379.576 1381.2104 1382.6976 1383.9167 1385.782 1387.9445 1389.9028 1392.7452 1398.7288 1401.7792 1407.342 1410.3708 1412.0604 1414.346 1416.7516 1418.2356 1419.3208 1419.9016 1420.328 1422.6816 1423.5209 1420.0056 1413.9044 1407.2292 1405.2404 1403.6812 1402.0367 1402.7664 1405.31 1410.098 1411.6028 1413.1212 1414.612 1416.852 1419.8828 1423.1492 1426.1744 1427.6448 1426.3201 1427.824 1428.9283 1430.5564 1432.4988 1434.294 1436.3508 1438.29 1440.35 1442.3788 1444.2012 1444.9772 1446.9355 1449.0604 1451.2804 1453.0044 1455.066 1456.6492 1459.5225 1462.7872 1465.282 1466.2684 1467.8696 1470.2152 1472.5352 1474.6688 1476.672 1478.2288
1217.2876 1217.562 1217.77 1217.9564 1218.1672 1218.7032 1219.712 1220.6184 1220.9672 1221.2112 1221.3828 1221.6356 1221.9424 1222.2913 1223.1348 1223.8605 1224.3568 1224.8608 1225.5743 1226.1272 1226.8359 1227.2288 1227.6348 1227.9076 1228.5496 1230.0944 1230.994 1231.47 1232.4512 1233.3129 1234.0933 1234.8212 1235.6852 1236.5596 1237.608 1238.4615 1238.9884 1239.1516 1239.5988 1240.4508 1241.1068 1241.746 1242.6208 1243.7375 1245.0696 1246.2968 1247.3492 1248.1613 1248.8721 1249.2896 1249.4833 1249.8192 1250.2076 1250.5364 1250.7124 1250.9956 1251.8944 1252.8016 1253.622 1254.2252 1254.7231 1255.2753 1256.21 1257.2972 1258.162 1259.0107 1259.754 1260.3604 1260.984 1261.336 1262.1796 1263.2988 1263.9104 1264.0048 1263.586 1264.142 1266.0048 1267.3008 1267.8112 1268.1848 1268.9948 1270.2196 1271.5024 1272.252 1273.0232 1273.9648 1274.616 1275.2152 1275.9373 1276.5123 1277.3696 1278.4255 1279.5352 1280.352 1281.2916 1282.2885 1283.2028 1283.8644 1284.4448 1285.132 1286.0696 1286.9384 1287.8572 1288.4972 1289.4183 1290.644 1291.4088 1291.3608 1291.6804 1291.1924 1290.8512 1291.5016 1292.4904 1293.7776 1294.8076 1295.0332 1294.502 1295.1132 1297.2928 1298.908 1300.2784 1300.5872 1299.8616 1297.9176 1296.6848 1296.6512 1296.8468 1296.7268 1296.9752 1297.9568 1299.3572 1300.382 1300.7133 1301.4596 1302.3528 1303.1544 1303.5996 1303.7972 1304.0684 1304.4427 1305.1469 1306.042 1307.146 1307.7476 1307.9213 1308.7452 1309.6252 1310.41 1311.5156 1312.3148 1313.056 1313.1504 1312.9844 1313.13 1313.2428 1313.0771 1313.0164 1313.382 1314.2808 1315.0992 1316.0356 1316.886 1317.4167 1317.6744 1317.9576 1318.4448 1318.9644 1319.3468 1319.7328 1320.3848 1321.4028 1322.082 1322.8032 1323.2856 1323.5295 1323.456 1323.2808 1323.5367 1323.5599 1322.8888 1321.7152 1320.6976 1319.724 1319.436 1319.9696 1321.016 1322.0676 1323.49 1325.8036 1327.8644 1330.1653 1333.4188 1338.26 1342.4224 1346.2844 1348.0084 1349.8252 1351.1052 1352.684 1354.6232 1356.1492 1357.5028 1359.0323 1360.0964 1361.236 1364.5472 1369.8984 1373.7456 1375.3556 1377.038 1379.0024 1380.5184 1381.4664 1382.7336 1385.3563 1387.0596 1388.686 1391.0388 1397.2336 1399.2504 1405.6156 1410.6252 1412.61 1414.1309 1416.162 1417.5228 1418.204 1418.3433 1418.2697 1417.7256 1415.4401 1411.9888 1405.0084 1398.8676 1397.4156 1397.6932 1398.6144 1400.536 1402.682 1405.1788 1408.1764 1410.2228 1412.6128 1414.496 1417.1996 1419.322 1421.068 1422.9064 1424.1873 1425.1425 1426.6364 1428.3635 1429.974 1431.4733 1433.2444 1434.8492 1436.6108 1438.7324 1440.4252 1442.0251 1444.5092 1447.13 1449.5244 1452.2212 1454.718 1456.5348 1458.976 1461.6696 1463.6404 1465.358 1467.6873 1469.9432 1472.4584 1474.5376 1476.3744 1477.9248
1217.438 1217.5397 1217.7208 1217.944 1218.054 1218.3188 1218.9636 1220.1212 1221.2723 1221.5364 1221.7653 1222.0332 1222.49 1222.5715 1222.7924 1223.0828 1223.234 1223.5972 1224.0192 1224.3984 1225.7203 1226.8748 1227.6996 1227.9956 1228.2192 1228.6312 1229.7112 1230.8928 1232.0964 1233.0492 1233.9232 1234.5936 1235.0948 1235.838 1236.9784 1237.7144 1238.1152 1238.3904 1238.9376 1239.6943 1240.5112 1241.4104 1242.2388 1243.0773 1244.1971 1245.466 1246.35 1246.8236 1247.4636 1248.0748 1248.4373 1248.5859 1248.7883 1248.9749 1249.3832 1249.9984 1251.0032 1252.0137 1252.8152 1253.4912 1254.1307 1254.7164 1255.5833 1256.2528 1257.0328 1257.9928 1258.9092 1259.5732 1260.448 1261.0792 1261.9612 1263.1444 1262.7576 1262.2448 1262.3448 1264.1896 1265.9652 1266.626 1266.7104 1267.46 1268.6036 1269.858 1271.0192 1271.5808 1271.9548 1272.738 1273.676 1274.5496 1275.5428 1276.462 1277.4048 1278.392 1279.2344 1279.8375 1280.6028 1281.6156 1282.4744 1283.1193 1283.8552 1284.6064 1285.662 1286.5292 1287.2792 1287.98 1289.05 1290.3428 1290.624 1290.5 1290.672 1289.9072 1289.8228 1290.6924 1292.2544 1293.5615 1294.0668 1293.9156 1293.6724 1294.2692 1295.7516 1297.2349 1298.5896 1299.216 1298.9448 1297.3951 1296.3317 1295.5643 1295.5312 1295.424 1296.1068 1297.0476 1298.2792 1299.1456 1299.4492 1300.298 1301.3508 1301.8484 1302.0728 1302.3969 1302.958 1303.6523 1304.2916 1305.114 1306.0128 1306.652 1307.1184 1307.9601 1308.7152 1309.5288 1310.4832 1311.1031 1311.7516 1312.0571 1312.0624 1312.1688 1312.184 1311.9097 1312.0824 1312.7776 1313.7781 1314.6572 1315.3864 1315.7992 1316.0789 1316.3436 1316.7552 1317.2096 1317.7876 1318.1924 1318.6744 1319.5288 1320.406 1321.0197 1321.6812 1322.2036 1322.2164 1321.9749 1321.964 1322.4008 1322.2823 1321.5176 1320.4761 1319.6729 1318.8112 1318.6008 1319.4568 1320.428 1321.554 1322.75 1324.7864 1326.936 1329.78 1333.1407 1337.35 1341.3724 1345.818 1347.6852 1349.5464 1351.0352 1352.2928 1353.8368 1356.0348 1356.8403 1358.562 1359.546 1360.8096 1362.484 1367.7412 1372.4244 1375.0496 1376.3768 1377.8528 1378.424 1379.054 1380.8092 1383.6744 1386.3928 1388.2172 1390.2228 1393.8876 1398.5396 1403.556 1410.044 1412.5876 1413.8876 1415.4564 1416.1989 1416.2092 1416.3556 1416.556 1413.1488 1410.0428 1402.8684 1393.1984 1391.9304 1393.428 1394.9208 1396.7565 1398.9716 1401.0684 1403.5372 1406.6752 1408.868 1411.146 1412.7372 1414.8536 1416.7632 1418.6364 1420.1091 1421.8868 1423.3157 1424.926 1426.7356 1428.7695 1430.5225 1432.226 1433.9092 1436.0056 1438.332 1440.8348 1443.4244 1445.2156 1447.2484 1449.966 1452.982 1454.8276 1456.686 1459.8243 1462.814 1464.7312 1466.7792 1468.8984 1470.444 1472.596 1474.3057 1476.498 1478.6204
1217.3995 1217.554 1217.8184 1218.0209 1218.078 1218.1924 1218.5396 1219.6508 1221.6772 1221.8756 1222.0555 1222.2916 1222.6628 1222.7651 1222.8772 1223.0555 1223.21 1223.3716 1223.524 1223.7288 1224.0251 1225.4517 1226.994 1227.786 1228.2377 1228.4352 1228.76 1230.1384 1231.6996 1232.6971 1233.6312 1234.1481 1234.6732 1235.3988 1236.2936 1236.8904 1237.3696 1237.7391 1238.2904 1239.228 1240.0592 1240.7616 1241.47 1242.366 1243.446 1244.366 1245.1764 1245.6484 1246.1316 1246.794 1247.3148 1247.398 1247.5659 1247.7556 1248.5728 1249.3448 1250.1112 1250.944 1251.7856 1252.5048 1253.4908 1254.5564 1255.4672 1255.964 1256.5608 1257.3593 1258.2748 1259.1644 1260.132 1260.88 1261.8748 1262.5107 1261.7856 1261.2552 1262.204 1264.22 1265.1868 1265.3228 1265.9464 1267.088 1268.3619 1269.5284 1270.4376 1270.772 1270.9988 1271.5485 1272.9584 1274.2336 1275.5764 1276.6525 1277.3424 1278.1232 1278.5616 1278.9712 1279.794 1280.81 1281.752 1282.5455 1283.5079 1284.4257 1285.4836 1286.3428 1287.0153 1287.3544 1288.2532 1289.6676 1289.568 1289.7191 1289.6248 1289.0792 1289.202 1289.9628 1291.9656 1293.1736 1293.346 1292.8828 1292.7588 1293.65 1294.6932 1295.9988 1297.4631 1297.9408 1297.9768 1297.0256 1295.6924 1294.7365 1294.636 1294.4952 1295.1692 1296.1467 1297.468 1298.0992 1298.2972 1299.1844 1300.1973 1300.5764 1300.9048 1301.4064 1302.3396 1303.354 1303.9756 1304.3628 1304.7408 1305.4232 1306.2256 1306.9984 1307.7096 1308.5648 1309.468 1310.1104 1310.5596 1310.8444 1310.9849 1311.0752 1311.0432 1310.9672 1311.376 1312.2552 1313.27 1314.1348 1314.5448 1314.5896 1314.7388 1315.0947 1315.6576 1316.3345 1316.8972 1317.1469 1317.716 1318.612 1319.4764 1320.2068 1320.8164 1321.2012 1321.178 1320.9012 1320.9728 1321.5728 1321.5176 1320.732 1319.7736 1319.0328 1318.2087 1318.1072 1319.0856 1319.7496 1320.6613 1321.718 1323.6168 1326.0385 1328.936 1332.8424 1335.2852 1339.2756 1344.49 1347.5476 1349.188 1350.6816 1351.8176 1352.9744 1355.8884 1356.7452 1358.09 1359.3716 1360.6256 1361.7368 1365.0308 1370.2452 1374.5056 1375.804 1376.1992 1375.7897 1376.7108 1378.9636 1381.9744 1385.5088 1388.2788 1389.758 1392.0692 1396.5468 1401.428 1407.5527 1411.9076 1413.2556 1414.414 1414.718 1414.286 1413.8452 1412.1688 1405.2607 1399.7115 1392.0844 1389.3864 1390.8129 1392.3472 1393.7776 1395.77 1398.3004 1399.9772 1402.2668 1405.2161 1407.7784 1409.9556 1411.5276 1413.3256 1415.192 1417.2612 1418.8684 1420.8044 1422.4747 1424.262 1426.3853 1428.5272 1430.4768 1432.8588 1434.726 1437.3776 1439.9167 1444.2604 1446.2275 1447.1404 1448.8403 1451.5012 1453.5348 1455.5044 1457.686 1460.5548 1463.4196 1466.0344 1468.4456 1470.3536 1471.5728 1473.5552 1475.5912 1477.934 1479.5668
1217.43 1217.8156 1218.0204 1218.0715 1218.1364 1218.242 1218.3928 1218.8032 1220.7839 1221.9128 1222.2236 1222.374 1222.672 1222.8872 1223.0583 1223.244 1223.4492 1223.6309 1223.8484 1223.97 1223.8619 1224.1996 1225.2623 1226.5488 1227.8936 1228.488 1228.7124 1229.1188 1230.58 1231.9752 1232.8345 1233.1752 1233.998 1234.9852 1235.4796 1235.878 1236.4979 1236.9949 1237.8136 1238.7048 1239.3173 1240.0717 1241.0796 1241.5564 1242.2885 1243.1484 1243.96 1244.7256 1245.3264 1245.784 1246.2196 1246.6683 1247.1276 1247.5316 1248.3405 1248.9468 1249.322 1249.8956 1250.8636 1251.8092 1253.03 1254.1412 1254.8424 1255.3593 1256.094 1257.0132 1257.9288 1258.8696 1259.802 1260.7308 1261.7463 1261.5887 1260.7604 1260.774 1262.0452 1263.4692 1263.9644 1264.3892 1265.756 1266.9728 1267.878 1268.8308 1269.722 1270.062 1270.4432 1271.4664 1273.2784 1274.4464 1275.4589 1276.3492 1276.7867 1277.1012 1277.5892 1278.1381 1279.0787 1280.1132 1281.26 1282.2576 1283.294 1284.2844 1285.2305 1285.916 1286.3068 1286.4749 1287.3287 1288.5032 1288.7177 1288.9176 1288.2876 1288.094 1288.2941 1289.4004 1291.2628 1292.2012 1291.8916 1291.51 1291.9244 1293.3171 1293.9937 1294.328 1295.426 1296.0652 1296.8157 1296.8276 1295.5128 1294.1392 1293.5831 1293.6608 1294.4752 1295.5856 1296.9392 1297.2544 1297.2908 1298.2716 1299.0583 1299.504 1299.9976 1300.4872 1301.5724 1302.5692 1303.3055 1303.3168 1303.7936 1304.2983 1305.1376 1305.848 1306.4832 1307.2096 1308.2028 1309.0916 1309.6508 1309.7748 1309.7876 1309.6372 1309.7388 1310.102 1310.7612 1311.6971 1312.6124 1313.0715 1313.2372 1313.3157 1313.5529 1313.9417 1314.7043 1315.4852 1316.0872 1316.3928 1316.8292 1317.462 1318.3519 1319.2375 1319.9708 1320.2588 1320.316 1320.2 1320.104 1320.5504 1320.5499 1319.8524 1318.986 1318.234 1317.2828 1317.1156 1318.1093 1318.7156 1319.2932 1320.1044 1321.8016 1324.5608 1326.5021 1329.7739 1332.2365 1336.762 1341.0552 1346.5776 1348.8304 1350.0848 1351.3564 1352.2509 1354.4545 1355.6736 1356.8156 1358.8508 1359.854 1360.91 1363.3164 1367.4692 1372.8052 1374.61 1373.9128 1372.6456 1373.894 1374.2876 1375.9668 1376.7188 1378.0116 1386.7532 1390.956 1393.3552 1399.3636 1402.7236 1408.9132 1412.5348 1413.6168 1413.0664 1411.5367 1409.056 1401.6539 1388.818 1385.3192 1386.7184 1388.436 1389.9952 1391.7592 1393.4633 1395.4816 1397.5608 1400.5327 1403.5728 1405.4344 1407.7224 1409.8716 1411.3964 1413.1488 1415.0328 1416.8224 1418.656 1420.65 1422.5804 1424.82 1427.2736 1430.4752 1433.4584 1435.7816 1437.356 1440.1917 1444.3412 1446.566 1448.31 1449.7684 1451.3684 1453.8312 1455.34 1457.5903 1459.98 1462.0172 1464.6381 1468.1328 1470.6688 1472.1704 1473.464 1475.7404 1477.3108 1479.1188 1480.558
1217.73 1218.0244 1218.038 1218.0956 1218.226 1218.2964 1218.3431 1218.5295 1219.3928 1220.5135 1221.6404 1222.37 1222.7552 1222.9688 1223.0936 1223.2264 1223.5323 1223.7556 1223.9893 1224.282 1224.3268 1224.2277 1224.4088 1225.0808 1226.4216 1227.7744 1228.8068 1229.018 1229.5208 1230.8647 1231.7384 1232.3208 1233.554 1234.3157 1234.5332 1235.0244 1235.7117 1236.41 1237.308 1237.8728 1238.4373 1239.3052 1240.1332 1240.3236 1240.8716 1242.0404 1242.9336 1243.48 1244.1008 1244.5504 1244.9229 1246.0404 1246.7964 1247.2068 1247.7052 1248.0204 1248.3372 1249.0916 1250.258 1251.4436 1252.4772 1253.4684 1254.0128 1254.7456 1255.8477 1256.8612 1257.6624 1258.4128 1259.374 1260.3907 1261.0768 1260.4712 1259.9188 1260.478 1261.8724 1262.7667 1262.9628 1263.9875 1265.5848 1266.632 1267.4724 1268.278 1269.0372 1269.7723 1270.8656 1272.228 1273.6512 1274.4016 1275.0044 1275.6165 1275.6971 1275.9556 1276.866 1277.7844 1278.922 1279.974 1281.1384 1282.0688 1283.0492 1284.0396 1284.764 1285.1472 1285.4197 1285.818 1286.8881 1287.7056 1288.192 1288.2897 1287.4316 1287.03 1287.1987 1288.8396 1290.6917 1291.438 1291.0756 1290.71 1291.6523 1292.6132 1292.992 1293.0192 1293.4604 1294.3013 1295.6748 1295.9572 1294.9624 1293.632 1293.0288 1293.1752 1293.9056 1294.9937 1296.3008 1296.3312 1296.474 1297.418 1298.1608 1298.512 1298.7465 1299.3976 1300.402 1301.2676 1302.0513 1302.3776 1303.0504 1303.4448 1304.1104 1304.8256 1305.4056 1306.068 1307.0773 1308.0028 1308.7532 1308.922 1308.9652 1308.7124 1308.75 1309.4412 1310.2932 1311.1812 1311.8052 1312.0004 1312.2124 1312.4508 1312.8073 1313.2697 1314.0037 1314.69 1315.2728 1315.604 1315.9348 1316.5339 1317.5592 1318.5984 1319.4612 1319.7476 1319.4656 1319.2552 1319.3816 1320.0135 1319.8085 1319.1476 1318.358 1317.5068 1316.2732 1315.8964 1316.7404 1317.4556 1318.066 1318.4788 1319.2704 1321.6824 1322.9908 1324.01 1326.8468 1331.4348 1334.8176 1342.4489 1348.0168 1349.6312 1351.1611 1352.1741 1353.5048 1354.724 1355.5452 1356.9355 1359.0588 1359.9164 1362.65 1365.022 1370.994 1373.6532 1372.1425 1369.9745 1368.9364 1367.5476 1364.3036 1364.4733 1363.2507 1367.914 1374.3616 1373.876 1376.906 1390.8708 1402.1892 1400.4716 1410.1089 1409.2688 1405.7528 1390.9921 1383.8516 1382.9564 1384.632 1386.3464 1388.1776 1389.7992 1392.0664 1394.3416 1396.4775 1398.72 1401.2681 1404.7704 1407.2336 1409.0048 1410.746 1412.1045 1413.7456 1415.4728 1417.348 1419.74 1421.8403 1423.6124 1426.132 1428.3744 1432.9216 1438.1304 1441.5 1443.0184 1446.6196 1449.086 1449.2548 1450.426 1451.782 1453.1644 1455.5704 1458.3896 1460.6136 1462.656 1464.8029 1468.0924 1470.4568 1472.3192 1473.9296 1475.3352 1477.0796 1478.7236 1480.6683 1482.3636
1218.3029 1218.4652 1218.3884 1218.2332 1218.3173 1218.3788 1218.4856 1218.552 1218.6536 1218.9592 1219.622 1220.9884 1222.4008 1223.0 1223.2264 1223.4128 1223.7161 1223.9088 1224.1852 1224.4708 1224.6152 1224.5977 1224.4484 1224.4877 1224.9965 1226.1108 1228.02 1229.0736 1229.4227 1229.8812 1231.2856 1232.7352 1233.5676 1233.2635 1233.59 1234.3396 1235.146 1235.9844 1236.6407 1237.0696 1237.6049 1238.2216 1238.9236 1239.5908 1240.2236 1241.0427 1241.582 1241.802 1242.6084 1243.3324 1243.8271 1244.8048 1245.5135 1246.0376 1246.6989 1247.2572 1248.0708 1249.038 1250.2177 1251.1783 1251.9896 1253.0536 1253.8616 1254.5944 1255.6864 1256.6945 1257.384 1258.008 1259.1364 1260.1044 1260.3444 1259.4612 1259.0864 1260.0112 1261.4388 1262.334 1263.4996 1264.4364 1265.432 1266.1744 1267.11 1267.9893 1268.766 1269.7644 1271.1844 1272.514 1273.4852 1274.0356 1274.3296 1274.4688 1274.7421 1275.482 1276.4991 1277.5833 1278.8572 1280.002 1281.0316 1281.6836 1282.4928 1283.5208 1284.092 1284.2048 1284.4984 1285.2089 1286.4072 1287.0216 1287.2964 1287.326 1286.538 1286.294 1286.786 1288.226 1289.6655 1290.1888 1289.9636 1290.2108 1291.6544 1291.6952 1291.4872 1291.3704 1292.0063 1293.2336 1294.678 1294.9445 1294.1056 1293.0504 1292.5444 1292.7349 1293.308 1294.3104 1295.562 1295.4556 1295.6644 1296.302 1297.0112 1297.4696 1297.7484 1298.3997 1299.1941 1299.8531 1300.4556 1300.9796 1301.6392 1302.3192 1303.048 1303.7432 1304.3359 1305.0648 1306.1488 1306.9816 1307.7076 1307.9492 1308.1644 1308.238 1308.3076 1308.9156 1309.8408 1310.4984 1310.8296 1311.0952 1311.6084 1311.926 1312.0875 1312.7252 1313.2867 1313.7548 1314.1356 1314.3828 1314.78 1315.6288 1316.7408 1317.8568 1318.9204 1318.9036 1318.3315 1318.0524 1318.432 1319.1168 1318.838 1318.202 1317.7736 1316.928 1315.3832 1315.1072 1315.5048 1316.0552 1316.6544 1316.9336 1316.582 1317.0996 1319.6456 1320.636 1322.5896 1325.6448 1330.464 1333.4264 1343.314 1345.9749 1349.7552 1351.2688 1352.2448 1353.3145 1354.072 1355.276 1357.8452 1358.6469 1361.4016 1362.1047 1366.7352 1369.9241 1368.4473 1366.1656 1364.0135 1362.3872 1360.6556 1360.0068 1360.6372 1361.17 1362.1732 1363.1412 1364.7365 1368.6636 1377.4216 1376.5095 1381.108 1381.0616 1380.1796 1378.1484 1380.4008 1382.3344 1383.8584 1385.6704 1387.6804 1390.17 1393.1024 1395.6464 1398.2188 1400.7275 1403.2988 1407.9492 1410.2864 1411.2592 1412.7944 1413.916 1415.5012 1417.3403 1419.2896 1421.1448 1423.3124 1425.2924 1427.6804 1430.414 1437.464 1442.9392 1446.292 1448.8064 1451.0868 1451.9276 1452.07 1452.5348 1453.5833 1455.3823 1458.618 1461.5771 1464.392 1467.4952 1470.4156 1471.702 1472.8464 1474.4192 1476.0072 1477.3663 1478.8372 1481.1989 1483.1432 1484.4136
1218.63 1218.8148 1218.8907 1218.6908 1218.5627 1218.5732 1218.6191 1218.6216 1218.6353 1218.7584 1219.3468 1219.8364 1221.1337 1222.7856 1223.3208 1223.5616 1223.8224 1224.0728 1224.4084 1224.6572 1224.7216 1224.8032 1224.7628 1224.6885 1224.758 1225.3972 1226.8848 1228.4696 1229.5084 1229.6836 1230.5056 1231.9376 1232.2595 1232.1956 1232.9484 1233.9476 1234.9564 1235.6508 1236.0624 1236.4048 1236.9097 1237.704 1238.666 1239.6196 1240.3748 1240.8083 1241.2252 1241.5796 1242.3884 1243.1908 1244.0048 1244.6304 1244.9952 1245.6552 1246.4677 1247.4004 1248.3853 1249.1732 1250.36 1251.2712 1252.2424 1253.5977 1254.5592 1254.9896 1255.8593 1256.6064 1256.9904 1257.5297 1258.686 1259.4812 1259.2133 1258.7684 1259.3536 1260.2289 1261.338 1262.7756 1264.0771 1264.918 1265.4872 1266.052 1267.2108 1268.1252 1268.8052 1269.7491 1271.0884 1272.2324 1272.9229 1273.3564 1273.5736 1273.6168 1274.1917 1275.282 1276.444 1277.3823 1278.5844 1279.6268 1280.2836 1280.7565 1281.5664 1282.7144 1283.3408 1283.3145 1283.596 1284.5416 1285.7 1286.1783 1286.4612 1286.3308 1285.8301 1286.1636 1287.1924 1287.9332 1288.6992 1289.064 1289.186 1289.5996 1290.7231 1290.7272 1290.0656 1290.1472 1291.3071 1292.9456 1294.2468 1294.2156 1293.3984 1292.588 1291.9868 1292.0956 1292.6729 1293.6992 1294.8364 1294.4628 1294.5956 1295.2188 1295.9728 1296.5752 1297.038 1297.8732 1298.3763 1298.7524 1299.4396 1299.9828 1300.7064 1301.3256 1302.1088 1302.7784 1303.5272 1304.4048 1305.6128 1306.3256 1306.7948 1307.0444 1307.3364 1307.4468 1307.7732 1308.506 1309.2808 1309.6312 1309.9056 1310.376 1311.1989 1311.662 1311.6484 1312.126 1312.5323 1312.9252 1313.2252 1313.4675 1313.956 1314.7648 1316.0048 1317.2664 1318.2692 1318.0204 1317.4468 1317.3356 1317.5848 1317.8809 1317.6284 1317.1508 1316.7944 1316.0288 1314.692 1314.2976 1314.6176 1315.104 1315.62 1315.9232 1315.6628 1315.9355 1317.5583 1318.3584 1319.5887 1322.532 1327.364 1331.1664 1334.1892 1336.01 1343.3784 1346.5464 1346.5272 1349.592 1351.4232 1352.4431 1353.754 1355.306 1357.4296 1358.8287 1360.7784 1362.7944 1362.9775 1362.9136 1361.4896 1360.5 1358.1221 1357.2924 1357.9116 1358.8092 1360.1843 1362.0308 1363.9148 1365.61 1367.7568 1369.4624 1371.476 1373.564 1375.5323 1377.6836 1379.7472 1381.3928 1382.9088 1385.916 1389.8092 1392.4092 1394.8616 1397.1288 1400.6284 1402.6332 1406.186 1411.0236 1412.0743 1412.9368 1414.324 1415.6984 1417.2324 1419.1244 1421.7177 1423.2832 1424.9749 1426.654 1429.1108 1434.9227 1440.276 1447.14 1450.9232 1452.1864 1453.5532 1453.8531 1454.0404 1454.3564 1454.9991 1457.2256 1462.0756 1464.4316 1470.0304 1472.2856 1473.1788 1473.814 1474.9312 1476.0496 1477.3951 1478.6024 1480.4948 1483.7988 1485.296 1488.2144
1219.0844 1219.23 1219.2632 1219.1896 1219.2068 1219.13 1218.7972 1218.6476 1218.6945 1218.828 1219.372 1219.6304 1220.1031 1221.836 1223.2996 1223.6309 1223.892 1224.2928 1224.638 1224.966 1225.0056 1225.0616 1225.1031 1225.044 1225.0548 1225.1964 1225.838 1227.2781 1229.1924 1229.71 1229.9292 1230.7188 1231.2625 1232.0448 1233.2437 1234.0836 1234.45 1234.902 1235.3672 1235.8224 1236.3215 1237.156 1238.3712 1239.3928 1240.2076 1240.7948 1241.668 1242.3936 1243.044 1243.6656 1244.7635 1245.3596 1245.7544 1246.3696 1247.3164 1248.0717 1248.5632 1249.2913 1250.7496 1252.0288 1252.942 1253.974 1254.9661 1255.426 1255.8691 1255.9556 1256.0292 1256.6492 1258.0696 1258.4832 1258.3124 1259.2012 1260.25 1261.0492 1261.51 1262.4692 1263.8628 1265.0668 1265.3668 1265.8204 1267.0464 1267.8552 1268.5116 1269.3763 1270.5588 1271.406 1271.9464 1272.4264 1272.9052 1273.342 1274.1996 1275.37 1276.2832 1276.8464 1277.692 1278.4312 1279.06 1279.6376 1280.5544 1281.6616 1282.3136 1282.2192 1282.63 1283.7892 1284.9044 1285.2404 1285.0773 1284.6204 1284.8252 1285.8572 1286.9167 1287.3289 1287.8112 1288.1249 1288.4731 1288.986 1289.4283 1289.4445 1289.1588 1289.562 1291.2231 1292.6832 1293.5216 1293.2712 1292.644 1292.1592 1291.5532 1291.3932 1291.778 1292.9213 1294.0657 1293.8575 1293.7087 1294.1968 1294.77 1295.2275 1295.8289 1296.8096 1297.2284 1297.5323 1298.1075 1298.674 1299.5817 1300.3712 1301.1848 1301.9023 1302.7825 1303.7112 1304.7609 1305.468 1305.9471 1306.1744 1306.5028 1306.7916 1307.4216 1308.0527 1308.35 1308.5468 1309.0116 1309.7059 1310.4708 1310.9172 1311.0676 1311.3268 1311.7068 1312.1908 1312.516 1312.6704 1313.1084 1313.9812 1315.318 1316.5756 1317.48 1317.2056 1316.5413 1316.3461 1316.7104 1316.86 1316.4832 1316.1024 1315.5276 1314.7148 1313.9292 1313.5076 1313.7208 1314.2024 1314.6932 1314.9788 1314.9768 1315.4304 1316.7844 1316.8972 1317.542 1321.5228 1324.7688 1327.5728 1330.88 1333.9952 1336.1595 1339.1124 1339.6688 1340.8792 1347.4747 1348.914 1347.3552 1346.6351 1347.9652 1350.1876 1352.2795 1355.8812 1359.0164 1355.7748 1354.7772 1353.9891 1353.976 1354.7832 1356.0079 1357.5928 1359.6959 1362.168 1364.2261 1365.89 1367.9196 1369.846 1371.6512 1373.2904 1375.1292 1377.2076 1379.1648 1380.8936 1383.0724 1387.7596 1393.932 1396.1744 1398.1588 1400.434 1403.7732 1405.3412 1410.6764 1412.4116 1413.7308 1414.5356 1415.7651 1417.6244 1419.2064 1421.66 1424.5028 1425.602 1426.7115 1428.0468 1432.2916 1439.0636 1445.6744 1451.8048 1454.3988 1455.2653 1455.6917 1455.8484 1456.0977 1456.4329 1458.304 1460.9745 1465.6868 1469.0524 1471.5856 1473.9271 1474.97 1475.762 1476.5452 1477.6005 1479.6028 1481.6788 1484.5297 1486.3528 1488.832 1490.2128
1219.5444 1219.8004 1219.7528 1219.7625 1219.6732 1219.6556 1219.3644 1218.8884 1218.8984 1219.008 1219.4271 1219.6248 1219.8568 1220.8728 1222.6124 1223.8972 1224.2697 1224.5792 1224.83 1225.1036 1225.1857 1225.2864 1225.3464 1225.2792 1225.3029 1225.3724 1225.5989 1226.4148 1228.2244 1229.6508 1229.886 1230.17 1231.0488 1232.412 1233.342 1233.5787 1233.6917 1234.3068 1235.0312 1235.616 1236.1464 1236.8384 1237.848 1238.8184 1239.8691 1240.6084 1241.6263 1242.5104 1243.1952 1243.6952 1244.4692 1245.0573 1245.8712 1246.768 1247.3396 1247.5332 1248.0392 1249.1033 1250.5352 1251.7697 1252.9996 1254.0188 1254.5051 1254.7684 1254.8835 1255.0516 1255.6052 1256.5084 1257.5599 1257.444 1257.8333 1259.242 1260.5123 1261.3004 1261.8164 1262.9164 1264.3364 1265.262 1265.2563 1265.6364 1266.5223 1267.088 1267.6924 1268.594 1269.8196 1270.6588 1271.0424 1271.572 1272.6044 1273.6667 1274.602 1275.1052 1275.1472 1275.696 1276.8416 1277.5151 1278.2208 1278.8303 1279.6544 1280.7697 1281.4448 1280.9615 1281.634 1283.006 1284.3812 1284.4677 1283.7412 1283.6172 1284.1116 1285.2412 1285.9792 1286.2393 1286.784 1287.168 1287.6932 1288.366 1288.35 1288.1532 1288.3748 1289.0197 1290.8232 1292.024 1292.5112 1292.1456 1291.7888 1291.6544 1291.1012 1290.8708 1291.0028 1292.1683 1293.2896 1293.2161 1292.644 1293.1353 1293.6724 1294.1172 1294.6832 1295.5872 1296.0604 1296.3772 1296.9044 1297.5812 1298.5656 1299.5072 1300.4832 1301.3289 1302.2103 1303.0063 1303.7584 1304.288 1304.8264 1305.268 1305.8835 1306.3835 1306.9176 1307.2303 1307.2347 1307.3484 1307.8276 1308.6292 1309.3965 1309.8763 1310.126 1310.3691 1310.7628 1311.2244 1311.424 1311.6569 1312.194 1313.2524 1314.614 1315.7788 1316.5568 1316.3127 1315.7516 1315.4556 1315.9185 1315.9368 1315.4039 1315.0264 1314.5604 1313.9044 1313.034 1312.4812 1313.0264 1313.644 1313.9932 1314.1908 1314.1984 1314.2072 1314.974 1315.346 1315.8029 1318.8428 1322.6504 1324.368 1326.3127 1330.6792 1333.6764 1335.4868 1336.0376 1336.792 1341.854 1345.9731 1344.8304 1344.1648 1343.69 1344.1971 1345.2563 1347.4484 1349.6588 1348.398 1349.6364 1351.002 1352.4543 1353.8248 1355.8256 1357.7384 1359.7303 1362.196 1364.47 1366.542 1368.834 1370.6516 1372.0712 1373.5792 1375.3828 1377.3779 1379.7184 1381.9672 1384.1973 1388.134 1397.1704 1400.7344 1401.8004 1403.6628 1405.7043 1407.2644 1412.2172 1414.0084 1415.2148 1416.2115 1417.834 1419.9348 1421.8264 1424.7888 1426.7452 1427.6956 1428.6012 1430.6005 1435.686 1443.162 1451.7344 1454.788 1456.5948 1457.1685 1457.5668 1457.7491 1458.26 1460.4528 1463.0696 1466.7368 1469.93 1471.9852 1473.6248 1475.4592 1476.6292 1477.3444 1478.5404 1480.626 1485.1932 1487.9893 1489.2576 1490.8296 1492.8696 1493.396
1219.7999 1220.2872 1220.912 1220.828 1220.0251 1219.918 1219.7604 1219.4188 1219.326 1219.3684 1219.5585 1219.6656 1219.934 1220.5325 1221.2612 1223.2507 1223.9716 1224.3011 1224.788 1225.1216 1225.2867 1225.4148 1225.5408 1225.6024 1225.608 1225.5952 1225.6381 1225.9531 1227.1064 1229.0511 1229.9104 1230.0656 1230.6492 1231.6604 1232.2152 1232.8456 1233.5032 1234.2152 1235.1108 1235.7556 1236.3387 1236.9532 1237.6772 1238.3132 1239.3124 1240.046 1241.0164 1242.0372 1243.1448 1243.8784 1244.4208 1244.82 1245.4504 1245.928 1246.1335 1246.5192 1247.4036 1248.4924 1249.8752 1250.968 1252.15 1253.0876 1253.4724 1253.5876 1253.7692 1254.3765 1255.4396 1256.5267 1257.3907 1257.63 1258.2336 1259.2896 1260.7336 1261.7823 1262.696 1263.7584 1264.37 1264.874 1264.7697 1265.056 1265.582 1266.1539 1266.9828 1268.0404 1269.3016 1270.4504 1270.9427 1271.3389 1272.444 1273.6104 1274.234 1274.4355 1274.8575 1275.6769 1276.5088 1276.9224 1277.4244 1277.9556 1278.7064 1279.9856 1280.7472 1280.1952 1281.0181 1282.5197 1283.756 1283.0529 1282.396 1282.6288 1283.3708 1284.6636 1284.8436 1284.7876 1285.2644 1285.8884 1286.7375 1287.5184 1287.3732 1286.9733 1287.1836 1288.2972 1290.0712 1290.9296 1291.0543 1290.892 1290.962 1290.8844 1290.3192 1290.1504 1290.4528 1291.5352 1292.1652 1291.9564 1291.3531 1291.994 1292.7552 1293.2904 1293.8092 1294.5116 1294.9847 1295.276 1295.8684 1296.5836 1297.7836 1298.8907 1299.834 1300.7084 1301.4788 1302.1292 1302.5573 1302.7867 1303.2349 1304.0532 1305.1904 1305.7233 1305.9824 1306.0648 1306.0176 1306.0696 1306.4332 1307.4268 1308.3752 1308.8368 1309.1016 1309.3256 1309.6945 1309.8832 1310.1184 1310.524 1311.2732 1312.4972 1313.8864 1315.0424 1315.8577 1315.6328 1314.9576 1314.7192 1315.1104 1314.9344 1314.3456 1314.0208 1313.5496 1312.9304 1311.7872 1311.224 1312.376 1313.204 1313.3264 1313.6096 1313.8192 1313.6456 1313.8832 1314.2808 1315.068 1316.4688 1318.962 1320.6588 1322.3856 1323.928 1326.2288 1328.4448 1331.4364 1332.3405 1335.9703 1340.4248 1341.6237 1341.1284 1341.3864 1342.4624 1343.4852 1344.4868 1345.9169 1347.1664 1348.5256 1349.9032 1351.6008 1353.356 1355.7896 1357.7249 1360.2375 1363.8025 1366.532 1368.8593 1371.3936 1373.5295 1374.4528 1375.0992 1376.6592 1378.6144 1381.2948 1383.5107 1385.7493 1392.434 1401.3124 1404.454 1405.6768 1406.6992 1407.8232 1411.4104 1414.2512 1416.0255 1416.9731 1418.186 1420.7957 1423.47 1424.8436 1426.454 1428.0964 1429.4652 1430.4677 1433.2867 1439.8668 1448.5588 1453.7988 1455.75 1457.9316 1458.7756 1460.048 1460.7336 1462.274 1466.866 1470.2196 1472.4084 1474.1576 1474.8688 1475.8036 1477.054 1478.326 1479.866 1481.0876 1484.8732 1491.178 1494.0564 1495.044 1495.0704 1495.3704 1495.7344
1220.2792 1220.8448 1221.732 1221.2944 1220.2228 1219.9572 1219.9355 1219.9364 1219.9564 1219.7684 1219.7136 1219.712 1220.1196 1220.478 1220.642 1221.9677 1222.7347 1223.0868 1223.9512 1224.816 1225.438 1225.5771 1225.704 1225.8024 1225.8568 1225.836 1225.938 1225.9652 1226.4928 1228.0072 1229.3752 1230.0905 1230.3636 1231.1044 1232.1648 1233.3152 1234.16 1234.7424 1235.4324 1236.066 1236.6572 1237.3228 1238.2892 1239.1188 1239.5787 1240.1604 1241.3236 1242.4197 1243.4216 1244.2224 1244.4176 1244.3192 1244.4976 1244.8856 1245.4784 1246.2784 1247.2124 1248.1412 1249.3928 1250.4473 1251.5444 1252.1316 1252.5356 1252.8812 1253.2003 1253.9868 1255.3964 1256.5188 1257.446 1257.8916 1258.7888 1259.7056 1261.072 1262.1497 1262.7496 1263.2552 1263.6372 1263.9348 1264.2048 1264.9824 1266.0244 1266.6156 1267.466 1268.5604 1269.2303 1270.4496 1271.4596 1271.8556 1272.224 1272.8433 1273.3972 1273.986 1274.7776 1275.5184 1276.192 1276.4872 1276.8907 1277.2716 1278.0889 1279.5264 1280.096 1280.1056 1281.4004 1282.2556 1282.4312 1281.7856 1281.432 1282.0072 1283.1372 1284.334 1283.8284 1283.6012 1284.29 1285.0804 1286.0504 1286.7576 1286.4868 1285.8228 1286.0596 1287.4355 1288.908 1289.7488 1289.9543 1290.1904 1290.2491 1289.8549 1289.2856 1289.2048 1289.7736 1290.9056 1291.5076 1291.454 1290.794 1291.3132 1292.0673 1292.5608 1292.9468 1293.5499 1294.0032 1294.3984 1295.1395 1296.0004 1297.3044 1298.4644 1299.1971 1299.9948 1300.53 1300.9069 1301.3348 1301.7644 1302.4589 1303.3572 1304.4344 1304.9847 1305.1112 1304.9536 1304.8384 1305.0024 1305.6284 1306.7196 1307.7721 1308.2704 1308.3489 1308.3616 1308.6232 1308.8616 1309.0912 1309.7048 1310.6116 1311.858 1313.2393 1314.3217 1315.1888 1315.0024 1314.1848 1313.9672 1314.4408 1314.26 1313.676 1313.2808 1312.72 1312.016 1310.9728 1310.4976 1311.7872 1312.6616 1312.7888 1313.0529 1313.4344 1313.3184 1313.5536 1313.9928 1314.9656 1316.4944 1318.598 1320.0868 1322.1792 1324.4991 1326.4512 1328.0208 1329.9644 1331.654 1333.7648 1336.7856 1338.2036 1338.766 1339.9592 1341.2208 1342.5212 1343.6492 1345.0256 1346.376 1347.8872 1349.668 1351.4792 1353.4728 1355.7999 1357.5 1360.0815 1365.4224 1369.1193 1371.5248 1374.1016 1376.7032 1378.1912 1378.932 1379.9865 1381.156 1383.2124 1384.9227 1387.4404 1396.4708 1405.4764 1407.0228 1407.6873 1408.5448 1410.2015 1414.3936 1416.16 1417.8368 1418.8484 1421.3396 1424.0764 1425.7764 1426.6812 1427.7012 1429.2788 1430.8668 1432.818 1435.8068 1440.194 1446.8268 1454.0652 1455.706 1458.2764 1459.7028 1461.2584 1462.6256 1464.5748 1471.2836 1473.9484 1474.9965 1475.712 1476.6409 1477.322 1478.1692 1480.1788 1481.714 1482.342 1484.662 1488.5068 1494.2908 1495.1848 1495.1119 1494.8472 1495.3424
1220.5376 1220.9272 1221.6372 1221.4396 1220.6252 1220.1708 1220.2184 1220.5056 1220.4832 1220.2465 1220.12 1220.1176 1220.3964 1220.4788 1220.6064 1221.292 1222.6248 1222.7672 1223.3088 1224.0912 1225.0627 1225.6956 1225.8928 1226.0408 1226.1268 1226.1093 1226.0984 1226.0824 1226.1412 1226.8324 1228.5135 1230.0408 1230.4108 1231.042 1232.4188 1233.5485 1234.5656 1235.2256 1235.8623 1236.416 1236.9144 1237.6544 1238.8348 1239.9556 1240.6052 1241.3348 1242.192 1242.8088 1243.2964 1243.522 1243.4664 1243.5009 1244.0004 1244.8268 1245.7152 1246.6808 1247.7224 1248.7032 1249.8619 1250.49 1251.16 1251.5288 1252.046 1252.53 1253.2017 1254.4456 1255.854 1256.7172 1257.4592 1258.1608 1259.3055 1260.264 1261.3396 1261.9211 1262.3312 1262.7968 1263.2668 1263.7596 1264.402 1265.4332 1266.8192 1267.4808 1268.2396 1268.97 1269.3333 1270.0717 1270.8868 1271.3452 1271.5028 1271.866 1272.4512 1273.1448 1273.9517 1274.7437 1275.5557 1275.8948 1276.2568 1276.8008 1277.8588 1278.9172 1279.2008 1280.0432 1281.4069 1281.0452 1280.5356 1280.3468 1280.876 1281.9128 1283.1056 1283.7249 1282.7648 1282.7656 1283.6816 1284.5632 1285.3844 1285.6987 1285.1936 1284.8264 1285.3988 1287.0164 1288.178 1288.9332 1289.2607 1289.4224 1289.1892 1288.762 1288.3904 1288.4824 1289.174 1290.2692 1290.8853 1291.0629 1290.1855 1290.568 1291.4304 1292.0192 1292.4944 1293.032 1293.3531 1293.8436 1294.7064 1295.6768 1296.9612 1298.0636 1298.7003 1299.0236 1299.2416 1299.4512 1300.24 1301.0992 1302.0135 1302.8136 1303.5485 1303.8531 1303.9028 1303.7908 1303.796 1304.348 1305.3981 1306.3475 1307.1924 1307.5436 1307.4156 1307.354 1307.5756 1307.9116 1308.3828 1309.1892 1309.9991 1311.056 1312.3472 1313.4144 1314.2732 1314.3259 1313.4364 1313.0483 1313.5511 1313.5063 1312.9084 1312.39 1311.812 1311.1848 1310.3549 1309.9812 1311.0432 1311.6641 1311.9141 1312.2563 1312.8052 1312.7723 1313.14 1313.7096 1314.9408 1316.608 1318.5568 1320.2784 1322.612 1324.6632 1326.3708 1327.65 1329.4515 1330.9875 1332.5604 1334.7653 1336.5992 1338.0912 1339.2592 1340.2616 1341.5181 1342.8356 1344.2484 1345.542 1347.316 1349.48 1351.8083 1353.5868 1355.7952 1357.7825 1359.854 1365.5604 1371.8376 1374.26 1377.456 1380.4272 1381.8512 1382.8679 1383.3804 1384.0645 1385.9524 1386.8572 1390.4324 1400.5764 1406.552 1408.2073 1408.8844 1410.1132 1413.6136 1417.7032 1418.64 1419.4272 1421.7697 1424.2576 1426.2468 1427.3732 1428.5251 1429.4476 1431.4708 1433.29 1434.9148 1437.35 1440.4183 1444.3593 1451.6711 1455.6641 1458.2576 1460.28 1461.7336 1463.7 1467.0076 1471.6628 1473.7864 1474.8593 1475.9952 1477.152 1478.1628 1478.8164 1480.342 1481.342 1482.2788 1483.3284 1485.97 1492.5789 1494.1676 1493.8884 1492.9808 1492.4088
1220.8768 1221.164 1221.494 1221.6708 1221.2604 1220.83 1220.7928 1220.8992 1220.6288 1220.4944 1220.5264 1220.6184 1220.6293 1220.6396 1220.8088 1221.0496 1222.4615 1222.9512 1223.2319 1223.5024 1223.9652 1225.0332 1225.936 1226.1304 1226.2788 1226.2788 1226.1976 1226.2952 1226.4596 1226.5748 1227.7448 1229.4768 1230.5444 1230.9852 1232.4412 1233.51 1234.4048 1235.0903 1235.7664 1236.3712 1237.0889 1237.8816 1238.9835 1239.9733 1240.5052 1240.9083 1241.4336 1242.1912 1242.6971 1242.8956 1243.0063 1243.4935 1244.2883 1245.302 1246.4664 1247.4272 1248.3392 1248.8688 1249.5852 1249.746 1250.1152 1250.7992 1251.6268 1252.562 1253.7712 1255.0424 1256.2748 1257.1172 1257.8752 1258.468 1259.464 1260.3248 1261.0492 1261.3876 1261.9847 1262.468 1263.0596 1263.6484 1264.4011 1265.2404 1266.512 1267.0729 1267.3763 1267.9484 1268.5292 1268.898 1269.4828 1269.9604 1270.5612 1271.1084 1271.7328 1272.2744 1273.0508 1273.8284 1274.5372 1275.0156 1275.6304 1276.48 1277.5516 1278.3588 1279.0864 1280.0408 1280.3612 1279.5612 1279.07 1279.5516 1280.5856 1281.84 1282.9032 1282.596 1281.76 1282.0088 1283.0248 1284.0376 1284.694 1284.4324 1283.9025 1283.7432 1285.0548 1286.346 1287.438 1288.1613 1288.5312 1288.5376 1288.1324 1287.7964 1287.6536 1287.9392 1288.8547 1289.8556 1290.4963 1290.8083 1289.7992 1289.9384 1290.7672 1291.4744 1292.0952 1292.516 1292.8228 1293.502 1294.5232 1295.5928 1296.7764 1297.61 1298.0125 1298.1356 1298.2056 1298.4296 1299.2896 1300.3536 1301.5056 1302.2303 1302.6732 1302.8292 1302.9164 1303.0188 1303.3856 1304.184 1305.342 1306.154 1306.59 1306.5956 1306.4132 1306.4589 1306.8108 1307.2028 1307.6364 1308.3099 1309.2607 1310.2952 1311.512 1312.6224 1313.4972 1313.6476 1312.9316 1312.4108 1312.7375 1312.6768 1312.0627 1311.4484 1310.8152 1310.4408 1310.0956 1309.6436 1309.9336 1310.5063 1310.9108 1311.4036 1311.9292 1312.1093 1312.7224 1313.4232 1314.7704 1316.4615 1318.3944 1320.2983 1322.3505 1324.088 1325.9268 1327.3756 1329.026 1330.3171 1331.9548 1334.1868 1335.9584 1337.2328 1338.3392 1339.2904 1340.6372 1341.9628 1343.53 1345.4027 1347.7416 1350.6208 1352.6372 1354.0924 1356.6216 1358.8809 1361.5372 1367.5444 1373.6265 1376.7992 1380.8472 1383.0281 1384.8248 1385.8928 1386.114 1387.0076 1388.1372 1389.3604 1396.4116 1404.1636 1407.1448 1408.776 1409.6093 1411.0685 1414.5583 1418.528 1419.7664 1421.5856 1423.5016 1425.6711 1427.1956 1428.3444 1430.2428 1431.4452 1433.4252 1434.5804 1435.7404 1437.9404 1440.5792 1442.7856 1447.74 1453.816 1457.0848 1458.6128 1460.7288 1463.6328 1467.1971 1470.062 1472.568 1473.708 1474.9559 1476.2985 1477.3684 1478.1003 1479.2004 1480.0068 1480.6147 1481.5892 1483.1973 1488.95 1491.8644 1491.8156 1490.3215 1488.804
1221.2748 1221.5204 1221.7076 1221.9292 1221.7548 1221.386 1221.3315 1221.3564 1221.0212 1220.9404 1220.7284 1220.8828 1220.948 1220.8807 1220.9512 1221.1616 1222.3456 1223.2616 1223.3788 1223.574 1223.6576 1223.8064 1224.8596 1226.1068 1226.3892 1226.5021 1226.4808 1226.4991 1226.6927 1226.8304 1227.4368 1228.9199 1230.7084 1230.9612 1231.908 1232.8912 1233.806 1234.63 1235.3784 1236.2728 1237.3431 1238.1136 1238.7452 1239.1915 1239.5568 1239.9272 1240.64 1241.3784 1242.0776 1242.8016 1243.42 1244.1592 1245.2607 1246.1632 1247.1852 1247.7876 1247.83 1247.9044 1248.3844 1248.6788 1249.2008 1250.1296 1251.7751 1253.192 1254.3936 1255.4543 1256.4144 1257.204 1258.0432 1258.7568 1259.4877 1260.1124 1260.714 1261.118 1261.546 1262.106 1262.9492 1263.5836 1264.1232 1264.2744 1265.1163 1265.6669 1266.3691 1267.2437 1267.8984 1267.876 1268.3519 1269.176 1269.7744 1270.3793 1270.9824 1271.3936 1272.1812 1272.8563 1273.4132 1274.0068 1274.8372 1275.9949 1277.4224 1278.3113 1279.0116 1279.5292 1278.8676 1278.1372 1278.4185 1279.4784 1280.8303 1282.0009 1282.0444 1281.142 1280.6968 1281.0192 1282.036 1283.108 1283.6488 1282.9752 1282.9336 1283.3264 1284.622 1285.6572 1286.726 1287.2916 1287.4777 1287.3296 1286.818 1286.726 1286.9124 1287.4044 1288.458 1289.2924 1290.1147 1290.2556 1289.384 1289.6296 1290.3737 1290.9344 1291.3737 1291.7375 1292.244 1293.1912 1294.318 1295.4076 1296.4756 1296.9036 1296.9564 1297.1652 1297.3835 1298.006 1299.0604 1300.0188 1300.9952 1301.4696 1301.7224 1301.8944 1302.108 1302.5065 1303.2664 1304.1184 1305.094 1305.59 1305.6567 1305.4304 1305.2068 1305.4772 1306.19 1306.7148 1307.15 1307.7444 1308.6084 1309.5372 1310.6536 1311.7177 1312.5056 1312.768 1312.3812 1311.9156 1311.848 1311.6567 1311.1075 1310.3828 1309.73 1309.6804 1309.9176 1309.4584 1309.1416 1309.4656 1309.906 1310.4132 1311.0552 1311.5984 1312.5308 1313.3029 1314.4744 1316.0392 1317.9044 1319.7948 1321.7509 1323.4612 1325.372 1326.9039 1328.5688 1330.0 1331.4464 1333.316 1335.044 1336.1008 1337.0776 1337.9489 1339.1472 1340.7544 1343.6008 1346.5344 1348.8577 1352.1704 1354.2388 1356.1307 1359.2288 1361.276 1362.314 1367.5139 1374.4529 1378.3969 1382.4236 1385.1724 1387.0413 1388.0244 1388.342 1388.9244 1389.8271 1391.0616 1393.722 1402.3405 1406.8912 1408.2128 1410.0464 1411.388 1413.448 1416.9744 1420.1604 1422.47 1423.3756 1425.5676 1427.4904 1428.5312 1430.3856 1431.2521 1432.514 1434.2307 1436.4508 1438.1075 1440.2108 1441.6876 1444.7976 1449.4176 1453.7748 1456.194 1458.9956 1461.9252 1465.7739 1467.4884 1469.9216 1472.2672 1473.4796 1474.4965 1475.5952 1476.624 1477.6901 1478.4844 1478.7288 1479.412 1481.2303 1484.7983 1488.0012 1489.1987 1487.5256 1486.7728
1221.2772 1221.5037 1221.6901 1221.9708 1222.2084 1222.134 1221.866 1221.71 1221.5035 1221.3444 1221.074 1221.1036 1221.0936 1221.052 1221.2015 1221.3608 1222.0583 1223.256 1223.5148 1223.8044 1223.9672 1223.9016 1224.2444 1225.6516 1226.59 1226.7124 1226.7072 1226.772 1226.8688 1226.976 1227.436 1228.8632 1230.7924 1231.2324 1231.5736 1232.2064 1233.2396 1234.0812 1235.0208 1236.1504 1237.0768 1237.7623 1238.3068 1238.846 1239.7656 1240.5281 1241.0752 1241.5208 1242.1744 1243.0424 1243.9888 1244.9023 1245.7064 1246.1528 1246.5212 1246.6692 1246.7604 1247.2524 1248.0035 1248.754 1249.4944 1250.4536 1251.9264 1253.1144 1254.4615 1255.5977 1256.5968 1257.4023 1258.0583 1258.6552 1259.2957 1259.7908 1260.2036 1260.6667 1261.1012 1261.722 1262.5284 1262.9819 1263.2256 1263.2744 1264.0875 1264.806 1265.89 1267.11 1267.4113 1267.0208 1266.996 1267.6632 1268.5112 1269.548 1270.0088 1270.4617 1271.458 1272.1813 1272.7572 1273.5604 1274.8236 1276.3204 1277.5599 1278.0792 1278.5548 1278.194 1277.3684 1277.2043 1278.268 1279.736 1281.1296 1281.7672 1280.8668 1279.9692 1279.8304 1280.2408 1281.2272 1282.312 1282.6312 1281.9576 1282.0288 1282.5544 1283.786 1284.9188 1286.0524 1286.3524 1286.2128 1285.9543 1285.5364 1285.8588 1286.242 1286.8268 1287.9028 1288.7115 1289.5724 1289.5436 1288.8665 1289.328 1290.1144 1290.616 1290.8544 1291.2312 1291.9095 1293.0104 1294.0356 1294.8644 1295.7068 1296.0084 1295.9733 1296.2892 1296.986 1297.9556 1299.0372 1299.8596 1300.528 1300.7305 1301.0007 1301.3776 1301.8208 1302.4016 1303.3073 1303.9832 1304.4677 1304.6307 1304.504 1304.2936 1304.2516 1304.7205 1305.694 1306.3228 1306.9316 1307.5931 1308.2308 1308.9069 1309.932 1310.9271 1311.5072 1311.8544 1311.8468 1311.4803 1311.0824 1310.7568 1310.2932 1309.6212 1309.0348 1308.8268 1308.2968 1308.2584 1308.5167 1308.8073 1309.2509 1309.8828 1310.7 1311.416 1312.2876 1313.026 1313.9432 1315.532 1317.3835 1319.218 1321.21 1322.8596 1324.7008 1326.2855 1327.9392 1329.396 1331.1119 1332.8473 1334.096 1334.9608 1335.8488 1336.4496 1337.2208 1338.7928 1343.1016 1345.6448 1348.6056 1351.6031 1355.038 1358.2756 1361.4376 1363.4176 1364.0868 1367.8212 1372.916 1378.5096 1382.8083 1386.002 1387.4427 1388.5956 1389.2172 1389.8187 1391.1904 1392.3032 1394.5876 1400.0204 1406.1047 1407.4072 1408.7751 1410.144 1411.46 1412.6697 1416.4076 1419.2548 1420.786 1423.3428 1426.9104 1428.0137 1429.1648 1430.2344 1430.8844 1432.0796 1435.282 1436.87 1438.6404 1440.546 1442.7607 1445.6416 1450.1108 1453.7892 1456.8148 1460.1156 1463.7572 1465.3884 1467.1888 1469.68 1471.5316 1472.998 1473.8416 1474.5295 1475.7612 1476.9443 1476.9095 1477.4552 1479.8344 1481.2136 1483.6829 1485.1412 1484.5768 1484.3616
1220.9471 1221.1335 1221.6436 1221.91 1222.2356 1222.3972 1222.346 1222.2172 1221.9517 1221.7756 1221.54 1221.5192 1221.4524 1221.3868 1221.4285 1221.5092 1221.908 1222.92 1223.6309 1223.9484 1224.3433 1224.54 1224.5844 1225.0172 1226.4244 1226.7925 1226.8268 1226.9492 1227.1316 1227.2644 1227.4661 1228.9612 1231.064 1231.556 1231.7365 1232.45 1233.7496 1234.8832 1235.6368 1236.3872 1237.2328 1238.236 1238.9856 1239.512 1240.4628 1241.2964 1241.8027 1242.1652 1242.604 1243.4672 1244.4844 1244.8596 1244.8572 1244.9373 1245.4471 1246.0952 1246.7936 1247.564 1248.468 1249.3744 1250.1335 1251.0376 1251.8844 1252.6196 1254.0388 1255.3652 1256.8724 1257.5267 1257.7148 1258.174 1258.7024 1259.1952 1259.5688 1260.0441 1260.356 1260.6528 1261.1396 1261.5107 1261.8308 1262.4476 1263.44 1264.2928 1265.7152 1266.6376 1266.4836 1266.0396 1265.3552 1265.9113 1267.2808 1268.2535 1268.922 1269.75 1270.946 1271.734 1272.4924 1273.786 1275.2408 1276.4255 1277.1344 1277.4648 1277.2384 1276.3232 1276.102 1277.074 1278.5764 1279.8892 1280.892 1280.7391 1279.522 1278.6012 1278.7972 1279.5557 1280.5269 1281.322 1281.328 1281.1729 1281.1588 1281.4684 1282.8588 1284.046 1285.0511 1285.2128 1284.9692 1284.5627 1284.3224 1285.0889 1285.6084 1286.342 1287.2848 1288.1696 1288.852 1288.5088 1288.3248 1288.7416 1289.4176 1290.0144 1290.3248 1290.7736 1291.6476 1292.7324 1293.6212 1294.0701 1294.5048 1294.776 1295.1224 1295.92 1297.0024 1297.8544 1298.7916 1299.382 1299.6425 1299.8408 1300.3456 1300.9056 1301.6312 1302.0656 1302.6184 1303.1191 1303.4232 1303.4408 1303.4412 1303.2772 1303.4232 1304.1976 1305.2528 1305.9072 1306.606 1307.2028 1307.6896 1308.248 1309.018 1309.7156 1310.4963 1311.1852 1311.4192 1311.0472 1310.3384 1309.8184 1309.2516 1308.5859 1308.1444 1307.6644 1306.568 1306.9808 1307.9596 1308.2924 1309.0084 1309.8308 1310.548 1311.0704 1311.5928 1312.2177 1313.4364 1315.0828 1316.8112 1318.5896 1320.562 1322.2644 1324.1667 1325.646 1326.9808 1328.3744 1330.3308 1331.9972 1332.8928 1333.5608 1334.184 1334.6016 1334.8864 1336.2535 1340.7368 1343.4808 1345.1003 1348.2356 1352.8412 1355.9427 1361.1208 1364.1176 1365.2656 1366.6128 1369.206 1375.0436 1380.1488 1383.5583 1386.6008 1388.2888 1389.2528 1389.7264 1390.7516 1391.7004 1394.0092 1398.2203 1401.6404 1404.4517 1407.1072 1408.2568 1409.5104 1410.6168 1412.0492 1414.3372 1417.9928 1421.804 1424.9044 1426.702 1428.368 1429.42 1429.6416 1430.0392 1431.886 1433.6868 1436.8616 1439.5576 1441.3744 1443.3064 1446.0992 1449.9336 1453.2736 1456.5944 1460.2976 1462.6208 1464.9408 1467.912 1469.3768 1470.6088 1471.5948 1472.1156 1472.6292 1473.8268 1474.6119 1474.9408 1476.4501 1477.6844 1479.5936 1480.2184 1480.7056 1481.5743
1220.668 1221.0144 1221.8085 1221.9756 1222.0469 1222.1716 1222.5004 1222.5573 1222.3492 1222.2516 1221.916 1221.7 1221.7164 1221.7228 1221.634 1221.7068 1221.9703 1222.6335 1223.682 1224.1564 1224.3304 1224.564 1224.7844 1224.8348 1225.8236 1226.7932 1226.9893 1227.0876 1227.278 1227.4316 1227.6149 1228.6796 1230.8904 1231.8992 1232.0571 1232.5276 1233.9705 1235.696 1236.552 1236.9504 1237.4648 1238.4792 1239.2 1239.6448 1240.3676 1241.1052 1241.59 1241.9124 1242.42 1243.1584 1243.6812 1243.8772 1244.1508 1244.626 1245.4272 1246.2112 1247.1 1247.9248 1248.6808 1249.3312 1250.1608 1251.2056 1251.8083 1252.2651 1253.8333 1255.3099 1256.6956 1257.0012 1257.198 1257.742 1258.1256 1258.4392 1258.8431 1259.2656 1259.2753 1259.4888 1260.0524 1260.47 1261.178 1261.9819 1262.8928 1264.0272 1265.4991 1266.0312 1265.9668 1265.4524 1264.7393 1265.1736 1266.5848 1267.6376 1268.6613 1269.7565 1270.8812 1271.65 1272.4875 1273.7028 1274.7656 1275.584 1275.7344 1275.8232 1275.5728 1275.3872 1276.162 1277.5068 1279.0604 1279.802 1279.864 1279.4664 1278.3156 1277.526 1278.1108 1279.1028 1279.8668 1280.2588 1280.024 1280.0464 1280.2388 1280.7692 1282.1364 1283.3684 1284.2496 1284.184 1283.8605 1283.3884 1283.5408 1284.2864 1284.8604 1285.7252 1286.8104 1287.668 1287.8248 1287.4672 1287.5671 1288.0432 1288.7456 1289.4176 1289.9264 1290.5511 1291.3308 1292.294 1292.8925 1293.1028 1293.3776 1293.636 1294.6031 1295.7416 1296.8247 1297.5583 1298.2596 1298.6132 1298.9088 1299.3936 1299.8336 1300.224 1300.7736 1301.0304 1301.4344 1301.8568 1302.1104 1302.1584 1302.2292 1302.1676 1302.6664 1303.764 1304.7992 1305.3704 1305.8835 1306.3876 1306.9528 1307.6792 1308.2644 1308.642 1309.5132 1310.5156 1310.9224 1310.6432 1309.872 1309.24 1308.4932 1307.7572 1307.17 1306.5172 1305.7192 1306.2904 1307.234 1307.802 1308.8588 1309.7885 1310.4329 1310.84 1311.1696 1311.8376 1313.162 1314.714 1316.3872 1318.1896 1320.1732 1321.8724 1323.5708 1324.962 1326.3737 1327.6904 1329.6204 1331.2532 1331.7008 1332.2056 1332.4664 1332.5961 1333.18 1334.0192 1335.684 1338.2391 1339.2836 1341.3788 1348.5244 1352.2277 1358.5529 1363.1208 1365.4968 1366.3192 1366.4788 1370.3356 1377.2416 1381.4336 1385.0544 1386.5312 1388.0135 1388.9 1389.646 1390.3693 1391.622 1394.8956 1400.3236 1402.8036 1405.7776 1407.356 1409.1736 1410.1744 1411.5972 1412.7795 1414.704 1418.4928 1422.7349 1424.814 1426.9784 1428.0048 1428.1031 1428.4608 1429.6628 1431.0012 1434.7112 1438.2648 1440.2936 1441.744 1443.7048 1446.5216 1450.5952 1453.6552 1458.4176 1460.5712 1462.792 1465.4928 1467.1576 1468.6824 1469.1652 1469.9116 1470.4875 1471.1892 1472.1031 1472.3616 1472.678 1473.8276 1475.6016 1475.8248 1477.3512 1478.812
1221.1472 1221.4072 1221.8856 1222.0712 1222.3127 1222.448 1222.63 1222.746 1222.7192 1222.7208 1222.4944 1222.1191 1221.8516 1221.99 1221.964 1221.9937 1222.2084 1222.5717 1223.4352 1224.3232 1224.52 1224.564 1224.8881 1225.0527 1225.4644 1226.6324 1227.1488 1227.2231 1227.3405 1227.5413 1227.808 1228.3992 1230.4752 1232.34 1232.6088 1232.8064 1233.6608 1235.4808 1236.6404 1237.0652 1237.324 1237.8872 1238.33 1238.8556 1239.5889 1240.1992 1240.6428 1241.0396 1241.8591 1242.5912 1243.176 1243.5576 1244.1437 1245.158 1245.9296 1246.3881 1247.134 1247.8948 1248.3881 1248.7953 1249.5887 1250.4417 1251.3751 1252.548 1254.242 1255.4044 1256.0748 1256.214 1256.6544 1257.1481 1257.0608 1257.5688 1258.182 1258.4484 1258.2911 1258.432 1259.014 1259.678 1260.6368 1261.432 1262.3132 1263.6428 1264.7788 1264.9668 1265.0833 1264.7648 1264.794 1265.426 1266.582 1267.5692 1268.4956 1269.6636 1270.9652 1271.7972 1272.4384 1272.9576 1273.4684 1273.7388 1273.6968 1273.8271 1274.844 1275.8408 1276.8704 1277.924 1279.1396 1279.1948 1278.6428 1278.194 1277.1316 1276.546 1277.434 1278.438 1278.9648 1279.3104 1278.8904 1278.8384 1279.21 1279.862 1281.2635 1282.4124 1283.1412 1283.178 1282.8788 1282.2004 1282.6523 1283.4084 1284.2228 1285.15 1286.25 1286.882 1286.7748 1286.7732 1286.968 1287.3992 1288.1207 1288.8416 1289.5104 1290.1567 1290.8953 1291.5608 1291.8217 1291.9849 1292.318 1293.1324 1294.2823 1295.2792 1296.4476 1297.1372 1297.494 1297.6669 1298.084 1298.7032 1299.0624 1299.3352 1299.5796 1299.8524 1300.0668 1300.3605 1300.6816 1300.7336 1300.8732 1301.158 1301.9772 1303.002 1304.0852 1304.6764 1304.902 1305.4443 1306.2548 1307.1084 1307.7812 1307.8652 1308.4963 1309.5548 1310.0752 1309.8944 1309.2277 1308.558 1307.7716 1306.9531 1306.1785 1305.4944 1304.9108 1305.4404 1306.268 1307.2391 1308.4536 1309.3744 1309.9868 1310.4004 1310.7688 1311.3823 1312.608 1314.3352 1316.1992 1318.032 1319.9244 1321.3531 1322.8477 1324.2292 1325.7096 1326.8824 1328.3835 1329.886 1330.1252 1330.306 1330.566 1330.8972 1331.54 1332.016 1332.3624 1333.0768 1334.6332 1337.4661 1342.8728 1346.5312 1352.59 1359.49 1362.4844 1363.6381 1363.614 1364.7108 1369.7261 1377.0996 1382.3217 1384.4128 1386.0244 1387.1868 1387.952 1388.756 1390.1704 1391.5167 1394.7268 1398.8171 1402.8068 1406.0771 1408.2056 1409.264 1410.9648 1412.6968 1414.0028 1415.5244 1417.2284 1420.0629 1421.4427 1422.174 1423.5348 1425.0068 1427.822 1429.8884 1433.1193 1436.3608 1438.3644 1439.7572 1441.0436 1443.286 1446.2172 1449.4908 1453.7596 1456.2748 1457.0035 1457.3477 1460.4552 1465.1552 1467.386 1467.5364 1467.918 1468.3348 1469.0072 1469.8856 1470.184 1470.6752 1471.5864 1472.1216 1473.918 1475.6228
1222.6296 1222.6112 1222.4775 1222.4952 1222.732 1222.8208 1222.8108 1223.0436 1223.108 1223.1063 1223.1664 1222.9336 1222.3604 1222.2252 1222.3512 1222.432 1222.4756 1222.5972 1223.2272 1224.2592 1224.7568 1224.8424 1225.1472 1225.2303 1225.326 1226.3419 1227.3104 1227.3832 1227.4668 1227.746 1228.24 1228.6056 1230.2656 1232.644 1233.3112 1233.288 1233.5961 1234.6128 1236.1412 1236.806 1237.2592 1237.7504 1238.2196 1238.6636 1239.3489 1239.8824 1240.3484 1240.8572 1241.8944 1242.5432 1242.9633 1243.4344 1244.342 1245.4445 1246.1376 1246.2296 1246.7444 1247.4188 1247.8928 1248.2728 1248.9768 1249.924 1251.6688 1253.0848 1254.1836 1255.106 1255.4772 1255.786 1256.1744 1256.244 1256.2672 1257.1096 1257.5627 1257.7988 1257.7697 1258.0912 1258.7972 1259.5875 1260.2928 1260.848 1261.7212 1262.9963 1263.8556 1264.0964 1264.5536 1264.7856 1265.3011 1265.9268 1266.8324 1267.746 1268.6956 1269.4875 1270.4124 1271.1757 1271.4088 1271.6943 1271.8245 1271.6276 1272.3152 1273.732 1275.1047 1276.3256 1277.368 1278.2888 1278.5956 1277.9756 1277.6124 1277.2292 1275.974 1275.5532 1276.5708 1277.5092 1278.1008 1278.4736 1277.9016 1277.8672 1278.3876 1279.1068 1280.3907 1281.3236 1281.9172 1282.218 1281.9355 1281.0924 1281.7836 1282.69 1283.7372 1284.69 1285.6708 1286.018 1285.7509 1285.8436 1286.3104 1286.9847 1287.5585 1288.2296 1289.048 1289.5568 1290.1799 1290.5624 1290.7913 1291.2744 1292.086 1293.0652 1294.0848 1294.976 1295.9836 1296.4668 1296.5444 1296.6595 1296.9775 1297.4336 1297.7249 1298.092 1298.4036 1298.6108 1298.8868 1299.126 1299.3503 1299.46 1299.7972 1300.4724 1301.1917 1301.8484 1302.8884 1303.6348 1303.9979 1304.6508 1305.5516 1306.546 1307.442 1307.342 1307.7997 1308.722 1309.1929 1308.9993 1308.3092 1307.606 1306.9067 1306.202 1305.4113 1304.74 1304.0796 1304.7228 1305.7504 1306.9232 1308.0887 1308.8352 1309.3508 1309.7867 1310.2024 1310.9248 1312.3488 1314.3016 1316.3304 1318.1808 1319.8099 1320.9316 1322.4492 1323.6948 1324.9471 1326.0592 1327.3484 1328.446 1328.4844 1328.5676 1328.9484 1329.4587 1329.9329 1330.1592 1330.4912 1331.1384 1332.538 1335.2284 1339.2888 1341.9185 1347.1293 1353.6132 1356.818 1360.0933 1361.1044 1362.2924 1364.4932 1369.478 1372.4552 1379.8408 1384.3132 1385.6292 1386.6384 1387.3735 1388.6376 1390.0513 1391.9316 1394.3868 1397.086 1399.8315 1405.3431 1407.6416 1409.4352 1410.8503 1413.2404 1414.7844 1415.534 1416.962 1418.3876 1419.9364 1421.5924 1423.618 1426.7196 1429.4069 1431.536 1433.4784 1435.3724 1437.6836 1438.9749 1440.526 1442.1676 1446.0125 1447.3396 1448.978 1451.3029 1453.1956 1456.2784 1460.1576 1464.3452 1464.8092 1465.458 1465.8604 1466.704 1467.8448 1468.384 1468.9487 1469.78 1470.1088 1471.1796 1472.9852
1224.6144 1224.0624 1223.6484 1223.4468 1223.61 1223.6172 1223.3624 1223.4415 1223.4227 1223.3596 1223.654 1223.7988 1223.4392 1222.9824 1222.7712 1222.6497 1222.592 1222.7305 1223.2008 1224.2488 1225.1093 1225.254 1225.5208 1225.6072 1225.4587 1225.9052 1227.1392 1227.5344 1227.7252 1228.1156 1228.6776 1228.9169 1229.9496 1232.22 1233.7999 1233.936 1233.952 1234.2969 1235.5056 1236.9568 1237.8547 1238.3333 1238.9232 1239.324 1239.954 1240.5116 1240.9255 1241.2064 1241.7964 1242.2588 1242.7344 1243.2672 1243.808 1244.684 1245.6892 1246.0789 1246.37 1246.9044 1247.5264 1248.0743 1248.98 1250.0392 1251.6569 1252.8712 1254.1641 1254.5352 1254.6407 1254.9832 1255.2972 1255.6036 1256.3364 1256.6613 1256.9004 1257.0996 1257.3448 1257.9865 1258.9144 1259.6984 1259.9896 1260.3184 1261.282 1262.5564 1263.2704 1263.7161 1264.4236 1264.99 1265.5992 1266.316 1266.9515 1267.778 1268.5944 1268.3792 1268.4816 1269.1624 1269.4285 1269.834 1270.2092 1271.0172 1272.6628 1274.114 1275.616 1276.4528 1276.9984 1277.4408 1277.1221 1276.4852 1276.6075 1276.0684 1274.718 1274.8892 1275.9032 1276.5392 1277.1613 1277.5468 1276.7612 1276.858 1277.6265 1278.4824 1279.6971 1280.578 1280.9684 1280.8212 1280.4208 1280.052 1280.9744 1281.856 1282.8848 1283.8456 1284.7732 1284.6884 1284.5184 1284.9703 1285.6627 1286.4204 1286.9548 1287.494 1288.3608 1288.7391 1289.1472 1289.4664 1289.9896 1290.9088 1292.2468 1293.11 1293.9095 1294.6744 1295.1512 1295.2336 1295.2303 1295.46 1295.6804 1296.0397 1296.5924 1296.9044 1296.982 1297.114 1297.4543 1297.6632 1297.9728 1298.4167 1299.0232 1299.6304 1300.218 1300.7388 1301.5009 1302.208 1303.0176 1303.8784 1304.802 1305.8916 1306.7532 1306.554 1306.9988 1307.67 1308.0996 1308.0092 1307.306 1306.6356 1306.0168 1305.2576 1304.3636 1303.8108 1303.2164 1304.1149 1305.3812 1306.7292 1307.8064 1308.2944 1308.5975 1308.9336 1309.3503 1310.58 1312.5636 1314.354 1316.4192 1318.3704 1319.7936 1320.5824 1322.0496 1323.0216 1323.8916 1324.9661 1326.1292 1326.8324 1326.9124 1326.9028 1327.1868 1327.5476 1327.9069 1328.178 1328.5812 1329.1492 1330.2748 1332.6685 1337.014 1340.3259 1344.2692 1347.5996 1351.5908 1355.1356 1356.7188 1358.5508 1361.1091 1363.1172 1365.762 1372.1884 1381.688 1383.336 1384.8816 1385.8503 1387.0288 1388.1024 1389.54 1391.5592 1393.1632 1395.2216 1399.2344 1401.7208 1405.1497 1406.7609 1409.6381 1412.9524 1414.1704 1415.3433 1417.314 1419.1917 1420.2068 1422.278 1425.66 1428.2767 1430.524 1432.2504 1433.402 1435.0548 1437.2112 1439.2888 1440.1855 1442.2144 1443.7096 1445.1592 1447.9468 1451.3124 1453.9412 1456.5789 1459.162 1460.1492 1461.4716 1463.1892 1464.7948 1465.7043 1466.4808 1467.1864 1467.9288 1468.4408 1469.2393 1470.3832
1226.108 1225.5048 1224.9276 1224.5276 1224.558 1224.6644 1224.6544 1224.7607 1224.6084 1224.0524 1224.1843 1224.246 1224.2576 1224.124 1223.54 1223.0648 1222.84 1222.9224 1223.124 1223.9448 1224.9468 1225.466 1225.764 1225.9576 1225.8276 1225.77 1226.6152 1227.6008 1228.0269 1228.4796 1228.9288 1229.184 1229.7184 1231.1952 1232.752 1233.784 1234.2769 1234.524 1234.8951 1236.0392 1237.7957 1238.5717 1239.1696 1239.6664 1240.2565 1240.8636 1241.3073 1241.5063 1241.6812 1242.2588 1242.7928 1243.2983 1243.6664 1244.4512 1245.314 1245.8156 1246.1525 1246.706 1247.3688 1248.1569 1249.1648 1250.1008 1251.3248 1252.504 1253.4064 1253.608 1253.8816 1254.4048 1255.1917 1255.8085 1255.8083 1256.0756 1256.7115 1256.9492 1257.3984 1258.0833 1258.8872 1259.4824 1259.6191 1260.0712 1261.0748 1262.1957 1263.048 1263.6664 1264.462 1265.286 1265.98 1266.7256 1266.8997 1266.9292 1266.756 1266.5232 1267.0424 1267.8064 1268.4636 1269.178 1270.7532 1272.2396 1273.5436 1274.7372 1276.052 1276.4167 1276.2305 1276.06 1275.614 1275.222 1275.5916 1275.15 1273.9716 1274.25 1275.136 1275.636 1276.1324 1276.6476 1275.7548 1275.9924 1277.0952 1278.0328 1279.2172 1280.0852 1280.1804 1279.4396 1279.0496 1279.4824 1280.3129 1281.0728 1282.0488 1283.144 1283.67 1283.2444 1283.632 1284.4648 1285.1292 1285.7812 1286.3564 1286.8315 1287.5536 1287.9672 1288.464 1289.1096 1289.944 1290.8936 1292.2596 1293.1163 1293.7496 1293.996 1294.0592 1294.0856 1294.2472 1294.3856 1294.5251 1294.7452 1295.2491 1295.5356 1295.7172 1295.9196 1296.2408 1296.5905 1297.0768 1297.556 1298.2568 1298.832 1299.2828 1299.8276 1300.6832 1301.4672 1302.4489 1303.3928 1304.21 1305.09 1305.7388 1305.7365 1306.1676 1306.7363 1307.142 1307.0276 1306.4572 1305.894 1305.2753 1304.3577 1303.3484 1302.762 1302.5028 1303.7148 1305.222 1306.554 1307.4056 1307.6552 1307.7976 1308.0616 1308.6871 1310.4976 1312.6316 1314.3196 1316.3888 1318.036 1318.8672 1319.7537 1321.1873 1321.9257 1322.5884 1323.7365 1324.882 1325.374 1325.4556 1325.4012 1325.4956 1325.6692 1325.9596 1326.3652 1326.9148 1327.4956 1328.3364 1329.4515 1333.0844 1336.1068 1340.0197 1343.9501 1348.63 1351.874 1353.9652 1355.2804 1357.3477 1359.2004 1361.2036 1367.4316 1377.7944 1380.1641 1383.0432 1384.444 1385.3896 1386.5704 1388.2312 1390.3289 1391.8112 1393.8104 1396.5256 1399.0088 1401.8048 1404.2816 1407.0844 1409.266 1411.9264 1413.8096 1415.998 1417.6755 1418.3477 1420.9803 1425.7272 1427.3472 1429.152 1431.3248 1432.666 1433.5573 1435.0464 1437.4808 1438.9752 1440.3464 1441.8384 1442.7983 1445.5916 1449.3444 1453.078 1455.7795 1457.5476 1458.5876 1460.2196 1461.6748 1463.2203 1464.2388 1465.1064 1465.7576 1466.5752 1467.396 1467.8608 1468.2032
1227.1328 1226.8447 1226.352 1225.8665 1225.8552 1226.0208 1226.06 1226.096 1225.8596 1225.4988 1225.5977 1225.6256 1225.6008 1225.3289 1224.4719 1223.6864 1223.2465 1223.1328 1223.14 1223.3488 1224.3796 1225.3533 1226.0529 1226.3536 1226.2372 1226.0852 1226.5383 1227.5632 1228.146 1228.7732 1229.2092 1229.4164 1229.6748 1230.0845 1231.1 1232.436 1233.6412 1234.3835 1234.9728 1235.276 1236.0476 1237.0548 1238.1136 1238.9543 1239.6792 1239.632 1239.6208 1240.5032 1241.4728 1242.3016 1243.0107 1243.5428 1243.8668 1244.3212 1245.006 1245.7812 1246.1764 1246.7228 1247.438 1248.2565 1249.2623 1250.1624 1251.0352 1251.8096 1252.36 1252.8096 1253.5848 1254.4448 1254.6752 1254.556 1254.6119 1255.4559 1256.3776 1256.8008 1257.7416 1258.4688 1258.9504 1259.028 1259.1149 1259.9684 1261.0933 1262.0564 1262.9548 1263.77 1264.77 1265.5773 1265.792 1266.0336 1265.7108 1265.3772 1265.4288 1265.9712 1267.1952 1268.5304 1269.67 1270.694 1272.076 1273.0225 1273.4996 1274.0228 1274.8628 1275.1996 1275.0176 1274.7104 1274.0833 1274.1088 1274.7432 1274.1152 1273.1464 1273.3953 1273.9991 1274.4144 1275.1268 1275.5947 1274.6497 1275.1992 1276.45 1277.4484 1278.5645 1279.2437 1279.0148 1278.102 1278.0256 1278.5664 1279.458 1280.2869 1281.3632 1282.2896 1282.334 1282.1012 1282.8744 1283.6495 1284.1572 1284.9188 1285.5668 1285.9443 1286.5183 1287.14 1287.9747 1288.9132 1290.1816 1291.3384 1292.2876 1292.7148 1292.9948 1293.0548 1293.068 1293.1288 1293.2252 1293.3228 1293.5168 1293.672 1293.9604 1294.1996 1294.5172 1294.818 1295.1973 1295.6212 1296.0367 1296.3848 1297.1492 1297.9764 1298.3969 1299.0376 1300.0352 1300.9456 1301.9276 1302.8828 1303.6152 1304.176 1304.5968 1304.8951 1305.3612 1306.0076 1306.3145 1306.1296 1305.7808 1305.2744 1304.6268 1303.5557 1302.2672 1301.6049 1301.6868 1303.0916 1304.7192 1305.8593 1306.9213 1306.738 1306.6628 1307.3948 1308.5856 1310.572 1312.504 1314.0336 1315.8273 1316.8248 1317.5344 1318.6641 1320.0684 1320.6068 1321.1708 1322.2228 1323.3188 1323.4924 1323.4884 1323.526 1323.6075 1323.7957 1324.1996 1324.7076 1325.2872 1325.8289 1326.4448 1326.876 1329.3368 1332.6423 1336.594 1340.51 1345.7032 1348.0408 1351.4392 1353.844 1355.2096 1356.776 1359.1093 1362.6196 1370.1337 1373.8728 1377.9355 1382.066 1383.854 1385.322 1387.3477 1388.7372 1389.9373 1391.8997 1394.6508 1396.7356 1400.7848 1403.3807 1406.0276 1408.3684 1410.5197 1412.1412 1414.1428 1415.5924 1416.5928 1418.0912 1423.8936 1425.6096 1426.9255 1429.9432 1431.5576 1432.1 1433.01 1433.9924 1436.4772 1438.5859 1439.9211 1440.8252 1441.9988 1443.8508 1447.298 1452.4332 1454.8092 1456.3788 1457.9832 1459.8488 1461.7264 1462.6567 1463.5367 1464.1912 1464.958 1465.5724 1465.594 1465.538
1228.4728 1228.1848 1227.7616 1227.5048 1227.6584 1227.8575 1227.7064 1227.568 1227.4636 1227.5012 1227.5743 1227.3336 1227.024 1226.3888 1225.4471 1224.6552 1223.608 1223.168 1223.1504 1223.2584 1224.3116 1225.1348 1225.672 1225.8256 1226.014 1226.5052 1226.7368 1227.7296 1228.258 1228.9092 1229.4492 1229.6836 1229.8612 1230.0052 1230.5544 1231.3145 1232.2476 1233.222 1234.3792 1235.276 1235.9332 1236.3596 1236.9464 1237.5072 1238.2303 1238.3752 1238.6848 1240.2008 1241.6512 1242.3296 1242.962 1243.4156 1243.7203 1244.1124 1244.9012 1245.734 1246.1108 1246.5596 1247.354 1248.2365 1249.1376 1249.8296 1250.4424 1250.9032 1251.7224 1252.4568 1253.26 1253.44 1253.2808 1253.2272 1253.7112 1254.7456 1255.8856 1256.6144 1257.7488 1258.3304 1258.4656 1258.46 1258.9028 1260.126 1261.3619 1262.3236 1263.4067 1264.174 1264.702 1264.8981 1264.8928 1264.512 1264.1604 1264.4636 1265.4128 1266.848 1268.3176 1269.4912 1270.61 1271.8324 1272.9976 1273.3024 1273.3092 1273.05 1273.2365 1273.6771 1273.5009 1273.048 1272.86 1273.244 1273.6152 1272.8159 1272.2632 1272.5856 1272.9144 1273.4752 1274.282 1274.2716 1274.012 1274.5104 1275.6276 1276.6917 1277.85 1278.1757 1277.058 1276.4556 1277.084 1277.8008 1278.7404 1279.7196 1280.568 1281.3632 1281.49 1281.4988 1282.236 1282.7808 1283.2043 1283.7244 1284.5548 1285.3372 1286.0833 1286.8888 1287.9604 1289.1309 1290.4952 1291.516 1292.0717 1292.2284 1292.2188 1292.1844 1292.1696 1292.2064 1292.2131 1292.2996 1292.636 1292.8328 1293.0035 1292.9803 1293.3148 1293.7836 1294.262 1294.6523 1294.9176 1295.2448 1296.0717 1297.0107 1297.7535 1298.6088 1299.5817 1300.492 1301.3452 1302.118 1302.8488 1303.3984 1303.7384 1304.0977 1304.4252 1304.9276 1305.2976 1305.2808 1305.1136 1304.6104 1303.79 1302.6532 1301.5312 1300.8 1300.8068 1302.5092 1304.8368 1305.556 1306.2444 1305.5123 1305.2396 1306.5652 1308.4 1310.068 1312.3064 1313.8232 1315.1976 1315.8192 1316.5552 1317.6464 1318.7349 1319.2509 1319.81 1320.734 1321.6924 1321.8628 1321.742 1321.8596 1321.9868 1322.1796 1322.7084 1323.2628 1323.8304 1324.3289 1324.8312 1325.0352 1326.4136 1329.7544 1333.9396 1337.4875 1342.9976 1344.5032 1348.3256 1351.2249 1352.7648 1354.3472 1357.5244 1359.6444 1365.04 1371.4016 1376.7797 1379.4924 1382.4236 1384.1156 1385.7476 1386.7212 1387.8907 1389.3252 1391.4436 1394.0756 1397.8505 1402.0576 1405.5588 1407.5845 1409.3612 1410.6804 1412.1948 1413.454 1414.716 1416.1616 1420.5752 1423.2911 1424.3376 1427.7537 1429.5824 1430.5216 1432.1412 1433.1924 1434.9844 1436.6964 1437.8837 1438.6964 1439.2828 1439.9316 1442.6836 1446.974 1450.6964 1454.234 1455.8344 1457.2424 1460.356 1461.088 1461.8872 1462.588 1463.114 1463.4388 1463.3373 1463.1788
1230.5269 1230.3772 1229.9229 1229.6595 1229.5216 1229.5464 1229.5164 1229.4092 1229.3744 1229.5688 1229.5485 1229.0532 1228.4244 1227.4188 1226.4401 1225.8536 1224.782 1223.8636 1223.4104 1223.4457 1224.1556 1224.838 1225.09 1225.3524 1225.6056 1226.0264 1226.532 1227.5072 1228.1456 1228.8616 1229.4352 1229.5457 1229.6396 1229.7988 1230.032 1230.2816 1230.7808 1231.4896 1232.99 1234.2795 1235.5024 1236.2832 1236.9056 1237.3809 1237.786 1238.1237 1238.5573 1239.9172 1241.4248 1241.984 1242.6824 1243.2032 1243.4819 1243.8765 1244.612 1245.3088 1245.8428 1246.454 1247.2319 1247.932 1248.4224 1248.7823 1249.4788 1250.4316 1251.7148 1252.4756 1252.548 1252.5007 1252.6956 1253.0508 1253.7144 1254.4471 1255.2448 1255.948 1256.9716 1257.4916 1257.6611 1257.95 1259.1896 1260.6216 1261.7136 1262.8696 1263.8693 1263.6316 1263.4896 1263.1744 1263.132 1263.0112 1263.4784 1264.7488 1266.4032 1267.7688 1269.1392 1270.2463 1270.9948 1271.362 1271.4615 1271.6088 1271.8528 1271.6184 1271.422 1271.6556 1271.6135 1271.5304 1271.9603 1272.4164 1272.4733 1271.942 1271.3948 1271.3612 1271.6252 1272.6892 1273.5436 1273.5292 1273.9543 1274.5496 1275.4712 1276.16 1276.9128 1276.4816 1275.5557 1275.7836 1276.4844 1277.274 1278.3296 1279.32 1279.7319 1280.1448 1280.494 1280.906 1281.582 1281.9492 1282.4808 1283.2272 1284.1172 1285.1003 1286.2103 1287.1792 1288.276 1289.4023 1290.3792 1291.0736 1291.4076 1291.4708 1291.2656 1291.168 1291.186 1291.006 1290.9532 1291.1556 1291.5276 1291.6469 1291.72 1291.6608 1292.0876 1292.6364 1293.2084 1293.5627 1293.8412 1294.226 1295.0632 1295.8904 1297.0536 1298.148 1298.9596 1299.7804 1300.6976 1301.3688 1302.0084 1302.618 1302.9113 1303.0608 1303.2904 1303.8248 1304.4264 1304.4543 1304.2688 1303.768 1302.7316 1301.5964 1301.0308 1300.422 1300.0372 1302.0596 1304.7509 1304.45 1304.3204 1304.2516 1305.0764 1306.2043 1307.808 1309.1136 1311.6388 1313.1964 1314.4733 1315.01 1315.638 1316.478 1317.2535 1317.7384 1318.376 1319.0295 1319.6165 1320.2524 1320.1188 1319.9812 1320.046 1320.3932 1321.1212 1321.7365 1322.266 1322.6764 1323.1584 1323.4584 1323.8572 1326.0972 1329.872 1334.2184 1338.9167 1341.4633 1344.3916 1347.4244 1350.082 1351.6957 1355.444 1358.4912 1361.5684 1367.406 1375.8652 1379.6971 1381.6407 1382.5977 1383.5596 1384.6876 1385.5876 1386.8732 1388.1688 1389.844 1392.6855 1396.752 1403.4016 1406.004 1407.7084 1409.0116 1410.4299 1411.494 1412.7108 1414.6093 1417.8387 1420.8716 1422.4164 1424.902 1426.5135 1428.5624 1430.594 1432.0372 1433.3628 1434.5796 1435.4185 1436.2728 1437.4436 1438.7676 1440.3704 1442.8568 1446.6124 1450.714 1454.0308 1454.7324 1458.7072 1459.6152 1460.068 1460.3752 1460.6492 1460.9141 1461.0 1461.1544
1232.2972 1232.0884 1231.8116 1231.534 1231.3784 1231.4192 1231.27 1230.9677 1231.004 1230.976 1230.686 1230.2964 1229.6124 1228.5188 1227.5096 1226.7664 1226.1292 1225.4012 1224.6456 1224.4808 1224.446 1224.6052 1224.786 1225.2596 1225.5776 1225.816 1226.0496 1226.4456 1227.1224 1227.7136 1228.4296 1228.66 1228.7244 1229.066 1229.2048 1229.2192 1229.4816 1229.7408 1230.6516 1231.9764 1233.2816 1234.6368 1236.0889 1237.172 1237.8844 1238.2684 1238.6077 1239.166 1240.5872 1241.6152 1242.2728 1242.8448 1243.3556 1243.9932 1244.5712 1244.8552 1245.4132 1245.8821 1246.4216 1247.0383 1247.6248 1248.06 1249.4108 1250.7268 1251.3812 1251.3804 1251.5833 1251.8704 1252.2708 1252.6644 1253.1495 1253.788 1254.6456 1255.2032 1255.8076 1256.4396 1257.038 1258.1764 1259.7697 1261.0192 1262.072 1262.8088 1262.7635 1262.4988 1262.0824 1261.6119 1261.5831 1262.6368 1264.1904 1265.2336 1266.636 1267.6304 1268.5728 1269.4816 1269.9731 1269.9517 1269.7864 1269.9432 1270.4113 1270.3928 1270.134 1270.3708 1270.3 1270.6648 1271.6595 1271.8851 1271.7892 1271.3716 1270.2725 1269.9604 1270.49 1272.1492 1273.3995 1273.6108 1273.9376 1274.352 1274.9872 1275.7848 1275.6584 1274.6656 1274.7651 1275.3324 1276.0116 1276.7644 1277.9471 1278.9072 1279.116 1279.1848 1279.7356 1280.5076 1281.27 1281.7412 1282.328 1283.156 1284.2739 1285.3853 1286.5504 1287.4167 1288.236 1289.252 1289.9672 1290.5128 1290.5836 1290.5332 1290.2224 1290.0448 1289.9948 1289.5908 1289.6188 1289.9684 1290.29 1290.3724 1290.6031 1290.7968 1291.2748 1291.8092 1292.426 1292.6748 1292.8259 1293.4044 1294.4672 1295.3152 1296.212 1297.1191 1298.046 1299.0269 1300.0367 1300.6664 1301.0908 1301.5804 1301.94 1302.1168 1302.552 1303.1344 1303.6112 1303.7336 1303.5944 1303.0792 1301.8964 1300.9036 1300.622 1300.17 1299.4604 1300.59 1302.2275 1302.7172 1302.8636 1303.1196 1304.3188 1305.5636 1306.9376 1308.3376 1310.5717 1312.1068 1313.5107 1314.2572 1314.8196 1315.3684 1315.9336 1316.3832 1316.9392 1317.5608 1318.1077 1318.6395 1318.5596 1318.1757 1318.3076 1318.8116 1319.59 1320.2484 1320.718 1320.9908 1321.5696 1322.2264 1322.7908 1323.554 1325.444 1329.136 1334.14 1338.2896 1341.926 1345.3204 1348.1436 1350.1492 1353.1984 1357.42 1360.6084 1363.8268 1370.274 1375.5012 1377.8024 1378.0808 1379.6917 1381.1044 1382.5931 1384.8245 1386.3751 1387.2535 1390.2832 1395.0903 1401.144 1404.7416 1406.3124 1407.718 1409.0676 1410.4868 1412.0404 1413.398 1415.4244 1418.7563 1420.8691 1422.5564 1424.2896 1424.7432 1426.5076 1430.4148 1431.8724 1432.718 1433.4545 1434.6049 1436.3212 1438.034 1439.208 1440.4656 1442.6556 1446.6084 1451.3524 1452.7852 1456.0376 1457.064 1458.1312 1458.1232 1458.0931 1458.3756 1458.7328 1458.948
1233.8992 1233.7256 1233.6799 1233.4847 1233.4396 1233.6204 1233.4515 1232.7268 1232.6552 1232.7832 1232.2372 1231.5804 1230.8308 1229.9828 1228.8676 1227.9875 1227.3988 1226.7628 1226.0396 1225.762 1225.0664 1224.7704 1225.1256 1225.3431 1225.5656 1225.7904 1226.0564 1226.2404 1226.4928 1226.5728 1226.8549 1227.5035 1228.11 1228.5524 1228.776 1228.868 1229.1436 1229.3756 1229.4596 1229.9875 1231.2644 1232.6812 1234.2184 1235.4768 1236.8503 1238.1592 1238.7043 1238.974 1239.4176 1240.6512 1241.7881 1242.7784 1243.5084 1243.8452 1243.818 1243.9156 1244.2625 1244.708 1245.528 1246.4792 1247.5996 1248.3588 1249.5928 1250.1456 1249.722 1250.002 1250.856 1251.1608 1251.2493 1251.7292 1252.2867 1252.9517 1253.6744 1254.2584 1254.9468 1255.6484 1256.7584 1258.3127 1259.8688 1261.1592 1262.0771 1261.8997 1261.2544 1260.8328 1260.6464 1260.9624 1262.2748 1263.878 1264.3556 1265.11 1266.1764 1266.7748 1267.5276 1268.5771 1268.964 1268.4023 1268.1088 1268.4144 1268.9296 1268.8784 1268.8505 1269.16 1269.3964 1270.4803 1271.46 1271.0256 1270.9167 1270.532 1269.212 1268.8145 1269.8256 1271.6992 1273.1272 1273.3512 1273.4144 1273.5815 1274.184 1275.036 1274.5828 1273.8052 1274.16 1274.9056 1275.6008 1276.3528 1277.4292 1278.1683 1278.4956 1278.8083 1279.6708 1280.6892 1281.5424 1282.0896 1282.75 1283.4164 1284.6381 1285.8475 1286.9788 1287.63 1287.9116 1288.6901 1289.0756 1289.3644 1289.3344 1289.1536 1288.9211 1288.79 1288.4448 1288.104 1288.3572 1288.7444 1289.0135 1289.1224 1289.4772 1289.9612 1290.5135 1290.908 1291.4124 1291.5156 1291.6788 1292.7284 1293.9083 1294.7452 1295.4631 1296.2952 1297.3116 1298.1204 1298.998 1299.4803 1299.8644 1300.2115 1300.5872 1301.0729 1301.6927 1302.1152 1302.4624 1302.7751 1302.7957 1302.3387 1301.12 1300.2168 1300.0048 1299.5887 1299.2509 1299.6348 1300.3488 1301.1512 1301.582 1302.2428 1303.5208 1304.9615 1306.4216 1308.0352 1310.066 1311.474 1312.6216 1313.3528 1313.8792 1314.1616 1314.5088 1314.788 1315.176 1315.8577 1316.454 1316.5828 1316.4872 1316.3248 1316.6252 1317.0692 1317.6536 1318.2296 1318.714 1319.2493 1320.0876 1321.0084 1321.7628 1322.5012 1323.6804 1325.2772 1327.6864 1330.9128 1336.5731 1342.3844 1346.1104 1347.944 1350.236 1354.8024 1359.3136 1362.0312 1364.7748 1367.0316 1369.1235 1370.6323 1374.4656 1375.2728 1377.2856 1380.0632 1383.7988 1385.2509 1387.6068 1390.198 1395.3224 1402.9288 1404.9852 1406.2924 1407.7416 1409.72 1411.5896 1412.6864 1413.8308 1416.9508 1419.732 1420.8488 1422.21 1423.022 1424.2084 1426.3916 1428.9724 1430.5413 1431.9116 1433.2635 1435.1613 1436.8083 1437.7739 1439.0132 1440.8312 1442.408 1447.4176 1450.6648 1454.0636 1455.0204 1455.02 1455.3136 1455.3524 1455.5372 1455.8252 1455.8763
1235.6351 1235.5096 1235.4192 1235.3456 1235.6508 1235.4108 1234.83 1234.3292 1234.276 1234.3384 1233.5356 1232.6804 1232.0276 1231.2996 1230.1628 1229.326 1228.7437 1228.2212 1227.434 1226.646 1226.408 1227.0304 1226.464 1225.6832 1225.6936 1225.9376 1226.154 1226.3828 1226.4944 1226.5137 1226.654 1227.1396 1227.9316 1228.4476 1228.6552 1228.7856 1229.0588 1229.366 1229.7316 1229.7252 1230.0668 1231.2452 1232.576 1233.2328 1234.6672 1236.7089 1238.3116 1239.0068 1239.3304 1239.764 1241.2184 1242.4392 1242.5708 1242.5972 1242.7725 1243.11 1243.9016 1244.8512 1245.8184 1246.872 1247.7764 1248.526 1249.1088 1248.9032 1248.5764 1249.1973 1249.636 1249.8352 1250.074 1250.9155 1251.9012 1252.6364 1253.252 1254.4552 1255.8684 1256.3364 1256.9568 1258.2888 1259.9327 1261.2072 1261.3284 1260.7764 1259.872 1259.812 1260.6168 1261.8416 1263.9636 1264.6052 1263.8083 1264.3835 1265.1708 1266.1917 1267.5267 1268.2788 1268.1376 1267.5248 1266.9808 1267.1792 1267.8728 1267.8888 1267.8048 1268.4504 1269.2739 1270.542 1270.7256 1270.0848 1270.0264 1269.5472 1268.4095 1268.0712 1269.6072 1271.2697 1271.9584 1272.1407 1272.5568 1273.1335 1273.9232 1274.1464 1273.698 1273.3796 1273.6688 1274.5488 1275.484 1276.3352 1277.1188 1277.514 1278.0717 1278.6948 1279.6188 1280.6564 1281.6144 1282.4816 1283.1196 1283.7908 1285.0292 1285.9893 1286.9132 1287.5212 1287.7028 1288.0396 1288.1252 1288.0972 1288.1104 1287.9185 1287.674 1287.442 1286.9592 1286.8505 1287.2572 1287.6237 1287.84 1288.0432 1288.5251 1289.1692 1289.7544 1290.0208 1290.458 1290.8076 1291.3524 1292.4708 1293.4204 1294.0875 1294.8336 1295.6272 1296.5956 1297.1932 1297.726 1298.1284 1298.7084 1299.214 1299.7551 1300.316 1300.712 1301.08 1301.5432 1301.9136 1301.9628 1301.5748 1300.44 1299.4568 1299.276 1298.9064 1298.238 1298.5244 1299.1368 1299.752 1300.4652 1301.2924 1302.6328 1303.9633 1305.5063 1307.6049 1309.6244 1310.73 1311.7488 1312.6304 1313.1409 1313.196 1313.4904 1313.6 1313.732 1314.4248 1314.97 1314.8892 1314.7456 1314.8104 1315.1829 1315.3868 1315.7704 1316.2712 1316.9427 1317.7852 1318.8164 1319.798 1320.6685 1321.4772 1322.5228 1323.8907 1325.8024 1327.7375 1330.3036 1335.5773 1342.236 1345.908 1347.7256 1351.0712 1357.22 1360.3792 1362.934 1364.69 1366.3116 1367.7612 1369.3544 1372.2112 1374.376 1377.7168 1380.9276 1383.2068 1385.8468 1389.0012 1392.3584 1400.9808 1403.7452 1404.59 1406.2264 1408.6432 1410.7504 1411.78 1413.2932 1415.8835 1417.9336 1419.2072 1420.698 1421.998 1423.57 1425.0684 1426.8892 1428.7428 1430.2788 1431.7349 1433.2676 1434.6989 1435.9316 1437.6412 1439.5383 1440.7008 1444.38 1447.3856 1448.986 1450.298 1451.1096 1452.5536 1452.8412 1453.2356 1453.9589 1453.9459
1237.4283 1237.6699 1238.6628 1238.2563 1237.7651 1237.4292 1236.6144 1236.5887 1236.3392 1235.688 1234.6764 1234.0132 1233.4012 1232.6316 1231.4812 1230.754 1230.1497 1229.7336 1229.2064 1228.2616 1228.1632 1228.8888 1228.332 1226.9167 1225.9703 1226.216 1226.3477 1226.4412 1226.538 1226.6644 1226.7496 1226.7832 1227.4888 1228.4104 1228.7444 1229.0356 1229.3691 1229.4836 1229.9092 1229.9844 1229.9576 1230.3776 1231.2897 1232.1857 1233.2532 1234.7437 1236.3345 1238.0024 1239.3029 1239.7124 1240.2388 1241.2205 1241.5504 1241.6783 1242.2772 1243.2988 1244.482 1245.4875 1246.3452 1247.0732 1247.554 1247.9468 1248.0977 1247.7983 1247.9648 1248.1656 1248.208 1249.008 1250.2484 1251.2284 1252.1544 1253.2456 1254.2388 1255.2653 1256.2764 1256.61 1257.1672 1258.8064 1260.4912 1260.7576 1260.3232 1259.4888 1258.8405 1259.9877 1261.8916 1263.3372 1264.0392 1263.6047 1263.0184 1263.1816 1264.1604 1266.0372 1267.548 1267.8032 1267.4324 1266.8828 1266.1564 1266.4404 1266.9908 1266.8068 1267.0012 1268.0485 1268.9116 1269.3804 1269.2012 1269.3173 1269.0676 1268.1396 1267.542 1267.71 1269.2744 1270.3176 1270.4556 1270.9452 1271.7612 1272.9132 1273.3368 1272.9824 1272.6564 1272.8284 1273.5012 1274.5483 1275.4752 1276.308 1276.818 1277.0852 1277.7999 1278.7001 1279.576 1280.512 1281.6024 1282.4656 1283.2363 1284.0068 1285.0548 1285.8492 1286.426 1286.8196 1287.122 1287.242 1287.3208 1287.0344 1286.874 1286.5436 1286.0472 1285.6688 1285.24 1285.5192 1286.12 1286.5688 1286.8417 1287.2208 1287.9136 1288.6265 1289.0764 1289.3556 1289.8168 1290.4543 1291.4008 1292.1353 1292.928 1293.5432 1294.2676 1295.0292 1295.798 1296.2268 1296.4928 1296.9224 1297.7072 1298.4272 1299.1024 1299.5336 1299.8932 1300.3004 1300.7904 1301.1184 1301.216 1301.0776 1299.8665 1298.5264 1298.0 1297.3696 1296.8712 1297.4312 1297.9628 1298.482 1299.1876 1300.0828 1301.4508 1302.7124 1304.5308 1307.1124 1308.9548 1309.8068 1310.6664 1311.7056 1312.1031 1311.8792 1312.2244 1312.3612 1312.4048 1312.6816 1313.01 1312.994 1312.9104 1313.1208 1313.4268 1313.446 1313.6752 1314.1776 1314.8948 1315.7421 1317.0555 1318.206 1319.1685 1320.2252 1321.4668 1322.6364 1324.1353 1325.7168 1328.6296 1331.7256 1334.5004 1340.474 1344.5552 1347.3424 1354.3176 1358.792 1361.4092 1363.1395 1364.6536 1366.1567 1367.7312 1369.6783 1372.224 1375.9104 1378.5812 1380.734 1384.5472 1387.7784 1392.5392 1397.2512 1400.7563 1402.8124 1404.596 1407.2784 1409.1732 1410.1597 1412.1992 1414.2056 1415.9952 1417.7224 1419.3276 1420.566 1422.3372 1423.9812 1425.8083 1427.5924 1429.0588 1430.266 1431.6644 1432.8524 1433.6492 1435.8108 1438.554 1439.3844 1442.3492 1445.258 1447.254 1447.8837 1447.3584 1447.828 1449.4164 1450.2076 1451.4216 1451.1351
1239.414 1239.6748 1240.3276 1239.9468 1239.3268 1239.802 1239.0831 1238.8752 1238.2368 1236.9344 1235.8364 1235.2708 1234.518 1233.6604 1232.6444 1232.0564 1231.5264 1231.064 1230.7744 1230.2136 1230.2864 1230.3304 1229.1624 1226.9744 1226.1112 1226.3088 1226.4116 1226.4908 1226.6332 1226.8796 1226.92 1226.896 1227.204 1227.98 1228.6188 1229.1147 1229.5084 1229.8468 1230.2532 1230.4404 1230.2408 1230.2224 1230.6376 1231.428 1232.6212 1233.3995 1234.3984 1236.068 1237.9677 1239.718 1239.998 1240.2725 1240.7544 1241.3672 1242.5684 1244.0604 1245.0388 1245.7452 1246.418 1246.8676 1247.2131 1247.2284 1246.9489 1246.9808 1247.1432 1246.9392 1247.1024 1248.648 1250.3636 1251.1212 1251.7808 1252.8881 1254.4476 1255.418 1255.8052 1256.1324 1257.1216 1258.4296 1259.432 1259.2249 1258.5984 1257.9896 1258.6908 1260.678 1262.1667 1262.4844 1262.2488 1261.7792 1261.7296 1262.4512 1264.262 1266.2572 1266.7192 1266.8512 1266.478 1265.8036 1265.6036 1265.8348 1265.9332 1265.8628 1266.9404 1268.1796 1268.2852 1268.0852 1268.2596 1268.8333 1268.2275 1266.8964 1266.5404 1267.5068 1269.4496 1270.4304 1270.238 1270.5964 1271.2148 1272.0388 1272.0576 1271.7512 1272.0348 1272.5413 1273.4852 1274.55 1275.4536 1276.0784 1276.2772 1276.5588 1277.3472 1278.3289 1279.3312 1280.3793 1281.5144 1282.3824 1283.2092 1283.9764 1284.6539 1285.4916 1286.0388 1286.29 1286.55 1286.3004 1286.0311 1285.7769 1285.474 1285.1292 1284.5752 1284.1648 1283.8424 1284.2784 1284.8969 1285.424 1285.9816 1286.5815 1287.3392 1287.916 1288.5068 1288.9124 1289.3488 1290.0936 1291.1456 1291.7103 1292.46 1293.1184 1293.6996 1294.282 1295.0411 1295.5452 1295.6416 1296.1033 1297.0536 1297.6952 1298.408 1298.9656 1299.4069 1299.8732 1300.088 1300.1952 1300.3464 1300.3872 1299.2416 1297.6008 1296.788 1296.1976 1295.7272 1296.4248 1297.0051 1297.5004 1298.254 1299.2883 1300.5924 1301.8876 1304.082 1306.0652 1307.6428 1308.5316 1309.5184 1310.6504 1311.192 1310.6432 1310.4596 1310.5931 1310.5168 1310.8256 1311.2212 1311.2596 1311.1392 1311.3176 1311.4972 1311.3644 1311.5153 1311.9872 1312.8188 1313.89 1315.074 1316.2388 1317.594 1319.0732 1320.6908 1321.6221 1322.9144 1324.5472 1327.032 1329.3328 1333.2804 1335.8076 1339.528 1344.5968 1350.6096 1353.1096 1357.442 1360.3612 1362.4991 1363.9176 1366.188 1368.0887 1370.3 1374.0088 1376.3765 1378.7404 1382.8696 1385.3248 1391.0048 1394.4976 1398.4772 1401.1268 1402.9896 1406.2927 1407.7795 1408.8684 1410.7904 1412.7985 1414.6088 1416.064 1417.8052 1419.4083 1421.1948 1422.754 1424.486 1426.2924 1427.9932 1429.1235 1430.3124 1431.1564 1432.3132 1433.6428 1436.286 1438.0332 1439.7572 1441.9459 1446.1364 1446.7084 1445.2407 1445.4608 1447.0908 1447.938 1448.5576 1448.8104
1241.244 1241.1056 1241.1312 1241.0135 1241.208 1241.6912 1241.244 1240.3976 1239.6036 1238.5476 1237.4965 1236.7756 1235.8853 1235.026 1234.2996 1233.8756 1233.1588 1232.454 1232.4141 1232.2572 1232.6075 1231.698 1229.0344 1227.1272 1226.7264 1226.6528 1226.6768 1226.8593 1226.9696 1227.0048 1226.9596 1227.0156 1227.2604 1227.8029 1228.3932 1228.9332 1229.3083 1229.7268 1230.2716 1230.5204 1230.5548 1230.5428 1230.6667 1230.9805 1231.7656 1232.8865 1233.5284 1234.7412 1237.0211 1239.1508 1239.8243 1239.994 1240.2528 1241.2168 1242.6632 1243.8336 1244.6648 1245.1976 1245.5776 1245.7736 1245.8289 1245.684 1245.5952 1246.112 1245.9652 1246.086 1247.1632 1248.8376 1249.8728 1250.4633 1250.9752 1252.1632 1253.812 1254.8792 1255.4612 1256.498 1257.372 1257.2816 1257.2043 1257.0132 1256.8547 1257.3907 1259.2356 1260.4628 1261.5724 1261.3372 1260.4696 1260.692 1261.3988 1262.6636 1264.2456 1265.4248 1265.6896 1265.688 1265.3188 1264.7925 1264.594 1264.8405 1264.9264 1265.5009 1266.9084 1267.6012 1267.5428 1267.3452 1267.4763 1267.8445 1267.2275 1266.094 1266.1392 1267.5824 1269.1776 1269.6696 1269.8064 1270.1704 1270.5023 1270.4775 1270.5344 1271.012 1271.5884 1272.1356 1273.2001 1274.2512 1275.0392 1275.2904 1275.3616 1275.9248 1276.8356 1277.8396 1279.0768 1280.2832 1281.4492 1282.674 1283.384 1283.7888 1284.242 1284.9908 1285.6084 1285.8691 1285.808 1285.2992 1284.8572 1284.51 1284.1873 1283.7296 1283.3068 1282.8676 1282.6096 1283.048 1283.6864 1284.3552 1285.0789 1285.8468 1286.6871 1287.0992 1287.7264 1288.2944 1288.82 1289.552 1290.4132 1291.0604 1291.9376 1292.5872 1293.1132 1293.5812 1294.4852 1295.046 1294.5905 1294.904 1295.7952 1296.3464 1297.2484 1298.0676 1298.6432 1299.2296 1299.1608 1299.088 1299.4124 1299.8315 1298.8036 1297.0411 1296.2256 1295.7368 1294.9508 1295.4108 1296.0608 1296.5024 1297.324 1298.4136 1299.8008 1301.2992 1303.4329 1304.9896 1306.4299 1307.1827 1308.654 1309.962 1310.2672 1309.3112 1308.5428 1308.3956 1308.2964 1308.8772 1309.5408 1309.728 1309.6147 1309.6597 1309.82 1309.6312 1309.6075 1309.886 1310.8912 1312.1407 1313.144 1314.3408 1316.0096 1317.5232 1319.092 1320.1992 1321.3624 1323.488 1325.8387 1327.3547 1330.2664 1333.9512 1337.426 1340.0933 1343.856 1346.5137 1349.9352 1353.2584 1357.1664 1360.4216 1363.064 1365.4464 1367.438 1369.9436 1371.1597 1371.2964 1376.7476 1379.454 1386.2456 1392.5448 1397.2052 1399.6884 1401.6075 1405.0876 1406.8152 1407.9032 1409.6423 1411.4768 1413.4636 1415.0532 1416.5977 1418.0496 1419.9304 1421.56 1423.1772 1424.7651 1426.3676 1427.4948 1428.61 1429.1036 1430.0516 1431.5764 1433.8412 1436.146 1437.508 1438.0648 1439.242 1440.1987 1440.8503 1443.5511 1445.6416 1446.2968 1446.7168 1447.22
1243.0792 1242.9504 1242.556 1242.2208 1242.2177 1241.9327 1241.7472 1241.7008 1240.8412 1240.2188 1239.3132 1238.4803 1237.4172 1236.5404 1236.042 1235.4276 1234.2869 1233.614 1233.7068 1233.4747 1233.7076 1232.014 1229.4432 1227.7393 1227.1648 1227.2688 1227.3696 1227.3584 1227.5424 1227.392 1227.2692 1227.5269 1227.7396 1228.0084 1228.33 1229.0188 1229.338 1229.5292 1229.8564 1230.1163 1230.5933 1230.8772 1230.8044 1230.9164 1231.2168 1232.3712 1233.2869 1234.258 1236.5269 1238.2148 1239.3724 1239.9067 1240.0704 1240.4808 1241.6848 1242.9384 1243.9368 1244.5063 1244.8256 1244.948 1244.6736 1244.4648 1245.1024 1245.4784 1245.3997 1246.0692 1247.4464 1248.6567 1248.8888 1249.2776 1250.3663 1251.7816 1253.2096 1254.3232 1255.5676 1256.478 1256.5408 1255.7384 1255.4067 1255.5132 1256.3619 1258.09 1259.4572 1260.1244 1260.7844 1260.4148 1259.7664 1260.8656 1262.0972 1263.146 1263.8848 1264.4944 1264.8024 1264.6871 1264.2971 1263.9164 1263.6453 1263.8452 1264.5128 1265.5768 1266.43 1266.6748 1266.5212 1266.4868 1266.6172 1266.7579 1265.97 1265.5052 1266.5576 1267.4712 1268.352 1268.6632 1269.0441 1269.4896 1269.6216 1269.5504 1269.9088 1270.3911 1270.9556 1271.6404 1272.7328 1273.744 1274.1592 1274.236 1274.7328 1275.632 1276.618 1277.5724 1278.924 1280.1464 1281.322 1282.358 1282.908 1283.2488 1283.6636 1284.2827 1284.7988 1284.93 1284.8 1284.2784 1283.7316 1283.3572 1282.9384 1282.5176 1282.1836 1281.7684 1281.8503 1282.3832 1283.0312 1283.7944 1284.4877 1285.1548 1285.9136 1286.3688 1287.004 1287.6536 1288.4504 1289.0864 1289.722 1290.4236 1291.432 1292.2976 1292.8452 1293.054 1294.0212 1294.6444 1293.816 1293.8431 1294.4456 1295.1488 1296.03 1296.8716 1297.5464 1298.096 1298.2231 1298.2625 1298.5748 1298.8932 1298.0388 1296.6572 1295.7152 1295.0728 1294.2964 1294.422 1294.9705 1295.58 1296.4224 1297.3488 1298.7648 1300.6984 1302.6096 1304.2832 1305.1901 1305.8691 1307.77 1308.5756 1308.2192 1307.3944 1306.7548 1306.5308 1306.6716 1307.19 1307.8608 1308.5392 1308.4677 1308.1764 1308.356 1308.4424 1308.3188 1308.3684 1309.5536 1310.6736 1311.9152 1313.0944 1314.6 1315.9568 1317.2064 1318.5536 1319.9039 1322.0728 1325.0988 1326.7797 1329.6168 1333.2264 1335.6469 1337.6116 1341.3232 1343.72 1347.204 1349.5624 1352.344 1355.7224 1358.0464 1362.3232 1364.8124 1365.7372 1367.1412 1369.134 1372.5532 1375.0996 1378.9543 1381.7832 1393.9716 1399.0996 1401.274 1403.1188 1405.0656 1406.9631 1408.832 1410.636 1412.2852 1413.8652 1415.42 1416.8672 1418.9 1420.4672 1421.9652 1423.3212 1424.7045 1425.8268 1426.7452 1427.1156 1427.7043 1429.5845 1432.3468 1434.9204 1435.5488 1435.3649 1436.4692 1437.2885 1438.6312 1440.9 1444.0864 1444.436 1444.7568 1445.3336
1244.9863 1244.8584 1244.3884 1243.9308 1243.674 1243.5884 1243.644 1243.584 1242.5808 1242.0151 1241.052 1240.02 1239.058 1238.2764 1237.516 1236.3735 1235.8732 1236.1396 1236.3984 1235.3096 1234.1536 1232.2736 1230.458 1228.6523 1227.5364 1227.6156 1227.8304 1228.0225 1228.1748 1227.9996 1228.076 1228.1552 1228.152 1228.1785 1228.3259 1228.794 1229.2712 1229.5712 1229.6664 1229.8384 1230.4167 1230.8784 1231.0367 1231.1688 1231.1683 1231.8092 1233.1764 1233.878 1235.7396 1237.5868 1238.7688 1239.4464 1240.1732 1240.2612 1240.502 1241.4868 1242.6792 1243.5225 1243.8491 1243.906 1243.828 1244.1696 1244.6332 1244.7236 1245.3287 1246.0024 1246.8268 1247.57 1247.8168 1248.7552 1250.1232 1251.488 1252.8276 1254.11 1255.5564 1255.7709 1254.9768 1254.2911 1254.4976 1255.7616 1257.5385 1258.7465 1259.3276 1259.9084 1259.4984 1259.384 1260.2823 1261.5239 1262.4856 1262.9503 1263.1996 1263.618 1263.6556 1263.4868 1263.2992 1263.2288 1263.012 1263.3152 1264.6252 1265.4531 1265.2548 1264.974 1265.0236 1265.4996 1266.0072 1265.5128 1264.7096 1265.0336 1266.1644 1266.6572 1267.1943 1267.6407 1268.2372 1268.7076 1268.63 1268.7012 1269.1812 1269.3988 1270.0952 1270.952 1272.1488 1273.0367 1273.0372 1273.482 1274.5256 1275.6896 1276.7872 1277.6064 1278.7892 1279.9084 1280.9036 1281.5692 1282.1525 1282.6924 1283.0 1283.2656 1283.7684 1283.914 1283.596 1282.9935 1282.3772 1281.9852 1281.5037 1281.2692 1281.0492 1280.9532 1281.5704 1281.9991 1282.532 1283.2704 1283.944 1284.4152 1284.8636 1285.5269 1286.498 1287.2867 1287.9404 1288.3356 1289.1444 1290.0828 1291.0367 1291.98 1292.6228 1292.6884 1293.1444 1293.3436 1292.9976 1293.0272 1293.4508 1294.214 1295.0717 1295.6523 1296.2205 1296.7196 1297.0585 1297.2456 1297.6616 1297.852 1297.1492 1295.9156 1294.8593 1294.2952 1293.7656 1293.4808 1293.864 1294.78 1295.7428 1296.59 1297.4747 1298.5469 1300.4728 1301.976 1302.6667 1303.7468 1305.3804 1305.9429 1305.486 1305.258 1305.2196 1304.7412 1304.6316 1305.1237 1306.0228 1306.9717 1306.9076 1306.398 1306.5712 1306.6641 1306.5413 1306.8612 1308.0896 1309.2104 1310.5281 1311.4928 1312.7916 1314.2421 1315.5964 1317.0037 1318.2788 1319.9828 1322.9427 1326.0436 1328.5323 1330.8748 1333.2308 1335.2388 1338.9476 1341.1628 1345.6337 1348.6472 1349.916 1351.728 1354.1648 1356.96 1359.2244 1361.0156 1363.152 1366.3296 1369.6016 1371.7303 1373.9392 1376.6128 1390.6252 1397.2612 1399.76 1402.2096 1403.7952 1405.7744 1407.8916 1409.6917 1411.1843 1412.49 1414.0272 1415.5712 1417.8036 1419.4084 1420.6868 1421.8124 1423.116 1424.0304 1424.828 1425.2744 1425.6641 1427.2528 1430.048 1431.4032 1432.5204 1434.0308 1436.4784 1436.22 1436.8712 1437.6128 1440.5408 1441.84 1442.3284 1442.65
1246.5248 1246.3328 1245.7996 1245.2284 1245.1685 1245.3628 1245.2336 1244.6312 1244.0472 1243.4432 1242.2808 1241.0056 1240.2676 1239.8301 1239.0936 1238.6344 1238.3092 1238.8315 1238.9432 1237.2416 1234.7952 1233.1072 1231.4819 1229.4412 1227.9764 1227.6492 1227.832 1228.4431 1228.7516 1228.7844 1228.8584 1228.8016 1228.4384 1228.3368 1228.4188 1228.5732 1228.952 1229.3832 1229.572 1229.6528 1230.216 1230.6776 1231.1648 1231.3832 1231.4204 1231.7651 1233.0564 1233.8636 1235.1036 1236.9764 1237.9792 1238.5144 1239.8964 1240.2596 1240.2628 1240.3981 1241.3744 1242.3071 1242.5692 1243.1892 1243.8624 1244.3608 1244.5012 1244.7628 1245.4872 1246.2888 1247.0715 1247.4612 1247.8048 1248.8071 1249.9952 1251.2784 1252.806 1254.2885 1254.958 1254.6476 1253.592 1253.5975 1255.108 1256.9928 1258.1744 1258.76 1259.1964 1259.7004 1259.2064 1259.5961 1260.3944 1261.484 1262.3696 1262.484 1262.4492 1262.8164 1262.6348 1262.4052 1262.328 1262.4144 1262.3464 1262.9568 1264.17 1264.5388 1264.3835 1264.1284 1264.406 1265.0756 1265.4849 1264.6736 1264.0808 1264.5264 1265.1917 1265.6188 1266.2472 1266.7607 1267.3204 1267.7412 1267.654 1267.7604 1268.2876 1268.6987 1269.4304 1270.4392 1271.5896 1271.9032 1272.2421 1273.322 1274.4568 1275.6112 1276.7936 1277.6256 1278.6804 1279.7004 1280.5436 1281.1548 1281.6564 1282.2028 1282.6488 1282.6871 1282.8212 1282.778 1282.2096 1281.6567 1281.0627 1280.6116 1280.098 1280.0717 1280.2828 1280.6316 1281.2664 1281.6328 1282.032 1282.6088 1283.2512 1283.716 1284.2516 1285.0684 1286.1748 1286.9924 1287.518 1287.8171 1288.766 1290.0181 1291.2391 1291.6576 1292.1444 1292.6292 1292.6523 1292.5411 1292.1816 1292.1904 1292.5764 1293.1508 1294.0748 1294.7885 1295.1492 1295.5892 1295.984 1296.2913 1296.8376 1296.9304 1296.3484 1295.1611 1294.0457 1293.5312 1293.1552 1292.7104 1292.7896 1293.3663 1294.6075 1296.0037 1296.8387 1297.442 1298.7623 1300.1296 1301.2532 1302.4436 1303.2756 1303.63 1303.8644 1304.0284 1303.5789 1302.8268 1302.8796 1303.4292 1304.3997 1304.9661 1304.71 1304.5316 1304.7136 1304.4865 1304.6028 1305.6525 1307.0304 1307.8983 1309.0176 1309.9056 1311.0692 1312.5197 1313.8356 1315.622 1317.1932 1318.7148 1320.8892 1324.0028 1327.8916 1329.746 1331.394 1333.1332 1335.9427 1338.6444 1343.5961 1346.4608 1347.844 1349.3008 1351.732 1354.7528 1357.6908 1359.3556 1361.1544 1365.004 1367.612 1370.3472 1372.6504 1377.0344 1387.2284 1394.082 1398.2776 1400.9176 1402.9144 1404.6567 1407.0411 1408.8268 1410.1147 1411.2347 1412.4352 1413.4385 1415.6388 1417.8228 1419.8988 1420.7316 1421.7168 1422.4584 1423.1304 1423.5688 1424.1168 1425.0544 1426.9545 1428.4471 1430.1068 1431.7772 1434.3888 1435.2664 1435.184 1435.5032 1436.3823 1438.0416 1438.59 1439.246
1248.2896 1248.1248 1247.4536 1247.0376 1247.8872 1247.4248 1246.6307 1246.0251 1245.4197 1245.0724 1244.0812 1244.3796 1242.5092 1241.2333 1240.7996 1240.7203 1240.1221 1240.246 1239.8271 1238.5176 1236.5717 1235.0764 1232.4432 1229.9512 1228.5604 1228.15 1227.7976 1228.4048 1228.9004 1229.0132 1229.0599 1229.1864 1228.7228 1228.334 1228.4728 1228.64 1228.7156 1228.8851 1229.2036 1229.5123 1230.0132 1230.4484 1231.1044 1231.3956 1231.5524 1231.8284 1233.0176 1234.0504 1234.508 1236.0455 1236.8296 1237.32 1238.9408 1239.9984 1240.2024 1240.2296 1240.3224 1241.16 1242.3684 1243.6116 1244.288 1244.7312 1244.8716 1245.1396 1245.924 1246.952 1247.7072 1247.9432 1248.2408 1248.8608 1250.0072 1251.2231 1252.7344 1253.7888 1253.6799 1252.8376 1252.3835 1253.6708 1255.952 1257.2393 1257.814 1258.3596 1259.0332 1259.0339 1258.7444 1259.3428 1259.8016 1260.6752 1261.3851 1261.4156 1261.4376 1261.7087 1261.618 1261.1932 1261.2684 1261.5732 1261.8496 1262.3168 1262.8456 1263.236 1263.7472 1263.6824 1264.1548 1264.798 1264.9401 1264.2384 1263.834 1263.842 1264.258 1264.7725 1265.314 1265.6396 1266.0836 1266.5652 1266.614 1266.7708 1267.3424 1268.0648 1269.0292 1270.1348 1270.9012 1271.2372 1272.1132 1273.15 1274.1667 1275.3132 1276.534 1277.4636 1278.5492 1279.4652 1280.1548 1280.7653 1281.23 1281.5708 1281.748 1281.6512 1281.5109 1281.3171 1280.8519 1280.4631 1279.7437 1279.1932 1278.84 1279.2224 1279.9332 1280.3333 1280.7072 1281.004 1281.3116 1281.742 1282.418 1283.218 1284.1232 1284.8856 1285.656 1286.3064 1286.8516 1287.2908 1288.4576 1289.74 1291.0668 1291.5604 1291.6556 1292.0204 1291.9155 1291.706 1291.2648 1291.1049 1291.48 1291.9248 1292.7396 1293.4052 1293.8564 1294.3788 1294.7224 1295.1808 1295.746 1295.9332 1295.8224 1294.96 1293.7249 1292.6783 1292.322 1291.9004 1291.658 1292.0868 1293.2444 1294.7556 1295.8728 1296.4056 1297.5137 1298.9185 1300.0492 1300.9188 1301.406 1301.5244 1301.7625 1302.0919 1301.5352 1300.892 1301.2688 1301.6688 1302.4108 1302.8732 1302.7604 1302.714 1303.024 1303.0704 1303.3188 1304.1292 1305.3104 1306.0208 1307.2416 1308.3976 1309.5905 1310.504 1311.2115 1313.494 1315.904 1317.2839 1318.8988 1321.494 1324.954 1328.042 1330.2192 1331.8096 1334.5887 1337.4712 1339.9612 1342.7892 1345.692 1347.228 1350.8568 1353.7911 1355.8312 1357.6168 1359.3132 1361.398 1364.6204 1368.5188 1371.1576 1374.8088 1384.1924 1388.042 1392.406 1397.3292 1401.0468 1403.9092 1406.4248 1407.9152 1408.796 1409.8464 1410.7892 1411.8925 1413.4456 1414.4576 1416.7776 1418.8936 1419.826 1420.2644 1420.916 1421.7192 1422.588 1423.7177 1425.3616 1426.684 1428.298 1429.806 1431.3572 1432.23 1432.8647 1433.6024 1434.9056 1435.7393 1436.2272 1437.0856
1249.7335 1249.748 1249.2144 1248.8528 1249.2144 1248.7744 1247.9644 1247.2372 1246.5564 1246.3276 1245.8988 1245.7524 1244.2388 1243.0604 1242.5076 1242.4236 1241.8484 1240.7117 1240.4752 1239.892 1238.3236 1236.7852 1234.1416 1231.7247 1229.758 1229.098 1228.3776 1228.3287 1228.6244 1228.9132 1229.0153 1229.2504 1229.1796 1228.5876 1228.5208 1228.7264 1228.7804 1228.99 1229.1755 1229.4508 1229.7612 1230.2748 1230.9276 1231.3212 1231.5397 1231.8252 1233.0225 1234.0776 1234.3912 1234.9752 1236.0168 1236.5856 1238.228 1239.4408 1240.0216 1240.2408 1240.2456 1240.5424 1241.9373 1243.3148 1244.0592 1244.6655 1245.162 1245.5708 1246.3728 1247.3431 1248.0887 1248.6016 1249.0936 1249.5392 1250.4039 1251.2728 1252.1536 1252.6016 1252.2999 1251.6224 1252.218 1254.1884 1256.0032 1256.8248 1257.2972 1257.9052 1258.4388 1258.022 1258.0812 1258.8076 1259.156 1259.6248 1259.7651 1260.1716 1260.5592 1260.7728 1260.8405 1260.4589 1260.306 1260.6204 1261.0696 1261.5144 1261.9169 1262.7552 1263.204 1263.3264 1264.0397 1264.854 1264.8872 1263.8368 1263.0557 1262.9884 1263.6124 1264.394 1264.8484 1264.9069 1265.1956 1265.482 1265.602 1265.906 1266.4816 1267.5416 1268.8477 1269.9515 1270.5396 1271.1108 1272.0116 1272.9445 1273.9764 1275.134 1276.3076 1277.2292 1278.2788 1279.0508 1279.6068 1280.1757 1280.7732 1281.0004 1280.8577 1280.5128 1280.1868 1279.9692 1279.6512 1279.376 1278.5316 1277.9427 1278.0472 1278.7656 1279.758 1280.118 1280.332 1280.6031 1280.9332 1281.37 1282.0428 1282.814 1283.68 1284.3433 1285.0496 1285.612 1286.1523 1286.7708 1287.8328 1288.9856 1290.1523 1290.6829 1290.8436 1290.9476 1290.894 1290.8092 1290.3928 1290.0616 1290.4088 1290.9688 1291.8243 1292.3763 1292.9092 1293.486 1293.8544 1294.388 1295.0188 1295.278 1295.2864 1294.624 1293.6584 1292.2969 1291.4612 1290.9211 1290.6332 1291.206 1292.0715 1293.2228 1294.712 1295.4656 1296.4464 1297.8176 1298.8108 1299.4116 1299.7732 1299.8884 1299.8624 1299.7472 1299.2744 1299.0792 1299.5304 1300.084 1300.7356 1301.0652 1301.1613 1301.2556 1301.676 1301.9432 1302.2316 1302.7556 1303.5112 1304.612 1306.0376 1306.9056 1307.7888 1308.536 1309.4515 1311.4012 1313.4304 1314.8503 1317.218 1319.6244 1323.0852 1326.1476 1328.9968 1331.0416 1333.4784 1336.1304 1338.81 1341.1868 1344.0416 1346.0928 1349.8304 1352.6927 1354.2472 1356.0135 1358.186 1360.458 1362.7885 1364.946 1367.6425 1370.9208 1376.5812 1382.9508 1388.1844 1393.386 1397.2932 1400.7797 1405.4904 1407.3728 1407.7913 1408.4224 1409.0292 1410.0348 1412.4728 1413.2416 1413.7744 1415.2008 1416.8796 1417.6652 1418.9008 1419.9137 1420.8944 1422.0544 1424.0833 1425.7576 1427.0436 1428.1276 1429.1636 1429.846 1430.5912 1431.3464 1432.0312 1433.1704 1434.7472 1435.6184
1251.5269 1251.3907 1251.1036 1250.6964 1250.6704 1250.6033 1249.9724 1249.0852 1247.9872 1247.6232 1247.21 1246.562 1245.7017 1245.0688 1244.5736 1244.3096 1244.3612 1242.7596 1242.0956 1241.4197 1240.1948 1238.4965 1236.6047 1234.3512 1231.952 1230.912 1230.528 1229.592 1228.6772 1228.6964 1228.8809 1229.1112 1229.4285 1229.394 1229.1488 1228.9728 1228.9784 1229.0408 1229.1495 1229.4056 1229.7728 1229.9712 1230.3788 1230.8412 1231.3693 1231.6716 1232.6876 1233.9996 1234.528 1234.744 1235.544 1236.5104 1238.214 1239.682 1240.2196 1240.3036 1240.4348 1240.4485 1241.8171 1243.3972 1244.35 1244.9708 1245.5356 1246.2117 1247.168 1248.1328 1248.89 1249.386 1249.7976 1250.1816 1250.6072 1250.7375 1251.0104 1250.9993 1250.8208 1251.2177 1253.0132 1254.798 1256.0204 1256.5771 1256.9633 1257.3544 1257.5153 1257.4088 1257.7449 1258.1848 1258.4004 1258.5764 1258.4492 1259.3892 1260.0 1260.0648 1259.9728 1259.6896 1259.3468 1259.8628 1260.1908 1260.546 1261.126 1262.134 1262.6808 1262.8928 1263.56 1264.548 1264.5236 1263.3461 1262.2168 1262.0712 1262.8196 1263.6052 1264.1595 1264.294 1264.472 1264.3967 1264.5752 1265.08 1266.168 1267.4584 1268.4784 1269.404 1270.064 1270.8215 1271.7509 1272.6077 1273.6395 1274.7828 1275.816 1276.7952 1277.826 1278.5084 1279.0336 1279.5624 1280.0204 1279.9908 1279.5392 1279.0536 1278.6372 1278.4692 1278.3976 1278.1344 1277.4712 1277.4368 1277.764 1278.3 1279.358 1279.7349 1279.8788 1280.1124 1280.5848 1281.1536 1281.8192 1282.4728 1283.16 1283.6528 1284.3907 1284.9044 1285.386 1286.1316 1287.1644 1288.1292 1288.8856 1289.2784 1289.6816 1289.7952 1289.5656 1289.324 1288.9816 1288.952 1289.5436 1290.3124 1291.1152 1291.6024 1292.1783 1292.6672 1293.256 1293.7152 1294.2384 1294.7432 1295.092 1294.2592 1292.97 1291.6003 1290.6147 1289.8372 1289.5336 1290.2064 1290.9211 1291.9188 1293.3444 1294.218 1295.1376 1296.4768 1297.1504 1297.3336 1297.6572 1297.9412 1297.6736 1297.4296 1297.4728 1297.444 1297.6316 1298.2491 1298.9144 1299.252 1299.3376 1299.4744 1299.8048 1300.1304 1300.604 1301.2104 1302.106 1303.358 1304.6332 1305.2572 1306.0464 1306.9167 1307.9508 1309.2284 1311.132 1313.1016 1315.446 1317.926 1320.6616 1324.1616 1327.3184 1329.6776 1332.3428 1334.6652 1337.0627 1339.1685 1342.154 1344.8932 1347.6768 1350.5424 1352.3024 1354.3136 1356.46 1359.1472 1361.3632 1362.6976 1365.4584 1369.664 1373.3856 1376.6768 1381.382 1384.9996 1390.7192 1394.7305 1399.9104 1403.4784 1405.8032 1406.4008 1406.9252 1407.4445 1410.12 1411.8809 1412.6112 1413.5248 1414.694 1415.7452 1416.674 1417.5564 1418.5513 1419.9097 1421.7924 1423.8452 1425.572 1426.524 1427.07 1427.6772 1428.606 1429.5132 1430.3956 1431.7324 1433.0972 1433.8972
1253.4252 1252.9229 1252.7396 1252.5308 1252.3672 1252.228 1251.4803 1250.6827 1250.0568 1249.2672 1248.474 1247.9556 1247.416 1246.7384 1246.0968 1245.652 1245.75 1244.6108 1243.4956 1242.7572 1242.0756 1240.4956 1238.5464 1236.168 1234.3848 1233.5977 1232.636 1231.1368 1229.7988 1229.066 1228.9048 1229.0872 1229.2788 1229.5308 1229.6176 1229.4384 1229.4257 1229.2128 1229.2496 1229.6096 1229.8881 1229.984 1230.2892 1230.4476 1230.8876 1231.3292 1232.306 1234.0404 1234.664 1234.832 1235.3744 1236.3104 1237.8564 1239.5756 1240.2885 1240.4252 1240.63 1240.6724 1241.606 1243.418 1244.9668 1245.6836 1246.162 1246.9836 1247.9705 1248.6072 1249.0548 1249.3636 1249.7231 1249.9728 1250.108 1249.8145 1249.7936 1249.8624 1250.2112 1251.7776 1253.6356 1255.03 1256.2316 1256.6124 1256.4056 1256.5472 1256.9496 1257.1936 1257.2576 1257.2736 1257.4148 1257.6212 1258.0901 1259.3276 1260.0864 1259.7272 1259.1376 1258.752 1258.4612 1259.3228 1259.8596 1260.1492 1260.7349 1261.4436 1262.1544 1262.4847 1262.9944 1264.0624 1264.0244 1262.9556 1261.736 1261.3232 1262.1235 1262.73 1263.318 1263.71 1263.7496 1263.4104 1263.5592 1264.2161 1265.3359 1266.6232 1267.696 1268.676 1269.64 1270.4664 1271.39 1272.2308 1273.2308 1274.3436 1275.3456 1276.3345 1277.35 1278.05 1278.492 1278.8433 1279.0708 1278.8348 1278.0552 1277.672 1277.4803 1277.3556 1277.3424 1277.1096 1276.7985 1277.1256 1277.6112 1278.1104 1278.9188 1279.2045 1279.3596 1279.566 1280.1344 1280.8536 1281.6 1282.2456 1282.8496 1283.2688 1283.9156 1284.3556 1284.7404 1285.3995 1286.3749 1287.2117 1287.6409 1287.9055 1288.3392 1288.3665 1287.9744 1287.7697 1287.9336 1288.4576 1289.0508 1289.7588 1290.3368 1290.7552 1291.4672 1292.0072 1292.6407 1293.252 1293.792 1294.5768 1295.2056 1294.2767 1292.8052 1291.2372 1290.0988 1289.2716 1288.7504 1289.2808 1290.0093 1291.034 1292.1667 1292.674 1293.5544 1294.8057 1295.252 1295.3264 1295.6829 1295.9524 1295.4512 1295.5304 1296.056 1296.1216 1296.2509 1296.7052 1297.4592 1297.8656 1297.8184 1297.7664 1297.7064 1297.9647 1298.8496 1299.7472 1300.9108 1302.0044 1303.006 1303.7068 1304.6968 1305.7128 1306.8716 1308.3588 1310.3192 1312.3751 1314.7748 1317.658 1320.4032 1322.6312 1325.6736 1328.3304 1331.0748 1333.178 1335.5364 1337.4164 1339.5092 1341.8821 1344.4777 1347.6664 1350.4104 1353.0328 1355.0072 1356.8944 1359.4736 1361.5504 1363.744 1368.196 1373.0585 1375.2808 1378.054 1380.9803 1384.8593 1387.7056 1394.3192 1400.2472 1402.4672 1404.028 1405.3389 1405.6564 1407.2288 1409.0392 1410.9865 1412.3848 1413.3909 1413.7365 1414.5532 1415.6404 1416.7024 1417.7825 1419.5732 1421.2612 1423.2816 1424.4896 1425.2356 1426.0908 1427.1708 1428.0732 1429.0908 1430.0964 1431.1068 1431.9564
1255.2437 1254.5228 1254.396 1254.2728 1253.8656 1253.4672 1253.338 1252.4285 1251.8124 1251.062 1249.8656 1249.304 1248.874 1248.0308 1247.3593 1247.1096 1246.8656 1245.9464 1245.0167 1244.4248 1243.8812 1242.814 1240.9844 1239.218 1237.3232 1236.0336 1234.0112 1232.7544 1231.6049 1230.3215 1230.434 1229.7164 1229.4617 1229.4703 1229.5988 1229.7452 1230.158 1229.974 1229.84 1229.904 1229.89 1229.9004 1230.1272 1230.3055 1230.6024 1230.9016 1231.3992 1233.2816 1234.6272 1234.9664 1235.312 1235.88 1237.1768 1238.9608 1240.4752 1240.776 1240.9208 1241.0216 1241.6796 1243.4292 1245.0167 1246.1016 1246.7368 1247.5416 1248.3228 1248.5308 1248.8496 1249.3296 1249.1868 1248.9828 1248.7635 1248.6388 1248.9 1249.7136 1251.078 1252.9124 1254.37 1255.1028 1255.9803 1255.9004 1255.0808 1255.0704 1255.6976 1255.9368 1255.9487 1255.9904 1256.396 1257.0032 1257.794 1258.6908 1259.8236 1259.9508 1258.8396 1258.0364 1257.9313 1258.688 1259.2544 1259.532 1260.3389 1260.8588 1261.3936 1261.56 1262.1472 1263.4272 1263.5184 1262.6049 1261.2612 1260.4692 1260.9644 1261.718 1262.4808 1262.888 1262.8776 1262.5424 1262.5784 1263.344 1264.5107 1265.6052 1266.6208 1267.8359 1269.0164 1269.8772 1271.0012 1272.0732 1272.9692 1273.8932 1275.1595 1276.4979 1277.094 1277.518 1277.8796 1277.9756 1277.9464 1277.6832 1276.9556 1276.6388 1276.5516 1276.4052 1276.3744 1276.1729 1276.1704 1276.6104 1277.1852 1277.7428 1278.1772 1278.442 1278.6796 1279.0204 1279.6588 1280.374 1281.114 1281.6636 1282.2284 1282.746 1283.3516 1283.794 1284.1488 1284.572 1285.2476 1285.9731 1286.4772 1286.7084 1286.8647 1286.8073 1286.6304 1286.5856 1287.1776 1288.0599 1288.6904 1289.1096 1289.5717 1290.0588 1290.9164 1291.47 1292.0887 1292.776 1293.2944 1294.0441 1294.4344 1293.8359 1292.4844 1290.8533 1289.634 1288.9828 1288.3212 1288.2148 1289.1796 1290.026 1290.7596 1291.2148 1291.8964 1292.1395 1292.3588 1292.73 1293.36 1293.784 1293.5573 1293.7092 1294.1292 1294.4612 1294.9044 1295.3116 1295.9832 1296.3984 1296.4012 1296.2788 1296.054 1295.9044 1296.7043 1298.2212 1299.4432 1300.3967 1301.254 1302.2203 1303.4736 1304.6 1305.8544 1307.4104 1309.5664 1311.8287 1314.6608 1317.552 1319.9095 1322.2416 1324.5204 1326.9436 1329.492 1331.548 1333.7744 1335.9568 1338.0636 1340.306 1342.7008 1345.8872 1349.7864 1352.2479 1354.1736 1355.7688 1358.5436 1360.9836 1363.4492 1366.0684 1369.3496 1373.676 1376.3252 1378.3995 1381.9148 1385.514 1387.8572 1392.0332 1396.774 1400.6492 1403.0564 1403.4772 1403.8616 1404.512 1406.5624 1409.5312 1411.2168 1411.3256 1411.7468 1413.1124 1414.7756 1415.734 1417.1868 1418.6237 1420.1368 1421.8976 1423.314 1424.4108 1425.6188 1426.5212 1427.5048 1428.3224 1429.1049 1429.8912
1256.8676 1256.5964 1256.544 1256.2432 1255.756 1254.8824 1255.1948 1254.3076 1253.1764 1252.386 1251.044 1250.3768 1249.802 1249.0996 1248.752 1248.5936 1247.904 1246.964 1246.2632 1245.572 1244.5692 1243.8588 1242.5764 1241.2421 1239.376 1237.4415 1235.6184 1234.9329 1233.9937 1232.7231 1232.4684 1232.266 1231.1193 1230.2607 1230.2812 1230.0339 1230.1852 1230.3596 1230.6112 1230.7568 1230.3484 1230.0629 1230.1584 1230.4264 1230.6472 1230.9095 1231.3696 1232.4728 1234.5104 1235.2336 1235.3665 1235.7537 1236.9656 1238.4777 1240.2944 1241.0432 1241.2008 1241.3336 1241.6948 1243.302 1244.6848 1245.9167 1246.8856 1247.3976 1247.8636 1248.0604 1248.3792 1248.8112 1248.2772 1247.8572 1248.0148 1248.4675 1249.5153 1250.8488 1252.2092 1253.2932 1253.9404 1254.4812 1254.9036 1254.5148 1253.8296 1253.8271 1254.1968 1254.1128 1254.2744 1254.5833 1255.472 1256.5656 1257.9548 1259.1091 1259.9076 1260.0109 1258.8284 1257.6764 1257.5568 1258.3312 1258.764 1258.7249 1259.4092 1260.0093 1260.5928 1260.8936 1261.364 1262.748 1263.0928 1262.4255 1261.218 1260.1924 1259.9788 1260.7692 1261.7584 1262.2056 1262.2168 1261.9199 1262.24 1263.1128 1264.1757 1264.9612 1265.8008 1266.8271 1267.9308 1269.0332 1270.3925 1271.3636 1272.3524 1273.4236 1274.8204 1276.3364 1276.4524 1276.7563 1277.1484 1277.1437 1276.9872 1276.7432 1276.2612 1275.8245 1275.6476 1275.5956 1275.4976 1275.3503 1275.6792 1276.2632 1276.5292 1276.882 1277.2068 1277.4844 1277.8268 1278.3484 1279.0244 1279.73 1280.3444 1280.8748 1281.5773 1282.2068 1282.8108 1283.2437 1283.4928 1283.78 1284.3092 1284.9724 1285.5181 1285.5652 1285.6304 1285.6288 1285.86 1286.2136 1286.9008 1287.8008 1288.3936 1288.4768 1288.8188 1289.4052 1290.25 1290.8148 1291.4849 1292.0248 1292.444 1293.152 1293.4128 1293.2031 1292.19 1290.4244 1289.2203 1288.3997 1287.546 1287.11 1288.054 1288.6348 1289.074 1289.7916 1290.154 1290.1636 1290.4116 1290.746 1291.3505 1291.8624 1291.8164 1291.8099 1292.2908 1293.0228 1293.542 1293.946 1294.6056 1295.0256 1294.994 1294.942 1294.9572 1294.8812 1295.4452 1297.1476 1298.1088 1298.936 1299.8268 1300.9069 1302.7087 1303.968 1305.104 1306.4856 1308.6216 1310.6024 1312.8304 1316.3809 1318.9744 1321.2728 1323.8796 1325.9012 1328.1512 1330.3976 1333.1112 1335.236 1337.438 1339.6165 1341.864 1344.3593 1347.6 1350.0104 1353.0632 1354.0392 1356.8132 1360.1316 1362.1469 1362.9836 1364.7512 1368.8232 1373.9908 1375.942 1379.974 1382.53 1385.8604 1388.1467 1390.07 1393.2844 1400.4276 1401.234 1402.7136 1403.1976 1404.2992 1406.4552 1408.5272 1409.2456 1409.5404 1411.0452 1412.638 1413.9053 1415.5771 1417.1901 1418.8976 1420.8536 1422.002 1423.0076 1424.222 1424.8892 1425.7096 1426.5352 1427.3184 1428.0328
1259.626 1259.4164 1258.846 1258.3396 1257.7372 1257.4875 1258.1049 1257.8424 1256.6135 1253.848 1252.1804 1251.4316 1250.8851 1250.7885 1250.7308 1250.3236 1249.3013 1248.1453 1247.3376 1246.5864 1245.7493 1245.1476 1244.048 1242.904 1241.0251 1239.1364 1237.6832 1236.3848 1234.9937 1234.3552 1234.0304 1234.0281 1233.6284 1232.5956 1231.6432 1231.5416 1231.0588 1230.7653 1230.956 1231.2056 1231.3688 1231.028 1230.7312 1230.7584 1230.9872 1231.1008 1231.2712 1231.8384 1234.254 1235.7524 1236.2588 1236.6451 1237.2136 1238.0817 1239.6228 1240.9652 1241.4164 1241.6244 1241.842 1242.8636 1244.3668 1245.4884 1246.4308 1246.874 1247.1516 1247.3036 1247.4368 1247.1752 1246.8408 1247.1384 1248.0452 1249.1924 1250.3816 1251.1191 1251.8593 1252.58 1253.4344 1253.7552 1253.7124 1253.4332 1253.3356 1253.5109 1253.2551 1253.0872 1253.2112 1253.8143 1255.6632 1257.148 1258.4921 1259.228 1259.1744 1259.3184 1258.8477 1257.5413 1257.1608 1257.7816 1258.1416 1257.864 1258.2312 1258.9056 1259.602 1260.2164 1260.768 1261.9752 1262.3516 1262.1204 1261.03 1259.8628 1259.5892 1260.23 1261.2203 1261.4916 1261.0996 1261.0212 1262.1648 1263.0295 1263.6028 1264.2372 1265.2015 1266.0568 1267.0833 1268.2296 1269.6971 1270.7316 1271.7924 1272.8188 1273.9756 1275.0148 1275.484 1275.7888 1276.0768 1276.1536 1276.1512 1275.8896 1275.35 1274.8923 1274.8372 1274.8676 1274.668 1274.5712 1274.936 1275.6207 1275.9056 1276.0312 1276.278 1276.494 1276.942 1277.5212 1278.2128 1278.8768 1279.5432 1280.3352 1281.276 1282.0376 1282.5532 1282.7604 1282.7676 1282.9517 1283.5116 1284.058 1284.4528 1284.6144 1284.8804 1284.8724 1285.3176 1286.036 1286.5272 1286.968 1287.5864 1287.8784 1288.3912 1289.0248 1289.5977 1290.1072 1290.6904 1291.0992 1291.3296 1292.0656 1292.3475 1292.0468 1291.0844 1289.7388 1288.7568 1287.94 1286.8656 1286.1472 1286.7944 1287.1672 1287.538 1288.1908 1288.2832 1288.1232 1288.3956 1288.9805 1289.3292 1289.6412 1289.6492 1289.8876 1290.926 1291.9252 1292.2556 1292.462 1292.9584 1293.3224 1293.2264 1293.196 1293.4224 1293.6312 1294.0372 1295.2844 1296.5848 1297.4664 1298.4476 1299.8684 1302.15 1303.2684 1304.3073 1305.6135 1307.4904 1309.0424 1310.4648 1312.9688 1316.8832 1319.6152 1323.0372 1325.1508 1327.0984 1328.9928 1331.9648 1334.2665 1336.7296 1339.0424 1341.8516 1343.5132 1345.8243 1347.8331 1350.3568 1351.8665 1353.7688 1356.3304 1359.084 1360.6976 1362.8217 1365.2832 1368.9628 1373.0573 1377.248 1380.52 1383.306 1385.9452 1387.8505 1390.2312 1392.8536 1394.3112 1397.9572 1400.298 1401.5828 1402.83 1405.2448 1404.808 1406.188 1409.0096 1410.8356 1412.1996 1413.9968 1415.8816 1417.8016 1419.4192 1420.2308 1421.2908 1422.3389 1423.0092 1423.5856 1424.5176 1425.7728 1426.4552
1260.866 1260.6388 1260.5276 1260.2131 1259.2396 1258.9772 1259.3217 1259.024 1257.7704 1255.0432 1253.25 1252.3236 1252.378 1252.5325 1252.1844 1251.558 1250.3372 1249.0436 1248.1488 1247.6263 1247.0292 1246.2932 1245.2911 1244.232 1242.2788 1240.5292 1238.9257 1237.3744 1236.0583 1235.6119 1235.4384 1234.9991 1234.214 1233.53 1232.7928 1232.592 1232.1804 1231.8387 1231.4136 1231.3464 1231.9167 1231.7456 1231.3536 1231.1584 1231.1263 1231.1904 1231.3896 1231.8431 1234.0492 1235.8707 1236.9612 1237.4916 1237.944 1238.548 1239.594 1240.8964 1241.6508 1241.8796 1242.0468 1242.5884 1243.8876 1245.2764 1245.874 1246.37 1246.582 1246.51 1246.3129 1245.9872 1246.7424 1247.9248 1248.7635 1249.5284 1249.8864 1250.1664 1250.9608 1252.1232 1252.6616 1252.7904 1252.7852 1252.6324 1252.8004 1252.8812 1252.54 1252.7784 1253.2808 1254.5608 1256.1792 1256.9904 1257.5872 1257.7568 1257.6456 1257.948 1258.446 1257.4805 1256.864 1257.0608 1257.3656 1257.1536 1257.2592 1257.772 1258.4452 1259.2756 1260.2983 1261.3217 1261.6061 1261.4004 1260.0988 1258.6133 1258.9628 1260.0789 1260.6613 1260.5964 1260.3796 1261.0308 1262.4415 1262.892 1262.8612 1263.5516 1264.5112 1265.4592 1266.6031 1267.7816 1269.2532 1270.334 1271.318 1272.1989 1273.0956 1273.866 1274.5352 1274.8737 1275.084 1275.2456 1275.3424 1275.0792 1274.542 1274.0652 1273.938 1274.034 1273.9288 1273.8336 1274.0889 1274.6729 1275.076 1275.2704 1275.4972 1275.6667 1276.0308 1276.6836 1277.5608 1278.2391 1279.0544 1280.072 1281.0688 1281.7488 1282.2844 1282.3284 1282.1892 1282.314 1282.8516 1283.2172 1283.5385 1283.908 1284.3068 1284.4268 1284.9384 1285.812 1286.1664 1286.4072 1287.0743 1287.6736 1288.1912 1288.6952 1289.0472 1289.3376 1289.7704 1290.1968 1290.5504 1290.9728 1291.3763 1290.8531 1290.054 1289.2316 1288.272 1287.5992 1286.54 1285.7048 1285.6191 1285.9824 1286.4956 1286.7804 1286.904 1286.6351 1286.4388 1286.6316 1286.7532 1287.0731 1287.6412 1288.3612 1289.4972 1290.6052 1291.0323 1291.1572 1291.416 1291.74 1292.0112 1291.9807 1292.0408 1292.5585 1293.238 1294.1156 1295.1744 1296.1423 1297.3284 1298.8372 1300.9548 1302.2012 1303.3888 1304.7465 1306.5192 1307.932 1309.5496 1311.4791 1314.88 1317.7528 1321.1293 1324.054 1326.2751 1328.1119 1330.2192 1332.4185 1334.988 1337.3088 1342.1827 1343.806 1345.7124 1347.3788 1349.0288 1350.3464 1352.0808 1353.836 1356.7769 1359.7632 1362.0009 1364.344 1368.6196 1371.9572 1374.9792 1378.0432 1381.2172 1383.9908 1386.464 1388.8257 1390.8416 1391.8848 1393.1653 1395.1604 1396.1356 1398.434 1400.3928 1401.1208 1403.5304 1406.3408 1408.4652 1410.4004 1412.5176 1414.3064 1416.2864 1417.8448 1418.8372 1419.4908 1420.686 1421.4717 1421.7024 1422.5975 1423.9152 1424.7753
1262.044 1261.624 1261.7363 1261.6516 1260.7948 1260.5148 1260.6597 1260.0172 1258.7256 1256.7609 1255.4312 1254.5304 1254.1564 1254.162 1253.3152 1252.4872 1251.448 1250.3232 1249.4048 1248.78 1248.2832 1247.5912 1246.3368 1245.216 1243.4677 1241.6324 1239.7356 1238.1588 1237.1868 1236.8212 1236.5228 1236.058 1235.2012 1234.2548 1233.6263 1233.2424 1232.6936 1232.4912 1231.9276 1231.5748 1231.592 1231.7024 1231.712 1231.596 1231.5092 1231.4052 1231.6335 1232.1472 1234.024 1236.136 1237.422 1237.9819 1238.6136 1239.2336 1239.9404 1241.0212 1242.068 1242.1552 1242.254 1242.5332 1243.7444 1245.2988 1245.7521 1245.848 1245.7892 1245.6019 1245.4384 1246.3168 1247.9968 1248.5977 1248.6536 1248.7544 1248.8944 1249.0112 1249.868 1251.2168 1251.666 1251.7052 1251.7812 1251.4589 1251.6003 1251.8635 1251.9703 1252.6711 1253.8096 1254.6848 1255.3333 1255.6764 1256.2616 1256.6936 1256.8011 1256.8324 1257.19 1257.142 1256.6696 1256.4991 1256.684 1256.6112 1256.5836 1256.9604 1257.5436 1258.1692 1259.4427 1260.5924 1260.8964 1260.4404 1258.816 1257.652 1258.5184 1259.572 1259.8452 1259.9316 1260.3528 1261.4808 1262.6636 1262.5188 1262.1685 1262.7867 1263.8464 1264.9576 1266.2372 1267.6044 1268.9716 1269.8229 1270.5292 1271.3387 1272.2124 1272.9388 1273.5281 1273.9296 1274.2115 1274.3333 1274.3549 1274.0868 1273.6628 1273.302 1273.0392 1273.0151 1273.0836 1273.0645 1273.2952 1273.7767 1274.2319 1274.4703 1274.5295 1274.6497 1275.1328 1275.9487 1276.9248 1277.8456 1279.0016 1280.0192 1280.8333 1281.3484 1281.8744 1282.0056 1281.61 1281.4445 1281.8344 1282.3296 1282.7288 1283.1808 1283.7596 1284.1307 1284.5668 1285.1636 1285.6188 1286.0516 1286.4376 1287.0464 1287.65 1287.9828 1288.2579 1288.3965 1288.8772 1289.2244 1289.5576 1289.8456 1290.2068 1289.8252 1289.242 1288.6467 1287.7288 1287.1409 1286.318 1285.258 1284.7264 1284.86 1285.232 1285.608 1285.704 1285.3696 1284.99 1284.83 1284.756 1285.1592 1286.1536 1287.1288 1288.0876 1288.9388 1289.4849 1289.7096 1289.7347 1290.002 1290.4388 1290.5916 1290.6864 1291.24 1292.3331 1292.9636 1293.7892 1294.7876 1296.2684 1297.7628 1299.2885 1300.6572 1302.114 1303.5947 1305.348 1306.384 1308.1757 1309.926 1312.648 1315.4744 1319.1344 1322.052 1324.4427 1326.5796 1328.9824 1330.4144 1332.9808 1338.344 1342.5264 1343.724 1345.3408 1346.2472 1347.436 1348.5151 1349.7472 1350.9216 1354.1984 1357.0944 1359.056 1362.1888 1368.322 1372.5636 1375.1444 1376.7565 1378.9868 1382.0076 1385.6425 1387.4144 1388.6869 1389.6716 1390.9008 1392.0592 1393.4792 1394.7087 1397.3264 1398.7008 1401.5332 1404.658 1406.7228 1408.8243 1410.8936 1412.9984 1414.938 1416.0972 1417.0564 1418.006 1419.1132 1419.6796 1420.0216 1420.8647 1421.9489 1422.6512
1263.5864 1263.16 1263.0125 1262.6652 1262.1971 1262.3252 1262.2428 1261.858 1260.448 1259.0831 1258.0264 1257.2808 1255.922 1255.2188 1254.1624 1253.3552 1252.4896 1251.4032 1250.7017 1250.28 1249.6576 1248.604 1247.2152 1246.0608 1244.938 1243.1588 1240.9764 1239.2476 1238.2996 1237.7516 1237.1444 1236.614 1235.9492 1235.2412 1234.7576 1234.2983 1233.78 1233.4144 1232.8693 1232.6172 1232.2448 1232.0768 1232.0536 1231.8431 1231.8524 1231.9052 1231.9768 1232.66 1234.5928 1236.6088 1237.5676 1238.1676 1238.8944 1239.4104 1240.1796 1241.4828 1242.4448 1242.3704 1242.3868 1242.4388 1243.166 1244.6388 1245.376 1245.1984 1244.9612 1244.7548 1245.4095 1246.6768 1247.668 1247.544 1247.5385 1247.9304 1248.0968 1248.0808 1248.8192 1250.0176 1250.5125 1250.6652 1250.9908 1250.8396 1250.5708 1250.9524 1251.452 1252.3352 1253.4672 1254.2303 1254.7955 1255.1644 1255.4944 1255.8593 1256.1165 1256.0564 1256.2356 1256.1844 1256.036 1255.968 1256.1488 1256.1736 1256.2036 1256.3052 1256.5348 1257.1316 1258.6332 1259.8004 1259.846 1259.134 1257.6224 1257.2136 1258.2024 1258.8593 1259.2772 1260.0468 1261.0208 1261.9313 1262.5244 1262.3556 1262.4452 1262.9708 1263.9224 1264.9728 1266.2797 1267.6532 1268.6156 1269.2092 1269.9803 1270.7548 1271.2428 1271.8892 1272.572 1273.1945 1273.6771 1273.6772 1273.5356 1273.234 1272.9004 1272.6132 1272.5376 1272.6464 1272.5476 1272.4196 1272.6263 1273.0009 1273.4088 1273.596 1273.6376 1273.8536 1274.6024 1275.5657 1276.5352 1277.6208 1278.9568 1279.784 1280.422 1281.198 1281.684 1281.5912 1281.1788 1280.8835 1281.1648 1281.6328 1282.0928 1282.7177 1283.3317 1283.7732 1284.2292 1284.6451 1285.1172 1285.494 1285.688 1286.2856 1287.1796 1287.5541 1287.8444 1287.7684 1288.0044 1288.4092 1288.6488 1288.8792 1288.938 1288.918 1288.5596 1288.11 1287.3544 1286.8593 1286.126 1285.1812 1284.0704 1283.8984 1284.1047 1284.5992 1284.6912 1284.3792 1283.9972 1283.7347 1283.8776 1284.3784 1285.1 1285.9088 1286.7892 1287.3972 1287.8792 1288.0912 1288.1548 1288.3851 1288.7836 1289.0884 1289.4752 1289.9392 1290.8092 1291.6604 1292.5076 1293.3508 1295.0284 1296.8027 1297.9468 1299.3684 1301.0204 1302.3252 1303.804 1304.8512 1306.4124 1308.3916 1310.4672 1312.7832 1317.4224 1319.3433 1322.4141 1325.3492 1328.1609 1329.748 1331.232 1336.5488 1340.9896 1342.6768 1344.3016 1344.9489 1346.0072 1346.6672 1347.7096 1348.4136 1349.7496 1351.564 1356.2767 1359.9904 1364.8004 1371.0084 1374.126 1375.282 1376.5468 1378.8988 1384.0256 1385.5367 1385.9332 1386.8988 1388.608 1390.1584 1391.6416 1392.8505 1394.8048 1396.6272 1399.1276 1402.4508 1405.0499 1407.014 1408.792 1411.1144 1413.51 1414.5924 1415.6588 1416.874 1417.6572 1418.1627 1418.8136 1419.7352 1420.8344 1421.4584
1265.3832 1265.1824 1265.1884 1264.9764 1264.438 1264.422 1264.1908 1263.6956 1262.2184 1261.156 1260.344 1259.2408 1257.4272 1256.1583 1255.1124 1254.2563 1253.408 1252.5032 1251.8853 1251.6732 1251.0253 1249.7476 1248.4703 1247.2913 1246.1172 1244.5668 1242.3516 1240.5204 1239.306 1238.6796 1237.9764 1237.1948 1236.5696 1236.3073 1236.0664 1235.7175 1235.3071 1234.8136 1234.358 1233.9803 1233.7052 1233.3516 1232.668 1232.1096 1231.9528 1231.9591 1232.0887 1232.8057 1234.8503 1236.8503 1237.6335 1238.236 1238.8944 1239.452 1240.7607 1242.3376 1242.7396 1242.5924 1242.4896 1242.504 1242.6567 1243.7823 1244.8596 1244.1628 1243.9364 1244.4124 1245.6208 1246.1959 1245.6008 1245.8248 1246.3964 1246.938 1247.3444 1247.5596 1247.9976 1248.7168 1249.04 1249.3368 1250.2216 1250.4048 1250.1152 1250.2296 1250.9028 1252.1252 1253.1036 1253.8396 1254.3751 1254.6952 1254.9113 1255.1344 1255.2948 1255.0836 1254.8264 1254.8152 1255.1968 1255.2328 1255.4136 1255.5616 1255.6688 1255.6304 1255.52 1256.1328 1258.0588 1258.7203 1258.3264 1257.308 1256.458 1256.6116 1257.7131 1258.4132 1259.2612 1260.5508 1261.5912 1261.9456 1261.7303 1262.376 1263.1572 1263.9204 1264.7275 1265.5627 1266.7324 1267.5012 1268.1392 1268.4592 1269.1465 1269.8289 1270.1144 1270.8192 1271.7347 1272.646 1273.2272 1273.132 1272.866 1272.6572 1272.4812 1272.174 1272.0812 1272.234 1272.0817 1271.7744 1271.8593 1272.1736 1272.5441 1272.744 1272.7928 1273.2089 1274.1469 1275.202 1276.264 1277.3528 1278.4327 1279.1448 1279.7925 1280.5996 1281.0756 1280.9268 1280.6776 1280.3752 1280.6084 1281.1108 1281.7488 1282.5688 1283.1088 1283.4791 1284.0344 1284.4424 1284.6003 1284.6755 1284.9364 1285.766 1286.5812 1287.0852 1287.4371 1287.3564 1287.2133 1287.3923 1287.6372 1287.9868 1288.218 1288.1323 1287.7045 1287.3684 1286.9048 1286.2192 1285.3436 1285.3396 1284.056 1282.9703 1282.8708 1283.4996 1283.8208 1283.4568 1283.0168 1282.4752 1282.7372 1283.3619 1284.0432 1284.7048 1285.3724 1285.8333 1286.2885 1286.3516 1286.3549 1286.6156 1286.9736 1287.4504 1288.258 1288.8148 1289.2456 1290.1144 1291.0928 1291.8256 1293.0056 1294.6713 1296.236 1297.8969 1299.6372 1300.6996 1302.1248 1303.7769 1305.36 1307.3912 1309.7804 1312.4132 1315.6296 1317.4752 1320.5508 1323.9988 1326.6284 1328.5244 1330.4965 1332.9677 1337.2825 1339.24 1339.9604 1342.4668 1343.9812 1343.4484 1344.6108 1345.8652 1347.2565 1348.9244 1352.0284 1356.9092 1361.298 1366.378 1371.0555 1373.2435 1374.5511 1375.6432 1378.7928 1382.1824 1382.9172 1384.0428 1386.2012 1388.2524 1389.6548 1391.1827 1393.1567 1395.288 1397.1172 1399.1381 1402.4344 1404.604 1406.2372 1407.5404 1409.7932 1411.6597 1413.73 1415.3524 1416.2136 1416.6304 1417.5548 1418.4677 1419.452 1420.1904
1266.9144 1266.6927 1266.7228 1266.586 1266.2916 1266.1588 1265.9628 1265.3236 1263.7983 1262.7568 1261.8096 1260.4744 1258.7432 1257.5369 1256.2635 1255.3308 1254.5632 1253.8392 1253.1956 1252.9836 1252.474 1251.1052 1249.6992 1248.552 1247.1595 1245.7404 1243.6132 1241.7164 1240.2133 1239.4492 1238.8228 1238.0428 1237.4712 1237.1351 1236.8888 1236.748 1236.6176 1236.3832 1236.0372 1235.5316 1234.9724 1234.2252 1233.5128 1232.516 1232.0336 1232.0464 1232.0968 1232.7911 1234.84 1236.6576 1237.5192 1238.184 1238.8271 1239.3448 1240.7832 1242.3679 1242.7892 1242.6597 1242.572 1242.6056 1242.576 1243.012 1243.186 1242.9069 1243.6836 1244.8348 1245.9559 1245.8752 1244.4944 1244.4863 1245.3556 1246.342 1246.9373 1247.3092 1247.868 1248.5344 1248.5712 1248.6792 1249.4736 1250.0312 1249.64 1249.8424 1250.9484 1251.9244 1252.686 1253.2668 1253.6729 1254.0248 1254.3793 1254.4937 1254.5316 1254.3828 1254.0128 1253.9856 1254.4744 1254.6031 1254.8064 1255.0616 1255.1353 1254.988 1254.9392 1255.4304 1256.9452 1257.0996 1256.6864 1255.836 1255.6228 1256.3044 1257.5356 1258.4596 1259.7292 1260.9197 1261.0736 1261.2823 1261.7776 1262.804 1263.8164 1264.7668 1265.3636 1265.8804 1267.0148 1267.5116 1268.0295 1268.2247 1268.432 1269.0168 1269.6064 1270.5096 1271.4355 1272.2507 1272.9208 1273.0192 1272.6796 1272.2852 1272.1212 1271.9132 1271.6108 1271.5668 1271.512 1271.2336 1271.16 1271.6232 1271.9944 1272.028 1272.2224 1272.7856 1273.7892 1274.8124 1275.916 1277.0944 1277.8816 1278.48 1279.178 1279.758 1280.2372 1280.2308 1280.0536 1279.7688 1280.0404 1280.7252 1281.4471 1282.2609 1282.8096 1283.2648 1283.8248 1284.0056 1283.8812 1283.822 1284.4652 1285.4276 1286.0892 1286.7004 1286.7955 1286.6813 1286.4772 1286.5092 1286.6948 1286.9388 1287.2725 1287.3995 1287.1356 1286.5933 1286.2008 1285.3665 1284.2708 1284.1788 1283.5288 1282.4095 1281.6108 1282.2012 1282.7584 1282.2839 1281.6152 1281.5056 1281.9692 1282.1973 1282.8073 1283.6064 1284.1572 1284.4772 1285.014 1285.21 1284.9684 1285.0485 1285.5975 1286.1927 1286.938 1287.4484 1287.9424 1288.7697 1289.8552 1290.6968 1291.5815 1292.9095 1294.668 1296.3336 1297.9628 1299.1932 1301.1265 1303.0344 1304.784 1306.668 1309.0076 1311.5316 1314.488 1316.8215 1318.9332 1321.7347 1324.43 1325.998 1328.4292 1330.1804 1332.748 1334.92 1336.7236 1338.7788 1340.0629 1340.4036 1341.362 1343.2196 1345.2804 1346.8252 1349.138 1353.2444 1357.8444 1362.7852 1368.1204 1370.8348 1372.7184 1374.1528 1376.004 1378.0016 1380.182 1382.3732 1384.6437 1386.5732 1388.0348 1389.6252 1392.2161 1394.64 1396.3173 1397.5604 1399.3232 1402.008 1404.2788 1405.4636 1406.9357 1408.7732 1411.3148 1412.9517 1414.3096 1415.1376 1416.294 1417.2516 1418.2664 1418.992
1268.5244 1268.122 1268.08 1268.0856 1268.158 1268.0267 1267.704 1267.6144 1266.4724 1265.2404 1264.1708 1262.9164 1261.3312 1259.184 1257.858 1257.0796 1256.0696 1255.3856 1254.8176 1254.3264 1253.5364 1252.4556 1251.1064 1249.8303 1248.11 1246.8604 1245.158 1243.3964 1241.8292 1240.6572 1239.864 1239.2368 1238.7144 1238.3 1238.1968 1238.2384 1238.0223 1237.6288 1237.2651 1236.95 1236.2996 1235.4148 1234.2688 1232.768 1232.1451 1232.1284 1232.132 1233.0135 1234.9408 1236.396 1237.304 1238.0168 1238.6644 1239.118 1240.1156 1241.3276 1242.0148 1242.6244 1242.7472 1242.7352 1242.622 1242.6252 1242.4248 1242.7272 1244.256 1245.6216 1246.0256 1245.1016 1243.7784 1243.8456 1244.946 1246.3076 1246.8796 1247.2708 1247.8448 1248.2856 1248.5068 1248.8756 1249.1848 1249.412 1249.3116 1249.85 1250.5072 1251.1368 1251.8152 1252.3192 1252.7751 1253.2224 1253.8364 1253.9396 1253.9004 1253.8756 1253.4492 1253.342 1253.8336 1254.1272 1254.3289 1254.6912 1254.6792 1254.4944 1255.056 1255.3456 1255.768 1255.5472 1255.0156 1255.098 1255.8217 1256.7408 1257.5516 1258.5627 1259.7684 1260.4355 1260.7632 1261.4904 1262.3132 1263.1996 1264.2524 1265.1284 1265.736 1266.2864 1267.08 1267.488 1268.0896 1268.3944 1268.2848 1268.72 1269.636 1270.6016 1271.3632 1272.0256 1272.6708 1272.7036 1272.18 1271.76 1271.6956 1271.5787 1271.094 1270.8923 1270.7776 1270.5544 1270.5796 1270.998 1271.448 1271.4744 1271.786 1272.3796 1273.3796 1274.4108 1275.5804 1276.714 1277.2728 1277.696 1278.4088 1278.8392 1279.2084 1279.4332 1279.2444 1279.1052 1279.4728 1280.272 1280.902 1281.3812 1282.0397 1282.5996 1283.1337 1282.9048 1282.8243 1283.1973 1284.2001 1285.0624 1285.4852 1285.9949 1286.1569 1286.0288 1285.8431 1285.7448 1285.5944 1285.6785 1285.9524 1286.0596 1286.1005 1285.602 1285.1552 1284.3984 1283.3984 1282.6608 1282.2296 1281.4824 1280.454 1280.4484 1281.1268 1281.126 1280.8428 1280.954 1281.128 1281.1249 1281.4196 1282.1077 1282.682 1282.994 1283.3676 1283.6108 1283.5385 1283.5792 1284.4471 1285.1912 1285.8593 1286.372 1286.8668 1287.5188 1288.558 1289.4476 1290.3317 1291.6932 1293.4104 1295.0048 1296.4728 1297.852 1299.6119 1301.4095 1303.2681 1305.12 1307.2556 1309.7004 1313.2892 1316.254 1318.2428 1319.718 1322.1448 1324.1752 1326.3176 1328.4016 1330.5483 1332.1332 1333.82 1335.9489 1337.0608 1337.3848 1338.396 1340.156 1342.6488 1344.66 1347.654 1350.1036 1353.2812 1357.426 1365.6927 1368.7128 1370.964 1372.8312 1374.522 1376.1307 1378.0908 1380.398 1382.978 1384.8628 1386.7712 1388.3055 1391.3605 1393.7228 1395.06 1396.4216 1397.6288 1399.1816 1401.7704 1403.58 1405.224 1407.1536 1409.254 1410.8284 1412.5792 1413.6616 1414.724 1415.6056 1416.6636 1417.3636
1270.0732 1269.6884 1269.9097 1270.1632 1270.1692 1269.9211 1269.4615 1269.2152 1268.3436 1267.1292 1266.0692 1265.2308 1263.7432 1260.972 1259.6052 1258.6556 1257.5592 1256.8721 1256.2312 1255.5288 1254.4956 1253.4436 1252.0975 1250.724 1249.1924 1247.8116 1246.242 1244.6292 1243.078 1241.8516 1240.8696 1240.2072 1239.7352 1239.4584 1239.5864 1239.5304 1238.9608 1238.3784 1237.9012 1237.4884 1236.9476 1235.9587 1233.9528 1232.5736 1232.1748 1232.1244 1232.16 1233.3632 1235.7848 1236.9633 1237.4888 1237.9856 1238.4589 1238.8628 1239.462 1240.1044 1240.7804 1241.8092 1242.4832 1242.3593 1242.1724 1242.6044 1242.7375 1243.5184 1244.6752 1245.2664 1245.2249 1244.448 1243.608 1244.152 1245.4564 1246.442 1246.8981 1247.2828 1247.7128 1248.0208 1248.422 1248.786 1248.9543 1249.0616 1249.3245 1249.5508 1249.772 1250.136 1250.7008 1251.088 1251.6848 1252.2361 1252.9236 1253.47 1253.6812 1253.4244 1253.0116 1252.8308 1253.3145 1253.664 1253.9664 1254.5513 1254.5576 1254.7233 1255.6968 1255.556 1254.98 1254.6855 1254.6564 1255.3212 1256.2104 1256.8737 1257.6788 1258.546 1259.4468 1260.234 1260.9 1261.5664 1262.4396 1263.4572 1264.374 1265.1332 1265.8904 1266.4185 1266.9847 1267.1976 1267.5712 1267.9863 1268.064 1268.72 1269.8881 1270.6248 1271.1992 1271.8055 1272.1996 1271.954 1271.5272 1271.1265 1270.8668 1270.8412 1270.5308 1270.2748 1270.0488 1269.9824 1270.1971 1270.566 1271.0513 1271.212 1271.5125 1272.0676 1273.0251 1274.042 1275.2244 1276.2188 1276.6672 1276.8904 1277.4352 1277.8336 1278.2068 1278.4236 1278.35 1278.3964 1278.88 1279.6632 1280.3156 1280.678 1281.1019 1281.6172 1282.1552 1282.0176 1281.9332 1282.7924 1283.752 1284.3184 1284.6572 1284.9716 1285.296 1285.28 1285.0599 1284.7872 1284.4631 1284.4288 1284.7948 1284.9132 1284.9429 1284.5181 1284.0728 1283.5768 1282.7448 1281.8168 1281.14 1280.6488 1279.9524 1279.5468 1279.9404 1280.418 1280.398 1280.3092 1280.22 1280.2856 1280.4229 1280.7284 1281.19 1281.5292 1281.7028 1281.7284 1281.9608 1282.4224 1283.3976 1284.228 1284.9968 1285.4424 1285.8052 1286.2028 1287.09 1288.1667 1289.1772 1290.63 1292.3024 1293.868 1295.24 1296.5408 1298.4777 1299.9968 1301.8408 1303.696 1305.4652 1307.1548 1309.9844 1312.4644 1316.07 1318.4204 1320.8304 1322.9232 1324.8976 1326.8728 1329.6292 1331.2588 1332.0511 1333.324 1334.2312 1334.6576 1335.8296 1337.6744 1340.2792 1343.484 1346.1124 1348.5396 1351.3596 1355.5188 1360.6952 1366.0944 1368.9543 1371.0311 1372.9204 1374.4924 1376.1708 1377.7404 1380.9628 1383.4924 1385.2928 1386.6337 1389.338 1391.99 1392.8145 1394.2288 1395.4471 1397.1008 1399.9272 1401.8488 1403.78 1406.1432 1408.3011 1409.682 1411.3248 1412.2985 1413.1464 1414.1943 1415.3477 1415.9164
1272.0552 1271.8768 1271.8721 1272.2231 1272.25 1271.9204 1271.5128 1271.0048 1269.67 1268.4749 1267.4204 1266.6204 1265.4712 1263.4615 1261.6729 1260.3104 1259.084 1258.3016 1257.6124 1256.7948 1255.626 1254.538 1253.0608 1251.8809 1250.5369 1249.0504 1247.374 1245.718 1244.1976 1243.06 1241.9888 1241.2463 1240.884 1240.848 1240.4712 1239.8951 1239.3204 1238.8531 1238.404 1237.9968 1237.2468 1235.8444 1233.5912 1232.5056 1232.1832 1232.132 1232.268 1233.3096 1234.9868 1236.2509 1236.7876 1237.2892 1237.7772 1238.1669 1238.6713 1239.2024 1239.8456 1240.5768 1241.058 1241.1284 1242.0208 1242.5912 1242.6005 1243.15 1244.1172 1244.146 1243.7448 1243.5792 1243.6284 1244.362 1245.5856 1246.3856 1246.8405 1247.2563 1247.712 1248.0975 1248.3236 1248.2444 1248.6149 1248.8236 1248.9052 1249.0789 1249.4772 1249.7876 1250.04 1250.248 1250.5692 1251.3564 1252.1888 1253.144 1253.4244 1252.8892 1252.4064 1252.372 1252.8308 1253.242 1253.986 1254.4596 1254.568 1255.0696 1255.2653 1254.862 1254.3888 1254.364 1254.7596 1255.5588 1256.3552 1257.0367 1257.9252 1258.4548 1259.1304 1260.028 1260.9408 1261.5936 1262.6049 1263.6783 1264.3352 1265.1024 1265.716 1265.9752 1266.4192 1266.6088 1267.0852 1267.542 1267.9424 1268.9576 1269.9432 1270.424 1270.8951 1271.3737 1271.5616 1271.2192 1270.8127 1270.3969 1269.9808 1269.804 1269.5608 1269.3224 1269.2012 1269.4524 1269.9032 1270.2017 1270.4828 1270.7941 1271.3424 1272.024 1273.008 1273.9064 1274.9183 1275.7032 1275.9749 1276.0972 1276.4427 1276.8108 1277.1196 1277.3724 1277.486 1277.7852 1278.3716 1279.0236 1279.7556 1280.1971 1280.5784 1281.1328 1281.432 1281.4327 1281.5044 1282.2491 1282.9268 1283.426 1283.8264 1284.0135 1284.2876 1284.4636 1284.042 1283.6788 1283.3832 1283.2688 1283.5472 1283.7391 1283.9164 1283.662 1283.24 1282.9584 1282.2045 1281.4404 1280.6292 1279.8204 1279.0392 1278.7377 1279.0063 1279.54 1279.6864 1279.6704 1279.2812 1279.378 1279.5508 1279.5756 1279.692 1279.936 1280.218 1280.266 1280.6444 1281.4028 1282.2968 1282.9032 1283.5044 1284.0037 1284.4484 1284.9148 1285.7332 1286.8619 1288.0264 1289.5592 1291.1432 1292.4937 1294.0948 1295.6324 1297.4828 1299.006 1300.6764 1302.3812 1304.0464 1305.4208 1307.3544 1309.5256 1311.9248 1315.244 1317.734 1318.3268 1321.324 1323.34 1326.1724 1329.3508 1330.3584 1331.2856 1331.8732 1332.5652 1333.8368 1335.7616 1338.7864 1342.2537 1344.0156 1346.7332 1349.3212 1353.4076 1359.4733 1363.7932 1366.772 1369.1936 1371.3624 1372.6392 1374.228 1375.5928 1377.5504 1380.8721 1382.9144 1384.3496 1386.8071 1389.2247 1390.0984 1390.9064 1392.382 1394.766 1397.7651 1400.0732 1402.8088 1404.6353 1406.7108 1408.4524 1409.6924 1410.4733 1411.2653 1412.5028 1413.7491 1414.3444
1273.8464 1273.6776 1273.7688 1274.0576 1274.0516 1273.6724 1272.9951 1272.196 1270.7964 1269.526 1268.306 1267.5924 1266.5208 1264.9688 1263.356 1261.9344 1260.6096 1259.6624 1258.7579 1257.7308 1256.542 1255.4188 1254.108 1253.04 1251.4456 1249.8232 1248.218 1247.0148 1245.2769 1244.0223 1243.06 1242.452 1242.0072 1241.6624 1240.5968 1239.9088 1239.4573 1239.0844 1238.6592 1238.2296 1237.258 1235.9404 1233.8807 1232.6736 1232.4032 1232.2736 1232.4608 1233.1584 1234.2316 1235.1484 1235.85 1236.5452 1237.1172 1237.6412 1238.0416 1238.5328 1239.176 1239.9185 1240.4988 1241.5084 1242.488 1242.532 1242.4763 1242.5892 1243.0884 1243.5972 1243.9167 1244.1208 1244.3076 1244.9308 1245.7119 1246.2688 1246.742 1247.318 1247.952 1248.1056 1248.0204 1248.0148 1248.306 1248.3372 1248.4116 1248.6989 1249.2004 1249.7428 1250.3464 1250.5688 1250.638 1251.2076 1251.9408 1253.0432 1253.0627 1252.5037 1252.0968 1252.1729 1252.6724 1253.266 1253.9268 1254.3763 1254.6943 1254.8936 1254.6332 1254.2892 1254.0216 1254.176 1254.7692 1255.6165 1256.3616 1257.1136 1257.7876 1258.226 1259.0664 1259.9752 1260.9752 1261.6664 1262.636 1263.596 1264.2064 1264.8392 1265.324 1265.572 1265.9072 1266.1848 1266.9508 1267.5612 1268.1497 1269.0208 1269.7584 1270.2584 1270.6896 1270.72 1270.7032 1270.5223 1270.2249 1269.876 1269.4784 1269.1864 1268.828 1268.5529 1268.6268 1269.1084 1269.6272 1269.8344 1270.0627 1270.4956 1271.2463 1272.1072 1273.0815 1273.8984 1274.776 1275.2856 1275.3956 1275.5116 1275.7404 1276.0748 1276.3572 1276.5924 1276.862 1277.3612 1278.0684 1278.4724 1279.0516 1279.714 1280.2528 1280.5592 1280.712 1280.6648 1280.7852 1281.3732 1281.974 1282.7196 1283.168 1283.4656 1283.6628 1283.746 1283.226 1282.7876 1282.428 1282.248 1282.304 1282.4912 1282.8853 1282.9316 1282.4768 1282.1216 1281.6172 1281.1683 1280.0948 1279.0125 1278.0712 1277.5792 1277.8848 1278.2744 1278.524 1278.7737 1278.5468 1278.498 1278.6836 1278.7565 1278.6832 1278.7816 1279.1244 1279.2892 1279.6396 1280.3916 1281.0497 1281.408 1281.954 1282.4836 1283.0396 1283.7365 1284.4852 1285.5516 1286.904 1288.5024 1289.9952 1291.1904 1293.2491 1295.0892 1296.6932 1298.1732 1299.7883 1301.3844 1303.0056 1304.2983 1305.704 1307.7616 1309.8359 1312.0 1314.3403 1315.6372 1317.4167 1319.9688 1323.0892 1325.1508 1327.0656 1328.8248 1330.4092 1331.594 1333.1936 1334.6896 1336.796 1340.0824 1342.5212 1345.322 1347.2644 1350.0916 1356.7491 1360.5076 1363.9808 1366.5256 1369.04 1370.9504 1372.6455 1373.9592 1375.3472 1377.6672 1381.0032 1382.4032 1384.6752 1386.928 1387.9473 1388.8336 1390.2292 1392.282 1395.9996 1398.1316 1400.8328 1402.7488 1404.478 1406.7556 1407.9148 1408.7964 1409.6764 1410.8259 1411.89 1412.6132
1275.2653 1275.3076 1275.7096 1276.0264 1275.7244 1275.1451 1274.2096 1273.2976 1272.0824 1270.6495 1269.0264 1268.4255 1267.6636 1266.7036 1265.3477 1263.8812 1262.3315 1261.0588 1259.974 1258.8772 1257.5485 1256.47 1255.0944 1253.7552 1252.2004 1250.562 1249.0717 1248.2372 1246.4792 1244.812 1243.7112 1243.4775 1243.16 1242.5304 1241.4677 1240.5573 1239.7732 1239.1876 1238.6736 1238.1272 1237.024 1235.7695 1233.9984 1232.7616 1232.5859 1232.5931 1232.916 1233.724 1235.3804 1236.6572 1237.2476 1237.5676 1238.0527 1238.4736 1238.7596 1239.194 1239.7596 1240.4484 1240.9056 1241.7697 1242.5596 1242.5916 1242.4316 1242.4556 1242.6412 1243.4396 1244.7296 1244.9696 1245.1093 1245.5492 1246.3264 1246.8472 1247.2823 1247.7592 1248.0125 1247.6212 1247.2528 1247.5992 1247.7625 1247.8584 1248.2124 1248.7756 1249.5627 1250.1604 1250.6392 1250.76 1250.8264 1251.0673 1251.4524 1252.4564 1252.5552 1251.8055 1251.8088 1252.0544 1252.7563 1253.5004 1253.9677 1254.3092 1254.5072 1254.4432 1254.2437 1253.978 1253.7552 1254.0583 1254.8156 1255.65 1256.3832 1257.08 1257.6569 1258.228 1259.0743 1259.9432 1260.9432 1261.6896 1262.578 1263.2532 1263.7616 1264.1272 1264.4304 1264.6729 1265.2709 1265.9308 1266.7491 1267.5116 1268.1056 1268.7456 1269.3997 1269.7572 1270.0385 1270.0824 1270.1088 1269.9744 1269.6644 1269.262 1268.896 1268.652 1268.264 1268.0648 1268.3575 1268.724 1269.1047 1269.2352 1269.5708 1270.1884 1270.9076 1271.7428 1272.6584 1273.5776 1274.3431 1274.5848 1274.5768 1274.6337 1274.9104 1275.2952 1275.5576 1275.8656 1276.3127 1276.9296 1277.7252 1278.0948 1278.3796 1278.9716 1279.5548 1279.778 1280.0048 1280.1616 1280.0664 1280.2704 1281.1072 1282.0688 1282.4956 1282.9148 1283.078 1282.7635 1282.2365 1281.918 1281.5316 1281.2565 1281.212 1281.3271 1281.672 1281.84 1281.5228 1281.0692 1280.5264 1280.0712 1278.9712 1278.1368 1277.5269 1276.9285 1276.5736 1276.8112 1277.3632 1277.5944 1277.6799 1277.6816 1277.7384 1277.796 1277.7112 1277.7408 1278.018 1278.2476 1278.488 1279.1783 1279.7736 1279.7168 1280.0833 1280.7296 1281.5068 1282.2236 1282.934 1284.1132 1285.6047 1287.0944 1288.5864 1289.9304 1292.1464 1294.2607 1295.8533 1297.1956 1298.8104 1300.2904 1301.8812 1303.3428 1304.5824 1306.4824 1309.21 1310.7412 1312.5032 1313.8376 1315.1776 1316.8584 1320.3684 1322.7388 1324.1536 1325.8176 1328.9764 1330.622 1332.2607 1333.6832 1335.0192 1336.5552 1340.6836 1344.0701 1346.3824 1347.7792 1350.318 1354.694 1359.892 1364.252 1366.0208 1367.928 1370.3073 1372.0696 1373.1124 1374.6075 1378.568 1380.7792 1382.5952 1384.3593 1385.7031 1386.9559 1388.5 1389.9824 1392.532 1395.6688 1399.3152 1401.1592 1402.7261 1404.4812 1405.95 1407.186 1408.222 1409.2292 1410.236 1410.9344
1276.802 1277.0156 1277.4615 1277.7592 1277.4692 1276.594 1275.3768 1274.5385 1273.4984 1271.6512 1269.7087 1269.2776 1268.5564 1267.8828 1266.8092 1265.386 1263.6996 1262.2684 1261.1973 1260.2476 1258.7092 1257.3029 1255.7312 1254.1616 1252.6404 1251.2308 1249.7869 1248.7316 1247.4016 1245.9824 1244.34 1243.5833 1243.4072 1242.9296 1242.1829 1241.4341 1240.4427 1239.5181 1238.7008 1237.8088 1236.6512 1235.4496 1233.7104 1232.8784 1232.7284 1232.7516 1233.0808 1234.4552 1236.2532 1236.8564 1237.218 1237.6516 1238.6119 1239.412 1239.8252 1240.2052 1240.454 1240.8932 1241.228 1241.948 1242.6748 1242.7212 1242.4803 1242.4276 1242.5028 1242.8549 1244.008 1244.4559 1244.6404 1245.1252 1246.1576 1246.9792 1247.4136 1247.5272 1247.302 1246.6532 1246.4832 1247.0408 1247.3496 1247.6168 1248.1396 1248.9684 1249.886 1250.2804 1250.6033 1250.6376 1250.584 1250.6855 1250.7876 1251.2828 1251.6744 1251.4095 1251.6632 1252.2416 1252.9796 1253.6036 1254.0476 1254.186 1254.3073 1254.2576 1254.0732 1253.7676 1253.6 1254.0072 1254.8204 1255.7876 1256.52 1257.0072 1257.5192 1258.1416 1258.9489 1259.7904 1260.8232 1261.5919 1262.3412 1262.8868 1263.1256 1263.2384 1263.3888 1263.7368 1264.582 1265.4548 1266.3596 1267.1669 1267.864 1268.3312 1268.8044 1269.0325 1269.2544 1269.3591 1269.4257 1269.3217 1269.066 1268.9629 1268.66 1268.2992 1267.9016 1267.6992 1267.924 1268.1832 1268.42 1268.5808 1268.93 1269.5972 1270.3684 1271.1444 1271.948 1272.9424 1273.6576 1273.784 1273.7928 1273.8145 1274.2839 1274.7568 1275.0121 1275.3665 1275.8928 1276.42 1277.1588 1277.5924 1277.7836 1278.2653 1278.8788 1279.1948 1279.3287 1279.4039 1279.3552 1279.4872 1280.292 1281.0137 1281.8196 1282.322 1282.0844 1281.7028 1281.3796 1281.0884 1280.6628 1280.4515 1280.4008 1280.4872 1280.7192 1280.8217 1280.5132 1280.138 1279.632 1279.0312 1278.1416 1277.5007 1277.158 1277.014 1276.1656 1275.7936 1276.4192 1276.7607 1276.8312 1276.7144 1276.6592 1276.7568 1276.8649 1276.9615 1277.194 1277.4556 1277.5696 1277.7048 1277.916 1277.7823 1278.3215 1279.032 1279.9211 1280.7052 1281.5532 1282.9067 1284.5072 1285.9185 1287.544 1289.1472 1291.3032 1293.312 1294.87 1296.2043 1297.8344 1299.2648 1300.6316 1301.9396 1303.2825 1305.3296 1307.9156 1309.4996 1311.0624 1312.3248 1313.5616 1314.444 1316.5228 1319.954 1322.2904 1324.3704 1327.0444 1329.1124 1330.9048 1332.3271 1333.5912 1334.7848 1338.4731 1342.6484 1344.6056 1346.308 1348.6971 1351.0908 1355.8544 1360.0304 1363.4471 1365.1128 1366.9952 1368.5 1370.0645 1371.766 1375.336 1378.6351 1380.8704 1382.3096 1383.9528 1385.2504 1387.3073 1388.9192 1390.2416 1392.4824 1397.4368 1399.7336 1401.382 1402.886 1404.3652 1405.4828 1406.5884 1407.5684 1408.5408 1409.5112
1278.6688 1278.9872 1279.0109 1278.9067 1278.7017 1277.7688 1276.536 1275.852 1274.72 1272.7416 1270.8792 1270.3528 1269.6497 1268.9008 1267.816 1266.4 1264.7347 1263.5156 1262.42 1261.3864 1259.9252 1258.0308 1256.1028 1254.5636 1253.1616 1251.8145 1250.4512 1249.5009 1248.2776 1246.9824 1245.4364 1243.9652 1243.2288 1242.5968 1241.8624 1241.4248 1240.7156 1239.4948 1238.2704 1237.2432 1236.3976 1235.5344 1233.8185 1233.0472 1232.9944 1232.9313 1233.2435 1234.8204 1236.1372 1236.0596 1236.6488 1237.1328 1237.9095 1238.8656 1239.6511 1240.0848 1240.5612 1240.8693 1241.0812 1241.6228 1242.3721 1242.6144 1242.4716 1242.3932 1242.4896 1242.5792 1243.1064 1243.6648 1244.2628 1244.8772 1245.5524 1246.0708 1246.434 1246.5645 1246.1688 1245.6616 1246.194 1246.698 1247.048 1247.5016 1247.6987 1248.2684 1249.5996 1250.278 1250.6632 1250.6096 1250.3644 1250.2172 1250.1376 1250.4248 1250.9108 1251.2957 1251.7592 1252.5264 1253.2363 1253.63 1253.8925 1254.0107 1254.0692 1253.9996 1253.7152 1253.4728 1253.46 1253.8584 1254.8068 1256.0524 1256.5652 1256.9508 1257.47 1258.0092 1258.8948 1259.8044 1260.6316 1261.1484 1261.648 1261.9775 1262.102 1262.3236 1262.2944 1262.7584 1263.8024 1264.8168 1265.6904 1266.4312 1267.2911 1267.8408 1268.262 1268.3484 1268.2584 1268.252 1268.3324 1268.3868 1268.3564 1268.4965 1268.2493 1267.8628 1267.4404 1267.2452 1267.3644 1267.6235 1267.632 1267.6392 1268.0608 1268.6697 1269.3772 1270.0476 1270.7584 1271.7616 1272.8108 1273.2236 1273.2944 1273.2224 1273.682 1274.0988 1274.4148 1274.7668 1275.33 1275.9108 1276.5612 1276.9796 1277.1392 1277.5664 1278.1768 1278.5232 1278.522 1278.53 1278.518 1278.578 1279.3436 1279.97 1280.758 1281.1412 1280.8092 1280.4644 1280.4364 1280.2941 1279.8304 1279.5616 1279.4872 1279.6448 1279.9364 1279.9404 1279.4668 1279.17 1278.8492 1278.3547 1277.5632 1276.8969 1276.4868 1276.3676 1275.8448 1275.0928 1275.6044 1275.91 1275.9664 1275.7551 1275.6365 1275.7076 1275.9032 1276.084 1276.4272 1276.7 1276.4285 1275.99 1276.0536 1276.3616 1276.9612 1277.642 1278.4816 1279.3489 1280.4492 1281.7612 1283.2944 1284.82 1286.5424 1288.0928 1289.998 1291.858 1293.5931 1295.0516 1296.5664 1297.8392 1299.0948 1300.3923 1302.2472 1304.4824 1306.4624 1307.8777 1309.2488 1310.4832 1312.4484 1313.4452 1314.6256 1316.5121 1319.7936 1323.564 1325.7144 1327.684 1329.3652 1330.7484 1331.9633 1332.916 1335.3876 1340.2725 1342.4812 1343.8477 1346.606 1348.3092 1349.9512 1353.9448 1359.218 1362.002 1364.5836 1366.3892 1368.6172 1370.1476 1372.2377 1375.124 1378.3287 1380.2512 1382.272 1382.904 1384.522 1387.602 1388.9592 1390.0472 1392.6012 1397.7252 1400.3359 1401.3672 1402.6112 1403.6664 1404.8912 1405.9384 1407.0092 1408.154
1280.3273 1280.2377 1280.1228 1280.1324 1279.7784 1278.78 1277.7896 1277.1873 1276.1016 1274.1056 1272.3488 1271.4705 1270.728 1269.8976 1268.7 1267.1976 1265.6708 1264.5267 1263.2911 1261.952 1260.4172 1258.646 1257.0269 1255.4141 1253.776 1252.264 1251.012 1250.0696 1248.7928 1247.7697 1246.4083 1244.8556 1243.6528 1242.5905 1241.7856 1240.9608 1240.0964 1238.7988 1237.4128 1236.4272 1235.9631 1235.348 1233.9023 1233.1552 1233.0304 1233.0344 1233.4292 1234.6908 1235.4213 1235.3564 1236.2664 1237.1152 1237.5952 1238.1624 1238.8864 1239.6223 1240.1356 1240.418 1240.6523 1240.7732 1241.2985 1241.8496 1242.0931 1242.3364 1242.5792 1242.6945 1242.9496 1243.6504 1244.466 1244.8804 1245.1748 1245.442 1245.7493 1245.8156 1245.3408 1245.1792 1245.7509 1246.0724 1246.5536 1246.9865 1246.9468 1247.1884 1248.7203 1249.7412 1250.6176 1250.6295 1249.914 1249.4164 1249.456 1249.9784 1250.854 1251.3572 1252.0576 1252.7416 1253.2997 1253.5411 1253.6556 1253.7549 1253.7596 1253.6436 1253.188 1253.0736 1253.316 1254.0616 1255.1868 1255.7572 1256.222 1256.7133 1257.166 1257.7836 1258.7388 1259.7588 1260.4164 1260.6068 1260.828 1260.8424 1260.9188 1261.1228 1261.1272 1261.8201 1263.0848 1264.2288 1265.1528 1265.9736 1266.7985 1267.332 1267.6964 1267.8292 1267.6128 1267.3807 1267.3508 1267.7365 1267.8124 1267.746 1267.5972 1267.2284 1266.7788 1266.6796 1266.7468 1267.0316 1267.1688 1267.0448 1267.2552 1267.8624 1268.506 1269.058 1269.7288 1270.5896 1271.6917 1272.4564 1272.7672 1272.6024 1272.882 1273.2716 1273.6172 1274.0876 1274.6957 1275.358 1275.9052 1276.2356 1276.4543 1276.848 1277.3368 1277.5712 1277.5892 1277.7491 1277.6956 1277.77 1278.5125 1279.094 1279.6284 1279.786 1279.4805 1279.2236 1279.1924 1279.2756 1279.1312 1278.7264 1278.628 1278.7888 1279.0052 1279.014 1278.6252 1278.194 1277.5876 1277.3732 1276.8984 1276.3424 1275.866 1275.5676 1275.4512 1274.7825 1274.7476 1275.1268 1275.2305 1275.0833 1274.8596 1274.8124 1274.9248 1275.296 1275.756 1275.7472 1275.2437 1274.9749 1274.956 1275.2384 1275.8756 1276.622 1277.5576 1278.4392 1279.6228 1280.9412 1282.3624 1284.0336 1285.8192 1287.1312 1288.8236 1290.666 1292.3308 1293.7988 1295.2488 1296.3456 1297.8004 1299.3491 1301.2848 1303.4176 1305.2664 1306.5153 1307.8344 1309.2352 1311.1989 1312.4532 1313.6785 1314.6752 1317.5488 1321.9768 1324.0032 1326.1136 1327.8412 1329.1796 1330.32 1331.4904 1332.7133 1337.11 1340.594 1342.202 1344.2565 1346.2043 1348.1792 1349.5536 1354.4236 1358.1388 1361.3531 1364.4164 1366.6924 1368.7651 1370.916 1372.516 1375.5056 1377.9368 1380.0295 1380.876 1381.554 1383.9764 1387.1936 1388.3809 1389.326 1393.2676 1398.7808 1399.9768 1401.1096 1402.3472 1403.6896 1404.9048 1406.2428 1407.5492
1282.0872 1281.8568 1281.834 1281.578 1280.8524 1280.1147 1279.2328 1278.256 1277.0048 1275.2911 1273.8387 1272.9468 1272.2751 1271.5743 1270.0752 1268.3448 1266.8271 1265.7488 1264.3192 1262.8776 1261.2725 1260.1188 1259.0924 1258.1644 1255.3217 1253.3944 1252.1948 1250.9612 1249.8872 1248.828 1246.6987 1245.1948 1244.4412 1243.4052 1242.1208 1240.856 1239.4912 1238.1328 1236.7932 1235.9028 1235.7128 1235.1272 1234.116 1233.4448 1233.0828 1233.2549 1233.7432 1234.4592 1234.6316 1234.7284 1235.2756 1236.5468 1237.462 1238.074 1238.5184 1239.0135 1239.5316 1239.7644 1239.9584 1239.9543 1240.306 1240.8011 1241.5627 1242.186 1242.5444 1242.9069 1243.0984 1243.372 1244.1768 1244.6272 1244.7372 1244.5796 1244.708 1244.7537 1244.69 1244.8188 1245.1813 1245.5612 1246.3268 1246.4996 1246.1936 1246.6504 1247.8872 1248.7751 1249.9116 1250.2388 1249.4396 1248.782 1249.3505 1250.1696 1251.2537 1251.66 1252.0833 1252.6088 1253.0164 1253.2012 1253.254 1253.3004 1253.2375 1252.8832 1252.2792 1252.5049 1253.2308 1254.3132 1254.9836 1255.1428 1255.748 1256.1873 1256.5604 1257.1892 1258.2 1259.084 1259.5984 1259.7296 1259.8672 1259.7568 1259.7156 1259.8236 1260.1556 1261.0269 1262.2192 1263.3951 1264.4048 1265.4592 1266.5308 1267.046 1267.1948 1267.3804 1267.2795 1266.9204 1266.7635 1266.998 1267.0576 1266.9136 1266.7596 1266.4636 1266.0836 1265.9276 1265.9536 1266.2528 1266.5292 1266.4373 1266.5344 1267.0768 1267.7932 1268.2228 1268.7625 1269.6672 1270.6971 1271.3252 1271.7332 1271.962 1272.0604 1272.154 1272.7208 1273.3953 1274.1892 1274.8229 1275.286 1275.49 1275.6989 1276.0996 1276.3505 1276.3256 1276.3892 1276.6748 1276.608 1276.9113 1277.6768 1278.0872 1278.4464 1278.6168 1278.4552 1278.2463 1277.8776 1277.956 1278.2488 1277.8008 1277.8496 1277.9536 1277.9227 1277.8644 1277.5156 1277.0444 1276.4692 1276.4164 1276.228 1275.8016 1275.2964 1275.0756 1274.94 1274.4904 1274.1088 1274.4264 1274.5848 1274.3872 1274.0576 1273.9456 1274.0704 1274.484 1274.8456 1274.6088 1274.2084 1274.266 1274.1353 1274.1848 1274.8948 1275.622 1276.5292 1277.5148 1278.6532 1280.1204 1281.5508 1283.2516 1285.1512 1286.4152 1287.8776 1289.4784 1291.0728 1292.504 1293.9464 1295.1512 1296.7896 1298.196 1299.8944 1302.004 1303.8176 1305.056 1306.656 1308.0736 1309.6252 1311.0052 1312.216 1313.356 1315.4624 1318.5511 1320.934 1323.1292 1324.6948 1326.5084 1328.1948 1329.7892 1330.3344 1332.3616 1337.6428 1339.8092 1341.7428 1343.4612 1345.352 1346.948 1348.5492 1352.1683 1357.2024 1361.8864 1364.21 1365.9996 1368.1788 1370.422 1371.8368 1374.6176 1376.5764 1377.6836 1378.8972 1380.494 1383.8821 1385.7491 1387.6348 1389.4132 1395.2732 1398.2925 1399.5104 1400.876 1402.5688 1403.9448 1405.334 1406.5931
1283.3073 1283.656 1283.574 1282.8716 1281.9844 1281.554 1280.5376 1279.4856 1278.1136 1277.2144 1275.542 1274.8052 1274.0096 1273.1552 1271.268 1269.4336 1267.7832 1266.5176 1265.068 1263.82 1262.3844 1261.5668 1260.3036 1258.5516 1256.1888 1254.7112 1253.2595 1251.8004 1250.6272 1249.0673 1246.8835 1245.49 1244.738 1243.798 1242.492 1241.1088 1239.5504 1238.1632 1236.8956 1236.2228 1235.8807 1235.1704 1234.3649 1233.6567 1233.2684 1233.3972 1233.8096 1234.484 1234.7124 1234.7372 1234.9188 1235.4556 1236.3011 1237.3228 1237.9952 1238.364 1238.7292 1238.9891 1239.1392 1239.2184 1239.5804 1240.1636 1241.0676 1241.9532 1242.562 1243.1005 1243.3672 1243.3575 1243.5648 1244.1 1244.2708 1243.9196 1244.0815 1244.3608 1244.618 1244.7932 1245.1003 1245.6852 1246.1204 1245.842 1245.7192 1246.8064 1247.9543 1248.5383 1249.4965 1249.67 1248.7205 1248.4067 1249.628 1250.5464 1251.6288 1251.7377 1251.912 1252.4456 1252.7188 1252.7228 1252.7349 1252.7012 1252.6104 1252.1088 1251.7808 1252.248 1253.1973 1254.1356 1254.6636 1254.9092 1255.2808 1255.5936 1256.0267 1256.6396 1257.4199 1257.9473 1258.4088 1258.7384 1258.9368 1258.8744 1258.822 1259.026 1259.7412 1260.7484 1261.6976 1262.7888 1263.6576 1264.6848 1265.8284 1266.5629 1266.8596 1266.898 1266.9244 1266.7172 1266.5228 1266.4227 1266.3088 1266.1184 1265.858 1265.5636 1265.27 1265.178 1265.2408 1265.4216 1265.7292 1265.8052 1265.8992 1266.3888 1267.1365 1267.5964 1268.0857 1268.9408 1269.8853 1270.3212 1270.6548 1270.9684 1271.1628 1271.1971 1271.9736 1272.7839 1273.65 1274.3171 1274.7365 1274.9116 1275.042 1275.2347 1275.208 1275.1511 1275.3708 1275.7637 1275.8232 1276.1776 1276.9937 1277.2249 1277.4185 1277.5887 1277.4847 1277.2712 1276.8951 1276.7848 1276.9368 1276.7656 1276.9847 1277.1656 1277.0588 1276.8884 1276.3964 1275.9844 1275.6516 1275.6724 1275.5471 1275.14 1274.7509 1274.6692 1274.4768 1274.2175 1273.6409 1273.4257 1273.776 1273.5112 1273.1952 1273.2609 1273.3304 1273.3344 1273.4095 1273.4624 1273.6237 1273.694 1273.4543 1273.5168 1274.1484 1274.7172 1275.3276 1276.3468 1277.5308 1279.0524 1280.5564 1282.334 1284.312 1285.6896 1287.088 1288.3976 1289.9113 1291.3536 1293.1112 1294.5352 1295.7136 1296.8224 1298.4232 1300.6384 1302.5833 1303.7688 1305.4408 1306.9432 1308.3116 1309.4501 1310.6135 1312.0225 1313.5648 1315.5688 1318.2804 1320.2804 1321.2795 1323.4436 1325.5156 1326.8428 1328.5048 1330.14 1332.9517 1336.3324 1339.9004 1341.822 1343.292 1344.9856 1346.9028 1348.4484 1353.1224 1357.144 1361.3156 1363.838 1365.4052 1368.186 1369.7864 1371.5304 1373.4155 1374.7356 1376.5132 1378.6523 1381.2196 1383.1268 1386.4677 1387.574 1391.0548 1395.6772 1398.0624 1399.3976 1401.1752 1402.8408 1403.7764 1404.354
1284.9677 1285.6196 1285.0608 1284.3192 1283.578 1283.2748 1283.038 1282.774 1281.498 1280.034 1277.7635 1276.9717 1276.1312 1274.4568 1272.4304 1270.5168 1268.6152 1267.188 1265.786 1264.5764 1263.2976 1262.04 1260.4644 1258.7972 1257.0153 1255.5552 1254.092 1252.428 1250.626 1248.9211 1247.714 1246.4508 1245.2472 1244.2913 1243.0552 1241.5392 1240.004 1238.8464 1237.744 1237.0991 1236.4344 1235.5424 1234.5021 1233.7356 1233.5272 1233.5336 1233.8763 1234.4501 1234.8888 1234.9664 1235.058 1235.3068 1235.6404 1236.1532 1236.9172 1237.5876 1238.0336 1238.4128 1238.6495 1238.8264 1239.3953 1240.252 1241.0052 1241.9587 1242.798 1243.1764 1243.2988 1243.3508 1243.474 1243.4524 1243.444 1243.436 1243.8328 1244.224 1244.568 1244.904 1245.2883 1245.5164 1245.3612 1245.1252 1245.75 1247.1068 1248.1072 1248.5504 1249.096 1248.9937 1248.2131 1248.4668 1249.7319 1250.1376 1250.4296 1250.6927 1251.6188 1252.1284 1252.2516 1252.034 1251.9924 1252.0107 1251.9088 1251.256 1251.4471 1252.1968 1253.1256 1253.6392 1253.9972 1254.3228 1254.6096 1254.8552 1255.2888 1255.8992 1256.5468 1256.7924 1257.1152 1257.4456 1257.6896 1257.7648 1258.0192 1258.6104 1259.5192 1260.46 1261.4092 1262.29 1263.0 1263.9192 1264.8844 1265.6532 1266.456 1266.4056 1266.3268 1266.3484 1266.1492 1265.9388 1265.7664 1265.4487 1264.9248 1264.5632 1264.422 1264.4548 1264.5912 1264.78 1265.0541 1265.1093 1265.1724 1265.5988 1266.2308 1266.8187 1267.418 1268.146 1268.9792 1269.3336 1269.5516 1269.7284 1270.0789 1270.63 1271.6752 1272.4432 1272.9991 1273.7712 1274.1184 1274.1208 1274.2216 1274.048 1274.0671 1274.284 1274.6396 1274.8124 1274.9104 1275.2336 1275.874 1276.122 1276.3995 1276.5269 1276.4213 1276.2948 1275.9984 1275.6968 1275.578 1275.6708 1275.9705 1276.2767 1276.2068 1275.9116 1275.4576 1275.1272 1274.8644 1274.9884 1274.9828 1274.5068 1274.1968 1274.1952 1273.998 1273.7332 1273.1088 1272.4248 1272.4788 1272.4211 1272.3224 1272.4584 1272.4803 1272.3243 1272.404 1272.664 1273.1772 1273.1548 1272.7668 1272.7388 1273.1632 1273.6448 1274.2936 1275.3143 1276.6508 1278.5924 1280.3809 1281.6512 1283.1704 1284.5208 1285.79 1286.9668 1288.6309 1290.1564 1291.7648 1293.3208 1294.8264 1296.0464 1297.462 1299.2388 1301.1572 1302.5012 1303.8304 1305.312 1306.54 1307.808 1309.0627 1310.6469 1312.3693 1314.0508 1316.0176 1317.4576 1318.7644 1320.5116 1322.4904 1324.9288 1326.6544 1327.6208 1330.1788 1333.9652 1337.7416 1339.8505 1341.608 1342.9545 1345.2472 1347.3792 1349.0416 1352.4384 1357.792 1360.7681 1363.2472 1365.3848 1367.1772 1368.2764 1371.588 1373.2472 1374.7604 1376.958 1379.3284 1380.7772 1384.17 1385.7052 1386.9312 1389.1776 1390.5076 1395.5012 1398.7372 1400.8868 1401.6667 1402.2852
1286.5715 1286.7196 1286.148 1285.7136 1284.954 1284.574 1284.4204 1283.9868 1283.1003 1281.2604 1279.474 1278.634 1277.4088 1275.5376 1273.1064 1271.0488 1269.2816 1268.2272 1266.9956 1265.618 1264.1913 1262.6729 1260.6931 1259.0771 1257.6432 1256.3624 1255.02 1253.4856 1251.8564 1250.7756 1249.9404 1248.3684 1246.2769 1245.1864 1243.8496 1242.3784 1240.6968 1239.8015 1238.884 1238.0441 1236.9928 1235.8336 1234.5629 1233.8972 1233.824 1233.736 1233.8763 1234.3763 1235.0599 1235.2848 1235.4468 1235.6252 1235.9908 1236.3724 1236.8452 1237.1829 1237.5536 1238.0464 1238.5288 1239.0272 1239.8544 1240.572 1241.2572 1242.0444 1242.7316 1242.878 1242.806 1242.9828 1243.3628 1243.3284 1243.2319 1243.256 1243.5496 1244.0608 1244.6656 1245.0128 1245.1613 1244.9716 1244.7725 1245.058 1246.0148 1247.002 1247.8656 1248.0304 1248.1392 1247.9104 1247.9476 1248.7516 1249.7888 1249.7319 1249.5239 1250.0128 1251.142 1251.4996 1251.5188 1251.2852 1251.2812 1251.4515 1251.3264 1250.8257 1251.2192 1251.8456 1252.6104 1253.0216 1253.3229 1253.6293 1253.8096 1254.0712 1254.8296 1255.5504 1256.0332 1256.0836 1256.1512 1256.3359 1256.556 1257.0072 1257.756 1258.5728 1259.32 1260.072 1261.0292 1261.8108 1262.5063 1263.3505 1264.126 1264.7957 1265.696 1265.9672 1265.9412 1266.0284 1265.8604 1265.642 1265.468 1265.0464 1264.4896 1264.0256 1263.7651 1263.7212 1263.828 1264.0583 1264.3756 1264.394 1264.5323 1265.0948 1265.6868 1266.3132 1266.9572 1267.4836 1268.0399 1268.3368 1268.6508 1268.9924 1269.4749 1270.242 1271.2936 1272.0265 1272.5376 1273.0311 1273.2456 1273.3328 1273.4576 1273.1976 1273.4928 1273.868 1274.2156 1274.2781 1274.2872 1274.4392 1274.866 1275.2563 1275.6692 1275.8029 1275.5804 1275.5052 1275.356 1274.9777 1274.6372 1274.7876 1275.1504 1275.4312 1275.3276 1274.9972 1274.6592 1274.4008 1274.0884 1274.0956 1274.3851 1274.21 1273.8632 1273.7848 1273.6165 1273.3691 1272.8584 1272.312 1271.8972 1271.7692 1271.6696 1271.6616 1271.6508 1271.642 1271.7697 1271.9272 1272.1892 1272.1396 1271.9429 1271.9548 1272.2744 1272.692 1273.5408 1274.408 1275.3868 1277.8756 1279.6337 1280.6208 1281.8992 1283.1423 1284.214 1285.2565 1286.9932 1288.978 1290.272 1291.8008 1293.7913 1295.3744 1297.0125 1298.3157 1299.8068 1301.3556 1302.7048 1304.0104 1305.0815 1306.4536 1307.7491 1309.41 1311.2115 1312.802 1314.2936 1315.9576 1317.4172 1318.9531 1320.6584 1322.9288 1324.9552 1326.232 1328.194 1330.6124 1334.1927 1338.4327 1340.344 1341.3848 1342.5624 1344.9376 1347.9336 1349.5833 1352.8201 1358.0905 1360.9056 1362.2928 1364.0109 1365.8956 1368.656 1371.176 1373.1868 1375.2308 1378.054 1379.7748 1381.4747 1383.0564 1384.2976 1386.2032 1387.7548 1389.1932 1397.4836 1398.558 1399.3988 1399.2716
1288.152 1288.1096 1288.1844 1287.7524 1286.5984 1286.1353 1285.9327 1285.5192 1284.5952 1282.5088 1280.5817 1278.9568 1277.4556 1275.8124 1273.5256 1271.6824 1270.004 1269.1488 1268.008 1266.3289 1264.6592 1263.0808 1261.5984 1260.0176 1258.5583 1257.7816 1256.6156 1255.1908 1253.6012 1252.1324 1250.7972 1249.2836 1247.3252 1245.97 1244.5564 1243.562 1242.1036 1241.046 1240.0336 1238.8752 1237.5824 1236.2104 1234.964 1234.2375 1233.9348 1233.8716 1233.9749 1234.322 1234.906 1235.1019 1235.2416 1235.4032 1235.6929 1236.0776 1236.49 1236.7932 1237.1372 1237.8044 1238.4805 1239.1365 1240.0724 1240.75 1241.3676 1241.9812 1242.4489 1242.3735 1242.2468 1242.5276 1243.0164 1243.1309 1243.1124 1243.2052 1243.3336 1243.8904 1244.5344 1244.5488 1244.482 1244.4524 1244.7856 1245.4336 1246.5568 1247.4552 1247.4468 1247.4452 1247.2839 1247.1528 1247.8417 1248.9448 1249.41 1249.3492 1249.2008 1249.3096 1250.1165 1250.5084 1250.636 1250.6224 1250.7045 1250.9276 1250.6613 1250.6428 1250.9756 1251.3605 1251.9124 1252.442 1252.7544 1253.0137 1253.1656 1253.5176 1254.2769 1254.8136 1255.0004 1255.0251 1255.0808 1255.1472 1255.4556 1256.2988 1257.1989 1258.0004 1258.5868 1259.2308 1260.0188 1261.0428 1261.8013 1262.4452 1263.0652 1263.6788 1264.4568 1265.144 1265.526 1265.5444 1265.4076 1265.23 1264.8969 1264.6016 1264.096 1263.4991 1262.9728 1262.728 1262.7188 1262.9429 1263.3396 1263.4749 1263.7368 1264.3264 1265.0197 1265.5612 1266.1584 1266.5887 1266.908 1267.1632 1267.6412 1268.2716 1269.114 1270.1163 1270.8704 1271.4025 1271.9152 1272.2344 1272.2048 1272.2305 1272.2836 1272.438 1272.9952 1273.2632 1273.462 1273.678 1273.7528 1273.9752 1274.302 1274.5924 1274.9796 1275.2292 1275.1924 1274.958 1274.734 1274.4388 1274.0176 1273.9935 1274.2076 1274.4124 1274.346 1274.0012 1273.6156 1273.5132 1273.3544 1273.2521 1273.6416 1273.7424 1273.3912 1273.2 1273.0948 1272.898 1272.5896 1272.4192 1272.1128 1271.5648 1271.1472 1271.008 1270.9612 1270.9916 1270.9124 1271.0316 1270.958 1270.8876 1270.996 1271.1616 1271.3252 1271.738 1272.4373 1273.0364 1273.834 1276.2365 1277.7048 1279.0936 1280.1656 1281.2769 1282.4104 1283.4976 1285.036 1287.4113 1289.238 1290.8468 1292.5568 1294.1608 1295.8008 1297.1392 1298.3384 1299.7825 1301.15 1302.3756 1303.6068 1305.066 1306.3704 1308.0128 1309.7136 1311.2175 1312.6764 1314.3868 1316.0352 1317.6671 1319.2888 1321.2264 1323.2769 1325.1704 1327.2448 1328.9048 1331.1144 1333.9648 1338.8308 1339.7308 1340.6184 1342.3424 1345.5208 1347.6808 1350.4023 1354.7264 1358.1252 1359.2924 1360.6896 1362.5112 1365.24 1368.4048 1371.3148 1373.4108 1375.7196 1378.8508 1380.2264 1381.4113 1382.6685 1384.4924 1386.1764 1387.6348 1390.3584 1393.8928 1395.3652 1395.786
1290.7112 1290.088 1290.0612 1290.482 1289.6047 1289.004 1288.2463 1286.8472 1285.4633 1283.2424 1280.7145 1278.704 1277.0988 1275.7532 1274.2656 1272.7408 1270.988 1269.9376 1268.9896 1267.4192 1265.7776 1264.5288 1263.4088 1262.1193 1260.656 1259.452 1257.878 1256.3732 1254.7437 1253.214 1251.6548 1250.106 1248.5116 1246.9852 1245.4308 1244.6476 1243.2812 1241.8748 1240.7928 1239.8152 1238.496 1236.7848 1235.6256 1234.7056 1234.2172 1234.114 1234.1404 1234.4076 1235.0604 1235.1876 1235.2152 1235.2584 1235.3608 1235.7057 1236.0339 1236.3452 1236.798 1237.59 1238.3284 1238.8324 1239.7196 1240.5668 1241.2284 1241.7347 1242.0 1241.8304 1241.882 1242.2493 1242.654 1242.9156 1243.1068 1243.182 1243.2432 1243.4144 1243.6328 1243.9048 1244.282 1244.7676 1245.264 1245.848 1246.8784 1247.1864 1247.0372 1246.9315 1246.6736 1247.0128 1247.728 1248.612 1248.7012 1248.7268 1248.7216 1248.5712 1249.102 1249.6492 1249.992 1250.1704 1250.2692 1250.254 1249.8563 1249.8684 1250.3228 1250.858 1251.2836 1251.7572 1251.8359 1252.2104 1252.7008 1253.0416 1253.5376 1253.9417 1253.9668 1253.9788 1254.1168 1254.2312 1254.6388 1255.5764 1256.4668 1257.1116 1257.7628 1258.306 1259.0323 1260.042 1260.882 1261.4893 1262.1244 1262.7892 1263.4152 1264.0833 1264.59 1264.6404 1264.7781 1264.7509 1264.448 1264.2216 1263.5815 1262.8568 1262.2704 1262.0817 1262.0228 1262.162 1262.5908 1262.8588 1263.1448 1263.4432 1264.0948 1264.7212 1265.1528 1265.58 1265.9696 1266.3208 1266.854 1267.7036 1268.8788 1269.822 1270.4224 1270.9512 1271.3168 1271.5367 1271.4696 1271.3096 1271.4604 1271.9316 1272.3352 1272.4912 1272.5684 1272.666 1272.8967 1273.324 1273.686 1273.9764 1274.3772 1274.6667 1274.7996 1274.6036 1274.3405 1274.09 1273.6472 1273.348 1273.2732 1273.4204 1273.4747 1273.3124 1272.8972 1272.7164 1272.6088 1272.5608 1272.8488 1272.9768 1272.6392 1272.4095 1272.3292 1272.2316 1272.0135 1271.9343 1271.8152 1271.2272 1270.7568 1270.6576 1270.5427 1270.4388 1270.27 1270.4308 1270.4308 1270.2356 1270.1752 1270.3201 1270.4373 1270.89 1271.382 1271.8083 1272.5724 1274.2788 1275.4232 1277.828 1279.0416 1280.0168 1281.1552 1282.3721 1284.0376 1285.8608 1287.8052 1290.0956 1291.4552 1292.7521 1294.3568 1295.9352 1297.2544 1298.9224 1299.8916 1300.7924 1302.1525 1303.4276 1304.8064 1306.4631 1308.3287 1309.6407 1311.1917 1312.974 1314.9272 1316.5511 1317.88 1319.5153 1321.7233 1324.0184 1326.5529 1328.1984 1330.1855 1331.7352 1335.2076 1338.2468 1339.3937 1341.076 1343.3408 1345.5776 1349.312 1351.7784 1355.0276 1356.5372 1358.1616 1360.2552 1362.9329 1366.0912 1369.0724 1371.5044 1373.7723 1377.6348 1379.3287 1380.1984 1381.37 1383.2644 1384.8076 1385.8228 1387.0527 1388.7681 1391.6595 1393.6836
1292.2468 1291.6212 1291.8477 1292.5764 1291.9868 1291.346 1290.5472 1287.9777 1285.6832 1283.3832 1280.852 1279.072 1277.49 1276.302 1275.1188 1273.7028 1272.1024 1270.8672 1269.8132 1268.634 1267.594 1266.7468 1265.3156 1264.0708 1262.6744 1261.2264 1259.14 1257.4624 1255.8612 1254.2108 1252.5304 1251.0912 1249.6428 1248.1667 1246.316 1245.3632 1244.178 1242.9229 1241.7056 1240.9456 1239.82 1237.6528 1236.42 1235.3809 1234.4088 1234.2944 1234.3289 1234.448 1235.0424 1235.4464 1235.6304 1235.7728 1235.8888 1236.0408 1236.0724 1236.29 1236.7504 1237.3224 1238.0764 1238.6388 1239.568 1240.4296 1240.9912 1241.3953 1241.4744 1241.0424 1241.1595 1241.7396 1242.31 1242.6764 1242.7732 1242.8907 1243.1664 1243.3704 1243.5188 1243.6548 1244.0847 1244.8168 1245.5708 1246.2428 1246.9812 1246.6884 1246.2804 1246.0828 1246.422 1246.7908 1247.3564 1247.7548 1247.7004 1247.7043 1247.7319 1247.8672 1248.5668 1249.1412 1249.4248 1249.552 1249.7156 1249.7812 1249.4028 1249.1395 1249.694 1250.3668 1250.6864 1250.9336 1251.1036 1251.6228 1252.0856 1252.3512 1252.6996 1252.8556 1252.8264 1252.8944 1253.0684 1253.3115 1253.8868 1254.7372 1255.6028 1256.2668 1256.8032 1257.224 1258.3104 1259.3552 1259.938 1260.5972 1261.2017 1261.9417 1262.4696 1262.8575 1263.3596 1263.6412 1263.8032 1263.832 1263.6456 1263.2952 1262.6692 1262.078 1261.4924 1261.3853 1261.3484 1261.4445 1261.9756 1262.3268 1262.7412 1262.9468 1263.3068 1263.8387 1264.2128 1264.5457 1265.0197 1265.6372 1266.53 1267.4244 1268.5424 1269.5432 1270.0272 1270.4608 1270.6752 1270.5496 1270.5436 1270.4875 1270.7532 1271.1572 1271.6584 1271.9872 1271.9144 1271.724 1272.0208 1272.5905 1273.0328 1273.2856 1273.4376 1273.6504 1273.9703 1273.9808 1273.8456 1273.7512 1273.3517 1272.7548 1272.3628 1272.2228 1272.1372 1272.2332 1271.85 1271.5708 1271.5864 1271.7767 1272.076 1272.1064 1271.7653 1271.3923 1271.3132 1271.49 1271.4028 1271.2244 1271.09 1270.6996 1270.3433 1270.2952 1270.1648 1269.9872 1269.704 1269.7456 1269.9368 1269.6927 1269.3684 1269.3765 1269.5248 1269.8096 1270.2648 1270.676 1271.3656 1272.5511 1273.904 1275.9248 1277.274 1278.4556 1279.812 1281.056 1282.7192 1284.2528 1285.7612 1288.502 1290.09 1291.2972 1293.0884 1294.7437 1296.022 1297.3475 1298.2008 1299.1841 1300.4756 1301.5524 1303.0457 1304.82 1306.7872 1308.2377 1309.804 1311.6312 1313.57 1315.2883 1316.6832 1318.3544 1320.91 1323.3812 1325.7883 1327.5364 1329.6052 1331.506 1332.728 1335.7944 1338.1888 1339.8895 1342.5912 1344.3824 1347.3707 1349.8083 1351.5208 1352.9064 1355.0688 1357.8271 1361.1624 1363.372 1366.0552 1368.6256 1371.8788 1375.2036 1377.648 1378.5376 1380.3969 1382.0928 1383.4264 1384.66 1386.2164 1387.1444 1389.3505 1391.4208
1294.9515 1294.246 1294.2196 1294.2811 1293.2811 1291.8628 1290.4264 1288.2552 1285.712 1283.2152 1281.2825 1280.1072 1278.4229 1277.0573 1275.8412 1274.5436 1272.9072 1271.6416 1270.8292 1270.65 1270.1019 1269.0916 1267.546 1265.8516 1264.2407 1262.6536 1260.3376 1258.4728 1256.7812 1255.0828 1253.3584 1251.9528 1250.4427 1249.1428 1247.56 1246.1768 1244.9044 1243.9756 1242.5585 1241.4496 1240.2177 1238.6584 1237.572 1236.5488 1234.9128 1234.4352 1234.5616 1234.6792 1234.936 1235.3416 1235.8192 1236.0928 1236.2512 1236.4095 1236.53 1236.7284 1237.2233 1237.624 1238.1508 1238.6956 1239.5009 1240.0743 1240.508 1240.7823 1240.5088 1240.2832 1240.6028 1241.1284 1241.8229 1242.226 1242.2308 1242.4684 1242.9752 1243.3344 1243.6124 1243.7788 1244.0016 1244.3992 1244.9788 1245.7004 1246.5931 1246.2076 1245.8013 1246.17 1246.5388 1246.6484 1247.186 1247.1156 1246.8484 1247.0508 1247.3248 1247.6873 1248.3676 1248.774 1248.9633 1249.1416 1249.3132 1249.35 1249.1508 1248.8828 1249.2932 1249.902 1250.0752 1249.9832 1250.1628 1250.9268 1251.456 1251.6176 1251.7148 1251.7268 1251.624 1251.7368 1252.1948 1252.6652 1253.3412 1254.0956 1254.9724 1255.5612 1255.8632 1256.4631 1257.6344 1258.6312 1259.2795 1259.9388 1260.3359 1260.8951 1261.4784 1261.9144 1262.3157 1262.578 1262.7504 1262.872 1262.7032 1262.2616 1261.7356 1261.234 1260.7812 1260.8164 1260.9067 1260.8492 1261.2844 1261.7092 1262.2236 1262.4868 1262.726 1263.0948 1263.4408 1263.8184 1264.486 1265.422 1266.3596 1267.0972 1268.1416 1269.1135 1269.5977 1269.7096 1269.7056 1269.4728 1269.5244 1269.5868 1269.8604 1270.3013 1271.0472 1271.3296 1271.0664 1270.9255 1271.3368 1271.9272 1272.412 1272.5736 1272.4752 1272.6576 1273.1855 1273.3032 1273.168 1273.1024 1272.8812 1272.5116 1272.0715 1271.5396 1271.018 1270.9731 1270.726 1270.5476 1270.7704 1271.0424 1271.2823 1271.324 1270.9996 1270.6844 1270.8252 1270.9652 1270.8628 1270.5276 1270.298 1270.1012 1270.0065 1269.9456 1269.8992 1269.6768 1269.264 1269.2048 1269.4401 1269.38 1269.0028 1268.7804 1268.7704 1268.884 1269.4136 1270.0936 1271.076 1272.2184 1273.4664 1274.6552 1275.7108 1276.9436 1278.5784 1279.7968 1281.1016 1282.7344 1284.5828 1286.9972 1288.6564 1290.0076 1291.8068 1293.2428 1294.4589 1295.562 1296.7056 1297.9528 1299.3572 1300.3076 1301.9095 1303.7479 1305.5281 1307.0552 1308.708 1310.4456 1312.2948 1314.0132 1315.9376 1317.868 1320.53 1322.7852 1325.018 1326.8236 1328.7924 1330.506 1332.48 1335.0344 1336.924 1338.4504 1340.76 1343.6024 1345.1636 1347.742 1349.6576 1350.808 1352.3647 1355.288 1359.4584 1361.3672 1362.9336 1365.1952 1369.7356 1372.7996 1375.0424 1376.6888 1378.896 1380.6945 1382.0752 1383.4736 1385.1732 1386.0917 1386.788 1387.1256
1296.9056 1296.3872 1296.25 1295.4524 1293.9443 1292.4756 1290.642 1288.726 1286.0012 1283.9324 1282.3724 1281.1133 1279.536 1278.2312 1277.0385 1276.0984 1274.7028 1273.9004 1273.6288 1273.324 1272.1304 1270.7319 1269.0872 1267.0624 1265.418 1263.498 1261.4164 1259.8092 1258.51 1256.7988 1254.6316 1253.126 1251.48 1249.9984 1248.9196 1247.3196 1245.8276 1244.5931 1243.084 1241.9736 1241.3944 1240.6152 1238.4644 1236.942 1234.9188 1234.5812 1234.7275 1234.8452 1234.922 1235.0876 1235.5912 1235.9944 1236.2688 1236.5408 1236.7247 1236.8464 1237.0564 1237.2948 1237.7096 1238.3184 1239.2352 1239.8575 1240.1156 1239.9604 1239.2444 1239.9268 1240.6416 1240.8447 1241.2004 1241.5485 1241.7496 1242.3336 1242.9104 1243.3064 1243.6248 1244.0831 1244.356 1244.5472 1244.8468 1245.1516 1245.476 1245.5936 1245.6676 1245.9724 1246.242 1246.3436 1246.5968 1246.5544 1246.4312 1246.8552 1247.1304 1247.4504 1248.1752 1248.4656 1248.6892 1248.818 1248.8892 1248.8243 1248.6996 1248.5148 1248.7952 1249.1423 1249.1284 1249.0356 1249.388 1250.1328 1250.5188 1250.5388 1250.5267 1250.542 1250.5564 1250.6372 1251.2365 1251.9916 1252.7892 1253.4731 1254.1084 1254.5004 1254.9067 1255.7876 1257.0079 1257.8793 1258.4937 1259.0144 1259.5223 1259.7504 1260.3696 1261.0151 1261.3748 1261.4156 1261.5956 1261.6812 1261.4452 1261.078 1260.702 1260.3588 1260.0112 1260.1808 1260.3016 1260.2712 1260.7087 1261.112 1261.5197 1261.9716 1262.4069 1262.5988 1262.8568 1263.3472 1264.2992 1265.1656 1265.9408 1266.6945 1267.5295 1268.2128 1268.7788 1268.87 1268.6588 1268.4388 1268.4016 1268.568 1268.9336 1269.464 1270.1116 1270.3748 1270.1676 1270.1293 1270.6116 1271.1956 1271.6664 1271.8336 1271.576 1271.6328 1272.1836 1272.4204 1272.398 1272.3011 1272.1569 1271.9016 1271.5756 1271.0708 1270.3228 1269.9996 1270.0573 1269.998 1270.1036 1270.3524 1270.4956 1270.53 1270.2512 1270.1136 1270.282 1270.3691 1270.2052 1269.7676 1269.7347 1269.6908 1269.6628 1269.614 1269.5316 1269.4283 1269.124 1268.804 1268.8264 1268.8352 1268.5344 1268.2216 1268.0452 1268.2036 1268.8536 1269.712 1270.776 1271.8896 1273.1829 1274.1539 1275.1404 1276.1908 1277.5508 1278.7491 1280.0496 1281.66 1283.6388 1285.45 1287.1196 1288.4828 1289.874 1291.1084 1292.7164 1294.0092 1295.2428 1296.5868 1298.1432 1299.6552 1301.23 1302.8916 1305.0223 1306.5768 1308.1265 1309.6112 1311.3944 1313.2112 1315.5789 1317.8252 1320.238 1321.89 1323.8016 1325.5232 1327.3384 1328.8984 1330.8328 1334.3616 1335.9064 1337.0295 1338.6384 1341.9921 1344.2208 1344.7032 1347.15 1348.5868 1350.1588 1352.53 1357.11 1359.9468 1361.5076 1362.6539 1366.052 1369.76 1371.8832 1374.0096 1375.6676 1379.3461 1381.2236 1382.2396 1383.7955 1384.718 1384.9083 1384.4724
1298.0792 1297.4025 1297.0116 1296.5244 1295.5908 1293.6484 1291.9956 1289.5404 1286.6381 1284.8171 1283.2828 1282.0588 1280.912 1279.772 1278.3768 1277.6816 1277.0764 1276.402 1275.7625 1274.7983 1273.348 1271.188 1269.2672 1267.5272 1265.8549 1264.386 1262.8972 1261.5476 1259.81 1258.4508 1256.3372 1253.9532 1252.3129 1250.7416 1249.338 1247.8036 1246.2452 1244.9692 1243.5928 1242.444 1241.8832 1240.4095 1238.2028 1236.4692 1235.1228 1234.8619 1234.9052 1234.9028 1234.974 1235.0868 1235.312 1235.6049 1235.9048 1236.1624 1236.3055 1236.3472 1236.5548 1236.7228 1236.8536 1237.1184 1237.7448 1238.6696 1239.442 1239.2147 1238.6868 1239.3308 1240.2712 1240.3145 1240.518 1241.1156 1241.6384 1242.3632 1242.736 1243.1272 1243.556 1244.0529 1244.5504 1244.8152 1245.1692 1245.3796 1245.524 1245.5552 1245.802 1246.0332 1246.1436 1246.1523 1246.2017 1246.2344 1246.3 1246.6008 1246.8424 1247.2808 1248.0687 1248.3096 1248.4564 1248.4556 1248.4404 1248.3916 1248.3549 1248.2964 1248.3608 1248.4216 1248.3644 1248.3948 1248.7377 1249.1049 1249.2668 1249.3124 1249.3788 1249.4036 1249.5308 1249.8324 1250.614 1251.5468 1252.4708 1253.1611 1253.6932 1254.0388 1254.7924 1255.686 1256.6552 1257.3472 1257.8359 1258.2528 1258.5784 1258.9937 1259.724 1260.3008 1260.6604 1260.6964 1260.594 1260.438 1260.1788 1259.938 1259.7212 1259.5555 1259.308 1259.5016 1259.6624 1259.8289 1260.4048 1260.7072 1261.166 1261.7635 1262.1188 1262.2916 1262.4968 1262.952 1263.932 1264.84 1265.4808 1266.4056 1266.9312 1267.3505 1267.7725 1267.902 1267.79 1267.5397 1267.4272 1267.592 1268.1729 1268.8824 1269.5789 1269.7637 1269.5228 1269.5164 1269.8492 1270.318 1270.7823 1271.0984 1270.8073 1270.76 1271.1948 1271.3004 1271.6196 1271.6748 1271.4672 1271.2008 1270.9188 1270.6572 1269.9884 1269.422 1269.41 1269.5972 1269.71 1269.8308 1269.7836 1269.698 1269.5153 1269.3728 1269.5964 1269.7219 1269.458 1269.1564 1269.2668 1269.2756 1269.2405 1269.3036 1269.2244 1269.19 1268.912 1268.5552 1268.3575 1268.2288 1267.9703 1267.7296 1267.622 1267.9596 1268.712 1269.5352 1270.5568 1271.6864 1272.8724 1273.5604 1274.4364 1275.4004 1276.6987 1278.0796 1279.4473 1280.8944 1282.6732 1284.3516 1286.0076 1287.3531 1288.7484 1290.21 1291.6685 1293.1356 1294.6147 1295.9508 1297.5856 1299.2656 1300.9196 1302.5828 1304.7296 1306.1191 1307.6047 1309.1744 1310.8145 1312.6119 1314.8812 1317.0588 1319.2275 1320.75 1322.6119 1324.3336 1325.8352 1326.9471 1328.524 1332.064 1332.8416 1334.2288 1335.1696 1337.7744 1340.4224 1341.3864 1343.5956 1346.0468 1347.934 1350.566 1354.9036 1358.4268 1360.1532 1361.2885 1362.8064 1365.58 1368.82 1370.9576 1373.55 1376.006 1379.5308 1381.4796 1382.6652 1383.2756 1383.4404 1383.2252
1299.2765 1298.5109 1298.422 1298.418 1297.0924 1294.5204 1292.8352 1289.8505 1287.4292 1285.7493 1284.4592 1283.3208 1282.3728 1281.4528 1280.5164 1280.2957 1279.5304 1278.3672 1276.9296 1275.6047 1273.8184 1271.3552 1269.3308 1267.8228 1266.2888 1265.064 1263.7488 1262.4064 1260.5448 1259.248 1257.3796 1254.9668 1253.0508 1251.4316 1250.0424 1248.5736 1246.8953 1245.5704 1244.0696 1242.6968 1241.5884 1240.1332 1238.4664 1236.4545 1235.7811 1235.1884 1235.102 1235.0643 1235.1056 1235.1792 1235.256 1235.34 1235.516 1235.6888 1235.772 1235.8433 1236.23 1236.5276 1236.642 1236.8923 1237.0156 1237.166 1237.928 1238.4255 1238.6 1238.6488 1238.8964 1239.2076 1240.0936 1241.0712 1241.662 1242.2365 1242.6532 1243.0092 1243.3236 1243.6163 1243.9548 1244.426 1245.026 1245.45 1244.8492 1245.1924 1245.9924 1246.1812 1245.9984 1246.0424 1246.1188 1246.1212 1246.2224 1246.3264 1246.66 1247.384 1247.944 1248.1392 1248.2108 1248.1652 1248.048 1247.9144 1247.9724 1248.0748 1248.106 1247.986 1247.8619 1247.8292 1248.0096 1248.1864 1248.2976 1248.2816 1248.316 1248.3456 1248.5752 1249.1912 1250.3792 1251.464 1252.2996 1252.9517 1253.2592 1253.7856 1254.7208 1255.576 1256.3208 1256.9592 1257.2764 1257.4373 1257.6028 1258.2404 1259.012 1259.5056 1259.8876 1259.9427 1259.6816 1259.4344 1259.066 1258.8724 1258.7823 1258.7216 1258.6208 1258.768 1259.1536 1259.5367 1260.112 1260.5072 1260.8672 1261.4257 1261.8856 1262.1016 1262.282 1262.762 1263.4728 1264.248 1264.9916 1265.7651 1266.2344 1266.6456 1266.8308 1266.7052 1266.5708 1266.3644 1266.4708 1266.79 1267.5024 1268.3104 1269.2084 1269.3907 1268.8912 1268.7896 1269.0192 1269.3593 1269.7808 1270.0905 1269.8612 1269.934 1270.5216 1270.5176 1270.6608 1270.8224 1270.5264 1270.3448 1270.1912 1269.884 1269.3876 1268.9803 1268.8828 1269.1324 1269.2551 1269.196 1269.1968 1269.1871 1268.826 1268.4308 1268.5632 1268.7911 1268.7372 1268.698 1268.6667 1268.6788 1268.676 1268.7712 1268.8164 1268.8276 1268.6005 1268.2844 1267.9777 1267.7648 1267.5784 1267.3704 1267.2972 1267.654 1268.5348 1269.47 1270.588 1271.7128 1272.5508 1272.87 1273.5629 1274.3932 1275.8464 1277.4352 1278.8104 1279.9615 1281.5485 1283.2108 1284.8048 1286.408 1287.918 1289.5396 1291.1376 1292.3704 1294.0636 1295.3964 1296.822 1298.4764 1300.3516 1301.9364 1303.6727 1304.9 1306.6047 1308.5583 1310.4028 1312.0483 1314.056 1315.904 1317.6409 1319.1792 1320.8804 1322.2876 1323.7452 1325.0548 1326.5828 1328.406 1330.3544 1332.0 1332.9908 1334.162 1335.962 1337.8676 1340.4952 1342.912 1345.3308 1348.1685 1352.5612 1356.1244 1358.0977 1359.5688 1360.9357 1361.9364 1365.298 1368.6052 1370.926 1372.8412 1375.5376 1379.4928 1381.9124 1382.1132 1382.5312 1382.5176
1300.3116 1299.7156 1299.5355 1299.3925 1297.8108 1295.7684 1293.9032 1290.0063 1288.1332 1286.8756 1285.8256 1284.7576 1284.0936 1283.6744 1282.7764 1281.8596 1280.8192 1279.5905 1277.784 1276.0225 1274.1063 1271.872 1269.7764 1268.6284 1267.14 1265.7328 1264.4872 1263.036 1261.3809 1260.0887 1258.2092 1256.1293 1254.2212 1252.5717 1251.2216 1249.5944 1247.84 1246.5424 1244.8057 1243.1016 1241.4229 1239.9355 1238.26 1236.5297 1236.1444 1235.7196 1235.2084 1235.2524 1235.2231 1235.2472 1235.2976 1235.3865 1235.456 1235.6608 1235.7456 1235.7896 1236.0771 1236.4724 1236.55 1236.7396 1237.002 1237.0548 1237.2231 1237.5256 1238.0944 1238.5112 1238.5933 1238.802 1239.5872 1240.6544 1241.2684 1241.7404 1242.3317 1242.7324 1242.9532 1243.1532 1243.458 1243.8412 1244.1548 1244.2188 1244.1084 1245.4196 1245.914 1245.8851 1245.408 1245.388 1245.8396 1246.0292 1246.212 1246.3447 1246.5072 1246.868 1247.2983 1247.7224 1247.8868 1247.8892 1247.7568 1247.6072 1247.7205 1247.882 1247.8245 1247.5908 1247.4268 1247.3828 1247.436 1247.4833 1247.5184 1247.5312 1247.564 1247.6992 1248.116 1248.9288 1250.1727 1251.1296 1251.9188 1252.47 1252.9808 1253.7664 1254.3392 1255.0616 1255.9304 1256.5223 1256.7964 1256.6772 1256.8484 1257.478 1258.2424 1258.8208 1259.2332 1259.3604 1259.1152 1258.8392 1258.45 1258.0933 1257.9592 1257.7832 1257.7424 1258.0944 1258.6168 1259.0912 1259.7488 1260.2913 1260.572 1260.8696 1261.1896 1261.4232 1261.7252 1262.4564 1263.1968 1263.74 1264.4324 1265.03 1265.4368 1265.6976 1265.85 1265.8029 1265.6836 1265.658 1265.6252 1266.1683 1267.084 1267.8344 1268.6348 1268.9932 1268.3431 1268.208 1268.1744 1268.4344 1268.9496 1269.1407 1268.9692 1269.042 1269.6544 1270.1768 1270.2224 1270.1328 1269.8809 1269.7056 1269.4993 1269.1536 1268.774 1268.5332 1268.486 1268.59 1268.7584 1268.6783 1268.5752 1268.3145 1267.7988 1267.3475 1267.5383 1268.0176 1268.3524 1268.4684 1268.3572 1268.2908 1268.1696 1268.1528 1268.2852 1268.4468 1268.2708 1268.0316 1267.788 1267.484 1267.2832 1267.0912 1267.0756 1267.4708 1268.394 1269.3948 1270.5048 1271.3224 1271.7372 1272.1108 1272.9292 1274.0908 1275.608 1276.688 1278.1512 1279.4768 1280.7635 1282.402 1283.7832 1285.4648 1287.2396 1288.9828 1290.4896 1291.5 1293.2739 1294.8243 1296.1725 1297.6812 1299.4572 1300.914 1302.4432 1303.7808 1305.7161 1307.748 1309.8259 1311.4332 1313.1016 1314.6056 1316.0848 1317.5544 1319.3428 1320.7212 1322.0692 1323.766 1325.7828 1327.3964 1328.9712 1330.1896 1331.1284 1332.1508 1333.6252 1335.7644 1337.6873 1340.1968 1343.0684 1345.402 1350.5388 1354.3564 1356.5112 1357.9872 1359.5715 1360.9357 1362.6364 1365.5884 1368.3796 1370.7172 1372.6776 1375.7625 1379.0323 1380.654 1381.748 1381.656
1301.5908 1301.034 1300.6395 1300.1971 1298.7356 1296.806 1294.72 1290.996 1289.2388 1288.5524 1287.7347 1286.8308 1286.194 1285.6572 1284.3916 1283.0812 1281.7036 1280.2484 1278.396 1276.5376 1274.6656 1272.9608 1271.1584 1270.1248 1268.856 1267.1648 1265.57 1263.8837 1262.358 1261.0956 1259.2944 1257.372 1255.4988 1253.9269 1252.2563 1250.4908 1248.6116 1247.158 1245.752 1244.5024 1242.5671 1240.6785 1238.9072 1236.8807 1236.2192 1236.208 1235.6392 1235.4784 1235.4324 1235.3972 1235.3944 1235.4264 1235.512 1235.7393 1235.7976 1235.84 1236.006 1236.2115 1236.5176 1236.8232 1237.1191 1237.228 1237.32 1237.3984 1237.5288 1238.0457 1238.3704 1238.4185 1238.6012 1239.1716 1239.7792 1240.4176 1241.7048 1242.5256 1242.8287 1243.0704 1243.4672 1243.6648 1243.5596 1243.4861 1244.0052 1245.0413 1245.104 1245.0712 1244.8528 1244.7936 1245.1652 1245.2509 1245.638 1246.2788 1246.8737 1246.9417 1246.866 1247.0508 1247.22 1247.3328 1247.3604 1247.3628 1247.416 1247.4304 1247.3536 1247.248 1247.1876 1247.182 1247.1917 1247.1653 1247.1088 1247.0936 1247.1572 1247.3652 1247.8508 1248.5796 1249.5212 1250.1628 1250.9803 1251.6829 1252.596 1253.5153 1254.1425 1254.612 1255.4312 1256.0088 1256.3076 1256.1836 1256.2992 1256.8544 1257.522 1258.1156 1258.52 1258.6464 1258.5056 1258.24 1257.7992 1257.3136 1257.0204 1256.922 1257.2068 1257.7388 1258.1943 1258.7751 1259.4847 1260.0216 1260.1196 1260.2228 1260.484 1260.8456 1261.2665 1261.9896 1262.816 1263.3088 1263.782 1264.2772 1264.6904 1264.7375 1264.7256 1264.7368 1264.8616 1265.0848 1265.128 1265.6425 1266.482 1267.2372 1267.8217 1267.9384 1267.4283 1267.358 1267.3972 1267.7043 1268.0936 1268.216 1268.0836 1268.2036 1268.6516 1269.0996 1269.2509 1269.3428 1269.2697 1269.032 1268.7156 1268.3324 1267.9664 1267.9255 1268.1328 1268.14 1268.212 1268.1047 1267.708 1267.2593 1266.7823 1266.5232 1267.0004 1267.518 1267.9796 1268.2268 1268.148 1267.9192 1267.7588 1267.6508 1267.7452 1267.858 1267.8488 1267.8376 1267.8892 1267.426 1266.938 1266.8164 1266.85 1267.2996 1268.3011 1269.1884 1269.9716 1270.5364 1271.0048 1271.5583 1272.282 1273.1884 1274.7928 1276.0 1277.6064 1278.8312 1279.9352 1281.5135 1282.9404 1284.3164 1285.6564 1287.81 1289.3864 1290.676 1292.4648 1293.9592 1295.4124 1296.8348 1298.2704 1299.8488 1301.5828 1303.038 1305.0508 1307.0125 1308.916 1310.4288 1312.0172 1313.4772 1314.9501 1316.238 1318.0948 1319.6516 1320.9304 1322.836 1324.9812 1326.2532 1327.2261 1328.0212 1328.752 1330.0264 1331.6628 1333.298 1334.8468 1337.6005 1340.3804 1341.3083 1346.0469 1350.0836 1354.7465 1356.5312 1358.2491 1359.7596 1361.2416 1363.016 1365.6783 1368.416 1369.4471 1371.7472 1372.7572 1372.6412 1373.916 1368.0336
1302.9156 1302.4868 1301.8853 1301.2844 1299.546 1297.6628 1295.824 1292.8392 1290.934 1290.4652 1289.6235 1288.646 1287.438 1286.5188 1285.3315 1283.922 1282.3564 1280.8916 1279.0344 1277.2416 1275.4504 1274.0768 1272.676 1271.9032 1269.9327 1267.9072 1266.2653 1264.6508 1262.9644 1261.2396 1259.8096 1258.452 1256.4589 1254.7316 1252.8892 1251.0356 1249.0548 1247.5052 1246.1056 1244.7568 1243.1855 1241.5752 1239.6616 1237.3872 1236.3976 1236.4935 1236.1752 1235.7856 1235.6685 1235.662 1235.6952 1235.6392 1235.6384 1235.8112 1235.9432 1236.0112 1236.0884 1236.1964 1236.424 1236.624 1236.9543 1237.2472 1237.4512 1237.5216 1237.4888 1237.7177 1238.0264 1238.3688 1238.5636 1238.7115 1238.996 1239.3656 1240.3616 1241.5104 1242.4064 1243.1392 1243.4904 1243.2736 1243.0812 1243.3164 1243.8948 1244.0125 1244.104 1244.4777 1244.6056 1244.6504 1245.0548 1244.8396 1245.0244 1245.9004 1246.9904 1247.2393 1247.2036 1247.2684 1247.2744 1247.2368 1247.198 1247.1669 1247.2087 1247.2872 1247.3016 1247.2856 1247.2924 1247.2692 1247.2347 1247.17 1247.0752 1247.0024 1247.0724 1247.2421 1247.5164 1248.1204 1248.8628 1249.2548 1250.0492 1250.8556 1251.8464 1252.7625 1253.5752 1254.2192 1255.0432 1255.5344 1255.666 1255.6108 1255.7753 1256.2456 1256.7916 1257.2491 1257.7303 1257.9592 1257.9456 1257.6031 1257.0952 1256.6448 1256.3981 1256.3668 1256.7275 1257.3508 1257.76 1258.3136 1259.0432 1259.5608 1259.606 1259.5812 1259.8073 1260.2312 1260.9185 1261.5184 1262.1824 1262.8176 1263.1971 1263.6412 1263.9768 1264.032 1264.0144 1263.9824 1264.0024 1264.256 1264.6992 1265.1785 1265.7885 1266.47 1267.1 1267.0808 1266.6005 1266.37 1266.6084 1266.8724 1267.2377 1267.4432 1267.3148 1267.4668 1267.8491 1268.1292 1268.3956 1268.6796 1268.696 1268.4183 1268.022 1267.6644 1267.2728 1267.3136 1267.6368 1267.6664 1267.5552 1267.3296 1266.812 1266.36 1266.0664 1266.0392 1266.6884 1267.3116 1267.7333 1267.91 1268.0424 1267.7319 1267.4556 1267.3636 1267.378 1267.4172 1267.524 1267.7256 1267.9445 1267.3164 1266.6692 1266.602 1266.6588 1267.03 1267.886 1268.842 1269.6716 1270.2268 1270.8816 1271.3744 1271.9148 1272.49 1273.668 1275.1472 1276.9424 1278.1112 1279.1232 1280.4489 1282.102 1283.5645 1285.2284 1287.0652 1288.46 1289.9385 1291.7551 1293.2288 1294.7748 1296.3748 1297.7 1299.24 1300.9708 1302.5604 1304.5492 1306.346 1307.952 1309.2952 1310.9644 1312.5269 1314.026 1315.2676 1317.1044 1318.6404 1319.888 1321.7856 1323.6804 1324.634 1325.3948 1326.014 1326.6008 1327.904 1329.6876 1331.6827 1333.2788 1334.5428 1337.5524 1338.7252 1340.9348 1344.146 1349.5543 1354.152 1356.7437 1357.6683 1358.5896 1359.1896 1359.8456 1365.3496 1357.5455 1354.1592 1354.0276 1351.3596 1359.4536 1353.1729
1304.6128 1304.0153 1303.3872 1302.356 1300.5404 1298.7772 1296.4543 1295.8456 1295.7892 1293.09 1291.5936 1290.2672 1288.5016 1287.1672 1285.884 1284.516 1282.8408 1281.2368 1279.5824 1278.2416 1276.7468 1275.5588 1274.2496 1273.0919 1270.4592 1268.7913 1267.3068 1265.6404 1263.682 1261.6003 1260.242 1259.0787 1257.0752 1255.2264 1253.4452 1251.634 1249.5872 1247.956 1246.5116 1245.1324 1243.6005 1242.1788 1240.502 1238.394 1236.7148 1236.6388 1236.51 1236.0084 1235.7924 1235.7684 1235.9164 1235.8588 1235.9084 1235.9956 1236.2052 1236.6147 1236.5332 1236.4108 1236.4004 1236.5164 1236.7744 1236.9728 1237.3784 1237.7168 1237.7096 1237.7688 1237.8384 1238.288 1238.8969 1239.1016 1239.1204 1239.2277 1239.4844 1240.1316 1241.5676 1242.5372 1242.7216 1242.6744 1242.9476 1243.4388 1243.8636 1243.386 1243.3656 1244.028 1244.176 1244.436 1244.9819 1244.7332 1244.6688 1245.7416 1246.768 1247.0504 1247.284 1247.5295 1247.5176 1247.2528 1247.0172 1246.9924 1247.1152 1247.2872 1247.3608 1247.3656 1247.4092 1247.3524 1247.2059 1247.1453 1247.124 1247.0376 1247.034 1247.1588 1247.3152 1247.6729 1248.2 1248.5311 1249.292 1250.1224 1250.9604 1251.798 1252.6592 1253.5448 1254.3243 1254.7484 1254.774 1254.8405 1255.1388 1255.5557 1256.0464 1256.384 1256.854 1257.1956 1257.2568 1256.9592 1256.5336 1256.2264 1255.984 1255.8864 1256.1836 1256.8156 1257.296 1257.8176 1258.2256 1258.6945 1258.894 1258.678 1259.0452 1259.6005 1260.35 1261.1292 1261.6469 1262.2437 1262.6625 1263.024 1263.284 1263.4528 1263.5385 1263.496 1263.3575 1263.5872 1263.9736 1264.296 1264.8656 1265.5023 1266.1864 1266.408 1266.0424 1265.6584 1265.9584 1266.1873 1266.5532 1266.7372 1266.572 1266.7368 1266.7888 1267.1 1267.6989 1268.034 1268.0573 1267.8396 1267.2092 1266.8396 1266.6031 1266.7808 1267.0 1267.0079 1266.8296 1266.4424 1265.8944 1265.524 1265.2832 1265.5488 1266.3752 1266.9424 1267.51 1267.6068 1267.652 1267.4424 1267.1667 1267.1077 1267.1052 1267.1132 1267.1464 1267.2368 1267.3264 1266.8472 1266.4211 1266.3317 1266.43 1266.7653 1267.6816 1268.8496 1269.994 1270.7076 1271.2535 1271.5848 1272.0024 1272.3776 1273.222 1274.566 1275.8748 1277.0604 1278.22 1279.6008 1281.4076 1283.0548 1284.8352 1286.3073 1287.6616 1289.3152 1291.2104 1292.6873 1294.3732 1296.0724 1297.3076 1298.8196 1300.5444 1302.1484 1303.7548 1305.2068 1306.8384 1308.1664 1309.7344 1311.1288 1312.584 1313.8168 1315.4296 1316.8433 1318.2712 1319.9224 1321.5348 1322.7284 1323.6604 1323.93 1324.6132 1325.8628 1327.4944 1329.5784 1331.404 1332.7336 1334.15 1335.8173 1337.914 1339.894 1341.8779 1346.1748 1349.7667 1350.1748 1347.892 1345.736 1345.3208 1348.1672 1340.524 1340.0776 1342.3052 1344.2772 1345.9556 1346.8492
1306.3464 1305.5887 1304.8271 1303.7272 1301.9668 1300.7684 1299.2992 1299.6632 1299.9116 1298.382 1293.9176 1291.0184 1289.4464 1287.984 1286.5768 1285.156 1283.3024 1281.6648 1280.296 1279.2288 1277.7972 1276.918 1275.5016 1273.9312 1271.672 1270.0457 1268.474 1267.0364 1264.6611 1262.6147 1260.9965 1259.2955 1257.3145 1255.616 1253.8188 1252.278 1250.5504 1248.9 1247.0892 1245.8236 1244.27 1242.6244 1241.0148 1239.5292 1237.9116 1236.962 1236.5188 1236.1052 1236.0388 1236.1748 1236.5836 1236.4443 1236.1324 1236.1829 1236.346 1236.6772 1236.9388 1237.0323 1236.8779 1236.6901 1236.7625 1236.9688 1237.2968 1237.672 1237.9224 1237.8807 1237.9208 1238.0808 1238.6504 1239.2856 1239.3732 1239.3652 1239.4604 1239.6293 1240.1476 1241.5812 1242.1456 1242.2184 1242.7052 1243.0411 1243.2716 1242.9556 1243.0529 1243.472 1243.5664 1243.8807 1244.2404 1244.0972 1244.3536 1245.7256 1246.4824 1246.8192 1247.0472 1247.1888 1246.9064 1246.6736 1246.6595 1246.7723 1246.9592 1247.2048 1247.3464 1247.3304 1247.0908 1246.826 1246.8011 1246.9484 1247.048 1247.0784 1247.126 1247.1772 1247.3505 1247.4329 1247.5984 1247.8832 1248.6296 1249.4536 1250.2716 1251.114 1252.028 1252.6672 1253.2684 1253.6829 1253.95 1254.3011 1254.642 1254.9756 1255.3568 1255.736 1256.1436 1256.4371 1256.5 1256.2983 1255.9784 1255.756 1255.7119 1255.8032 1256.1019 1256.4828 1256.9032 1257.4457 1257.6888 1257.9976 1258.2844 1258.126 1258.634 1259.3716 1260.078 1260.782 1261.1428 1261.5573 1261.9128 1262.3 1262.748 1263.008 1263.0961 1263.0599 1262.8704 1263.0441 1263.4705 1263.7336 1264.2384 1264.9025 1265.4473 1265.5232 1265.1945 1265.0408 1265.3744 1265.5824 1266.022 1266.3531 1266.0856 1266.0135 1265.9824 1266.4008 1267.0109 1267.3044 1267.3925 1267.2117 1266.57 1266.0483 1265.7792 1266.0352 1266.4 1266.3344 1266.184 1265.7136 1265.1632 1264.692 1264.4728 1264.956 1266.0225 1266.6024 1266.9188 1267.0204 1267.2864 1267.2048 1267.0244 1266.9044 1266.8284 1266.7804 1266.6984 1266.624 1266.5063 1266.3408 1266.2988 1266.3389 1266.3884 1266.634 1267.5768 1268.8647 1270.0717 1270.9164 1271.6 1272.0992 1272.4896 1272.5961 1273.0516 1274.2068 1275.2284 1276.4044 1277.7944 1279.3384 1281.1508 1282.7292 1284.2816 1285.7008 1287.2648 1289.0048 1290.8192 1292.2607 1293.8588 1295.4108 1296.8389 1298.3348 1300.0212 1301.4427 1302.6764 1303.9141 1305.4648 1306.964 1308.5656 1310.1488 1311.2568 1312.4592 1314.1792 1315.7784 1317.4656 1319.1184 1320.5236 1321.5796 1321.6924 1321.4196 1322.5732 1324.1188 1325.7448 1327.0736 1328.9264 1331.0369 1332.2493 1333.7164 1335.6724 1337.1676 1334.8524 1334.2244 1336.6628 1337.7396 1337.1024 1336.2008 1335.0688 1335.4736 1336.9056 1338.2607 1339.9084 1341.3444 1343.2188 1345.6149
1307.9836 1307.266 1306.4144 1305.5848 1303.8969 1303.5464 1303.968 1304.8328 1304.6624 1305.4104 1299.3187 1292.7556 1290.9456 1288.8832 1287.484 1286.1072 1284.1292 1282.3036 1280.9424 1280.084 1279.0385 1278.2584 1276.8348 1275.1956 1273.4232 1271.872 1270.158 1269.166 1266.8932 1264.2772 1261.6212 1259.3236 1257.4084 1256.0468 1254.4232 1253.1512 1251.7472 1250.2328 1248.4044 1247.0724 1245.4888 1243.6263 1242.1176 1240.512 1238.9908 1237.5332 1236.5488 1236.244 1236.2823 1236.7688 1237.3619 1237.2867 1237.0144 1236.94 1236.6276 1236.5483 1236.7936 1237.1376 1237.3256 1237.1249 1237.0472 1237.1104 1237.2676 1237.6244 1237.9648 1238.0385 1238.0088 1238.0328 1238.2704 1238.9592 1239.3456 1239.4304 1239.53 1239.65 1239.7972 1240.8524 1241.6147 1241.6084 1241.7316 1241.9675 1242.2896 1242.3536 1242.5864 1242.8136 1243.1796 1243.5948 1243.684 1243.5016 1244.1184 1245.5168 1246.1844 1246.4716 1246.654 1246.5413 1246.2544 1246.2361 1246.4296 1246.6232 1246.9596 1247.154 1247.2015 1247.1824 1246.8092 1246.1892 1246.5288 1246.8561 1246.9412 1246.9868 1247.0664 1247.1984 1247.3484 1247.374 1247.3408 1247.5568 1248.0975 1248.7528 1249.6256 1250.5048 1251.3672 1251.7983 1252.126 1252.5756 1253.098 1253.674 1254.1448 1254.4208 1254.6172 1254.8492 1255.2363 1255.5269 1255.6755 1255.7043 1255.4016 1255.2856 1255.5021 1255.6356 1255.9705 1256.2344 1256.5732 1256.9229 1257.1284 1257.3412 1257.6116 1257.686 1258.31 1259.0516 1259.8531 1260.4188 1260.544 1260.8951 1261.2076 1261.5244 1262.1232 1262.5232 1262.5063 1262.3784 1262.3408 1262.5536 1262.8956 1263.1652 1263.6353 1264.196 1264.6232 1264.5624 1264.2916 1264.422 1264.8988 1265.1548 1265.5604 1265.7996 1265.4443 1265.2108 1265.286 1265.838 1266.3315 1266.6676 1266.7365 1266.6252 1266.0223 1265.304 1264.9712 1265.2216 1265.5513 1265.596 1265.2888 1264.9329 1264.4288 1263.8776 1263.7048 1264.5385 1265.7936 1266.2767 1266.5652 1266.7428 1267.0 1266.9705 1266.75 1266.5267 1266.4508 1266.382 1266.2764 1266.178 1266.0328 1266.028 1266.2596 1266.4924 1266.6272 1266.676 1267.2396 1268.4468 1269.8392 1270.8896 1271.7732 1272.474 1272.9272 1273.0016 1273.224 1273.8048 1274.7308 1275.7964 1277.398 1278.9684 1280.536 1282.072 1283.6344 1285.0288 1286.9141 1288.7131 1290.404 1291.8752 1293.4313 1294.9056 1296.5225 1297.8848 1299.2068 1300.2676 1301.382 1302.4716 1303.7944 1305.096 1306.3236 1307.6172 1309.4731 1311.778 1313.5016 1315.1256 1316.6984 1318.0144 1319.4283 1319.8516 1319.0504 1319.0352 1320.456 1322.28 1323.8676 1324.8556 1325.9456 1327.6024 1328.4524 1328.882 1329.0408 1328.084 1326.9636 1327.042 1327.4327 1329.1576 1329.1685 1329.974 1331.8156 1333.822 1335.8976 1337.808 1339.9972 1341.4893 1342.9891 1344.7268
1309.4196 1308.7532 1307.7872 1306.9032 1306.9016 1309.5671 1309.804 1309.4976 1309.5984 1309.9944 1308.0836 1301.7477 1296.6368 1291.552 1288.172 1286.7568 1285.2684 1283.158 1281.7375 1280.8152 1279.9224 1279.4896 1278.1716 1276.6572 1275.2904 1273.7424 1271.946 1270.5284 1269.0125 1266.4427 1262.9756 1259.6829 1257.794 1256.6595 1255.3632 1254.3696 1253.0385 1251.5385 1249.8835 1248.5132 1246.7184 1245.0864 1243.4559 1241.532 1239.7756 1238.022 1237.1144 1236.7808 1236.5336 1236.9703 1237.2444 1237.3868 1237.4648 1237.5616 1237.4884 1237.142 1236.844 1237.0153 1237.256 1237.3256 1237.4384 1237.46 1237.5269 1237.7252 1237.9808 1238.1152 1238.18 1238.1799 1238.2319 1238.3992 1238.8904 1239.2375 1239.4677 1239.6932 1239.8572 1240.2516 1241.194 1241.3668 1241.3004 1241.4836 1241.8591 1242.0961 1242.2936 1242.6729 1243.1971 1243.4508 1243.3359 1243.5488 1244.244 1245.0632 1245.7108 1246.0236 1246.046 1245.9476 1245.9088 1246.012 1246.2632 1246.6632 1247.0148 1247.1292 1247.104 1247.0496 1246.6107 1245.9332 1246.2904 1246.624 1246.85 1247.0076 1247.0416 1247.1272 1247.2628 1247.354 1247.3807 1247.4225 1247.6472 1248.264 1249.1583 1249.98 1250.6672 1251.0903 1251.49 1251.9875 1252.5132 1253.062 1253.4025 1253.656 1253.7812 1253.7988 1254.1444 1254.6652 1254.8572 1254.9836 1254.8544 1254.8232 1255.042 1255.1948 1255.5272 1255.9703 1256.3428 1256.478 1256.5364 1256.7428 1257.0284 1257.3124 1258.0396 1258.7012 1259.5564 1260.034 1260.1072 1260.2504 1260.6364 1261.1132 1261.5961 1261.9464 1261.9784 1261.972 1261.8752 1262.1425 1262.4524 1262.6469 1262.972 1263.4288 1263.7576 1263.668 1263.6396 1263.9476 1264.4716 1264.8492 1265.4204 1265.0468 1264.7404 1264.5292 1264.594 1265.0708 1265.5508 1265.9427 1266.018 1265.8812 1265.3472 1264.8112 1264.3752 1264.4048 1264.5896 1264.6567 1264.436 1264.1216 1263.6176 1263.276 1263.2463 1264.3073 1265.6351 1266.0096 1266.3925 1266.6595 1266.8224 1266.732 1266.4196 1266.1372 1266.11 1266.0411 1265.9364 1265.9036 1265.8424 1265.956 1266.2812 1266.5989 1266.9329 1267.0712 1267.2491 1268.0372 1269.6871 1270.9088 1271.7476 1272.4244 1272.8768 1273.0536 1273.276 1273.6056 1274.3844 1275.4196 1276.9812 1278.342 1279.7208 1281.292 1282.9656 1284.3424 1286.4764 1288.2133 1289.7744 1291.3145 1292.9039 1294.2632 1295.7728 1296.9032 1297.9564 1298.8844 1299.9716 1301.1028 1302.46 1303.6976 1304.8068 1306.1868 1307.73 1310.9292 1313.1233 1314.56 1315.8328 1317.0288 1317.694 1316.9012 1316.5511 1316.7568 1318.9104 1320.568 1321.5292 1321.7684 1321.9257 1322.1904 1320.7228 1321.9364 1321.452 1321.3048 1322.2108 1322.9724 1324.5673 1326.1193 1327.77 1329.3948 1331.8115 1335.0116 1337.2424 1339.2665 1341.2676 1342.902 1344.4668 1346.1196
1311.1948 1310.5276 1309.4944 1308.6824 1310.2825 1312.4208 1313.2788 1314.4308 1314.9185 1314.3104 1312.5388 1311.4908 1307.3344 1297.6952 1288.946 1286.874 1285.5032 1284.0992 1282.906 1282.1044 1281.3016 1280.8344 1279.6132 1278.4388 1277.5088 1275.976 1274.1036 1272.4596 1270.784 1268.5912 1264.6616 1261.2096 1258.7484 1257.5668 1256.4012 1255.4956 1254.1768 1252.696 1251.2288 1249.8656 1247.8976 1246.1864 1244.5408 1242.6945 1240.9176 1239.1072 1237.7001 1236.9401 1236.622 1237.2772 1237.6495 1237.5896 1237.546 1237.6964 1237.9167 1237.8552 1237.4952 1237.4025 1237.4208 1237.4615 1237.5616 1237.7264 1237.7844 1237.9044 1238.082 1238.2869 1238.3668 1238.3268 1238.3516 1238.418 1238.5977 1238.916 1239.1644 1239.3724 1239.682 1240.1284 1240.678 1241.0924 1241.2816 1241.4768 1241.7092 1241.902 1242.45 1243.0364 1243.512 1243.78 1243.8668 1244.2349 1244.814 1245.1444 1245.3204 1245.5132 1245.5889 1245.572 1245.6488 1245.9192 1246.3584 1246.8224 1247.0392 1247.0496 1246.9965 1246.9556 1246.3236 1245.7932 1246.1952 1246.4752 1246.6917 1246.9324 1247.0112 1247.1008 1247.198 1247.306 1247.4515 1247.5236 1247.5673 1247.8992 1248.6284 1249.3932 1250.066 1250.4684 1250.9016 1251.456 1252.0 1252.2552 1252.134 1252.3124 1252.304 1252.3735 1252.7764 1253.0908 1253.4412 1253.7188 1253.9296 1254.1224 1254.4192 1255.0768 1255.4928 1255.5815 1255.7205 1255.9084 1255.9916 1256.2916 1256.7084 1257.0204 1257.6768 1258.3505 1258.902 1259.2916 1259.5383 1259.7136 1260.216 1260.6984 1261.2692 1261.254 1261.1412 1261.246 1261.1376 1261.412 1261.8531 1262.0228 1262.2572 1262.6244 1262.8364 1262.9476 1263.076 1263.488 1263.9904 1264.5272 1265.0728 1264.3496 1263.94 1263.6368 1263.8096 1264.248 1264.7808 1265.0576 1265.0436 1264.9108 1264.6208 1264.236 1263.7476 1263.454 1263.4865 1263.4888 1263.5024 1263.384 1263.038 1262.8403 1262.9211 1263.8763 1265.1003 1265.5557 1265.8588 1266.186 1266.4188 1266.3652 1266.0629 1265.8324 1265.842 1265.7444 1265.6516 1265.666 1265.6708 1265.9452 1266.4796 1266.9141 1267.2236 1267.4052 1267.4268 1267.982 1269.3088 1270.4272 1271.5 1272.232 1272.8 1272.9696 1273.156 1273.4113 1274.068 1275.02 1276.3644 1277.4844 1278.7644 1280.3684 1282.3344 1284.132 1286.2712 1287.6768 1289.0527 1290.572 1292.0212 1293.2867 1294.5756 1295.4052 1296.304 1297.1824 1298.1736 1299.2504 1300.6917 1302.0676 1303.4731 1305.0125 1306.1908 1309.0253 1311.8832 1313.4863 1314.502 1315.3964 1314.9664 1313.8336 1313.2249 1313.4576 1313.9296 1314.2375 1313.7435 1313.6332 1314.4056 1314.6664 1315.504 1315.6432 1316.1156 1317.7268 1319.9172 1321.7203 1323.7384 1325.2456 1327.8464 1330.364 1333.9185 1337.2 1339.196 1341.2072 1343.1592 1344.9136 1346.7452 1348.75
1312.6516 1312.0388 1310.748 1310.0736 1311.8969 1313.832 1315.174 1315.8572 1315.8136 1315.6088 1314.4355 1313.0132 1311.6624 1306.2728 1296.438 1287.1597 1285.924 1285.1776 1284.3132 1283.5276 1282.7328 1282.08 1281.0771 1280.0244 1279.204 1278.0232 1276.4292 1274.8364 1272.8776 1271.3359 1267.78 1263.9489 1260.418 1258.7644 1257.3308 1256.3964 1255.1711 1253.6504 1252.0664 1250.6488 1248.7609 1246.88 1245.3127 1243.6936 1242.1672 1240.5312 1238.5656 1237.4968 1236.834 1237.2045 1237.9633 1238.0743 1237.8772 1237.9893 1238.1544 1238.2463 1238.1984 1237.9536 1237.8352 1237.868 1237.8024 1237.9144 1238.0132 1238.0612 1238.1613 1238.326 1238.4556 1238.438 1238.5116 1238.5012 1238.6088 1238.9385 1239.2388 1239.2612 1239.3403 1239.6556 1240.07 1240.8972 1241.4744 1241.5752 1241.6827 1241.8052 1242.654 1243.4677 1243.8584 1243.9791 1244.1252 1244.4164 1244.7852 1244.9332 1245.0125 1245.1316 1245.2087 1245.3104 1245.5952 1246.0464 1246.4712 1246.724 1246.892 1246.8289 1246.8083 1246.686 1246.1165 1245.818 1246.1927 1246.4456 1246.6692 1246.9292 1247.0281 1247.1351 1247.2476 1247.3412 1247.538 1247.6611 1247.6416 1247.7064 1248.0132 1248.4836 1249.1708 1249.618 1249.9241 1250.2593 1250.7256 1250.9952 1251.182 1251.4692 1251.872 1252.0392 1252.4196 1252.8044 1253.006 1253.4244 1253.5808 1253.7319 1253.9847 1254.364 1254.616 1254.7272 1255.1116 1255.602 1255.9468 1256.1012 1256.366 1256.622 1257.1696 1257.7904 1258.178 1258.582 1259.0024 1259.4559 1260.0144 1260.476 1260.866 1260.4572 1260.1996 1260.482 1260.6448 1260.8616 1261.246 1261.4316 1261.5948 1261.9012 1262.2252 1262.4932 1262.6353 1263.1272 1263.7192 1264.3152 1264.4937 1263.7319 1263.156 1262.8016 1262.996 1263.5624 1264.1016 1264.324 1264.342 1264.3484 1264.2104 1263.7344 1263.1292 1262.738 1262.5112 1262.3712 1262.424 1262.608 1262.6451 1262.558 1262.6764 1263.5323 1264.7468 1265.0996 1265.4268 1265.6564 1265.8044 1265.8964 1265.7372 1265.6172 1265.6003 1265.522 1265.4884 1265.5076 1265.694 1266.2115 1267.0156 1267.474 1267.5828 1267.6556 1267.6724 1268.0132 1268.9064 1269.9608 1271.0729 1271.8624 1272.4232 1272.724 1272.9248 1273.0743 1273.5464 1274.3447 1275.6404 1276.8083 1278.2444 1279.986 1282.044 1283.9296 1285.9648 1287.324 1288.4624 1289.804 1291.0836 1292.1844 1293.0508 1293.8405 1294.712 1295.4816 1296.4712 1297.5544 1298.9692 1300.198 1301.7524 1303.4884 1304.6268 1306.2932 1309.5729 1312.0784 1312.99 1312.8027 1311.3568 1310.1888 1309.5297 1309.724 1309.6112 1310.1864 1310.0629 1310.0485 1310.1216 1310.7535 1312.2968 1313.6088 1315.1068 1317.1165 1319.5612 1321.142 1323.1056 1325.3488 1329.3976 1331.9952 1335.7056 1338.5457 1341.0304 1343.2672 1345.3208 1346.9392 1348.8612 1351.3492
1314.0776 1313.2344 1312.0048 1312.0135 1313.5135 1315.4473 1316.8944 1317.6943 1318.5116 1317.898 1316.1788 1314.63 1313.3776 1310.9921 1304.9052 1293.7028 1288.1237 1286.3892 1285.6536 1285.1952 1284.5516 1283.5931 1282.6855 1281.8944 1281.0532 1280.306 1278.8088 1277.3192 1275.6132 1273.2004 1269.4196 1266.3884 1262.6876 1260.7556 1258.8232 1257.8168 1256.592 1254.98 1252.9489 1251.5184 1249.966 1247.9963 1246.3936 1244.9592 1243.5852 1241.9332 1239.9456 1238.5208 1237.3912 1237.0856 1237.8584 1238.3593 1238.4167 1238.744 1238.7535 1238.7465 1238.83 1238.9012 1238.6108 1238.2764 1238.1024 1238.2064 1238.3969 1238.3776 1238.4076 1238.4355 1238.5016 1238.4968 1238.6044 1238.6044 1238.6908 1238.9452 1239.3312 1239.4432 1239.5444 1239.5844 1239.6 1240.3888 1241.5269 1241.802 1241.8969 1242.0104 1242.6152 1243.3296 1243.5916 1243.6652 1243.7972 1244.0052 1244.2428 1244.3851 1244.6124 1244.7732 1244.9448 1245.312 1245.8376 1246.2848 1246.5128 1246.3624 1246.5516 1246.3596 1246.4283 1246.2212 1245.836 1245.9104 1246.2408 1246.4976 1246.84 1247.1552 1247.2036 1247.238 1247.4336 1247.56 1247.7927 1247.8256 1247.7596 1247.8027 1247.8503 1247.988 1248.2792 1248.6624 1249.1608 1249.6024 1250.0636 1250.5652 1251.106 1251.4875 1251.616 1251.2249 1251.232 1251.4312 1251.53 1251.9724 1252.3336 1252.7664 1253.6061 1253.91 1254.0728 1254.0919 1254.212 1254.7656 1255.602 1255.682 1255.8271 1256.0656 1256.5828 1256.9677 1257.378 1257.8524 1258.5188 1259.0181 1259.658 1260.2124 1260.3472 1259.8073 1259.4988 1259.898 1260.1852 1260.2748 1260.596 1260.7408 1260.8964 1261.1564 1261.3884 1261.7788 1262.3092 1262.8772 1263.5648 1264.1857 1264.0555 1263.1404 1262.2788 1261.9468 1262.4877 1262.9812 1263.4924 1263.6804 1263.6344 1263.7592 1263.7004 1263.2444 1262.4584 1261.74 1261.4152 1261.2456 1261.3472 1261.8208 1262.1324 1262.062 1262.1428 1262.9484 1263.9796 1264.3892 1264.8016 1265.128 1265.4 1265.5208 1265.5464 1265.4777 1265.2612 1265.0996 1265.0745 1265.2584 1265.7756 1266.6012 1267.5063 1267.8936 1268.0952 1268.2784 1268.2792 1268.264 1268.6484 1269.662 1270.6852 1271.4924 1272.0688 1272.4144 1272.5636 1272.6597 1272.9404 1273.522 1274.822 1276.2347 1277.9968 1279.848 1281.918 1283.6453 1285.36 1286.5312 1287.3492 1288.41 1289.4916 1290.4684 1291.2808 1291.9384 1292.6528 1293.4703 1294.7412 1295.8956 1297.3016 1298.6696 1299.9564 1301.1204 1303.142 1304.966 1307.3956 1309.3445 1311.1752 1310.0928 1307.3528 1306.4631 1305.8608 1305.0664 1305.0413 1305.9108 1306.1228 1306.6204 1307.8296 1309.4296 1311.384 1312.9705 1314.7024 1316.9183 1319.2836 1321.2532 1324.6112 1327.5736 1330.4376 1333.4408 1336.7421 1339.478 1342.3184 1344.784 1347.1917 1349.0404 1350.8408 1353.6288
1315.5223 1314.6279 1313.7168 1313.66 1315.1064 1316.8864 1319.1184 1321.008 1321.902 1321.3204 1318.7308 1317.0859 1315.0992 1313.1488 1311.082 1307.5165 1299.4196 1292.3188 1287.3552 1289.084 1288.7772 1285.7388 1284.5208 1283.5745 1282.95 1282.1548 1280.2968 1279.0887 1278.2012 1274.854 1270.7676 1268.306 1264.4148 1263.0604 1260.7552 1259.4944 1258.2839 1256.2784 1254.0792 1252.6776 1251.1564 1249.1948 1247.4736 1246.1144 1244.4908 1242.8083 1241.0977 1239.5239 1237.9368 1237.0905 1237.4768 1238.1136 1238.6184 1239.1696 1239.08 1238.8969 1239.0012 1239.2277 1239.1228 1238.7916 1238.3359 1238.3872 1238.6256 1238.7136 1238.8116 1238.7228 1238.6248 1238.6425 1238.682 1238.7092 1238.8029 1238.9116 1239.3152 1239.6736 1239.9587 1239.9988 1239.8048 1239.7728 1240.8652 1241.806 1241.9584 1242.1104 1242.428 1242.736 1242.9508 1243.1476 1243.3252 1243.5476 1243.762 1244.0276 1244.3243 1244.6165 1245.136 1245.8104 1246.1392 1246.124 1245.9736 1245.804 1246.1685 1245.7876 1245.8243 1245.6508 1245.5864 1245.872 1246.1912 1246.4847 1246.9016 1247.3721 1247.5404 1247.5397 1247.716 1247.9144 1248.1776 1248.1448 1247.9515 1247.9756 1248.1384 1248.2087 1248.4144 1248.7272 1249.1256 1249.5223 1250.0996 1250.5789 1250.8452 1250.7867 1250.628 1250.3152 1250.1512 1250.1744 1250.3076 1250.4443 1250.692 1251.0704 1251.9132 1252.6284 1253.648 1254.032 1254.0616 1254.1495 1254.7172 1255.13 1255.38 1255.5272 1255.7043 1256.1196 1256.7885 1257.4468 1258.0708 1258.7284 1259.4724 1259.734 1259.8112 1259.3096 1259.002 1259.2556 1259.4468 1259.5251 1259.8168 1259.9808 1260.2644 1260.6652 1260.7932 1261.3853 1262.3188 1262.9044 1263.6248 1264.1832 1263.4924 1262.4764 1261.678 1261.4197 1261.8948 1262.222 1262.8732 1263.1284 1263.0416 1263.3344 1263.3124 1262.7156 1261.8472 1261.0905 1260.5632 1260.3408 1260.4368 1260.8992 1261.558 1261.502 1261.5956 1262.5868 1263.6172 1263.9628 1264.144 1264.5808 1264.9136 1265.076 1265.2472 1265.068 1264.634 1264.2852 1264.516 1265.0312 1265.6836 1266.5541 1267.4424 1267.9624 1268.4464 1268.8376 1268.9264 1268.844 1268.7365 1269.2524 1270.0876 1270.9141 1271.5984 1271.8336 1272.0604 1272.4316 1272.7404 1273.0645 1274.0868 1275.5972 1277.5887 1279.4768 1281.5404 1283.1204 1284.332 1285.4376 1286.2356 1287.1476 1287.7788 1288.6372 1289.4912 1290.0048 1290.8352 1291.9904 1293.4492 1294.514 1295.8816 1297.3456 1299.1548 1300.2484 1301.3156 1302.8116 1304.6284 1306.2572 1308.1744 1305.3593 1302.3304 1301.452 1300.8792 1301.2544 1302.0756 1302.5948 1304.1428 1305.5364 1307.2024 1309.0216 1310.9192 1312.8048 1315.3384 1317.86 1320.2588 1323.7308 1327.1393 1328.9928 1331.5704 1334.156 1336.7988 1339.8468 1343.5288 1346.2264 1347.9965 1350.1652 1352.424 1355.428
1317.2064 1316.4559 1315.8436 1315.9589 1317.1088 1318.676 1320.8392 1322.7552 1323.8029 1323.2092 1321.1884 1319.3676 1317.2056 1315.8088 1313.5684 1313.1467 1312.0009 1306.2607 1302.5996 1309.0404 1300.2421 1293.7356 1287.95 1286.5717 1285.5032 1284.8488 1282.8292 1281.3884 1280.7528 1276.608 1272.6064 1270.2256 1266.4888 1264.776 1262.756 1261.4192 1260.7092 1258.7396 1255.5444 1253.998 1252.092 1250.4192 1248.8656 1247.3647 1245.5399 1243.8424 1242.1469 1240.21 1238.744 1237.9136 1237.5792 1237.924 1238.4132 1238.7212 1238.8948 1239.0204 1239.198 1239.3372 1239.698 1239.7108 1238.9728 1238.7352 1238.774 1238.958 1239.1432 1239.0968 1238.8433 1238.6936 1238.7472 1238.8464 1238.9343 1238.936 1239.1792 1239.676 1240.186 1240.3116 1240.2476 1240.0492 1240.226 1241.3419 1241.864 1242.12 1242.36 1242.5784 1242.7528 1242.968 1243.2576 1243.5759 1243.8312 1243.9984 1244.382 1245.0948 1245.5457 1245.6904 1245.53 1245.2468 1245.1212 1245.342 1245.6176 1245.4023 1245.3304 1245.316 1245.5193 1245.8368 1246.1404 1246.4803 1246.902 1247.3204 1247.6768 1247.7864 1248.0104 1248.1896 1248.4 1248.4552 1248.1492 1248.1084 1248.3312 1248.432 1248.6528 1248.8064 1249.1104 1249.5048 1249.8732 1250.0812 1249.9944 1249.7537 1249.6224 1249.588 1249.5476 1249.7412 1250.1075 1250.5156 1250.6888 1250.8503 1250.9355 1251.3236 1252.4543 1253.5616 1253.8324 1254.0452 1254.2208 1254.7 1254.9628 1254.9844 1254.996 1255.5833 1256.4956 1257.1732 1257.848 1258.684 1259.3744 1259.4504 1259.1644 1258.6284 1258.5485 1258.5812 1258.6796 1258.6964 1258.9016 1259.1368 1259.5596 1259.9316 1260.4473 1261.5392 1262.4996 1262.9268 1263.4224 1263.3456 1262.4896 1261.7247 1261.042 1260.7196 1260.9736 1261.3776 1262.2036 1262.738 1262.4572 1262.7924 1262.6644 1262.0964 1261.3083 1260.486 1259.9204 1259.8884 1259.9485 1260.1525 1260.6184 1260.7632 1261.026 1261.9452 1263.0796 1263.6652 1263.8708 1264.1724 1264.4587 1264.6404 1264.772 1264.356 1263.7212 1263.522 1264.23 1264.9963 1265.6024 1266.2792 1267.1119 1267.9104 1268.4552 1268.776 1269.0144 1269.0992 1269.0583 1269.0448 1269.5156 1270.3884 1271.0148 1271.2052 1271.6392 1272.4185 1272.854 1273.0084 1273.644 1275.0513 1276.9028 1278.6108 1280.506 1281.6757 1282.602 1283.4956 1284.3824 1285.2177 1285.8804 1286.8228 1287.8528 1288.5264 1289.3748 1290.4468 1291.6416 1292.6224 1294.2704 1296.0376 1298.4417 1299.2776 1299.5063 1299.9865 1299.9336 1298.9144 1301.0988 1298.9132 1297.1309 1296.7277 1297.7104 1298.9656 1300.4496 1301.5784 1303.166 1304.7012 1306.568 1309.1495 1311.6544 1313.7391 1316.4092 1318.9949 1322.2332 1326.1268 1328.4127 1330.1664 1332.4644 1334.814 1337.0168 1340.8456 1344.9805 1347.7477 1349.4432 1351.8696 1355.8412 1357.654
1318.7753 1318.1272 1317.8788 1318.1636 1319.2528 1320.532 1322.4656 1324.116 1325.0612 1324.4532 1323.2036 1321.5444 1318.9792 1317.88 1315.6484 1314.8428 1314.9113 1315.0511 1315.83 1317.2292 1316.4388 1309.254 1295.8308 1289.278 1288.0616 1287.5736 1286.302 1285.1588 1282.8992 1278.5688 1274.5457 1272.4592 1270.7537 1266.5977 1264.4368 1263.5576 1262.682 1259.6597 1256.766 1254.9988 1253.008 1251.6376 1250.1736 1248.5416 1246.5016 1244.588 1242.978 1241.6556 1240.2625 1239.2335 1238.5272 1238.3807 1238.5364 1238.4972 1238.7115 1239.0228 1239.4724 1239.77 1240.0276 1240.0436 1239.7928 1239.3472 1239.0748 1239.3099 1239.2816 1239.3503 1239.3424 1239.236 1239.0736 1238.9808 1238.9775 1238.9584 1238.9991 1239.4192 1240.0573 1240.3956 1240.4803 1240.3604 1240.4164 1240.4188 1240.96 1241.6656 1242.2856 1242.5168 1242.7231 1243.076 1243.5369 1243.8823 1244.1528 1244.1488 1244.3292 1244.6293 1244.6904 1244.8992 1245.0492 1244.9564 1245.0372 1245.2612 1245.364 1245.4176 1245.4928 1245.5184 1245.6304 1245.908 1246.2748 1246.6244 1246.9764 1247.3036 1247.6927 1247.9384 1248.2336 1248.44 1248.5416 1248.5457 1248.3324 1248.2291 1248.3503 1248.4752 1248.6432 1248.8528 1249.0496 1249.1608 1249.206 1249.286 1249.328 1249.3048 1249.3424 1249.4313 1249.674 1250.002 1250.3204 1250.7379 1250.9424 1251.2272 1251.338 1251.3308 1251.7432 1252.5752 1253.1556 1253.858 1254.1368 1254.2352 1254.4052 1254.494 1254.5432 1255.0472 1255.8387 1256.6876 1257.74 1258.5568 1258.9296 1258.9431 1258.5197 1258.0652 1258.0364 1258.178 1258.294 1258.2708 1258.3273 1258.5336 1258.9716 1259.5372 1260.6384 1261.7512 1262.5355 1262.87 1262.8088 1262.3224 1261.6696 1261.0889 1260.3868 1260.1188 1260.5264 1260.996 1261.766 1262.2412 1262.094 1262.0164 1261.5701 1261.1685 1260.578 1259.9396 1259.8068 1259.9092 1260.0372 1260.1469 1260.2288 1260.4313 1260.7228 1261.322 1262.2795 1263.2284 1263.5948 1263.8549 1264.1948 1264.378 1264.4384 1263.784 1263.1652 1263.206 1263.9524 1264.858 1265.4559 1265.9696 1266.728 1267.5696 1268.204 1268.5872 1269.0457 1269.2584 1269.3296 1269.3512 1269.6075 1270.2437 1270.7412 1271.0292 1271.576 1272.4993 1272.9988 1273.1532 1273.5208 1274.6929 1276.3763 1277.886 1279.3308 1280.0204 1280.79 1281.586 1282.464 1283.3951 1284.1908 1285.1844 1286.4417 1287.3536 1288.1957 1288.9429 1289.2352 1290.0288 1292.6497 1294.1848 1297.2544 1297.66 1297.1112 1296.2312 1295.4752 1294.2751 1295.53 1294.7572 1294.578 1295.5284 1296.9257 1298.3489 1299.6943 1300.8055 1302.6228 1305.0828 1307.2 1310.2328 1313.6848 1315.3248 1317.4116 1319.97 1323.7324 1326.8068 1328.4688 1330.1472 1332.774 1335.17 1337.0817 1340.5072 1345.4012 1348.274 1350.5544 1354.0144 1357.2468 1358.6372
1320.6147 1320.1827 1320.1512 1320.3424 1321.454 1322.3691 1323.8916 1325.7844 1326.984 1326.4784 1324.9928 1323.7136 1321.8145 1319.8696 1317.8696 1316.8296 1316.918 1317.1772 1317.8708 1318.7812 1319.578 1313.9052 1300.9072 1292.2856 1291.0817 1290.6744 1290.1235 1289.5548 1287.2036 1281.9052 1276.8704 1274.9872 1273.9004 1271.4916 1267.3196 1266.1492 1265.1312 1262.2008 1259.1208 1256.3953 1255.0408 1253.5912 1251.9768 1250.2767 1248.1484 1246.0228 1244.786 1244.1237 1242.6764 1241.2579 1240.4828 1239.906 1239.2172 1238.7972 1238.7408 1238.9528 1239.5671 1239.932 1239.922 1239.938 1240.0784 1239.936 1239.4083 1239.494 1239.5583 1239.664 1239.9984 1240.0385 1239.4912 1239.0664 1238.9688 1238.9384 1238.9816 1239.2832 1239.6544 1240.0856 1240.7236 1240.7396 1240.8352 1240.7192 1240.622 1240.87 1241.602 1242.042 1242.52 1243.0504 1243.596 1244.012 1244.3112 1244.2823 1244.4836 1244.502 1244.8024 1244.8951 1245.294 1245.1149 1245.01 1245.2292 1245.3884 1245.5212 1245.6252 1245.7885 1245.8484 1246.0132 1246.4968 1246.84 1247.078 1247.358 1247.7032 1247.8856 1248.0792 1248.1592 1248.288 1248.488 1248.57 1248.4396 1248.392 1248.4744 1248.6248 1248.8433 1249.05 1249.0732 1249.0604 1249.142 1249.2992 1249.4984 1249.7836 1249.9796 1250.1132 1250.3724 1250.6844 1250.978 1251.26 1251.5184 1251.648 1251.6752 1251.7324 1251.9236 1252.3416 1253.1184 1253.8048 1254.0759 1254.144 1254.2288 1254.35 1254.7516 1255.4908 1256.4211 1257.4208 1257.8984 1257.9965 1257.93 1257.5612 1257.2836 1257.442 1257.6628 1257.848 1258.0112 1258.3271 1258.7496 1259.454 1260.126 1261.1927 1261.9872 1262.3796 1262.4548 1262.04 1261.536 1261.0988 1260.5339 1259.708 1259.7192 1260.2648 1260.7231 1261.4264 1261.8336 1261.6337 1261.3055 1260.6523 1260.2588 1259.894 1259.5884 1259.6613 1259.8076 1259.9877 1260.1412 1260.2496 1260.3688 1260.4631 1260.632 1261.1971 1262.2579 1262.9875 1263.5172 1263.9404 1264.1636 1263.9784 1263.1177 1262.8132 1263.0876 1263.9211 1264.8132 1265.3108 1265.714 1266.344 1266.8104 1267.5428 1268.4932 1269.0717 1269.4084 1269.6252 1269.7421 1270.0704 1270.6384 1270.9647 1271.3872 1271.7736 1272.4304 1273.042 1273.302 1273.5076 1274.114 1275.5588 1276.7964 1277.7136 1278.032 1278.714 1279.5684 1280.4373 1281.4196 1282.3252 1283.1196 1284.4108 1285.3964 1286.188 1287.1873 1287.1917 1286.9044 1289.2767 1291.2584 1293.7568 1294.9032 1294.4188 1292.6077 1291.6976 1291.5912 1291.774 1292.546 1293.7968 1294.7024 1296.0632 1297.4705 1298.8925 1300.6412 1304.2697 1307.0151 1308.8904 1311.5144 1315.1576 1317.1641 1318.9392 1321.0856 1323.27 1325.854 1327.4828 1329.258 1331.7196 1334.266 1336.1072 1338.6776 1343.4084 1347.4436 1350.1636 1352.75 1356.8732 1357.8468
1322.262 1322.0573 1322.1328 1322.1031 1323.0876 1324.0892 1325.5596 1327.5339 1328.372 1327.7832 1326.5455 1325.3016 1323.844 1322.1776 1321.328 1320.1392 1319.5812 1319.4276 1319.4492 1320.3612 1321.5251 1317.6428 1307.9264 1296.9976 1293.9672 1293.36 1292.454 1291.9044 1290.8475 1287.3923 1282.6392 1279.3096 1277.0756 1274.1404 1272.1252 1268.302 1267.6608 1265.8712 1263.1864 1258.168 1256.812 1255.5096 1254.1688 1252.4752 1250.47 1249.0035 1247.1924 1246.482 1244.9532 1243.522 1242.7347 1241.9724 1240.39 1239.6149 1239.2823 1239.4448 1239.8055 1239.6984 1239.61 1239.8083 1240.0984 1240.2008 1239.7372 1239.6852 1239.888 1239.8688 1240.052 1240.3336 1240.0768 1239.404 1239.0784 1238.9935 1239.0815 1239.3287 1239.4208 1239.6232 1240.2844 1240.4652 1240.5968 1240.7784 1240.8315 1240.7932 1241.1044 1241.6676 1242.3032 1242.7521 1243.2944 1243.9615 1244.0624 1243.7344 1243.9036 1243.7316 1243.7224 1243.7303 1244.3572 1244.4213 1244.0148 1244.2836 1244.766 1245.0156 1245.1428 1245.3844 1245.558 1245.7244 1246.1871 1246.5 1246.8972 1247.2476 1247.5673 1247.7832 1247.9736 1248.0457 1248.116 1248.2904 1248.546 1248.742 1248.7751 1248.8 1249.0168 1249.0864 1249.1667 1249.3292 1249.3132 1249.4733 1249.864 1250.0599 1250.2844 1250.498 1250.6469 1250.7941 1250.9357 1251.0789 1251.2512 1251.4664 1251.7344 1251.8768 1251.9668 1252.0444 1252.1736 1252.5248 1253.1985 1253.7767 1254.0135 1254.14 1254.2788 1254.5172 1255.2828 1256.21 1256.7528 1256.736 1256.7036 1256.8644 1256.7876 1256.67 1256.9692 1257.0956 1257.4496 1257.8384 1258.5833 1259.3112 1260.234 1260.6772 1261.3593 1261.768 1261.838 1261.6908 1261.3591 1260.8024 1260.2396 1259.6827 1259.0576 1259.4768 1260.0776 1260.6337 1261.2377 1261.3104 1260.7968 1260.208 1259.646 1259.3083 1259.2644 1259.3763 1259.6003 1259.7708 1259.93 1260.0756 1260.192 1260.3224 1260.3688 1260.4672 1260.6539 1261.2428 1262.1508 1262.954 1263.5596 1263.8259 1263.3352 1262.4552 1262.3596 1262.826 1263.8468 1264.686 1265.0604 1265.2716 1265.6104 1265.8192 1266.9164 1268.102 1268.898 1269.2908 1269.6244 1270.0836 1270.7992 1271.268 1271.4728 1271.9128 1272.2264 1272.5599 1272.974 1273.2115 1273.6019 1273.906 1274.5156 1275.4572 1276.1184 1276.1392 1276.8572 1277.8315 1278.6812 1279.7131 1280.7324 1281.426 1282.554 1283.2036 1282.7552 1283.0936 1283.722 1284.0411 1284.8368 1286.5192 1287.68 1289.5352 1288.5524 1289.3988 1289.2024 1289.9504 1290.6804 1292.0028 1293.0184 1293.7112 1294.9592 1296.6112 1299.1748 1301.994 1306.6047 1309.2544 1310.8712 1313.1047 1315.8248 1317.5656 1318.0112 1320.3704 1322.1788 1323.9052 1325.718 1327.9796 1330.6204 1333.1093 1332.468 1335.7296 1342.5604 1345.4803 1348.1316 1351.0668 1354.366 1356.0676
1324.6664 1324.5168 1324.0548 1324.4316 1326.0181 1326.5645 1327.9156 1329.6388 1330.6536 1330.2136 1328.5608 1327.1128 1325.7056 1324.4329 1324.4417 1323.7616 1322.3744 1322.0608 1321.7964 1321.938 1322.978 1322.7437 1315.0404 1305.602 1296.1685 1294.8484 1293.9875 1293.4668 1293.3389 1292.7452 1290.2068 1286.026 1280.6672 1277.3496 1275.1096 1271.7695 1269.796 1268.3888 1266.246 1261.3556 1259.1304 1257.8064 1256.3804 1254.7556 1252.9124 1252.378 1250.3364 1249.0908 1247.1005 1245.7876 1244.3628 1243.2941 1241.9792 1240.9056 1240.1476 1240.218 1240.308 1239.7808 1239.5208 1239.704 1240.0135 1240.2087 1240.26 1240.2352 1240.1672 1240.188 1240.2056 1240.4336 1240.568 1239.8984 1239.5312 1239.452 1239.3552 1239.3969 1239.5372 1239.7925 1239.9832 1240.0312 1240.264 1240.5424 1240.748 1240.896 1241.0964 1241.4972 1241.9592 1242.1207 1242.0496 1242.3145 1242.2212 1242.0004 1242.2476 1242.2588 1242.4272 1242.5984 1242.8484 1243.3116 1243.6252 1244.0276 1244.4044 1244.4924 1244.648 1244.9257 1245.3364 1245.646 1245.8408 1246.1344 1246.5912 1246.8384 1247.156 1247.676 1247.9264 1248.0752 1248.2552 1248.504 1248.6792 1248.7512 1248.9208 1249.2375 1249.5396 1249.686 1249.6912 1249.8408 1249.8271 1249.8512 1250.1713 1250.4689 1250.574 1250.806 1250.9844 1251.2372 1251.3011 1251.3748 1251.3456 1251.3904 1251.5511 1251.8184 1251.9875 1252.0964 1252.2028 1252.3301 1252.6832 1253.244 1253.75 1253.9196 1254.154 1254.3461 1254.6727 1255.1824 1255.6588 1255.726 1255.7992 1255.9432 1256.1312 1256.1337 1256.3096 1256.4824 1256.7476 1257.3732 1258.6268 1259.186 1259.9052 1260.5052 1260.5216 1260.7479 1260.8412 1260.5868 1260.3008 1259.9088 1259.624 1259.0856 1258.5552 1258.8048 1259.5924 1260.5876 1260.9036 1260.5508 1259.844 1259.1624 1258.836 1258.9064 1259.0004 1259.2635 1259.5671 1259.8 1259.966 1260.0356 1260.1188 1260.2404 1260.3816 1260.5432 1260.5876 1260.6597 1261.1012 1261.7396 1262.3772 1262.666 1262.3412 1261.8372 1261.8417 1262.5016 1263.6372 1264.4675 1264.7904 1264.936 1265.0396 1265.4612 1266.6307 1267.5316 1268.336 1268.896 1269.5928 1270.3359 1271.18 1271.544 1271.798 1272.1892 1272.59 1272.814 1273.0568 1273.4912 1274.1003 1274.2028 1274.3044 1274.818 1275.25 1275.47 1275.9288 1276.8656 1277.7036 1278.4332 1279.4364 1280.0148 1280.6119 1280.9016 1280.6716 1280.8524 1281.5212 1282.35 1282.9584 1283.7328 1284.9924 1285.3484 1286.232 1287.3016 1288.1644 1288.8477 1289.5668 1290.7068 1291.8152 1292.4081 1294.126 1297.246 1300.5024 1303.3536 1307.6191 1310.3536 1309.4816 1308.5608 1308.4364 1308.062 1307.1 1308.6808 1316.0269 1321.1116 1322.9056 1324.9777 1327.9095 1329.2911 1319.0548 1319.6091 1327.4868 1327.3772 1329.2292 1336.8596 1336.9772 1336.1316
1327.4152 1327.496 1327.8284 1331.0532 1335.0037 1332.2493 1330.614 1331.598 1332.7744 1332.6144 1331.28 1329.7472 1328.7648 1328.4712 1327.2808 1326.66 1324.7623 1323.8392 1323.6948 1323.7804 1324.5715 1325.2509 1319.5276 1308.3628 1299.1188 1296.2756 1295.478 1295.0596 1295.4652 1295.494 1293.3547 1288.0908 1282.8608 1281.0392 1277.6952 1274.5712 1271.9312 1270.1896 1268.4916 1266.3564 1262.1312 1260.0632 1258.8988 1258.0197 1256.1564 1254.9036 1253.094 1250.6757 1248.9276 1247.346 1245.6237 1244.4924 1243.3136 1242.544 1241.762 1241.0276 1240.4768 1240.0856 1239.7416 1239.8336 1239.9248 1240.04 1240.2896 1240.468 1240.3528 1240.404 1240.48 1240.5496 1240.7231 1240.5624 1240.1968 1240.0408 1239.8608 1239.7024 1239.7428 1239.9244 1239.9473 1240.112 1240.3472 1240.536 1240.7 1240.8688 1241.0076 1241.1892 1241.496 1241.6335 1241.6736 1241.7303 1241.818 1241.8772 1241.9092 1241.994 1242.2848 1242.5712 1242.7412 1243.1676 1243.5323 1243.8036 1244.1852 1244.4124 1244.5592 1244.72 1245.0492 1245.4324 1245.7424 1246.2312 1246.5912 1246.712 1246.8744 1247.3544 1247.8632 1248.1464 1248.3544 1248.6528 1248.7897 1248.8776 1249.076 1249.3656 1249.6036 1249.7628 1249.8608 1250.004 1250.1376 1250.2976 1250.4392 1250.572 1250.7404 1250.998 1251.1868 1251.3676 1251.4596 1251.6003 1251.76 1251.928 1251.9832 1251.9415 1252.0436 1252.1221 1252.254 1252.3956 1252.624 1252.9512 1253.3116 1253.4668 1253.806 1254.246 1254.6504 1254.9167 1255.1876 1255.378 1255.5168 1255.6016 1255.6416 1255.6873 1255.7983 1255.9343 1255.978 1256.178 1256.7115 1257.17 1257.7509 1258.6309 1259.0184 1259.3679 1259.6284 1259.406 1259.316 1259.3816 1259.3969 1258.8568 1258.3024 1258.4944 1259.3812 1260.2628 1260.3628 1259.802 1258.9592 1258.7001 1258.7184 1258.7056 1258.9364 1259.2941 1259.5808 1259.9928 1260.1388 1260.194 1260.2885 1260.3636 1260.4464 1260.632 1260.882 1260.9924 1260.9172 1260.986 1261.2428 1261.3972 1261.4805 1261.5107 1261.8816 1262.6616 1263.3684 1263.9812 1264.4376 1264.8073 1265.2764 1266.0035 1266.7948 1267.662 1268.3976 1268.9592 1269.6783 1270.1785 1270.6272 1271.0552 1271.5917 1271.9652 1272.3964 1272.8892 1273.3888 1273.82 1274.5251 1274.8804 1275.0244 1275.0996 1275.4308 1275.822 1276.288 1277.1432 1277.722 1278.0084 1278.7244 1279.0564 1279.3568 1279.7089 1280.1636 1280.9524 1281.694 1282.3707 1283.4 1284.1904 1284.754 1285.1708 1285.712 1286.5432 1287.3844 1287.9283 1288.5908 1289.2653 1290.2512 1291.4921 1293.6428 1295.8092 1299.3704 1299.6696 1302.0488 1303.4617 1303.4705 1299.8104 1298.1708 1298.4188 1297.1616 1296.3809 1299.354 1307.7365 1308.8296 1312.9336 1316.5168 1311.764 1307.9229 1310.6595 1313.3164 1314.5444 1316.4948 1319.1716 1318.4731 1321.0309
1330.1508 1335.1284 1337.5209 1341.0632 1344.0416 1339.8896 1335.042 1334.5844 1335.2208 1334.8032 1334.0808 1333.8184 1333.8812 1333.5251 1331.5028 1329.7692 1328.2264 1326.6936 1326.0588 1326.13 1326.6656 1327.3392 1325.1364 1315.4316 1307.7943 1300.048 1297.5168 1297.32 1297.5396 1297.6987 1295.5728 1290.0768 1285.2112 1283.6736 1279.7952 1277.9777 1274.2848 1272.8392 1271.0295 1269.7056 1267.792 1264.4055 1261.4208 1260.4304 1259.2596 1257.578 1255.1425 1252.716 1251.3016 1250.0048 1247.7852 1245.9684 1244.8728 1244.2152 1243.6093 1242.3988 1241.6888 1241.1296 1240.1416 1240.0336 1239.9631 1239.9896 1240.16 1240.3496 1240.4564 1240.5764 1240.74 1240.8088 1241.0112 1241.2632 1241.1804 1240.942 1240.468 1240.092 1240.0323 1240.0052 1240.0424 1240.3184 1240.4916 1240.5548 1240.7108 1240.894 1241.01 1241.0868 1241.2844 1241.3092 1241.4691 1241.75 1241.868 1241.8832 1241.944 1242.0952 1242.3636 1242.5956 1243.0056 1243.4816 1243.694 1243.9348 1244.1464 1244.2936 1244.494 1244.7252 1244.9176 1245.1112 1245.6384 1246.2296 1246.6024 1246.7664 1246.9677 1247.15 1247.4636 1247.862 1248.4116 1248.7365 1248.858 1249.1829 1249.3428 1249.398 1249.634 1249.77 1249.9016 1250.0392 1250.154 1250.3619 1250.6072 1250.772 1250.8568 1251.024 1251.2844 1251.4652 1251.4872 1251.5712 1251.7024 1251.8503 1252.148 1252.1744 1252.212 1252.2944 1252.4216 1252.5984 1252.7264 1252.8248 1253.0256 1253.2184 1253.5944 1254.116 1254.7908 1255.1244 1255.302 1255.394 1255.4833 1255.4343 1255.3447 1255.5024 1255.6576 1255.7456 1255.874 1255.9772 1256.0332 1256.0892 1256.1632 1256.3848 1256.6996 1257.2075 1258.0996 1258.3236 1258.5028 1258.9532 1259.1316 1258.8188 1258.3236 1258.2797 1259.0745 1259.6624 1259.5616 1258.916 1258.618 1258.4956 1258.3229 1258.4116 1258.6848 1259.0024 1259.3252 1259.6523 1259.872 1260.0912 1260.3088 1260.516 1260.6292 1260.71 1260.8433 1261.0824 1261.2412 1261.166 1261.1744 1261.3312 1261.4644 1261.5588 1262.198 1263.0164 1263.5444 1264.0564 1264.5104 1264.9344 1265.3776 1266.0856 1267.1755 1268.0956 1268.986 1269.2115 1269.6356 1269.71 1269.9692 1270.5037 1271.1136 1271.476 1271.9972 1272.8788 1273.6368 1274.0256 1274.6832 1275.2184 1275.5408 1275.6263 1275.8568 1276.2319 1276.5692 1277.1149 1277.5284 1277.6613 1278.0212 1278.3812 1278.684 1279.2625 1280.376 1281.256 1282.0676 1282.5612 1283.4172 1284.122 1284.6036 1285.0348 1285.5264 1286.1 1286.7635 1287.1917 1287.6544 1287.9016 1288.256 1288.9937 1289.7252 1289.706 1291.0596 1290.7692 1291.9492 1292.6372 1292.2904 1293.4816 1294.9684 1295.538 1295.5936 1295.7328 1296.0968 1297.7384 1301.1504 1304.1592 1305.684 1306.9865 1308.484 1310.6216 1313.2184 1314.5729 1315.4828 1316.0732 1317.6868 1320.6172
1332.7644 1337.3851 1341.908 1344.2552 1346.0648 1343.124 1337.5756 1336.9772 1337.1544 1336.9113 1336.648 1336.8608 1337.7996 1337.9893 1337.246 1333.5444 1331.3872 1330.592 1329.2653 1328.354 1328.5383 1329.3096 1329.5084 1325.6917 1321.7976 1308.4543 1300.2504 1299.4392 1299.462 1299.29 1297.48 1291.4784 1287.144 1286.1168 1282.4744 1280.9257 1279.3928 1275.6576 1272.8071 1272.3552 1271.176 1270.3911 1267.732 1263.3512 1261.562 1259.3796 1257.0304 1254.7224 1253.176 1251.9545 1250.7363 1248.0348 1246.5016 1245.6567 1244.958 1244.162 1243.3433 1242.2607 1240.7968 1240.1624 1240.0144 1240.1 1240.2896 1240.4376 1240.5323 1240.7068 1240.9615 1241.1024 1241.2688 1241.4504 1241.6188 1241.6956 1241.484 1240.9719 1240.7133 1240.3116 1240.2056 1240.4336 1240.5676 1240.5476 1240.774 1240.954 1241.0596 1241.1348 1241.3004 1241.338 1241.5125 1241.8461 1241.9417 1242.0848 1242.4408 1242.5616 1242.578 1242.7924 1243.1368 1243.4752 1243.7892 1244.1292 1244.3447 1244.3721 1244.6788 1244.902 1245.0056 1245.0648 1245.4712 1245.944 1246.4736 1246.7448 1247.0868 1247.2115 1247.2124 1247.3644 1247.8804 1248.4532 1248.7852 1249.2524 1249.3964 1249.474 1249.7565 1249.9004 1249.9744 1250.0272 1250.0236 1250.2412 1250.4888 1250.7303 1250.8688 1250.9896 1251.2388 1251.2692 1251.2393 1251.3073 1251.4832 1251.708 1251.9104 1252.0344 1252.2944 1252.468 1252.6432 1252.8392 1252.928 1253.0536 1253.1423 1253.2552 1253.508 1253.9816 1254.6165 1254.8236 1254.874 1254.7628 1254.6752 1254.4664 1254.2551 1254.3776 1254.6056 1254.8152 1255.174 1255.5796 1255.8909 1256.0428 1256.152 1256.292 1256.4468 1256.5884 1256.974 1257.2795 1257.6052 1258.142 1258.2556 1258.098 1257.91 1258.0964 1258.6216 1258.88 1258.788 1258.52 1258.3556 1258.1388 1258.2972 1258.65 1258.9896 1259.2096 1259.4868 1259.7692 1259.9417 1260.0808 1260.2784 1260.5112 1260.6932 1260.8124 1260.8575 1260.9512 1261.2059 1261.398 1261.4183 1261.5336 1261.6716 1261.7836 1262.53 1263.3068 1263.9028 1264.4708 1264.8376 1265.1 1265.5112 1266.3584 1267.4476 1267.9868 1268.5316 1268.6436 1268.9044 1269.0396 1269.4724 1270.194 1270.84 1271.3289 1272.0125 1272.8364 1273.5944 1274.1224 1274.764 1275.4896 1275.8264 1276.0385 1276.3024 1276.5848 1276.902 1277.358 1277.7596 1277.99 1278.2572 1278.5436 1278.9504 1279.5768 1280.4552 1281.3304 1282.202 1282.6332 1283.338 1283.8828 1284.3396 1284.8828 1285.5056 1285.9991 1286.5197 1286.9283 1287.1448 1287.0336 1286.9944 1287.1592 1287.33 1287.5107 1287.8164 1288.1469 1288.8732 1290.3853 1291.8816 1293.364 1294.8556 1295.55 1295.7256 1296.3976 1297.0281 1297.8969 1299.988 1304.7249 1308.0408 1309.7175 1311.46 1312.932 1314.2328 1314.9968 1315.6453 1316.3988 1318.682 1320.9229
1335.3083 1338.51 1342.5668 1345.1692 1347.4691 1345.4268 1342.1031 1340.2496 1339.7712 1339.5833 1339.1664 1339.6096 1340.21 1340.3212 1339.6864 1337.6016 1335.0956 1334.4628 1333.4824 1331.5168 1330.4176 1331.488 1331.7456 1330.88 1331.1016 1321.6033 1308.7548 1304.2268 1301.7112 1300.9576 1299.4132 1295.0708 1291.6932 1289.3556 1286.9844 1283.73 1282.2388 1280.5076 1278.1696 1274.444 1273.4828 1272.918 1271.8995 1268.1548 1265.0616 1261.4968 1259.2144 1256.968 1255.8336 1254.9104 1253.5132 1250.9092 1248.3636 1247.1365 1246.3932 1245.6917 1244.5964 1243.3324 1241.8909 1240.6964 1239.9968 1240.0729 1240.2711 1240.4784 1240.5792 1240.776 1241.02 1241.244 1241.4424 1241.5376 1241.7312 1241.9167 1242.1112 1242.1224 1242.0627 1241.3364 1240.8956 1240.9612 1240.9232 1240.76 1240.9668 1241.1476 1241.2124 1241.2563 1241.3904 1241.4896 1241.6384 1241.9023 1242.1556 1242.4531 1242.9248 1243.2024 1243.1425 1243.124 1243.1732 1243.3308 1243.6481 1244.004 1244.3048 1244.5312 1244.956 1245.092 1245.0889 1245.2072 1245.394 1245.6084 1245.9684 1246.278 1246.748 1246.948 1247.0573 1247.2268 1247.3988 1247.7012 1248.1395 1248.7612 1249.2056 1249.5009 1249.6868 1249.8331 1250.0116 1249.9053 1249.7904 1250.1608 1250.6307 1250.7509 1250.8032 1250.904 1250.9988 1251.082 1251.2592 1251.376 1251.6976 1251.9487 1252.0636 1252.2228 1252.534 1252.678 1252.8068 1252.9564 1253.1049 1253.34 1253.4496 1253.4736 1253.5884 1253.7356 1253.8472 1253.7375 1253.6237 1253.482 1253.3264 1253.3104 1253.4476 1253.5548 1253.576 1253.7168 1253.9501 1254.25 1254.8171 1255.1348 1255.5107 1255.9517 1256.4072 1256.7064 1256.8472 1256.9088 1256.9696 1257.048 1257.1293 1257.2052 1257.3143 1257.5936 1257.8704 1258.0615 1258.2356 1258.1796 1257.9489 1258.2168 1258.7584 1259.2008 1259.4092 1259.4677 1259.5336 1259.7911 1260.0664 1260.176 1260.2632 1260.452 1260.734 1260.9283 1261.0308 1261.0444 1261.278 1261.5708 1261.6855 1261.8032 1262.046 1262.3396 1262.9984 1263.656 1264.0717 1264.41 1264.7604 1265.1372 1265.6908 1266.3508 1266.996 1267.3584 1267.7776 1267.964 1268.1528 1268.4352 1269.2595 1270.0076 1270.5912 1271.0736 1271.6873 1272.3848 1273.1328 1273.8656 1274.5524 1275.5164 1276.0063 1276.2544 1276.666 1277.0035 1277.3352 1277.784 1278.23 1278.6436 1279.0367 1279.3064 1279.6888 1280.296 1281.014 1281.6804 1282.3512 1282.8064 1283.428 1283.8744 1284.3976 1285.0176 1285.5656 1286.0096 1286.326 1286.0197 1286.0256 1286.1945 1286.2036 1286.2524 1286.7136 1287.0065 1287.5088 1287.8608 1289.3248 1291.3888 1293.648 1294.8768 1295.5132 1295.9756 1296.6156 1297.7212 1298.7008 1299.6553 1301.672 1308.26 1311.5323 1312.6228 1313.7476 1314.6844 1315.252 1315.616 1316.078 1317.722 1320.5745 1322.4056
1336.9572 1339.722 1342.3763 1346.006 1348.6036 1348.2412 1346.0992 1344.404 1342.1536 1341.5671 1341.0864 1341.64 1342.1068 1342.1476 1341.2592 1339.9167 1338.5476 1338.3196 1338.204 1337.504 1337.6896 1337.816 1337.528 1335.2736 1334.1256 1330.7584 1319.242 1311.8564 1305.9056 1303.2976 1301.47 1298.9884 1298.5012 1297.8884 1293.6093 1287.1516 1284.81 1283.8788 1280.424 1275.7416 1275.1876 1274.6676 1274.0764 1271.7491 1267.4192 1263.5536 1261.1729 1259.3073 1258.3152 1256.7856 1255.1228 1252.8132 1250.6476 1248.7212 1247.6284 1246.8292 1245.8748 1244.8173 1243.3164 1241.9636 1240.9487 1240.5225 1240.4424 1240.3679 1240.5344 1240.7537 1240.9208 1241.1432 1241.416 1241.588 1241.8184 1241.9608 1242.1656 1242.3752 1242.5548 1242.0524 1241.434 1241.4004 1241.5408 1241.3073 1241.3196 1241.574 1241.5316 1241.6523 1241.916 1241.996 1242.0432 1242.2688 1242.354 1242.498 1242.9304 1243.392 1243.5616 1243.532 1243.7491 1243.822 1243.9008 1244.06 1244.2192 1244.4952 1244.9896 1245.2056 1245.2449 1245.3296 1245.4636 1245.6252 1245.7476 1246.0284 1246.352 1246.6256 1246.846 1247.0476 1247.2028 1247.3405 1247.502 1247.89 1248.5488 1249.2456 1249.5388 1249.6132 1249.806 1249.7653 1249.7593 1250.1904 1250.5988 1250.6996 1250.7672 1250.8712 1251.058 1251.3011 1251.4872 1251.58 1251.824 1251.952 1252.0436 1252.2524 1252.4963 1252.5988 1252.7045 1252.8652 1253.1512 1253.4104 1253.4008 1253.2648 1253.1829 1253.018 1252.8712 1252.8129 1252.7988 1252.918 1253.048 1253.1648 1253.3948 1253.5292 1253.5824 1253.7552 1253.9348 1253.9324 1253.994 1254.3228 1254.7268 1255.0236 1255.4816 1256.3712 1256.916 1256.976 1256.8832 1256.8048 1256.926 1257.0308 1257.1632 1257.3848 1257.6736 1257.9703 1258.086 1257.9788 1257.9313 1258.2375 1258.612 1259.0112 1259.37 1259.4412 1259.4088 1259.5864 1259.8992 1260.1049 1260.2672 1260.488 1260.7437 1260.9749 1261.278 1261.3188 1261.3948 1261.6332 1261.8392 1261.9872 1262.1772 1262.4292 1262.9512 1263.5369 1264.0107 1264.2148 1264.6996 1265.1003 1265.482 1265.9324 1266.4896 1266.9095 1267.3368 1267.568 1267.8145 1268.4025 1269.242 1269.814 1270.3024 1270.7576 1271.3008 1271.824 1272.3336 1272.8696 1273.7133 1274.9028 1275.6783 1276.1792 1276.8572 1277.3531 1277.7152 1278.1656 1278.638 1279.0852 1279.4408 1279.8593 1280.3688 1280.9648 1281.6156 1282.0884 1282.5928 1283.0864 1283.6031 1284.0448 1284.7056 1285.3096 1285.6776 1286.0704 1285.962 1285.2189 1285.1729 1285.4792 1285.538 1285.5804 1286.0504 1286.8424 1287.7992 1288.9368 1291.0416 1293.168 1294.628 1295.4984 1296.5156 1296.8964 1297.63 1299.1372 1300.2384 1301.2728 1305.2576 1310.708 1313.334 1314.4596 1315.3923 1315.9612 1316.1641 1316.432 1317.0972 1319.65 1322.5312 1323.876
1339.0671 1341.1832 1343.3812 1347.3228 1349.742 1350.9476 1348.6036 1347.158 1344.5852 1343.7052 1343.4792 1343.94 1344.7867 1344.5316 1343.4232 1342.6407 1341.868 1341.488 1341.2736 1341.2784 1341.254 1340.9108 1341.3472 1340.672 1336.322 1334.2972 1331.8468 1322.6708 1311.5804 1307.2388 1304.552 1302.2848 1301.8064 1301.3816 1298.7756 1290.886 1287.6788 1286.8556 1284.384 1280.0552 1277.9528 1276.7576 1276.1876 1273.9948 1269.1075 1266.242 1263.884 1261.7288 1260.6052 1258.7668 1256.3644 1254.3716 1253.1088 1250.8832 1249.0135 1248.3257 1247.1936 1245.9984 1244.7764 1243.9355 1243.0876 1242.298 1241.61 1240.7668 1240.7072 1240.7976 1240.946 1241.1003 1241.3721 1241.6016 1241.8593 1242.0616 1242.1576 1242.3512 1242.64 1242.5408 1241.8951 1241.656 1241.9313 1241.9768 1241.8909 1241.8997 1241.96 1242.1184 1242.2869 1242.4604 1242.698 1242.8444 1242.6416 1242.564 1242.778 1243.0436 1243.3809 1243.6888 1244.3008 1244.4712 1244.348 1244.272 1244.4348 1244.7372 1245.0464 1245.2375 1245.3372 1245.4532 1245.6744 1245.7303 1245.802 1246.0084 1246.11 1246.2885 1246.5328 1246.744 1246.9648 1247.0776 1247.218 1247.31 1247.574 1248.4108 1248.5376 1248.1664 1248.4543 1248.8984 1249.0664 1249.4183 1249.7324 1250.158 1250.6812 1250.8684 1251.0508 1251.4196 1251.694 1251.7212 1251.9148 1251.9996 1251.9528 1252.02 1252.2308 1252.4517 1252.6168 1252.8192 1253.1204 1253.1508 1252.9268 1252.6292 1252.5295 1252.5104 1252.5592 1252.6768 1252.7664 1253.0704 1253.34 1253.4631 1253.6884 1253.814 1253.816 1253.8856 1254.0848 1254.1744 1254.2632 1254.4896 1254.49 1254.5012 1254.6776 1254.8552 1255.4584 1256.8953 1256.0972 1255.5076 1255.7188 1256.0172 1256.2832 1256.4912 1257.0527 1257.8951 1257.9327 1257.7896 1257.8436 1258.1436 1258.5065 1258.9512 1259.3112 1259.4 1259.4968 1259.6672 1259.8776 1260.028 1260.2596 1260.5476 1260.8088 1261.0848 1261.398 1261.5372 1261.634 1261.7651 1262.066 1262.0764 1262.1016 1262.2448 1262.7008 1263.3584 1263.8904 1264.1088 1264.5184 1264.8304 1265.1228 1265.6028 1266.2524 1266.6676 1267.112 1267.4296 1267.7296 1268.36 1268.8188 1269.3212 1270.0032 1270.5792 1271.0852 1271.446 1272.0107 1272.578 1273.3356 1274.4116 1275.2635 1276.0588 1276.8763 1277.434 1277.96 1278.5376 1279.0588 1279.4716 1279.6788 1280.158 1281.1128 1281.7161 1282.21 1282.606 1283.0392 1283.6016 1284.1124 1284.5197 1285.0732 1285.49 1285.8108 1285.938 1285.2092 1284.6077 1284.7124 1285.0436 1285.1456 1285.356 1286.5908 1287.9052 1289.1396 1290.3844 1291.9248 1294.096 1295.2308 1296.2437 1297.3832 1297.7816 1298.9032 1300.9392 1302.0424 1303.056 1305.8472 1310.196 1314.6356 1316.13 1316.926 1317.3588 1317.1444 1317.2092 1318.198 1321.4388 1324.2544 1325.2672
1340.3328 1342.548 1345.1091 1349.0411 1350.6492 1351.6804 1350.3364 1348.9004 1347.1613 1345.918 1345.5632 1345.9313 1346.6748 1346.362 1345.5848 1345.3575 1344.7352 1344.376 1344.4385 1344.5216 1344.0724 1343.254 1343.3488 1344.0416 1342.27 1337.9875 1335.7428 1334.2308 1321.7228 1311.914 1308.3696 1305.2112 1304.3737 1304.0 1300.1908 1296.5316 1291.4652 1290.0645 1288.056 1283.444 1281.7712 1279.3312 1278.0372 1275.6204 1270.9252 1267.9764 1265.9928 1263.6841 1262.2908 1260.6124 1257.8372 1256.142 1254.3073 1252.3104 1250.312 1249.5088 1248.0968 1247.212 1246.3124 1245.4908 1244.6757 1243.9724 1243.0724 1241.9396 1241.5328 1241.2344 1241.2124 1241.258 1241.3352 1241.5616 1241.8793 1242.2208 1242.3992 1242.4344 1242.64 1242.728 1242.2104 1241.8848 1242.0488 1242.3792 1242.5812 1242.3948 1242.3104 1242.3136 1242.2628 1242.4556 1242.758 1243.0084 1242.8735 1242.7656 1242.9556 1243.2068 1243.384 1243.5817 1244.2792 1244.72 1244.752 1244.732 1244.9164 1245.1548 1245.3016 1245.44 1245.5756 1245.73 1245.86 1245.8424 1245.93 1245.986 1246.086 1246.2852 1246.4633 1246.6824 1246.8856 1247.0063 1247.1716 1247.23 1247.2997 1247.434 1247.5248 1247.5984 1247.756 1248.1855 1248.624 1248.8544 1249.0236 1249.3276 1250.014 1250.758 1251.0789 1251.2124 1251.4404 1251.5876 1251.7716 1251.802 1251.7424 1251.8448 1252.11 1252.3693 1252.5216 1252.6776 1252.7365 1252.4084 1252.3052 1252.1804 1252.2632 1252.3976 1252.6432 1252.9928 1253.3568 1253.7296 1254.0464 1254.2144 1254.4132 1254.5292 1254.6024 1254.4688 1254.5297 1254.552 1254.9656 1255.3744 1255.1132 1254.9436 1255.0704 1254.9808 1254.9167 1256.1312 1256.2795 1255.354 1255.4429 1255.5892 1255.6729 1255.8696 1256.2393 1257.0 1257.3336 1257.4417 1257.9548 1258.4916 1258.644 1258.9752 1259.2976 1259.3896 1259.5583 1259.7528 1259.9248 1260.1312 1260.306 1260.4164 1260.5312 1260.8152 1261.0012 1261.126 1261.4716 1261.6348 1261.91 1262.0516 1262.1576 1262.3584 1262.692 1263.3624 1263.6952 1263.8433 1264.116 1264.4169 1264.8604 1265.4749 1266.206 1266.5988 1266.8184 1266.976 1267.2913 1267.7072 1267.8765 1268.4108 1269.3864 1270.0583 1270.4844 1271.1908 1272.3531 1273.0933 1273.6412 1274.3988 1275.338 1276.162 1276.7523 1277.1356 1277.7888 1278.6224 1279.438 1279.9196 1280.1116 1280.4724 1281.3856 1282.0784 1282.5596 1282.9268 1283.3608 1284.0063 1284.6028 1284.9796 1285.418 1285.7308 1286.0404 1285.6364 1284.6436 1284.162 1284.3691 1284.782 1284.864 1285.5128 1287.2852 1288.718 1290.2172 1291.3324 1292.0848 1294.2336 1295.834 1296.9236 1298.2288 1299.1873 1300.7896 1302.504 1303.6768 1304.8792 1306.9832 1310.3944 1316.4404 1317.5892 1317.9332 1318.1068 1317.8835 1317.9355 1319.2885 1322.734 1325.4136 1326.588
1342.358 1344.7196 1349.2844 1351.3997 1352.2576 1352.5488 1352.162 1350.4884 1349.8556 1348.8284 1348.5396 1348.51 1348.8748 1349.0197 1348.776 1348.48 1347.81 1347.8572 1348.2936 1347.7456 1346.75 1346.0828 1345.7708 1346.6844 1347.0092 1344.8756 1339.6976 1338.4417 1335.0992 1321.2751 1314.9724 1309.3452 1306.7236 1306.186 1304.7156 1303.394 1300.4756 1298.2404 1290.8632 1285.8392 1284.7644 1283.6772 1281.3436 1278.1116 1275.2124 1270.6284 1268.5457 1266.06 1264.306 1262.8676 1259.9628 1257.9053 1255.9368 1253.804 1252.1748 1251.0044 1249.6292 1249.1444 1248.19 1247.1451 1246.2188 1245.3932 1244.6755 1244.2812 1243.6884 1243.138 1242.7772 1242.3588 1241.8668 1241.6924 1241.9772 1242.4044 1242.6873 1242.7968 1242.8624 1242.9312 1242.7812 1242.4244 1242.3064 1242.3616 1242.7896 1242.968 1242.8472 1242.6193 1242.4076 1242.6364 1242.83 1243.106 1243.2844 1243.5804 1243.7944 1244.4344 1244.0511 1243.6368 1243.9412 1244.3164 1244.7231 1244.9424 1245.1656 1245.4768 1245.6992 1245.896 1245.964 1246.044 1246.0472 1246.0256 1246.0336 1246.0151 1246.1552 1246.4224 1246.5536 1246.6832 1246.852 1246.9648 1247.08 1247.2264 1247.3076 1247.3572 1247.4596 1247.6012 1247.6664 1247.9192 1248.3344 1248.7864 1249.1168 1249.2256 1249.3344 1249.6816 1250.4172 1251.0724 1251.2028 1251.222 1251.2828 1251.3524 1251.492 1251.6392 1251.8976 1252.0256 1252.2393 1252.2144 1251.9604 1251.7732 1251.9828 1252.0771 1252.2488 1252.5856 1253.0332 1253.59 1254.192 1254.4552 1254.5536 1254.7328 1255.0812 1255.2365 1255.25 1255.3516 1255.1451 1254.8387 1255.314 1255.9243 1256.1072 1256.1584 1256.2072 1256.2056 1255.9056 1255.7192 1256.942 1256.5388 1256.0868 1255.9283 1255.8456 1256.0128 1256.2192 1256.4272 1256.688 1256.9768 1257.9716 1258.4972 1258.4067 1258.6188 1258.8108 1258.9373 1259.1423 1259.3665 1259.6616 1260.0144 1260.2856 1260.4185 1260.5924 1260.6412 1260.8549 1261.0627 1261.4204 1261.4644 1261.5452 1261.7491 1261.8461 1262.106 1262.6841 1263.1752 1263.2476 1263.4996 1263.8953 1264.2344 1264.6708 1265.2795 1265.9088 1266.28 1266.2632 1266.2192 1266.57 1266.9155 1267.2375 1267.9904 1268.734 1269.1772 1270.052 1271.2231 1272.4756 1273.322 1273.9352 1274.6049 1275.3524 1276.0339 1276.5524 1276.8108 1277.42 1278.392 1279.536 1280.1512 1280.4028 1280.7421 1281.376 1282.1144 1282.7072 1283.0656 1283.5223 1284.1216 1284.662 1285.0588 1285.5009 1285.892 1286.21 1285.2869 1284.1432 1283.7233 1283.9116 1284.4652 1284.8016 1285.6857 1288.0808 1289.5784 1291.3068 1292.2852 1293.0056 1294.2096 1295.9232 1297.488 1299.396 1300.8073 1302.1556 1303.6636 1304.9668 1306.8492 1310.426 1314.2964 1316.1813 1317.4052 1318.6508 1319.1156 1319.058 1319.3763 1321.0068 1324.2892 1326.5933 1327.8844
1344.7444 1347.122 1351.7988 1353.5476 1353.5032 1353.6056 1353.5404 1352.3596 1352.1476 1351.5604 1351.2212 1350.9803 1350.9668 1351.7484 1351.7767 1351.5096 1351.1044 1350.7388 1351.2056 1350.5376 1349.3556 1348.37 1347.8004 1348.5636 1349.1348 1348.7532 1343.2704 1340.424 1339.404 1334.724 1323.1036 1316.726 1311.402 1310.0916 1307.1772 1306.5037 1304.7852 1301.9116 1296.2312 1287.9208 1286.8788 1285.542 1283.2732 1281.0652 1277.7579 1273.3676 1271.4216 1269.3872 1266.8876 1264.8108 1262.186 1259.7365 1257.7832 1256.0792 1254.2932 1252.9644 1251.6132 1250.9124 1249.8916 1248.8452 1248.042 1247.4836 1247.0468 1246.8844 1246.1492 1245.4213 1244.678 1243.7892 1243.2164 1242.89 1242.8204 1242.9803 1243.0432 1243.1208 1243.3289 1243.3593 1243.3132 1243.11 1243.12 1242.7544 1242.6888 1242.9744 1243.42 1243.288 1242.6556 1242.9213 1243.006 1243.0468 1243.4315 1244.1917 1244.6945 1245.3936 1245.08 1244.5872 1244.4796 1244.2788 1244.4952 1244.6472 1244.844 1245.296 1245.7296 1245.9376 1246.0752 1246.2609 1246.3688 1246.544 1246.7592 1246.7823 1246.4951 1246.5095 1246.5968 1246.648 1246.8248 1246.9568 1247.0568 1247.208 1247.3268 1247.3763 1247.4924 1247.5764 1247.6248 1247.7336 1248.0944 1248.5208 1249.0536 1249.1785 1249.332 1249.4072 1249.7548 1250.61 1250.9108 1250.77 1250.73 1250.8284 1251.0336 1251.2767 1251.5736 1251.7544 1252.0096 1251.724 1251.5931 1251.6381 1251.8907 1252.1644 1252.584 1253.2616 1253.522 1253.8468 1254.3704 1254.5824 1254.7208 1254.86 1255.198 1255.3964 1255.5188 1255.5612 1255.5532 1255.2372 1255.2405 1255.982 1256.3976 1256.628 1256.8192 1257.0529 1256.9991 1257.2384 1257.4749 1257.5692 1257.5084 1257.2572 1256.9568 1256.7064 1256.608 1256.568 1256.6744 1256.8656 1257.6973 1258.2484 1258.2124 1258.3396 1258.4628 1258.5428 1258.8208 1259.256 1259.6992 1260.0776 1260.4352 1260.6576 1260.9812 1260.9644 1261.2612 1261.3684 1261.43 1261.7092 1261.7476 1261.6716 1261.674 1261.726 1262.0232 1262.404 1262.7748 1263.11 1263.6456 1264.0312 1264.3245 1264.8468 1265.4633 1265.8344 1265.8264 1265.8256 1266.41 1266.9717 1267.7087 1268.4633 1269.0325 1269.4357 1270.2888 1271.18 1272.222 1273.086 1273.9384 1274.6512 1275.1252 1275.7092 1276.3708 1276.61 1277.316 1278.3392 1279.4032 1279.964 1280.2996 1280.8644 1281.5992 1282.1824 1282.616 1283.0208 1283.5648 1284.1368 1284.6212 1285.0468 1285.4456 1285.8176 1286.0172 1284.8684 1283.7424 1283.3528 1283.5452 1284.1324 1284.8304 1286.2103 1289.0336 1290.68 1292.4548 1293.2236 1294.0216 1294.7312 1296.348 1297.9688 1299.9023 1301.632 1302.97 1304.3228 1305.5748 1307.2396 1311.6348 1313.9564 1315.6876 1317.1212 1318.7708 1319.442 1320.0156 1320.7164 1322.9204 1325.6796 1327.718 1329.0028
1347.546 1350.5532 1353.5524 1354.7045 1355.0612 1355.4501 1355.658 1354.8812 1354.128 1353.8416 1353.7308 1353.6669 1353.3951 1353.8896 1354.256 1354.7296 1354.5568 1353.8304 1353.5573 1353.4484 1353.0281 1351.06 1350.218 1350.9803 1351.5511 1351.0576 1349.1212 1343.9532 1341.124 1340.576 1338.262 1323.6436 1316.8029 1316.1309 1309.974 1308.0668 1307.088 1306.5056 1303.0004 1293.4132 1289.9612 1288.598 1286.3456 1282.9032 1280.3804 1276.3308 1273.6968 1272.2224 1270.0244 1267.8972 1264.9904 1262.4512 1261.2164 1259.1597 1257.1376 1255.1752 1253.58 1252.7089 1251.9904 1251.024 1250.406 1250.0645 1249.654 1249.2668 1248.6312 1247.6232 1246.6396 1245.9747 1245.4116 1245.0428 1244.5576 1244.2393 1243.8544 1243.6128 1243.8728 1244.124 1243.9884 1243.7219 1243.7528 1243.456 1243.0568 1242.824 1243.2124 1243.5964 1243.0745 1243.0656 1243.4412 1243.2284 1243.436 1244.2344 1245.076 1245.56 1245.8248 1245.6729 1245.2476 1244.7964 1244.6604 1244.6996 1244.8964 1245.278 1245.6812 1245.8972 1246.1096 1246.3016 1246.5452 1247.046 1247.7004 1248.0076 1247.6664 1247.2625 1247.2628 1247.1492 1246.9956 1247.0404 1247.1764 1247.394 1247.644 1247.7249 1247.628 1247.6704 1247.8076 1247.9788 1248.1667 1248.3164 1248.6276 1248.9868 1249.3396 1249.4196 1249.5652 1250.0164 1250.4548 1250.662 1250.748 1250.9088 1251.2 1251.4712 1251.6716 1251.614 1251.58 1251.4095 1251.5112 1251.6049 1252.1172 1252.5348 1253.016 1253.3688 1253.5168 1253.9712 1254.5496 1254.7408 1255.022 1255.0524 1255.2867 1255.5756 1255.7092 1255.7428 1255.8888 1255.8336 1255.3424 1255.5576 1256.1128 1256.4944 1256.7347 1256.994 1257.3396 1257.5876 1257.6628 1257.6708 1257.6704 1257.7312 1257.8011 1257.5836 1257.4244 1257.1884 1256.9761 1256.9424 1257.3188 1257.9452 1258.4296 1258.592 1258.854 1258.974 1259.1536 1259.4833 1259.7751 1260.028 1260.416 1260.5856 1260.6752 1260.8201 1260.9865 1261.104 1261.1072 1261.3008 1261.7032 1261.9048 1262.114 1262.1685 1262.1708 1262.4596 1262.6783 1262.7999 1263.3073 1263.8744 1264.0804 1264.3644 1264.9208 1265.2855 1265.5028 1265.8468 1266.4644 1267.0916 1267.9728 1268.7017 1269.0432 1269.5696 1270.398 1271.1556 1272.0701 1272.8988 1273.712 1274.2208 1274.6312 1275.2128 1275.7932 1276.3516 1277.432 1278.316 1278.9012 1279.302 1279.8956 1280.7628 1281.752 1282.24 1282.4996 1282.8724 1283.4292 1283.9524 1284.4064 1284.84 1285.1444 1285.3868 1285.6268 1284.1884 1283.1304 1282.9136 1282.936 1284.0016 1285.6873 1287.6729 1290.3616 1291.7344 1293.1288 1293.9705 1294.6019 1295.6075 1297.2203 1298.9052 1300.6212 1302.2596 1303.8083 1305.3596 1306.4568 1308.1736 1311.0972 1313.5188 1315.3236 1316.89 1318.9744 1319.9615 1320.9229 1321.7524 1324.4092 1326.8564 1328.9648 1330.1432
1349.0988 1352.0933 1354.6932 1355.7732 1356.5764 1357.2452 1357.1724 1356.2388 1355.7544 1356.0328 1355.9996 1355.878 1355.7968 1355.8368 1356.1896 1356.3992 1356.3944 1356.0488 1356.0164 1356.2836 1355.7592 1353.46 1352.7748 1353.0188 1353.2296 1352.3936 1350.9884 1348.7804 1342.8848 1342.0328 1340.7788 1330.6116 1320.6699 1319.6844 1317.3716 1311.3204 1309.8472 1309.556 1308.2365 1302.4891 1294.6196 1291.8356 1288.9088 1284.7576 1283.0028 1278.75 1275.6472 1274.3232 1272.1492 1270.2651 1266.9744 1265.1263 1263.5668 1260.9532 1259.0792 1256.936 1255.0072 1253.9937 1253.648 1252.872 1252.2916 1252.094 1251.5933 1250.8589 1250.4401 1249.8624 1248.826 1248.502 1247.678 1246.754 1245.908 1245.3912 1244.9192 1244.66 1245.0367 1245.2 1244.7908 1244.166 1243.9592 1243.8096 1243.5671 1243.0304 1243.1003 1243.4476 1243.6976 1243.2664 1243.4164 1243.4132 1243.5424 1244.3168 1245.4656 1245.892 1246.3928 1246.7305 1246.4796 1245.9036 1245.3364 1244.9227 1244.962 1245.214 1245.718 1246.1356 1246.324 1246.3768 1246.5348 1247.0004 1247.6716 1248.1548 1247.9904 1247.748 1247.934 1248.1724 1248.1748 1248.1348 1248.3547 1248.3964 1248.3424 1248.5032 1248.2632 1247.976 1248.0668 1248.0844 1248.1564 1248.2404 1248.4252 1248.858 1249.1548 1249.4044 1249.5276 1249.7484 1250.1908 1250.558 1250.8976 1251.2391 1251.468 1251.6608 1251.5413 1251.2708 1251.2544 1251.2712 1251.524 1251.888 1252.2788 1252.7588 1253.0648 1253.2256 1253.6184 1254.172 1254.4952 1254.7344 1254.9596 1255.094 1255.2412 1255.5652 1255.7788 1255.9292 1255.996 1256.1008 1255.9847 1255.4736 1255.684 1256.2672 1256.6332 1256.9004 1257.3932 1257.7484 1257.7484 1257.7692 1257.7552 1257.784 1257.9076 1257.9524 1258.0397 1258.0596 1257.5009 1257.1184 1257.254 1257.8468 1258.6016 1258.9384 1259.1692 1259.1692 1259.26 1259.6152 1259.872 1260.1616 1260.4232 1260.5209 1260.6816 1260.8552 1260.9696 1261.1816 1261.2856 1261.74 1262.3224 1262.5288 1262.67 1262.7612 1262.7316 1263.0573 1263.388 1263.2056 1263.5176 1264.1567 1264.4164 1264.566 1264.9056 1265.216 1265.8331 1266.2396 1266.5308 1267.0411 1267.8744 1268.504 1269.0264 1269.9768 1270.886 1271.4852 1272.2028 1272.886 1273.4633 1273.8665 1274.424 1275.0936 1275.7275 1276.4764 1277.4952 1278.0336 1278.3029 1278.7068 1279.4932 1280.4628 1281.5792 1282.1152 1282.3164 1282.6077 1283.1165 1283.4668 1283.7208 1284.0696 1284.2524 1284.2164 1284.0012 1283.1309 1282.6552 1282.6704 1283.5896 1285.9592 1286.6952 1288.4376 1290.9312 1292.2177 1293.1544 1293.604 1294.3763 1296.0236 1297.7068 1299.478 1301.2108 1302.6444 1304.1804 1305.9492 1307.32 1309.2832 1311.6996 1313.8444 1315.578 1317.2004 1319.1216 1320.5088 1321.5884 1322.562 1325.0452 1327.6012 1329.5784 1330.8895
1350.3096 1353.8344 1355.7708 1357.678 1359.584 1359.2504 1358.1732 1357.4252 1357.3164 1357.8636 1357.9508 1357.714 1357.8676 1357.9756 1358.1576 1358.0745 1358.3215 1358.236 1358.6588 1359.2404 1358.2728 1355.0968 1354.8044 1354.8228 1354.6332 1353.4868 1351.8461 1350.7164 1346.7056 1343.6528 1342.8804 1338.3708 1325.6711 1323.5208 1322.4136 1318.6752 1312.3472 1311.8328 1311.4803 1310.6228 1307.0336 1294.9128 1291.1392 1287.4496 1286.2375 1281.6328 1278.5724 1276.0452 1273.7644 1271.7932 1269.1692 1266.7844 1264.3872 1262.3232 1260.7864 1258.984 1257.04 1255.328 1254.9856 1254.7024 1254.3904 1254.26 1253.7192 1252.9808 1252.21 1251.6075 1250.6156 1250.3716 1249.5784 1248.5128 1247.444 1246.8807 1246.5812 1246.5452 1246.6144 1246.2152 1245.4972 1244.8324 1244.4148 1244.1404 1243.86 1243.3608 1243.336 1243.692 1244.2231 1244.0848 1243.7008 1243.608 1243.6365 1244.3405 1245.7108 1246.1124 1246.63 1247.142 1247.3647 1247.3264 1246.738 1245.8788 1245.214 1245.2012 1245.584 1246.256 1246.5792 1246.6 1246.7115 1246.9972 1247.5284 1248.1005 1248.0808 1247.9064 1247.934 1248.3372 1248.6943 1249.0328 1249.3856 1249.3112 1248.7864 1248.7904 1248.8591 1248.6504 1248.63 1248.3245 1248.2416 1248.2712 1248.4095 1248.7704 1249.0916 1249.422 1249.5708 1249.7532 1250.0304 1250.3104 1250.8173 1251.2532 1251.356 1251.3616 1251.1927 1251.032 1251.142 1251.1957 1251.574 1252.0859 1252.4 1252.776 1252.9996 1253.3284 1253.7628 1254.2131 1254.4385 1254.6064 1254.8472 1255.1031 1255.3092 1255.6068 1255.7384 1256.0009 1256.1228 1256.2996 1256.4025 1256.0673 1255.644 1255.9352 1256.45 1256.8196 1257.2943 1257.7648 1257.79 1257.802 1257.8108 1257.8676 1257.9292 1258.1364 1258.352 1258.4705 1258.0576 1257.528 1257.3809 1257.5856 1258.2124 1258.7972 1258.9368 1258.7264 1259.1128 1259.7552 1259.8916 1260.1796 1260.4808 1260.5128 1260.7648 1261.192 1261.2616 1261.308 1261.4327 1261.868 1262.364 1262.6288 1262.8268 1263.0012 1263.0396 1263.2133 1263.7852 1263.8444 1263.8944 1264.4296 1264.9072 1265.2136 1265.6008 1265.788 1266.2272 1266.4976 1266.662 1267.1772 1267.8956 1268.318 1269.09 1270.2628 1271.2308 1271.7468 1272.3444 1272.8549 1273.3376 1273.9064 1274.5745 1275.2544 1276.0428 1276.8148 1277.3464 1277.5592 1277.6873 1278.1168 1278.9664 1279.892 1280.9991 1281.6864 1281.9343 1282.0944 1282.5076 1282.7115 1282.7029 1282.9348 1283.0804 1282.8668 1282.3892 1282.1613 1282.1664 1282.2704 1284.764 1287.0016 1287.5056 1288.8472 1291.3276 1292.3405 1292.4109 1292.7236 1293.4543 1295.3016 1297.8812 1300.0845 1301.7812 1303.0884 1304.4329 1305.8976 1307.5945 1309.8096 1312.332 1314.3024 1315.8788 1318.0364 1320.2616 1321.5056 1322.6075 1323.6348 1325.9668 1328.242 1330.196 1331.9424
