ncols        471
nrows        489
xllcorner    439155.750000000000
yllcorner    219453.250000000000
cellsize     1.000000000000
NODATA_value -9999
0.0 0 0 0 0 0 0 0 0 0 0 0 0 0 0 0 0 0 0 0 0 0 0 0 0 0 0 0 0 0 0 0 0 0 0 0 0 0 0 0 0 0 0 0 0 0 0 0 0 0 0 0 0 0 0 0 0 0 0 0 0 0 0 0 0 0 0 0 0 0 0 0 0 0 0 0 0 0 0 0 0 0 0 0 0 0 0 0 0 0 0 0 0 0 0 0 0 0 0 0 0 0 0 0 0 0 0 0 0 0 0 0 0 0 0 0 0 0 0 0 0 0 0 0 0 0 0 0 0 0 0 0 0 0 0 0 0 0 0 0 0 0 0 0 0 0 0 0 0 0 0 0 0 0 0 0 0 0 0 0 0 0 0 0 0 0 0 0 0 0 0 0 0 0 0 0 0 0 0 0 0 0 0 0 0 0 0 0 0 0 0 0 0 0 0 0 0 0 0 0 0 0 0 0 0 0 0 0 0 0 0 0 0 0 0 0 0 0 0 0 0 0 0 0 0 0 0 0 0 0 0 0 0 0 0 0 0 0 0 0 0 0 0 0 0 0 0 0 0 0 0 0 0 0 0 0 0 0 0 0 0 0 0 0 0 0 0 0 0 0 0 0 0 0 0 0 0 0 0 0 0 0 0 0 0 0 0 0 0 0 0 0 0 0 0 0 0 0 0 0 0 0 0 0 0 0 0 0 0 0 0 0 0 0 0 0 0 0 0 0 0 0 0 0 0 0 0 0 0 0 0 0 0 0 0 0 0 0 0 0 0 0 0 0 0 0 0 0 0 0 0 0 0 0 0 0 0 0 0 0 0 0 0 0 0 0 0 0 0 0 0 0 0 0 0 0 0 0 0 0 0 0 0 0 0 0 0 0 0 0 0 0 0 0 0 0 0 0 0 0 0 0 0 0 0 0 0 0 0 0 0 0 0 0 0 0 0 0 0 0 0 0 0 0 0 0 0 0 0 0 0 0 0 0 0 0 0 0 0 0 0 0 0 0 0 0 0 0 0 0 0 0 0 0 0 0 0 0 0 0 0 0 0 0 0 0 0 0 0 0 0 
0 0 0 0 0 0 0 0 0 0 0 0 0 0 0 0 0 0 0 0 0 0 0 0 0 0 0 0 0 0 0 0 0 0 0 0 0 0 0 0 0 0 0 0 0 0 0 0 0 0 0 0 0 0 0 0 0 0 0 0 0 0 0 0 0 0 0 0 0 0 0 0 0 0 0 0 0 0 0 0 0 0 0 0 0 0 0 0 0 0 0 0 0 0 0 0 0 0 0 0 0 0 0 0 0 0 0 0 0 0 0 0 0 0 0 0 0 0 0 0 0 0 0 0 0 0 0 0 0 0 0 0 0 0 0 0 0 0 0 0 0 0 0 0 0 0 0 0 0 0 0 0 0 0 0 0 0 0 0 0 0 0 0 0 0 0 0 0 0 0 0 0 0 0 0 0 0 0 0 0 0 0 0 0 0 0 0 0 0 0 0 0 0 0 0 0 0 0 0 0 0 0 0 0 0 0 0 0 0 0 0 0 0 0 0 0 0 0 0 0 0 0 0 0 0 0 0 0 0 0 0 0 0 0 0 0 0 0 0 0 0 0 0 0 0 0 0 0 0 0 0 0 0 0 0 0 0 0 0 0 0 0 0 0 0 0 0 0 0 0 0 0 0 0 0 0 0 0 0 0 0 0 0 0 0 0 0 0 0 0 0 0 0 0 0 0 0 0 0 0 0 0 0 0 0 0 0 0 0 0 0 0 0 0 0 0 0 0 0 0 0 0 0 0 0 0 0 0 0 0 0 0 0 0 0 0 0 0 0 0 0 0 0 0 0 0 0 0 0 0 0 0 0 0 0 0 0 0 0 0 0 0 0 0 0 0 0 0 0 0 0 0 0 0 0 0 0 0 0 0 0 0 0 0 0 0 0 0 0 0 0 0 0 0 0 0 0 0 0 0 0 0 0 0 0 0 0 0 0 0 0 0 0 0 0 0 0 0 0 0 0 0 0 0 0 0 0 0 0 0 0 0 0 0 0 0 0 0 0 0 0 0 0 0 0 0 0 0 0 0 0 0 0 0 0 0 0 0 0 0 0 0 0 0 0 0 0 0 0 0 0 
0 0 0 0 0 0 0 0 0 0 0 0 0 0 0 0 0 0 0 0 0 0 0 0 0 0 0 0 0 0 0 0 0 0 0 0 0 0 0 0 0 0 0 0 0 0 0 0 0 0 0 0 0 0 0 0 0 0 0 0 0 0 0 0 0 0 0 0 0 0 0 0 0 0 0 0 0 0 0 0 0 0 0 0 0 0 0 0 0 0 0 0 0 0 0 0 0 0 0 0 0 0 0 0 0 0 0 0 0 0 0 0 0 0 0 0 0 0 0 0 0 0 0 0 0 0 0 0 0 0 0 0 0 0 0 0 0 0 0 0 0 0 0 0 0 0 0 0 0 0 0 0 0 0 0 0 0 0 0 0 0 0 0 0 0 0 0 0 0 0 0 0 0 0 0 0 0 0 0 0 0 0 0 0 0 0 0 0 0 0 0 0 0 0 0 0 0 0 0 0 0 0 0 0 0 0 0 0 0 0 0 0 0 0 0 0 0 0 0 0 0 0 0 0 0 0 0 0 0 0 0 0 0 0 0 0 0 0 0 0 0 0 0 0 0 0 0 0 0 0 0 0 0 0 0 0 0 0 0 0 0 0 0 0 0 0 0 0 0 0 0 0 0 0 0 0 0 0 0 0 0 0 0 0 0 0 0 0 0 0 0 0 0 0 0 0 0 0 0 0 0 0 0 0 0 0 0 0 0 0 0 0 0 0 0 0 0 0 0 0 0 0 0 0 0 0 0 0 0 0 0 0 0 0 0 0 0 0 0 0 0 0 0 0 0 0 0 0 0 0 0 0 0 0 0 0 0 0 0 0 0 0 0 0 0 0 0 0 0 0 0 0 0 0 0 0 0 0 0 0 0 0 0 0 0 0 0 0 0 0 0 0 0 0 0 0 0 0 0 0 0 0 0 0 0 0 0 0 0 0 0 0 0 0 0 0 0 0 0 0 0 0 0 0 0 0 0 0 0 0 0 0 0 0 0 0 0 0 0 0 0 0 0 0 0 0 0 0 0 0 0 0 0 0 0 0 0 0 0 0 0 0 0 0 0 0 0 0 0 0 0 
0 0 0 0 0 0 0 0 0 0 0 0 0 0 0 0 0 0 0 0 0 0 0 0 0 0 0 0 0 0 0 0 0 0 0 0 0 0 0 0 0 0 0 0 0 0 0 0 0 0 0 0 0 0 0 0 0 0 0 0 0 0 0 0 0 0 0 0 0 0 0 0 0 0 0 0 0 0 0 0 0 0 0 0 0 0 0 0 0 0 0 0 0 0 0 0 0 0 0 0 0 0 0 0 0 0 0 0 0 0 0 0 0 0 0 0 0 0 0 0 0 0 0 0 0 0 0 0 0 0 0 0 0 0 0 0 0 0 0 0 0 0 0 0 0 0 0 0 0 0 0 0 0 0 0 0 0 0 0 0 0 0 0 0 0 0 0 0 0 0 0 0 0 0 0 0 0 0 0 0 0 0 0 0 0 0 0 0 0 0 0 0 0 0 0 0 0 0 0 0 0 0 0 0 0 0 0 0 0 0 0 0 0 0 0 0 0 0 0 0 0 0 0 0 0 0 0 0 0 0 0 0 0 0 0 0 0 0 0 0 0 0 0 0 0 0 0 0 0 0 0 0 0 0 0 0 0 0 0 0 0 0 0 0 0 0 0 0 0 0 0 0 0 0 0 0 0 0 0 0 0 0 0 0 0 0 0 0 0 0 0 0 0 0 0 0 0 0 0 0 0 0 0 0 0 0 0 0 0 0 0 0 0 0 0 0 0 0 0 0 0 0 0 0 0 0 0 0 0 0 0 0 0 0 0 0 0 0 0 0 0 0 0 0 0 0 0 0 0 0 0 0 0 0 0 0 0 0 0 0 0 0 0 0 0 0 0 0 0 0 0 0 0 0 0 0 0 0 0 0 0 0 0 0 0 0 0 0 0 0 0 0 0 0 0 0 0 0 0 0 0 0 0 0 0 0 0 0 0 0 0 0 0 0 0 0 0 0 0 0 0 0 0 0 0 0 0 0 0 0 0 0 0 0 0 0 0 0 0 0 0 0 0 0 0 0 0 0 0 0 0 0 0 0 0 0 0 0 0 0 0 0 0 0 0 0 0 0 0 0 0 
0 0 0 0 0 0 0 0 0 0 0 0 0 0 0 0 0 0 0 0 0 0 0 0 0 0 0 0 0 0 0 0 0 0 0 0 0 0 0 0 0 0 0 0 0 0 0 0 0 0 0 0 0 0 0 0 0 0 0 0 0 0 0 0 0 0 0 0 0 0 0 0 0 0 0 0 0 0 0 0 0 0 0 0 0 0 0 0 0 0 0 0 0 0 0 0 0 0 0 0 0 0 0 0 0 0 0 0 0 0 0 0 0 0 0 0 0 0 0 0 0 0 0 0 0 0 0 0 0 0 0 0 0 0 0 0 0 0 0 0 0 0 0 0 0 0 0 0 0 0 0 0 0 0 0 0 0 0 0 0 0 0 0 0 0 0 0 0 0 0 0 0 0 0 0 0 0 0 0 0 0 0 0 0 0 0 0 0 0 0 0 0 0 0 0 0 0 0 0 0 0 0 0 0 0 0 0 0 0 0 0 0 0 0 0 0 0 0 0 0 0 0 0 0 0 0 0 0 0 0 0 0 0 0 0 0 0 0 0 0 0 0 0 0 0 0 0 0 0 0 0 0 0 0 0 0 0 0 0 0 0 0 0 0 0 0 0 0 0 0 0 0 0 0 0 0 0 0 0 0 0 0 0 0 0 0 0 0 0 0 0 0 0 0 0 0 0 0 0 0 0 0 0 0 0 0 0 0 0 0 0 0 0 0 0 0 0 0 0 0 0 0 0 0 0 0 0 0 0 0 0 0 0 0 0 0 0 0 0 0 0 0 0 0 0 0 0 0 0 0 0 0 0 0 0 0 0 0 0 0 0 0 0 0 0 0 0 0 0 0 0 0 0 0 0 0 0 0 0 0 0 0 0 0 0 0 0 0 0 0 0 0 0 0 0 0 0 0 0 0 0 0 0 0 0 0 0 0 0 0 0 0 0 0 0 0 0 0 0 0 0 0 0 0 0 0 0 0 0 0 0 0 0 0 0 0 0 0 0 0 0 0 0 0 0 0 0 0 0 0 0 0 0 0 0 0 0 0 0 0 0 0 0 0 0 0 0 0 0 0 0 
0 0 0 0 0 0 0 0 0 0 0 0 0 0 0 0 0 0 0 0 0 0 0 0 0 0 0 0 0 0 0 0 0 0 0 0 0 0 0 0 0 0 0 0 0 0 0 0 0 0 0 0 0 0 0 0 0 0 0 0 0 0 0 0 0 0 0 0 0 0 0 0 0 0 0 0 0 0 0 0 0 0 0 0 0 0 0 0 0 0 0 0 0 0 0 0 0 0 0 0 0 0 0 0 0 0 0 0 0 0 0 0 0 0 0 0 0 0 0 0 0 0 0 0 0 0 0 0 0 0 0 0 0 0 0 0 0 0 0 0 0 0 0 0 0 0 0 0 0 0 0 0 0 0 0 0 0 0 0 0 0 0 0 0 0 0 0 0 0 0 0 0 0 0 0 0 0 0 0 0 0 0 0 0 0 0 0 0 0 0 0 0 0 0 0 0 0 0 0 0 0 0 0 0 0 0 0 0 0 0 0 0 0 0 0 0 0 0 0 0 0 0 0 0 0 0 0 0 0 0 0 0 0 0 0 0 0 0 0 0 0 0 0 0 0 0 0 0 0 0 0 0 0 0 0 0 0 0 0 0 0 0 0 0 0 0 0 0 0 0 0 0 0 0 0 0 0 0 0 0 0 0 0 0 0 0 0 0 0 0 0 0 0 0 0 0 0 0 0 0 0 0 0 0 0 0 0 0 0 0 0 0 0 0 0 0 0 0 0 0 0 0 0 0 0 0 0 0 0 0 0 0 0 0 0 0 0 0 0 0 0 0 0 0 0 0 0 0 0 0 0 0 0 0 0 0 0 0 0 0 0 0 0 0 0 0 0 0 0 0 0 0 0 0 0 0 0 0 0 0 0 0 0 0 0 0 0 0 0 0 0 0 0 0 0 0 0 0 0 0 0 0 0 0 0 0 0 0 0 0 0 0 0 0 0 0 0 0 0 0 0 0 0 0 0 0 0 0 0 0 0 0 0 0 0 0 0 0 0 0 0 0 0 0 0 0 0 0 0 0 0 0 0 0 0 0 0 0 0 0 0 0 0 0 0 0 0 0 0 0 0 
0 0 0 0 0 0 0 0 0 0 0 0 0 0 0 0 0 0 0 0 0 0 0 0 0 0 0 0 0 0 0 0 0 0 0 0 0 0 0 0 0 0 0 0 0 0 0 0 0 0 0 0 0 0 0 0 0 0 0 0 0 0 0 0 0 0 0 0 0 0 0 0 0 0 0 0 0 0 0 0 0 0 0 0 0 0 0 0 0 0 0 0 0 0 0 0 0 0 0 0 0 0 0 0 0 0 0 0 0 0 0 0 0 0 0 0 0 0 0 0 0 0 0 0 0 0 0 0 0 0 0 0 0 0 0 0 0 0 0 0 0 0 0 0 0 0 0 0 0 0 0 0 0 0 0 0 0 0 0 0 0 0 0 0 0 0 0 0 0 0 0 0 0 0 0 0 0 0 0 0 0 0 0 0 0 0 0 0 0 0 0 0 0 0 0 0 0 0 0 0 0 0 0 0 0 0 0 0 0 0 0 0 0 0 0 0 0 0 0 0 0 0 0 0 0 0 0 0 0 0 0 0 0 0 0 0 0 0 0 0 0 0 0 0 0 0 0 0 0 0 0 0 0 0 0 0 0 0 0 0 0 0 0 0 0 0 0 0 0 0 0 0 0 0 0 0 0 0 0 0 0 0 0 0 0 0 0 0 0 0 0 0 0 0 0 0 0 0 0 0 0 0 0 0 0 0 0 0 0 0 0 0 0 0 0 0 0 0 0 0 0 0 0 0 0 0 0 0 0 0 0 0 0 0 0 0 0 0 0 0 0 0 0 0 0 0 0 0 0 0 0 0 0 0 0 0 0 0 0 0 0 0 0 0 0 0 0 0 0 0 0 0 0 0 0 0 0 0 0 0 0 0 0 0 0 0 0 0 0 0 0 0 0 0 0 0 0 0 0 0 0 0 0 0 0 0 0 0 0 0 0 0 0 0 0 0 0 0 0 0 0 0 0 0 0 0 0 0 0 0 0 0 0 0 0 0 0 0 0 0 0 0 0 0 0 0 0 0 0 0 0 0 0 0 0 0 0 0 0 0 0 0 0 0 0 0 0 0 0 0 0 
0 0 0 0 0 0 0 0 0 0 0 0 0 0 0 0 0 0 0 0 0 0 0 0 0 0 0 0 0 0 0 0 0 0 0 0 0 0 0 0 0 0 0 0 0 0 0 0 0 0 0 0 0 0 0 0 0 0 0 0 0 0 0 0 0 0 0 0 0 0 0 0 0 0 0 0 0 0 0 0 0 0 0 0 0 0 0 0 0 0 0 0 0 0 0 0 0 0 0 0 0 0 0 0 0 0 0 0 0 0 0 0 0 0 0 0 0 0 0 0 0 0 0 0 0 0 0 0 0 0 0 0 0 0 0 0 0 0 0 0 0 0 0 0 0 0 0 0 0 0 0 0 0 0 0 0 0 0 0 0 0 0 0 0 0 0 0 0 0 0 0 0 0 0 0 0 0 0 0 0 0 0 0 0 0 0 0 0 0 0 0 0 0 0 0 0 0 0 0 0 0 0 0 0 0 0 0 0 0 0 0 0 0 0 0 0 0 0 0 0 0 0 0 0 0 0 0 0 0 0 0 0 0 0 0 0 0 0 0 0 0 0 0 0 0 0 0 0 0 0 0 0 0 0 0 0 0 0 0 0 0 0 0 0 0 0 0 0 0 0 0 0 0 0 0 0 0 0 0 0 0 0 0 0 0 0 0 0 0 0 0 0 0 0 0 0 0 0 0 0 0 0 0 0 0 0 0 0 0 0 0 0 0 0 0 0 0 0 0 0 0 0 0 0 0 0 0 0 0 0 0 0 0 0 0 0 0 0 0 0 0 0 0 0 0 0 0 0 0 0 0 0 0 0 0 0 0 0 0 0 0 0 0 0 0 0 0 0 0 0 0 0 0 0 0 0 0 0 0 0 0 0 0 0 0 0 0 0 0 0 0 0 0 0 0 0 0 0 0 0 0 0 0 0 0 0 0 0 0 0 0 0 0 0 0 0 0 0 0 0 0 0 0 0 0 0 0 0 0 0 0 0 0 0 0 0 0 0 0 0 0 0 0 0 0 0 0 0 0 0 0 0 0 0 0 0 0 0 0 0 0 0 0 0 0 0 0 0 0 0 0 
0 0 0 0 0 0 0 0 0 0 0 0 0 0 0 0 0 0 0 0 0 0 0 0 0 0 0 0 0 0 0 0 0 0 0 0 0 0 0 0 0 0 0 0 0 0 0 0 0 0 0 0 0 0 0 0 0 0 0 0 0 0 0 0 0 0 0 0 0 0 0 0 0 0 0 0 0 0 0 0 0 0 0 0 0 0 0 0 0 0 0 0 0 0 0 0 0 0 0 0 0 0 0 0 0 0 0 0 0 0 0 0 0 0 0 0 0 0 0 0 0 0 0 0 0 0 0 0 0 0 0 0 0 0 0 0 0 0 0 0 0 0 0 0 0 0 0 0 0 0 0 0 0 0 0 0 0 0 0 0 0 0 0 0 0 0 0 0 0 0 0 0 0 0 0 0 0 0 0 0 0 0 0 0 0 0 0 0 0 0 0 0 0 0 0 0 0 0 0 0 0 0 0 0 0 0 0 0 0 0 0 0 0 0 0 0 0 0 0 0 0 0 0 0 0 0 0 0 0 0 0 0 0 0 0 0 0 0 0 0 0 0 0 0 0 0 0 0 0 0 0 0 0 0 0 0 0 0 0 0 0 0 0 0 0 0 0 0 0 0 0 0 0 0 0 0 0 0 0 0 0 0 0 0 0 0 0 0 0 0 0 0 0 0 0 0 0 0 0 0 0 0 0 0 0 0 0 0 0 0 0 0 0 0 0 0 0 0 0 0 0 0 0 0 0 0 0 0 0 0 0 0 0 0 0 0 0 0 0 0 0 0 0 0 0 0 0 0 0 0 0 0 0 0 0 0 0 0 0 0 0 0 0 0 0 0 0 0 0 0 0 0 0 0 0 0 0 0 0 0 0 0 0 0 0 0 0 0 0 0 0 0 0 0 0 0 0 0 0 0 0 0 0 0 0 0 0 0 0 0 0 0 0 0 0 0 0 0 0 0 0 0 0 0 0 0 0 0 0 0 0 0 0 0 0 0 0 0 0 0 0 0 0 0 0 0 0 0 0 0 0 0 0 0 0 0 0 0 0 0 0 0 0 0 0 0 0 0 0 0 0 
0 0 0 0 0 0 0 0 0 0 0 0 0 0 0 0 0 0 0 0 0 0 0 0 0 0 0 0 0 0 0 0 0 0 0 0 0 0 0 0 0 0 0 0 0 0 0 0 0 0 0 0 0 0 0 0 0 0 0 0 0 0 0 0 0 0 0 0 0 0 0 0 0 0 0 0 0 0 0 0 0 0 0 0 0 0 0 0 0 0 0 0 0 0 0 0 0 0 0 0 0 0 0 0 0 0 0 0 0 0 0 0 0 0 0 0 0 0 0 0 0 0 0 0 0 0 0 0 0 0 0 0 0 0 0 0 0 0 0 0 0 0 0 0 0 0 0 0 0 0 0 0 0 0 0 0 0 0 0 0 0 0 0 0 0 0 0 0 0 0 0 0 0 0 0 0 0 0 0 0 0 0 0 0 0 0 0 0 0 0 0 0 0 0 0 0 0 0 0 0 0 0 0 0 0 0 0 0 0 0 0 0 0 0 0 0 0 0 0 0 0 0 0 0 0 0 0 0 0 0 0 0 0 0 0 0 0 0 0 0 0 0 0 0 0 0 0 0 0 0 0 0 0 0 0 0 0 0 0 0 0 0 0 0 0 0 0 0 0 0 0 0 0 0 0 0 0 0 0 0 0 0 0 0 0 0 0 0 0 0 0 0 0 0 0 0 0 0 0 0 0 0 0 0 0 0 0 0 0 0 0 0 0 0 0 0 0 0 0 0 0 0 0 0 0 0 0 0 0 0 0 0 0 0 0 0 0 0 0 0 0 0 0 0 0 0 0 0 0 0 0 0 0 0 0 0 0 0 0 0 0 0 0 0 0 0 0 0 0 0 0 0 0 0 0 0 0 0 0 0 0 0 0 0 0 0 0 0 0 0 0 0 0 0 0 0 0 0 0 0 0 0 0 0 0 0 0 0 0 0 0 0 0 0 0 0 0 0 0 0 0 0 0 0 0 0 0 0 0 0 0 0 0 0 0 0 0 0 0 0 0 0 0 0 0 0 0 0 0 0 0 0 0 0 0 0 0 0 0 0 0 0 0 0 0 0 0 0 0 0 0 
0 0 0 0 0 0 0 0 0 0 0 0 0 0 0 0 0 0 0 0 0 0 0 0 0 0 0 0 0 0 0 0 0 0 0 0 0 0 0 0 0 0 0 0 0 0 0 0 0 0 0 0 0 0 0 0 0 0 0 0 0 0 0 0 0 0 0 0 0 0 0 0 0 0 0 0 0 0 0 0 0 0 0 0 0 0 0 0 0 0 0 0 0 0 0 0 0 0 0 0 0 0 0 0 0 0 0 0 0 0 0 0 0 0 0 0 0 0 0 0 0 0 0 0 0 0 0 0 0 0 0 0 0 0 0 0 0 0 0 0 0 0 0 0 0 0 0 0 0 0 0 0 0 0 0 0 0 0 0 0 0 0 0 0 0 0 0 0 0 0 0 0 0 0 0 0 0 0 0 0 0 0 0 0 0 0 0 0 0 0 0 0 0 0 0 0 0 0 0 0 0 0 0 0 0 0 0 0 0 0 0 0 0 0 0 0 0 0 0 0 0 0 0 0 0 0 0 0 0 0 0 0 0 0 0 0 0 0 0 0 0 0 0 0 0 0 0 0 0 0 0 0 0 0 0 0 0 0 0 0 0 0 0 0 0 0 0 0 0 0 0 0 0 0 0 0 0 0 0 0 0 0 0 0 0 0 0 0 0 0 0 0 0 0 0 0 0 0 0 0 0 0 0 0 0 0 0 0 0 0 0 0 0 0 0 0 0 0 0 0 0 0 0 0 0 0 0 0 0 0 0 0 0 0 0 0 0 0 0 0 0 0 0 0 0 0 0 0 0 0 0 0 0 0 0 0 0 0 0 0 0 0 0 0 0 0 0 0 0 0 0 0 0 0 0 0 0 0 0 0 0 0 0 0 0 0 0 0 0 0 0 0 0 0 0 0 0 0 0 0 0 0 0 0 0 0 0 0 0 0 0 0 0 0 0 0 0 0 0 0 0 0 0 0 0 0 0 0 0 0 0 0 0 0 0 0 0 0 0 0 0 0 0 0 0 0 0 0 0 0 0 0 0 0 0 0 0 0 0 0 0 0 0 0 0 0 0 0 0 0 0 
0 0 0 0 0 0 0 0 0 0 0 0 0 0 0 0 0 0 0 0 0 0 0 0 0 0 0 0 0 0 0 0 0 0 0 0 0 0 0 0 0 0 0 0 0 0 0 0 0 0 0 0 0 0 0 0 0 0 0 0 0 0 0 0 0 0 0 0 0 0 0 0 0 0 0 0 0 0 0 0 0 0 0 0 0 0 0 0 0 0 0 0 0 0 0 0 0 0 0 0 0 0 0 0 0 0 0 0 0 0 0 0 0 0 0 0 0 0 0 0 0 0 0 0 0 0 0 0 0 0 0 0 0 0 0 0 0 0 0 0 0 0 0 0 0 0 0 0 0 0 0 0 0 0 0 0 0 0 0 0 0 0 0 0 0 0 0 0 0 0 0 0 0 0 0 0 0 0 0 0 0 0 0 0 0 0 0 0 0 0 0 0 0 0 0 0 0 0 0 0 0 0 0 0 0 0 0 0 0 0 0 0 0 0 0 0 0 0 0 0 0 0 0 0 0 0 0 0 0 0 0 0 0 0 0 0 0 0 0 0 0 0 0 0 0 0 0 0 0 0 0 0 0 0 0 0 0 0 0 0 0 0 0 0 0 0 0 0 0 0 0 0 0 0 0 0 0 0 0 0 0 0 0 0 0 0 0 0 0 0 0 0 0 0 0 0 0 0 0 0 0 0 0 0 0 0 0 0 0 0 0 0 0 0 0 0 0 0 0 0 0 0 0 0 0 0 0 0 0 0 0 0 0 0 0 0 0 0 0 0 0 0 0 0 0 0 0 0 0 0 0 0 0 0 0 0 0 0 0 0 0 0 0 0 0 0 0 0 0 0 0 0 0 0 0 0 0 0 0 0 0 0 0 0 0 0 0 0 0 0 0 0 0 0 0 0 0 0 0 0 0 0 0 0 0 0 0 0 0 0 0 0 0 0 0 0 0 0 0 0 0 0 0 0 0 0 0 0 0 0 0 0 0 0 0 0 0 0 0 0 0 0 0 0 0 0 0 0 0 0 0 0 0 0 0 0 0 0 0 0 0 0 0 0 0 0 0 0 0 0 0 
0 0 0 0 0 0 0 0 0 0 0 0 0 0 0 0 0 0 0 0 0 0 0 0 0 0 0 0 0 0 0 0 0 0 0 0 0 0 0 0 0 0 0 0 0 0 0 0 0 0 0 0 0 0 0 0 0 0 0 0 0 0 0 0 0 0 0 0 0 0 0 0 0 0 0 0 0 0 0 0 0 0 0 0 0 0 0 0 0 0 0 0 0 0 0 0 0 0 0 0 0 0 0 0 0 0 0 0 0 0 0 0 0 0 0 0 0 0 0 0 0 0 0 0 0 0 0 0 0 0 0 0 0 0 0 0 0 0 0 0 0 0 0 0 0 0 0 0 0 0 0 0 0 0 0 0 0 0 0 0 0 0 0 0 0 0 0 0 0 0 0 0 0 0 0 0 0 0 0 0 0 0 0 0 0 0 0 0 0 0 0 0 0 0 0 0 0 0 0 0 0 0 0 0 0 0 0 0 0 0 0 0 0 0 0 0 0 0 0 0 0 0 0 0 0 0 0 0 0 0 0 0 0 0 0 0 0 0 0 0 0 0 0 0 0 0 0 0 0 0 0 0 0 0 0 0 0 0 0 0 0 0 0 0 0 0 0 0 0 0 0 0 0 0 0 0 0 0 0 0 0 0 0 0 0 0 0 0 0 0 0 0 0 0 0 0 0 0 0 0 0 0 0 0 0 0 0 0 0 0 0 0 0 0 0 0 0 0 0 0 0 0 0 0 0 0 0 0 0 0 0 0 0 0 0 0 0 0 0 0 0 0 0 0 0 0 0 0 0 0 0 0 0 0 0 0 0 0 0 0 0 0 0 0 0 0 0 0 0 0 0 0 0 0 0 0 0 0 0 0 0 0 0 0 0 0 0 0 0 0 0 0 0 0 0 0 0 0 0 0 0 0 0 0 0 0 0 0 0 0 0 0 0 0 0 0 0 0 0 0 0 0 0 0 0 0 0 0 0 0 0 0 0 0 0 0 0 0 0 0 0 0 0 0 0 0 0 0 0 0 0 0 0 0 0 0 0 0 0 0 0 0 0 0 0 0 0 0 0 0 0 
0 0 0 0 0 0 0 0 0 0 0 0 0 0 0 0 0 0 0 0 0 0 0 0 0 0 0 0 0 0 0 0 0 0 0 0 0 0 0 0 0 0 0 0 0 0 0 0 0 0 0 0 0 0 0 0 0 0 0 0 0 0 0 0 0 0 0 0 0 0 0 0 0 0 0 0 0 0 0 0 0 0 0 0 0 0 0 0 0 0 0 0 0 0 0 0 0 0 0 0 0 0 0 0 0 0 0 0 0 0 0 0 0 0 0 0 0 0 0 0 0 0 0 0 0 0 0 0 0 0 0 0 0 0 0 0 0 0 0 0 0 0 0 0 0 0 0 0 0 0 0 0 0 0 0 0 0 0 0 0 0 0 0 0 0 0 0 0 0 0 0 0 0 0 0 0 0 0 0 0 0 0 0 0 0 0 0 0 0 0 0 0 0 0 0 0 0 0 0 0 0 0 0 0 0 0 0 0 0 0 0 0 0 0 0 0 0 0 0 0 0 0 0 0 0 0 0 0 0 0 0 0 0 0 0 0 0 0 0 0 0 0 0 0 0 0 0 0 0 0 0 0 0 0 0 0 0 0 0 0 0 0 0 0 0 0 0 0 0 0 0 0 0 0 0 0 0 0 0 0 0 0 0 0 0 0 0 0 0 0 0 0 0 0 0 0 0 0 0 0 0 0 0 0 0 0 0 0 0 0 0 0 0 0 0 0 0 0 0 0 0 0 0 0 0 0 0 0 0 0 0 0 0 0 0 0 0 0 0 0 0 0 0 0 0 0 0 0 0 0 0 0 0 0 0 0 0 0 0 0 0 0 0 0 0 0 0 0 0 0 0 0 0 0 0 0 0 0 0 0 0 0 0 0 0 0 0 0 0 0 0 0 0 0 0 0 0 0 0 0 0 0 0 0 0 0 0 0 0 0 0 0 0 0 0 0 0 0 0 0 0 0 0 0 0 0 0 0 0 0 0 0 0 0 0 0 0 0 0 0 0 0 0 0 0 0 0 0 0 0 0 0 0 0 0 0 0 0 0 0 0 0 0 0 0 0 0 0 0 0 0 
0 0 0 0 0 0 0 0 0 0 0 0 0 0 0 0 0 0 0 0 0 0 0 0 0 0 0 0 0 0 0 0 0 0 0 0 0 0 0 0 0 0 0 0 0 0 0 0 0 0 0 0 0 0 0 0 0 0 0 0 0 0 0 0 0 0 0 0 0 0 0 0 0 0 0 0 0 0 0 0 0 0 0 0 0 0 0 0 0 0 0 0 0 0 0 0 0 0 0 0 0 0 0 0 0 0 0 0 0 0 0 0 0 0 0 0 0 0 0 0 0 0 0 0 0 0 0 0 0 0 0 0 0 0 0 0 0 0 0 0 0 0 0 0 0 0 0 0 0 0 0 0 0 0 0 0 0 0 0 0 0 0 0 0 0 0 0 0 0 0 0 0 0 0 0 0 0 0 0 0 0 0 0 0 0 0 0 0 0 0 0 0 0 0 0 0 0 0 0 0 0 0 0 0 0 0 0 0 0 0 0 0 0 0 0 0 0 0 0 0 0 0 0 0 0 0 0 0 0 0 0 0 0 0 0 0 0 0 0 0 0 0 0 0 0 0 0 0 0 0 0 0 0 0 0 0 0 0 0 0 0 0 0 0 0 0 0 0 0 0 0 0 0 0 0 0 0 0 0 0 0 0 0 0 0 0 0 0 0 0 0 0 0 0 0 0 0 0 0 0 0 0 0 0 0 0 0 0 0 0 0 0 0 0 0 0 0 0 0 0 0 0 0 0 0 0 0 0 0 0 0 0 0 0 0 0 0 0 0 0 0 0 0 0 0 0 0 0 0 0 0 0 0 0 0 0 0 0 0 0 0 0 0 0 0 0 0 0 0 0 0 0 0 0 0 0 0 0 0 0 0 0 0 0 0 0 0 0 0 0 0 0 0 0 0 0 0 0 0 0 0 0 0 0 0 0 0 0 0 0 0 0 0 0 0 0 0 0 0 0 0 0 0 0 0 0 0 0 0 0 0 0 0 0 0 0 0 0 0 0 0 0 0 0 0 0 0 0 0 0 0 0 0 0 0 0 0 0 0 0 0 0 0 0 0 0 0 0 0 0 0 
0 0 0 0 0 0 0 0 0 0 0 0 0 0 0 0 0 0 0 0 0 0 0 0 0 0 0 0 0 0 0 0 0 0 0 0 0 0 0 0 0 0 0 0 0 0 0 0 0 0 0 0 0 0 0 0 0 0 0 0 0 0 0 0 0 0 0 0 0 0 0 0 0 0 0 0 0 0 0 0 0 0 0 0 0 0 0 0 0 0 0 0 0 0 0 0 0 0 0 0 0 0 0 0 0 0 0 0 0 0 0 0 0 0 0 0 0 0 0 0 0 0 0 0 0 0 0 0 0 0 0 0 0 0 0 0 0 0 0 0 0 0 0 0 0 0 0 0 0 0 0 0 0 0 0 0 0 0 0 0 0 0 0 0 0 0 0 0 0 0 0 0 0 0 0 0 0 0 0 0 0 0 0 0 0 0 0 0 0 0 0 0 0 0 0 0 0 0 0 0 0 0 0 0 0 0 0 0 0 0 0 0 0 0 0 0 0 0 0 0 0 0 0 0 0 0 0 0 0 0 0 0 0 0 0 0 0 0 0 0 0 0 0 0 0 0 0 0 0 0 0 0 0 0 0 0 0 0 0 0 0 0 0 0 0 0 0 0 0 0 0 0 0 0 0 0 0 0 0 0 0 0 0 0 0 0 0 0 0 0 0 0 0 0 0 0 0 0 0 0 0 0 0 0 0 0 0 0 0 0 0 0 0 0 0 0 0 0 0 0 0 0 0 0 0 0 0 0 0 0 0 0 0 0 0 0 0 0 0 0 0 0 0 0 0 0 0 0 0 0 0 0 0 0 0 0 0 0 0 0 0 0 0 0 0 0 0 0 0 0 0 0 0 0 0 0 0 0 0 0 0 0 0 0 0 0 0 0 0 0 0 0 0 0 0 0 0 0 0 0 0 0 0 0 0 0 0 0 0 0 0 0 0 0 0 0 0 0 0 0 0 0 0 0 0 0 0 0 0 0 0 0 0 0 0 0 0 0 0 0 0 0 0 0 0 0 0 0 0 0 0 0 0 0 0 0 0 0 0 0 0 0 0 0 0 0 0 0 0 0 0 
0 0 0 0 0 0 0 0 0 0 0 0 0 0 0 0 0 0 0 0 0 0 0 0 0 0 0 0 0 0 0 0 0 0 0 0 0 0 0 0 0 0 0 0 0 0 0 0 0 0 0 0 0 0 0 0 0 0 0 0 0 0 0 0 0 0 0 0 0 0 0 0 0 0 0 0 0 0 0 0 0 0 0 0 0 0 0 0 0 0 0 0 0 0 0 0 0 0 0 0 0 0 0 0 0 0 0 0 0 0 0 0 0 0 0 0 0 0 0 0 0 0 0 0 0 0 0 0 0 0 0 0 0 0 0 0 0 0 0 0 0 0 0 0 0 0 0 0 0 0 0 0 0 0 0 0 0 0 0 0 0 0 0 0 0 0 0 0 0 0 0 0 0 0 0 0 0 0 0 0 0 0 0 0 0 0 0 0 0 0 0 0 0 0 0 0 0 0 0 0 0 0 0 0 0 0 0 0 0 0 0 0 0 0 0 0 0 0 0 0 0 0 0 0 0 0 0 0 0 0 0 0 0 0 0 0 0 0 0 0 0 0 0 0 0 0 0 0 0 0 0 0 0 0 0 0 0 0 0 0 0 0 0 0 0 0 0 0 0 0 0 0 0 0 0 0 0 0 0 0 0 0 0 0 0 0 0 0 0 0 0 0 0 0 0 0 0 0 0 0 0 0 0 0 0 0 0 0 0 0 0 0 0 0 0 0 0 0 0 0 0 0 0 0 0 0 0 0 0 0 0 0 0 0 0 0 0 0 0 0 0 0 0 0 0 0 0 0 0 0 0 0 0 0 0 0 0 0 0 0 0 0 0 0 0 0 0 0 0 0 0 0 0 0 0 0 0 0 0 0 0 0 0 0 0 0 0 0 0 0 0 0 0 0 0 0 0 0 0 0 0 0 0 0 0 0 0 0 0 0 0 0 0 0 0 0 0 0 0 0 0 0 0 0 0 0 0 0 0 0 0 0 0 0 0 0 0 0 0 0 0 0 0 0 0 0 0 0 0 0 0 0 0 0 0 0 0 0 0 0 0 0 0 0 0 0 0 0 0 0 0 
0 0 0 0 0 0 0 0 0 0 0 0 0 0 0 0 0 0 0 0 0 0 0 0 0 0 0 0 0 0 0 0 0 0 0 0 0 0 0 0 0 0 0 0 0 0 0 0 0 0 0 0 0 0 0 0 0 0 0 0 0 0 0 0 0 0 0 0 0 0 0 0 0 0 0 0 0 0 0 0 0 0 0 0 0 0 0 0 0 0 0 0 0 0 0 0 0 0 0 0 0 0 0 0 0 0 0 0 0 0 0 0 0 0 0 0 0 0 0 0 0 0 0 0 0 0 0 0 0 0 0 0 0 0 0 0 0 0 0 0 0 0 0 0 0 0 0 0 0 0 0 0 0 0 0 0 0 0 0 0 0 0 0 0 0 0 0 0 0 0 0 0 0 0 0 0 0 0 0 0 0 0 0 0 0 0 0 0 0 0 0 0 0 0 0 0 0 0 0 0 0 0 0 0 0 0 0 0 0 0 0 0 0 0 0 0 0 0 0 0 0 0 0 0 0 0 0 0 0 0 0 0 0 0 0 0 0 0 0 0 0 0 0 0 0 0 0 0 0 0 0 0 0 0 0 0 0 0 0 0 0 0 0 0 0 0 0 0 0 0 0 0 0 0 0 0 0 0 0 0 0 0 0 0 0 0 0 0 0 0 0 0 0 0 0 0 0 0 0 0 0 0 0 0 0 0 0 0 0 0 0 0 0 0 0 0 0 0 0 0 0 0 0 0 0 0 0 0 0 0 0 0 0 0 0 0 0 0 0 0 0 0 0 0 0 0 0 0 0 0 0 0 0 0 0 0 0 0 0 0 0 0 0 0 0 0 0 0 0 0 0 0 0 0 0 0 0 0 0 0 0 0 0 0 0 0 0 0 0 0 0 0 0 0 0 0 0 0 0 0 0 0 0 0 0 0 0 0 0 0 0 0 0 0 0 0 0 0 0 0 0 0 0 0 0 0 0 0 0 0 0 0 0 0 0 0 0 0 0 0 0 0 0 0 0 0 0 0 0 0 0 0 0 0 0 0 0 0 0 0 0 0 0 0 0 0 0 0 0 0 0 
0 0 0 0 0 0 0 0 0 0 0 0 0 0 0 0 0 0 0 0 0 0 0 0 0 0 0 0 0 0 0 0 0 0 0 0 0 0 0 0 0 0 0 0 0 0 0 0 0 0 0 0 0 0 0 0 0 0 0 0 0 0 0 0 0 0 0 0 0 0 0 0 0 0 0 0 0 0 0 0 0 0 0 0 0 0 0 0 0 0 0 0 0 0 0 0 0 0 0 0 0 0 0 0 0 0 0 0 0 0 0 0 0 0 0 0 0 0 0 0 0 0 0 0 0 0 0 0 0 0 0 0 0 0 0 0 0 0 0 0 0 0 0 0 0 0 0 0 0 0 0 0 0 0 0 0 0 0 0 0 0 0 0 0 0 0 0 0 0 0 0 0 0 0 0 0 0 0 0 0 0 0 0 0 0 0 0 0 0 0 0 0 0 0 0 0 0 0 0 0 0 0 0 0 0 0 0 0 0 0 0 0 0 0 0 0 0 0 0 0 0 0 0 0 0 0 0 0 0 0 0 0 0 0 0 0 0 0 0 0 0 0 0 0 0 0 0 0 0 0 0 0 0 0 0 0 0 0 0 0 0 0 0 0 0 0 0 0 0 0 0 0 0 0 0 0 0 0 0 0 0 0 0 0 0 0 0 0 0 0 0 0 0 0 0 0 0 0 0 0 0 0 0 0 0 0 0 0 0 0 0 0 0 0 0 0 0 0 0 0 0 0 0 0 0 0 0 0 0 0 0 0 0 0 0 0 0 0 0 0 0 0 0 0 0 0 0 0 0 0 0 0 0 0 0 0 0 0 0 0 0 0 0 0 0 0 0 0 0 0 0 0 0 0 0 0 0 0 0 0 0 0 0 0 0 0 0 0 0 0 0 0 0 0 0 0 0 0 0 0 0 0 0 0 0 0 0 0 0 0 0 0 0 0 0 0 0 0 0 0 0 0 0 0 0 0 0 0 0 0 0 0 0 0 0 0 0 0 0 0 0 0 0 0 0 0 0 0 0 0 0 0 0 0 0 0 0 0 0 0 0 0 0 0 0 0 0 0 0 0 0 
0 0 0 0 0 0 0 0 0 0 0 0 0 0 0 0 0 0 0 0 0 0 0 0 0 0 0 0 0 0 0 0 0 0 0 0 0 0 0 0 0 0 0 0 0 0 0 0 0 0 0 0 0 0 0 0 0 0 0 0 0 0 0 0 0 0 0 0 0 0 0 0 0 0 0 0 0 0 0 0 0 0 0 0 0 0 0 0 0 0 0 0 0 0 0 0 0 0 0 0 0 0 0 0 0 0 0 0 0 0 0 0 0 0 0 0 0 0 0 0 0 0 0 0 0 0 0 0 0 0 0 0 0 0 0 0 0 0 0 0 0 0 0 0 0 0 0 0 0 0 0 0 0 0 0 0 0 0 0 0 0 0 0 0 0 0 0 0 0 0 0 0 0 0 0 0 0 0 0 0 0 0 0 0 0 0 0 0 0 0 0 0 0 0 0 0 0 0 0 0 0 0 0 0 0 0 0 0 0 0 0 0 0 0 0 0 0 0 0 0 0 0 0 0 0 0 0 0 0 0 0 0 0 0 0 0 0 0 0 0 0 0 0 0 0 0 0 0 0 0 0 0 0 0 0 0 0 0 0 0 0 0 0 0 0 0 0 0 0 0 0 0 0 0 0 0 0 0 0 0 0 0 0 0 0 0 0 0 0 0 0 0 0 0 0 0 0 0 0 0 0 0 0 0 0 0 0 0 0 0 0 0 0 0 0 0 0 0 0 0 0 0 0 0 0 0 0 0 0 0 0 0 0 0 0 0 0 0 0 0 0 0 0 0 0 0 0 0 0 0 0 0 0 0 0 0 0 0 0 0 0 0 0 0 0 0 0 0 0 0 0 0 0 0 0 0 0 0 0 0 0 0 0 0 0 0 0 0 0 0 0 0 0 0 0 0 0 0 0 0 0 0 0 0 0 0 0 0 0 0 0 0 0 0 0 0 0 0 0 0 0 0 0 0 0 0 0 0 0 0 0 0 0 0 0 0 0 0 0 0 0 0 0 0 0 0 0 0 0 0 0 0 0 0 0 0 0 0 0 0 0 0 0 0 0 0 0 0 0 0 0 
0 0 0 0 0 0 0 0 0 0 0 0 0 0 0 0 0 0 0 0 0 0 0 0 0 0 0 0 0 0 0 0 0 0 0 0 0 0 0 0 0 0 0 0 0 0 0 0 0 0 0 0 0 0 0 0 0 0 0 0 0 0 0 0 0 0 0 0 0 0 0 0 0 0 0 0 0 0 0 0 0 0 0 0 0 0 0 0 0 0 0 0 0 0 0 0 0 0 0 0 0 0 0 0 0 0 0 0 0 0 0 0 0 0 0 0 0 0 0 0 0 0 0 0 0 0 0 0 0 0 0 0 0 0 0 0 0 0 0 0 0 0 0 0 0 0 0 0 0 0 0 0 0 0 0 0 0 0 0 0 0 0 0 0 0 0 0 0 0 0 0 0 0 0 0 0 0 0 0 0 0 0 0 0 0 0 0 0 0 0 0 0 0 0 0 0 0 0 0 0 0 0 0 0 0 0 0 0 0 0 0 0 0 0 0 0 0 0 0 0 0 0 0 0 0 0 0 0 0 0 0 0 0 0 0 0 0 0 0 0 0 0 0 0 0 0 0 0 0 0 0 0 0 0 0 0 0 0 0 0 0 0 0 0 0 0 0 0 0 0 0 0 0 0 0 0 0 0 0 0 0 0 0 0 0 0 0 0 0 0 0 0 0 0 0 0 0 0 0 0 0 0 0 0 0 0 0 0 0 0 0 0 0 0 0 0 0 0 0 0 0 0 0 0 0 0 0 0 0 0 0 0 0 0 0 0 0 0 0 0 0 0 0 0 0 0 0 0 0 0 0 0 0 0 0 0 0 0 0 0 0 0 0 0 0 0 0 0 0 0 0 0 0 0 0 0 0 0 0 0 0 0 0 0 0 0 0 0 0 0 0 0 0 0 0 0 0 0 0 0 0 0 0 0 0 0 0 0 0 0 0 0 0 0 0 0 0 0 0 0 0 0 0 0 0 0 0 0 0 0 0 0 0 0 0 0 0 0 0 0 0 0 0 0 0 0 0 0 0 0 0 0 0 0 0 0 0 0 0 0 0 0 0 0 0 0 0 0 0 0 0 
0 0 0 0 0 0 0 0 0 0 0 0 0 0 0 0 0 0 0 0 0 0 0 0 0 0 0 0 0 0 0 0 0 0 0 0 0 0 0 0 0 0 0 0 0 0 0 0 0 0 0 0 0 0 0 0 0 0 0 0 0 0 0 0 0 0 0 0 0 0 0 0 0 0 0 0 0 0 0 0 0 0 0 0 0 0 0 0 0 0 0 0 0 0 0 0 0 0 0 0 0 0 0 0 0 0 0 0 0 0 0 0 0 0 0 0 0 0 0 0 0 0 0 0 0 0 0 0 0 0 0 0 0 0 0 0 0 0 0 0 0 0 0 0 0 0 0 0 0 0 0 0 0 0 0 0 0 0 0 0 0 0 0 0 0 0 0 0 0 0 0 0 0 0 0 0 0 0 0 0 0 0 0 0 0 0 0 0 0 0 0 0 0 0 0 0 0 0 0 0 0 0 0 0 0 0 0 0 0 0 0 0 0 0 0 0 0 0 0 0 0 0 0 0 0 0 0 0 0 0 0 0 0 0 0 0 0 0 0 0 0 0 0 0 0 0 0 0 0 0 0 0 0 0 0 0 0 0 0 0 0 0 0 0 0 0 0 0 0 0 0 0 0 0 0 0 0 0 0 0 0 0 0 0 0 0 0 0 0 0 0 0 0 0 0 0 0 0 0 0 0 0 0 0 0 0 0 0 0 0 0 0 0 0 0 0 0 0 0 0 0 0 0 0 0 0 0 0 0 0 0 0 0 0 0 0 0 0 0 0 0 0 0 0 0 0 0 0 0 0 0 0 0 0 0 0 0 0 0 0 0 0 0 0 0 0 0 0 0 0 0 0 0 0 0 0 0 0 0 0 0 0 0 0 0 0 0 0 0 0 0 0 0 0 0 0 0 0 0 0 0 0 0 0 0 0 0 0 0 0 0 0 0 0 0 0 0 0 0 0 0 0 0 0 0 0 0 0 0 0 0 0 0 0 0 0 0 0 0 0 0 0 0 0 0 0 0 0 0 0 0 0 0 0 0 0 0 0 0 0 0 0 0 0 0 0 0 0 0 0 0 
0 0 0 0 0 0 0 0 0 0 0 0 0 0 0 0 0 0 0 0 0 0 0 0 0 0 0 0 0 0 0 0 0 0 0 0 0 0 0 0 0 0 0 0 0 0 0 0 0 0 0 0 0 0 0 0 0 0 0 0 0 0 0 0 0 0 0 0 0 0 0 0 0 0 0 0 0 0 0 0 0 0 0 0 0 0 0 0 0 0 0 0 0 0 0 0 0 0 0 0 0 0 0 0 0 0 0 0 0 0 0 0 0 0 0 0 0 0 0 0 0 0 0 0 0 0 0 0 0 0 0 0 0 0 0 0 0 0 0 0 0 0 0 0 0 0 0 0 0 0 0 0 0 0 0 0 0 0 0 0 0 0 0 0 0 0 0 0 0 0 0 0 0 0 0 0 0 0 0 0 0 0 0 0 0 0 0 0 0 0 0 0 0 0 0 0 0 0 0 0 0 0 0 0 0 0 0 0 0 0 0 0 0 0 0 0 0 0 0 0 0 0 0 0 0 0 0 0 0 0 0 0 0 0 0 0 0 0 0 0 0 0 0 0 0 0 0 0 0 0 0 0 0 0 0 0 0 0 0 0 0 0 0 0 0 0 0 0 0 0 0 0 0 0 0 0 0 0 0 0 0 0 0 0 0 0 0 0 0 0 0 0 0 0 0 0 0 0 0 0 0 0 0 0 0 0 0 0 0 0 0 0 0 0 0 0 0 0 0 0 0 0 0 0 0 0 0 0 0 0 0 0 0 0 0 0 0 0 0 0 0 0 0 0 0 0 0 0 0 0 0 0 0 0 0 0 0 0 0 0 0 0 0 0 0 0 0 0 0 0 0 0 0 0 0 0 0 0 0 0 0 0 0 0 0 0 0 0 0 0 0 0 0 0 0 0 0 0 0 0 0 0 0 0 0 0 0 0 0 0 0 0 0 0 0 0 0 0 0 0 0 0 0 0 0 0 0 0 0 0 0 0 0 0 0 0 0 0 0 0 0 0 0 0 0 0 0 0 0 0 0 0 0 0 0 0 0 0 0 0 0 0 0 0 0 0 0 0 0 0 0 
0 0 0 0 0 0 0 0 0 0 0 0 0 0 0 0 0 0 0 0 0 0 0 0 0 0 0 0 0 0 0 0 0 0 0 0 0 0 0 0 0 0 0 0 0 0 0 0 0 0 0 0 0 0 0 0 0 0 0 0 0 0 0 0 0 0 0 0 0 0 0 0 0 0 0 0 0 0 0 0 0 0 0 0 0 0 0 0 0 0 0 0 0 0 0 0 0 0 0 0 0 0 0 0 0 0 0 0 0 0 0 0 0 0 0 0 0 0 0 0 0 0 0 0 0 0 0 0 0 0 0 0 0 0 0 0 0 0 0 0 0 0 0 0 0 0 0 0 0 0 0 0 0 0 0 0 0 0 0 0 0 0 0 0 0 0 0 0 0 0 0 0 0 0 0 0 0 0 0 0 0 0 0 0 0 0 0 0 0 0 0 0 0 0 0 0 0 0 0 0 0 0 0 0 0 0 0 0 0 0 0 0 0 0 0 0 0 0 0 0 0 0 0 0 0 0 0 0 0 0 0 0 0 0 0 0 0 0 0 0 0 0 0 0 0 0 0 0 0 0 0 0 0 0 0 0 0 0 0 0 0 0 0 0 0 0 0 0 0 0 0 0 0 0 0 0 0 0 0 0 0 0 0 0 0 0 0 0 0 0 0 0 0 0 0 0 0 0 0 0 0 0 0 0 0 0 0 0 0 0 0 0 0 0 0 0 0 0 0 0 0 0 0 0 0 0 0 0 0 0 0 0 0 0 0 0 0 0 0 0 0 0 0 0 0 0 0 0 0 0 0 0 0 0 0 0 0 0 0 0 0 0 0 0 0 0 0 0 0 0 0 0 0 0 0 0 0 0 0 0 0 0 0 0 0 0 0 0 0 0 0 0 0 0 0 0 0 0 0 0 0 0 0 0 0 0 0 0 0 0 0 0 0 0 0 0 0 0 0 0 0 0 0 0 0 0 0 0 0 0 0 0 0 0 0 0 0 0 0 0 0 0 0 0 0 0 0 0 0 0 0 0 0 0 0 0 0 0 0 0 0 0 0 0 0 0 0 0 0 0 0 
0 0 0 0 0 0 0 0 0 0 0 0 0 0 0 0 0 0 0 0 0 0 0 0 0 0 0 0 0 0 0 0 0 0 0 0 0 0 0 0 0 0 0 0 0 0 0 0 0 0 0 0 0 0 0 0 0 0 0 0 0 0 0 0 0 0 0 0 0 0 0 0 0 0 0 0 0 0 0 0 0 0 0 0 0 0 0 0 0 0 0 0 0 0 0 0 0 0 0 0 0 0 0 0 0 0 0 0 0 0 0 0 0 0 0 0 0 0 0 0 0 0 0 0 0 0 0 0 0 0 0 0 0 0 0 0 0 0 0 0 0 0 0 0 0 0 0 0 0 0 0 0 0 0 0 0 0 0 0 0 0 0 0 0 0 0 0 0 0 0 0 0 0 0 0 0 0 0 0 0 0 0 0 0 0 0 0 0 0 0 0 0 0 0 0 0 0 0 0 0 0 0 0 0 0 0 0 0 0 0 0 0 0 0 0 0 0 0 0 0 0 0 0 0 0 0 0 0 0 0 0 0 0 0 0 0 0 0 0 0 0 0 0 0 0 0 0 0 0 0 0 0 0 0 0 0 0 0 0 0 0 0 0 0 0 0 0 0 0 0 0 0 0 0 0 0 0 0 0 0 0 0 0 0 0 0 0 0 0 0 0 0 0 0 0 0 0 0 0 0 0 0 0 0 0 0 0 0 0 0 0 0 0 0 0 0 0 0 0 0 0 0 0 0 0 0 0 0 0 0 0 0 0 0 0 0 0 0 0 0 0 0 0 0 0 0 0 0 0 0 0 0 0 0 0 0 0 0 0 0 0 0 0 0 0 0 0 0 0 0 0 0 0 0 0 0 0 0 0 0 0 0 0 0 0 0 0 0 0 0 0 0 0 0 0 0 0 0 0 0 0 0 0 0 0 0 0 0 0 0 0 0 0 0 0 0 0 0 0 0 0 0 0 0 0 0 0 0 0 0 0 0 0 0 0 0 0 0 0 0 0 0 0 0 0 0 0 0 0 0 0 0 0 0 0 0 0 0 0 0 0 0 0 0 0 0 0 0 0 0 0 
0 0 0 0 0 0 0 0 0 0 0 0 0 0 0 0 0 0 0 0 0 0 0 0 0 0 0 0 0 0 0 0 0 0 0 0 0 0 0 0 0 0 0 0 0 0 0 0 0 0 0 0 0 0 0 0 0 0 0 0 0 0 0 0 0 0 0 0 0 0 0 0 0 0 0 0 0 0 0 0 0 0 0 0 0 0 0 0 0 0 0 0 0 0 0 0 0 0 0 0 0 0 0 0 0 0 0 0 0 0 0 0 0 0 0 0 0 0 0 0 0 0 0 0 0 0 0 0 0 0 0 0 0 0 0 0 0 0 0 0 0 0 0 0 0 0 0 0 0 0 0 0 0 0 0 0 0 0 0 0 0 0 0 0 0 0 0 0 0 0 0 0 0 0 0 0 0 0 0 0 0 0 0 0 0 0 0 0 0 0 0 0 0 0 0 0 0 0 0 0 0 0 0 0 0 0 0 0 0 0 0 0 0 0 0 0 0 0 0 0 0 0 0 0 0 0 0 0 0 0 0 0 0 0 0 0 0 0 0 0 0 0 0 0 0 0 0 0 0 0 0 0 0 0 0 0 0 0 0 0 0 0 0 0 0 0 0 0 0 0 0 0 0 0 0 0 0 0 0 0 0 0 0 0 0 0 0 0 0 0 0 0 0 0 0 0 0 0 0 0 0 0 0 0 0 0 0 0 0 0 0 0 0 0 0 0 0 0 0 0 0 0 0 0 0 0 0 0 0 0 0 0 0 0 0 0 0 0 0 0 0 0 0 0 0 0 0 0 0 0 0 0 0 0 0 0 0 0 0 0 0 0 0 0 0 0 0 0 0 0 0 0 0 0 0 0 0 0 0 0 0 0 0 0 0 0 0 0 0 0 0 0 0 0 0 0 0 0 0 0 0 0 0 0 0 0 0 0 0 0 0 0 0 0 0 0 0 0 0 0 0 0 0 0 0 0 0 0 0 0 0 0 0 0 0 0 0 0 0 0 0 0 0 0 0 0 0 0 0 0 0 0 0 0 0 0 0 0 0 0 0 0 0 0 0 0 0 0 0 0 0 
0 0 0 0 0 0 0 0 0 0 0 0 0 0 0 0 0 0 0 0 0 0 0 0 0 0 0 0 0 0 0 0 0 0 0 0 0 0 0 0 0 0 0 0 0 0 0 0 0 0 0 0 0 0 0 0 0 0 0 0 0 0 0 0 0 0 0 0 0 0 0 0 0 0 0 0 0 0 0 0 0 0 0 0 0 0 0 0 0 0 0 0 0 0 0 0 0 0 0 0 0 0 0 0 0 0 0 0 0 0 0 0 0 0 0 0 0 0 0 0 0 0 0 0 0 0 0 0 0 0 0 0 0 0 0 0 0 0 0 0 0 0 0 0 0 0 0 0 0 0 0 0 0 0 0 0 0 0 0 0 0 0 0 0 0 0 0 0 0 0 0 0 0 0 0 0 0 0 0 0 0 0 0 0 0 0 0 0 0 0 0 0 0 0 0 0 0 0 0 0 0 0 0 0 0 0 0 0 0 0 0 0 0 0 0 0 0 0 0 0 0 0 0 0 0 0 0 0 0 0 0 0 0 0 0 0 0 0 0 0 0 0 0 0 0 0 0 0 0 0 0 0 0 0 0 0 0 0 0 0 0 0 0 0 0 0 0 0 0 0 0 0 0 0 0 0 0 0 0 0 0 0 0 0 0 0 0 0 0 0 0 0 0 0 0 0 0 0 0 0 0 0 0 0 0 0 0 0 0 0 0 0 0 0 0 0 0 0 0 0 0 0 0 0 0 0 0 0 0 0 0 0 0 0 0 0 0 0 0 0 0 0 0 0 0 0 0 0 0 0 0 0 0 0 0 0 0 0 0 0 0 0 0 0 0 0 0 0 0 0 0 0 0 0 0 0 0 0 0 0 0 0 0 0 0 0 0 0 0 0 0 0 0 0 0 0 0 0 0 0 0 0 0 0 0 0 0 0 0 0 0 0 0 0 0 0 0 0 0 0 0 0 0 0 0 0 0 0 0 0 0 0 0 0 0 0 0 0 0 0 0 0 0 0 0 0 0 0 0 0 0 0 0 0 0 0 0 0 0 0 0 0 0 0 0 0 0 0 0 0 0 
0 0 0 0 0 0 0 0 0 0 0 0 0 0 0 0 0 0 0 0 0 0 0 0 0 0 0 0 0 0 0 0 0 0 0 0 0 0 0 0 0 0 0 0 0 0 0 0 0 0 0 0 0 0 0 0 0 0 0 0 0 0 0 0 0 0 0 0 0 0 0 0 0 0 0 0 0 0 0 0 0 0 0 0 0 0 0 0 0 0 0 0 0 0 0 0 0 0 0 0 0 0 0 0 0 0 0 0 0 0 0 0 0 0 0 0 0 0 0 0 0 0 0 0 0 0 0 0 0 0 0 0 0 0 0 0 0 0 0 0 0 0 0 0 0 0 0 0 0 0 0 0 0 0 0 0 0 0 0 0 0 0 0 0 0 0 0 0 0 0 0 0 0 0 0 0 0 0 0 0 0 0 0 0 0 0 0 0 0 0 0 0 0 0 0 0 0 0 0 0 0 0 0 0 0 0 0 0 0 0 0 0 0 0 0 0 0 0 0 0 0 0 0 0 0 0 0 0 0 0 0 0 0 0 0 0 0 0 0 0 0 0 0 0 0 0 0 0 0 0 0 0 0 0 0 0 0 0 0 0 0 0 0 0 0 0 0 0 0 0 0 0 0 0 0 0 0 0 0 0 0 0 0 0 0 0 0 0 0 0 0 0 0 0 0 0 0 0 0 0 0 0 0 0 0 0 0 0 0 0 0 0 0 0 0 0 0 0 0 0 0 0 0 0 0 0 0 0 0 0 0 0 0 0 0 0 0 0 0 0 0 0 0 0 0 0 0 0 0 0 0 0 0 0 0 0 0 0 0 0 0 0 0 0 0 0 0 0 0 0 0 0 0 0 0 0 0 0 0 0 0 0 0 0 0 0 0 0 0 0 0 0 0 0 0 0 0 0 0 0 0 0 0 0 0 0 0 0 0 0 0 0 0 0 0 0 0 0 0 0 0 0 0 0 0 0 0 0 0 0 0 0 0 0 0 0 0 0 0 0 0 0 0 0 0 0 0 0 0 0 0 0 0 0 0 0 0 0 0 0 0 0 0 0 0 0 0 0 0 0 0 
0 0 0 0 0 0 0 0 0 0 0 0 0 0 0 0 0 0 0 0 0 0 0 0 0 0 0 0 0 0 0 0 0 0 0 0 0 0 0 0 0 0 0 0 0 0 0 0 0 0 0 0 0 0 0 0 0 0 0 0 0 0 0 0 0 0 0 0 0 0 0 0 0 0 0 0 0 0 0 0 0 0 0 0 0 0 0 0 0 0 0 0 0 0 0 0 0 0 0 0 0 0 0 0 0 0 0 0 0 0 0 0 0 0 0 0 0 0 0 0 0 0 0 0 0 0 0 0 0 0 0 0 0 0 0 0 0 0 0 0 0 0 0 0 0 0 0 0 0 0 0 0 0 0 0 0 0 0 0 0 0 0 0 0 0 0 0 0 0 0 0 0 0 0 0 0 0 0 0 0 0 0 0 0 0 0 0 0 0 0 0 0 0 0 0 0 0 0 0 0 0 0 0 0 0 0 0 0 0 0 0 0 0 0 0 0 0 0 0 0 0 0 0 0 0 0 0 0 0 0 0 0 0 0 0 0 0 0 0 0 0 0 0 0 0 0 0 0 0 0 0 0 0 0 0 0 0 0 0 0 0 0 0 0 0 0 0 0 0 0 0 0 0 0 0 0 0 0 0 0 0 0 0 0 0 0 0 0 0 0 0 0 0 0 0 0 0 0 0 0 0 0 0 0 0 0 0 0 0 0 0 0 0 0 0 0 0 0 0 0 0 0 0 0 0 0 0 0 0 0 0 0 0 0 0 0 0 0 0 0 0 0 0 0 0 0 0 0 0 0 0 0 0 0 0 0 0 0 0 0 0 0 0 0 0 0 0 0 0 0 0 0 0 0 0 0 0 0 0 0 0 0 0 0 0 0 0 0 0 0 0 0 0 0 0 0 0 0 0 0 0 0 0 0 0 0 0 0 0 0 0 0 0 0 0 0 0 0 0 0 0 0 0 0 0 0 0 0 0 0 0 0 0 0 0 0 0 0 0 0 0 0 0 0 0 0 0 0 0 0 0 0 0 0 0 0 0 0 0 0 0 0 0 0 0 0 0 0 0 0 0 
0 0 0 0 0 0 0 0 0 0 0 0 0 0 0 0 0 0 0 0 0 0 0 0 0 0 0 0 0 0 0 0 0 0 0 0 0 0 0 0 0 0 0 0 0 0 0 0 0 0 0 0 0 0 0 0 0 0 0 0 0 0 0 0 0 0 0 0 0 0 0 0 0 0 0 0 0 0 0 0 0 0 0 0 0 0 0 0 0 0 0 0 0 0 0 0 0 0 0 0 0 0 0 0 0 0 0 0 0 0 0 0 0 0 0 0 0 0 0 0 0 0 0 0 0 0 0 0 0 0 0 0 0 0 0 0 0 0 0 0 0 0 0 0 0 0 0 0 0 0 0 0 0 0 0 0 0 0 0 0 0 0 0 0 0 0 0 0 0 0 0 0 0 0 0 0 0 0 0 0 0 0 0 0 0 0 0 0 0 0 0 0 0 0 0 0 0 0 0 0 0 0 0 0 0 0 0 0 0 0 0 0 0 0 0 0 0 0 0 0 0 0 0 0 0 0 0 0 0 0 0 0 0 0 0 0 0 0 0 0 0 0 0 0 0 0 0 0 0 0 0 0 0 0 0 0 0 0 0 0 0 0 0 0 0 0 0 0 0 0 0 0 0 0 0 0 0 0 0 0 0 0 0 0 0 0 0 0 0 0 0 0 0 0 0 0 0 0 0 0 0 0 0 0 0 0 0 0 0 0 0 0 0 0 0 0 0 0 0 0 0 0 0 0 0 0 0 0 0 0 0 0 0 0 0 0 0 0 0 0 0 0 0 0 0 0 0 0 0 0 0 0 0 0 0 0 0 0 0 0 0 0 0 0 0 0 0 0 0 0 0 0 0 0 0 0 0 0 0 0 0 0 0 0 0 0 0 0 0 0 0 0 0 0 0 0 0 0 0 0 0 0 0 0 0 0 0 0 0 0 0 0 0 0 0 0 0 0 0 0 0 0 0 0 0 0 0 0 0 0 0 0 0 0 0 0 0 0 0 0 0 0 0 0 0 0 0 0 0 0 0 0 0 0 0 0 0 0 0 0 0 0 0 0 0 0 0 0 0 0 0 
0 0 0 0 0 0 0 0 0 0 0 0 0 0 0 0 0 0 0 0 0 0 0 0 0 0 0 0 0 0 0 0 0 0 0 0 0 0 0 0 0 0 0 0 0 0 0 0 0 0 0 0 0 0 0 0 0 0 0 0 0 0 0 0 0 0 0 0 0 0 0 0 0 0 0 0 0 0 0 0 0 0 0 0 0 0 0 0 0 0 0 0 0 0 0 0 0 0 0 0 0 0 0 0 0 0 0 0 0 0 0 0 0 0 0 0 0 0 0 0 0 0 0 0 0 0 0 0 0 0 0 0 0 0 0 0 0 0 0 0 0 0 0 0 0 0 0 0 0 0 0 0 0 0 0 0 0 0 0 0 0 0 0 0 0 0 0 0 0 0 0 0 0 0 0 0 0 0 0 0 0 0 0 0 0 0 0 0 0 0 0 0 0 0 0 0 0 0 0 0 0 0 0 0 0 0 0 0 0 0 0 0 0 0 0 0 0 0 0 0 0 0 0 0 0 0 0 0 0 0 0 0 0 0 0 0 0 0 0 0 0 0 0 0 0 0 0 0 0 0 0 0 0 0 0 0 0 0 0 0 0 0 0 0 0 0 0 0 0 0 0 0 0 0 0 0 0 0 0 0 0 0 0 0 0 0 0 0 0 0 0 0 0 0 0 0 0 0 0 0 0 0 0 0 0 0 0 0 0 0 0 0 0 0 0 0 0 0 0 0 0 0 0 0 0 0 0 0 0 0 0 0 0 0 0 0 0 0 0 0 0 0 0 0 0 0 0 0 0 0 0 0 0 0 0 0 0 0 0 0 0 0 0 0 0 0 0 0 0 0 0 0 0 0 0 0 0 0 0 0 0 0 0 0 0 0 0 0 0 0 0 0 0 0 0 0 0 0 0 0 0 0 0 0 0 0 0 0 0 0 0 0 0 0 0 0 0 0 0 0 0 0 0 0 0 0 0 0 0 0 0 0 0 0 0 0 0 0 0 0 0 0 0 0 0 0 0 0 0 0 0 0 0 0 0 0 0 0 0 0 0 0 0 0 0 0 0 0 0 0 0 
0 0 0 0 0 0 0 0 0 0 0 0 0 0 0 0 0 0 0 0 0 0 0 0 0 0 0 0 0 0 0 0 0 0 0 0 0 0 0 0 0 0 0 0 0 0 0 0 0 0 0 0 0 0 0 0 0 0 0 0 0 0 0 0 0 0 0 0 0 0 0 0 0 0 0 0 0 0 0 0 0 0 0 0 0 0 0 0 0 0 0 0 0 0 0 0 0 0 0 0 0 0 0 0 0 0 0 0 0 0 0 0 0 0 0 0 0 0 0 0 0 0 0 0 0 0 0 0 0 0 0 0 0 0 0 0 0 0 0 0 0 0 0 0 0 0 0 0 0 0 0 0 0 0 0 0 0 0 0 0 0 0 0 0 0 0 0 0 0 0 0 0 0 0 0 0 0 0 0 0 0 0 0 0 0 0 0 0 0 0 0 0 0 0 0 0 0 0 0 0 0 0 0 0 0 0 0 0 0 0 0 0 0 0 0 0 0 0 0 0 0 0 0 0 0 0 0 0 0 0 0 0 0 0 0 0 0 0 0 0 0 0 0 0 0 0 0 0 0 0 0 0 0 0 0 0 0 0 0 0 0 0 0 0 0 0 0 0 0 0 0 0 0 0 0 0 0 0 0 0 0 0 0 0 0 0 0 0 0 0 0 0 0 0 0 0 0 0 0 0 0 0 0 0 0 0 0 0 0 0 0 0 0 0 0 0 0 0 0 0 0 0 0 0 0 0 0 0 0 0 0 0 0 0 0 0 0 0 0 0 0 0 0 0 0 0 0 0 0 0 0 0 0 0 0 0 0 0 0 0 0 0 0 0 0 0 0 0 0 0 0 0 0 0 0 0 0 0 0 0 0 0 0 0 0 0 0 0 0 0 0 0 0 0 0 0 0 0 0 0 0 0 0 0 0 0 0 0 0 0 0 0 0 0 0 0 0 0 0 0 0 0 0 0 0 0 0 0 0 0 0 0 0 0 0 0 0 0 0 0 0 0 0 0 0 0 0 0 0 0 0 0 0 0 0 0 0 0 0 0 0 0 0 0 0 0 0 0 0 0 0 
0 0 0 0 0 0 0 0 0 0 0 0 0 0 0 0 0 0 0 0 0 0 0 0 0 0 0 0 0 0 0 0 0 0 0 0 0 0 0 0 0 0 0 0 0 0 0 0 0 0 0 0 0 0 0 0 0 0 0 0 0 0 0 0 0 0 0 0 0 0 0 0 0 0 0 0 0 0 0 0 0 0 0 0 0 0 0 0 0 0 0 0 0 0 0 0 0 0 0 0 0 0 0 0 0 0 0 0 0 0 0 0 0 0 0 0 0 0 0 0 0 0 0 0 0 0 0 0 0 0 0 0 0 0 0 0 0 0 0 0 0 0 0 0 0 0 0 0 0 0 0 0 0 0 0 0 0 0 0 0 0 0 0 0 0 0 0 0 0 0 0 0 0 0 0 0 0 0 0 0 0 0 0 0 0 0 0 0 0 0 0 0 0 0 0 0 0 0 0 0 0 0 0 0 0 0 0 0 0 0 0 0 0 0 0 0 0 0 0 0 0 0 0 0 0 0 0 0 0 0 0 0 0 0 0 0 0 0 0 0 0 0 0 0 0 0 0 0 0 0 0 0 0 0 0 0 0 0 0 0 0 0 0 0 0 0 0 0 0 0 0 0 0 0 0 0 0 0 0 0 0 0 0 0 0 0 0 0 0 0 0 0 0 0 0 0 0 0 0 0 0 0 0 0 0 0 0 0 0 0 0 0 0 0 0 0 0 0 0 0 0 0 0 0 0 0 0 0 0 0 0 0 0 0 0 0 0 0 0 0 0 0 0 0 0 0 0 0 0 0 0 0 0 0 0 0 0 0 0 0 0 0 0 0 0 0 0 0 0 0 0 0 0 0 0 0 0 0 0 0 0 0 0 0 0 0 0 0 0 0 0 0 0 0 0 0 0 0 0 0 0 0 0 0 0 0 0 0 0 0 0 0 0 0 0 0 0 0 0 0 0 0 0 0 0 0 0 0 0 0 0 0 0 0 0 0 0 0 0 0 0 0 0 0 0 0 0 0 0 0 0 0 0 0 0 0 0 0 0 0 0 0 0 0 0 0 0 0 0 0 0 
0 0 0 0 0 0 0 0 0 0 0 0 0 0 0 0 0 0 0 0 0 0 0 0 0 0 0 0 0 0 0 0 0 0 0 0 0 0 0 0 0 0 0 0 0 0 0 0 0 0 0 0 0 0 0 0 0 0 0 0 0 0 0 0 0 0 0 0 0 0 0 0 0 0 0 0 0 0 0 0 0 0 0 0 0 0 0 0 0 0 0 0 0 0 0 0 0 0 0 0 0 0 0 0 0 0 0 0 0 0 0 0 0 0 0 0 0 0 0 0 0 0 0 0 0 0 0 0 0 0 0 0 0 0 0 0 0 0 0 0 0 0 0 0 0 0 0 0 0 0 0 0 0 0 0 0 0 0 0 0 0 0 0 0 0 0 0 0 0 0 0 0 0 0 0 0 0 0 0 0 0 0 0 0 0 0 0 0 0 0 0 0 0 0 0 0 0 0 0 0 0 0 0 0 0 0 0 0 0 0 0 0 0 0 0 0 0 0 0 0 0 0 0 0 0 0 0 0 0 0 0 0 0 0 0 0 0 0 0 0 0 0 0 0 0 0 0 0 0 0 0 0 0 0 0 0 0 0 0 0 0 0 0 0 0 0 0 0 0 0 0 0 0 0 0 0 0 0 0 0 0 0 0 0 0 0 0 0 0 0 0 0 0 0 0 0 0 0 0 0 0 0 0 0 0 0 0 0 0 0 0 0 0 0 0 0 0 0 0 0 0 0 0 0 0 0 0 0 0 0 0 0 0 0 0 0 0 0 0 0 0 0 0 0 0 0 0 0 0 0 0 0 0 0 0 0 0 0 0 0 0 0 0 0 0 0 0 0 0 0 0 0 0 0 0 0 0 0 0 0 0 0 0 0 0 0 0 0 0 0 0 0 0 0 0 0 0 0 0 0 0 0 0 0 0 0 0 0 0 0 0 0 0 0 0 0 0 0 0 0 0 0 0 0 0 0 0 0 0 0 0 0 0 0 0 0 0 0 0 0 0 0 0 0 0 0 0 0 0 0 0 0 0 0 0 0 0 0 0 0 0 0 0 0 0 0 0 0 0 0 0 
0 0 0 0 0 0 0 0 0 0 0 0 0 0 0 0 0 0 0 0 0 0 0 0 0 0 0 0 0 0 0 0 0 0 0 0 0 0 0 0 0 0 0 0 0 0 0 0 0 0 0 0 0 0 0 0 0 0 0 0 0 0 0 0 0 0 0 0 0 0 0 0 0 0 0 0 0 0 0 0 0 0 0 0 0 0 0 0 0 0 0 0 0 0 0 0 0 0 0 0 0 0 0 0 0 0 0 0 0 0 0 0 0 0 0 0 0 0 0 0 0 0 0 0 0 0 0 0 0 0 0 0 0 0 0 0 0 0 0 0 0 0 0 0 0 0 0 0 0 0 0 0 0 0 0 0 0 0 0 0 0 0 0 0 0 0 0 0 0 0 0 0 0 0 0 0 0 0 0 0 0 0 0 0 0 0 0 0 0 0 0 0 0 0 0 0 0 0 0 0 0 0 0 0 0 0 0 0 0 0 0 0 0 0 0 0 0 0 0 0 0 0 0 0 0 0 0 0 0 0 0 0 0 0 0 0 0 0 0 0 0 0 0 0 0 0 0 0 0 0 0 0 0 0 0 0 0 0 0 0 0 0 0 0 0 0 0 0 0 0 0 0 0 0 0 0 0 0 0 0 0 0 0 0 0 0 0 0 0 0 0 0 0 0 0 0 0 0 0 0 0 0 0 0 0 0 0 0 0 0 0 0 0 0 0 0 0 0 0 0 0 0 0 0 0 0 0 0 0 0 0 0 0 0 0 0 0 0 0 0 0 0 0 0 0 0 0 0 0 0 0 0 0 0 0 0 0 0 0 0 0 0 0 0 0 0 0 0 0 0 0 0 0 0 0 0 0 0 0 0 0 0 0 0 0 0 0 0 0 0 0 0 0 0 0 0 0 0 0 0 0 0 0 0 0 0 0 0 0 0 0 0 0 0 0 0 0 0 0 0 0 0 0 0 0 0 0 0 0 0 0 0 0 0 0 0 0 0 0 0 0 0 0 0 0 0 0 0 0 0 0 0 0 0 0 0 0 0 0 0 0 0 0 0 0 0 0 0 0 0 0 
0 0 0 0 0 0 0 0 0 0 0 0 0 0 0 0 0 0 0 0 0 0 0 0 0 0 0 0 0 0 0 0 0 0 0 0 0 0 0 0 0 0 0 0 0 0 0 0 0 0 0 0 0 0 0 0 0 0 0 0 0 0 0 0 0 0 0 0 0 0 0 0 0 0 0 0 0 0 0 0 0 0 0 0 0 0 0 0 0 0 0 0 0 0 0 0 0 0 0 0 0 0 0 0 0 0 0 0 0 0 0 0 0 0 0 0 0 0 0 0 0 0 0 0 0 0 0 0 0 0 0 0 0 0 0 0 0 0 0 0 0 0 0 0 0 0 0 0 0 0 0 0 0 0 0 0 0 0 0 0 0 0 0 0 0 0 0 0 0 0 0 0 0 0 0 0 0 0 0 0 0 0 0 0 0 0 0 0 0 0 0 0 0 0 0 0 0 0 0 0 0 0 0 0 0 0 0 0 0 0 0 0 0 0 0 0 0 0 0 0 0 0 0 0 0 0 0 0 0 0 0 0 0 0 0 0 0 0 0 0 0 0 0 0 0 0 0 0 0 0 0 0 0 0 0 0 0 0 0 0 0 0 0 0 0 0 0 0 0 0 0 0 0 0 0 0 0 0 0 0 0 0 0 0 0 0 0 0 0 0 0 0 0 0 0 0 0 0 0 0 0 0 0 0 0 0 0 0 0 0 0 0 0 0 0 0 0 0 0 0 0 0 0 0 0 0 0 0 0 0 0 0 0 0 0 0 0 0 0 0 0 0 0 0 0 0 0 0 0 0 0 0 0 0 0 0 0 0 0 0 0 0 0 0 0 0 0 0 0 0 0 0 0 0 0 0 0 0 0 0 0 0 0 0 0 0 0 0 0 0 0 0 0 0 0 0 0 0 0 0 0 0 0 0 0 0 0 0 0 0 0 0 0 0 0 0 0 0 0 0 0 0 0 0 0 0 0 0 0 0 0 0 0 0 0 0 0 0 0 0 0 0 0 0 0 0 0 0 0 0 0 0 0 0 0 0 0 0 0 0 0 0 0 0 0 0 0 0 0 0 0 
0 0 0 0 0 0 0 0 0 0 0 0 0 0 0 0 0 0 0 0 0 0 0 0 0 0 0 0 0 0 0 0 0 0 0 0 0 0 0 0 0 0 0 0 0 0 0 0 0 0 0 0 0 0 0 0 0 0 0 0 0 0 0 0 0 0 0 0 0 0 0 0 0 0 0 0 0 0 0 0 0 0 0 0 0 0 0 0 0 0 0 0 0 0 0 0 0 0 0 0 0 0 0 0 0 0 0 0 0 0 0 0 0 0 0 0 0 0 0 0 0 0 0 0 0 0 0 0 0 0 0 0 0 0 0 0 0 0 0 0 0 0 0 0 0 0 0 0 0 0 0 0 0 0 0 0 0 0 0 0 0 0 0 0 0 0 0 0 0 0 0 0 0 0 0 0 0 0 0 0 0 0 0 0 0 0 0 0 0 0 0 0 0 0 0 0 0 0 0 0 0 0 0 0 0 0 0 0 0 0 0 0 0 0 0 0 0 0 0 0 0 0 0 0 0 0 0 0 0 0 0 0 0 0 0 0 0 0 0 0 0 0 0 0 0 0 0 0 0 0 0 0 0 0 0 0 0 0 0 0 0 0 0 0 0 0 0 0 0 0 0 0 0 0 0 0 0 0 0 0 0 0 0 0 0 0 0 0 0 0 0 0 0 0 0 0 0 0 0 0 0 0 0 0 0 0 0 0 0 0 0 0 0 0 0 0 0 0 0 0 0 0 0 0 0 0 0 0 0 0 0 0 0 0 0 0 0 0 0 0 0 0 0 0 0 0 0 0 0 0 0 0 0 0 0 0 0 0 0 0 0 0 0 0 0 0 0 0 0 0 0 0 0 0 0 0 0 0 0 0 0 0 0 0 0 0 0 0 0 0 0 0 0 0 0 0 0 0 0 0 0 0 0 0 0 0 0 0 0 0 0 0 0 0 0 0 0 0 0 0 0 0 0 0 0 0 0 0 0 0 0 0 0 0 0 0 0 0 0 0 0 0 0 0 0 0 0 0 0 0 0 0 0 0 0 0 0 0 0 0 0 0 0 0 0 0 0 0 0 0 0 
0 0 0 0 0 0 0 0 0 0 0 0 0 0 0 0 0 0 0 0 0 0 0 0 0 0 0 0 0 0 0 0 0 0 0 0 0 0 0 0 0 0 0 0 0 0 0 0 0 0 0 0 0 0 0 0 0 0 0 0 0 0 0 0 0 0 0 0 0 0 0 0 0 0 0 0 0 0 0 0 0 0 0 0 0 0 0 0 0 0 0 0 0 0 0 0 0 0 0 0 0 0 0 0 0 0 0 0 0 0 0 0 0 0 0 0 0 0 0 0 0 0 0 0 0 0 0 0 0 0 0 0 0 0 0 0 0 0 0 0 0 0 0 0 0 0 0 0 0 0 0 0 0 0 0 0 0 0 0 0 0 0 0 0 0 0 0 0 0 0 0 0 0 0 0 0 0 0 0 0 0 0 0 0 0 0 0 0 0 0 0 0 0 0 0 0 0 0 0 0 0 0 0 0 0 0 0 0 0 0 0 0 0 0 0 0 0 0 0 0 0 0 0 0 0 0 0 0 0 0 0 0 0 0 0 0 0 0 0 0 0 0 0 0 0 0 0 0 0 0 0 0 0 0 0 0 0 0 0 0 0 0 0 0 0 0 0 0 0 0 0 0 0 0 0 0 0 0 0 0 0 0 0 0 0 0 0 0 0 0 0 0 0 0 0 0 0 0 0 0 0 0 0 0 0 0 0 0 0 0 0 0 0 0 0 0 0 0 0 0 0 0 0 0 0 0 0 0 0 0 0 0 0 0 0 0 0 0 0 0 0 0 0 0 0 0 0 0 0 0 0 0 0 0 0 0 0 0 0 0 0 0 0 0 0 0 0 0 0 0 0 0 0 0 0 0 0 0 0 0 0 0 0 0 0 0 0 0 0 0 0 0 0 0 0 0 0 0 0 0 0 0 0 0 0 0 0 0 0 0 0 0 0 0 0 0 0 0 0 0 0 0 0 0 0 0 0 0 0 0 0 0 0 0 0 0 0 0 0 0 0 0 0 0 0 0 0 0 0 0 0 0 0 0 0 0 0 0 0 0 0 0 0 0 0 0 0 0 0 0 0 
0 0 0 0 0 0 0 0 0 0 0 0 0 0 0 0 0 0 0 0 0 0 0 0 0 0 0 0 0 0 0 0 0 0 0 0 0 0 0 0 0 0 0 0 0 0 0 0 0 0 0 0 0 0 0 0 0 0 0 0 0 0 0 0 0 0 0 0 0 0 0 0 0 0 0 0 0 0 0 0 0 0 0 0 0 0 0 0 0 0 0 0 0 0 0 0 0 0 0 0 0 0 0 0 0 0 0 0 0 0 0 0 0 0 0 0 0 0 0 0 0 0 0 0 0 0 0 0 0 0 0 0 0 0 0 0 0 0 0 0 0 0 0 0 0 0 0 0 0 0 0 0 0 0 0 0 0 0 0 0 0 0 0 0 0 0 0 0 0 0 0 0 0 0 0 0 0 0 0 0 0 0 0 0 0 0 0 0 0 0 0 0 0 0 0 0 0 0 0 0 0 0 0 0 0 0 0 0 0 0 0 0 0 0 0 0 0 0 0 0 0 0 0 0 0 0 0 0 0 0 0 0 0 0 0 0 0 0 0 0 0 0 0 0 0 0 0 0 0 0 0 0 0 0 0 0 0 0 0 0 0 0 0 0 0 0 0 0 0 0 0 0 0 0 0 0 0 0 0 0 0 0 0 0 0 0 0 0 0 0 0 0 0 0 0 0 0 0 0 0 0 0 0 0 0 0 0 0 0 0 0 0 0 0 0 0 0 0 0 0 0 0 0 0 0 0 0 0 0 0 0 0 0 0 0 0 0 0 0 0 0 0 0 0 0 0 0 0 0 0 0 0 0 0 0 0 0 0 0 0 0 0 0 0 0 0 0 0 0 0 0 0 0 0 0 0 0 0 0 0 0 0 0 0 0 0 0 0 0 0 0 0 0 0 0 0 0 0 0 0 0 0 0 0 0 0 0 0 0 0 0 0 0 0 0 0 0 0 0 0 0 0 0 0 0 0 0 0 0 0 0 0 0 0 0 0 0 0 0 0 0 0 0 0 0 0 0 0 0 0 0 0 0 0 0 0 0 0 0 0 0 0 0 0 0 0 0 0 0 0 0 
0 0 0 0 0 0 0 0 0 0 0 0 0 0 0 0 0 0 0 0 0 0 0 0 0 0 0 0 0 0 0 0 0 0 0 0 0 0 0 0 0 0 0 0 0 0 0 0 0 0 0 0 0 0 0 0 0 0 0 0 0 0 0 0 0 0 0 0 0 0 0 0 0 0 0 0 0 0 0 0 0 0 0 0 0 0 0 0 0 0 0 0 0 0 0 0 0 0 0 0 0 0 0 0 0 0 0 0 0 0 0 0 0 0 0 0 0 0 0 0 0 0 0 0 0 0 0 0 0 0 0 0 0 0 0 0 0 0 0 0 0 0 0 0 0 0 0 0 0 0 0 0 0 0 0 0 0 0 0 0 0 0 0 0 0 0 0 0 0 0 0 0 0 0 0 0 0 0 0 0 0 0 0 0 0 0 0 0 0 0 0 0 0 0 0 0 0 0 0 0 0 0 0 0 0 0 0 0 0 0 0 0 0 0 0 0 0 0 0 0 0 0 0 0 0 0 0 0 0 0 0 0 0 0 0 0 0 0 0 0 0 0 0 0 0 0 0 0 0 0 0 0 0 0 0 0 0 0 0 0 0 0 0 0 0 0 0 0 0 0 0 0 0 0 0 0 0 0 0 0 0 0 0 0 0 0 0 0 0 0 0 0 0 0 0 0 0 0 0 0 0 0 0 0 0 0 0 0 0 0 0 0 0 0 0 0 0 0 0 0 0 0 0 0 0 0 0 0 0 0 0 0 0 0 0 0 0 0 0 0 0 0 0 0 0 0 0 0 0 0 0 0 0 0 0 0 0 0 0 0 0 0 0 0 0 0 0 0 0 0 0 0 0 0 0 0 0 0 0 0 0 0 0 0 0 0 0 0 0 0 0 0 0 0 0 0 0 0 0 0 0 0 0 0 0 0 0 0 0 0 0 0 0 0 0 0 0 0 0 0 0 0 0 0 0 0 0 0 0 0 0 0 0 0 0 0 0 0 0 0 0 0 0 0 0 0 0 0 0 0 0 0 0 0 0 0 0 0 0 0 0 0 0 0 0 0 0 0 0 0 0 
0 0 0 0 0 0 0 0 0 0 0 0 0 0 0 0 0 0 0 0 0 0 0 0 0 0 0 0 0 0 0 0 0 0 0 0 0 0 0 0 0 0 0 0 0 0 0 0 0 0 0 0 0 0 0 0 0 0 0 0 0 0 0 0 0 0 0 0 0 0 0 0 0 0 0 0 0 0 0 0 0 0 0 0 0 0 0 0 0 0 0 0 0 0 0 0 0 0 0 0 0 0 0 0 0 0 0 0 0 0 0 0 0 0 0 0 0 0 0 0 0 0 0 0 0 0 0 0 0 0 0 0 0 0 0 0 0 0 0 0 0 0 0 0 0 0 0 0 0 0 0 0 0 0 0 0 0 0 0 0 0 0 0 0 0 0 0 0 0 0 0 0 0 0 0 0 0 0 0 0 0 0 0 0 0 0 0 0 0 0 0 0 0 0 0 0 0 0 0 0 0 0 0 0 0 0 0 0 0 0 0 0 0 0 0 0 0 0 0 0 0 0 0 0 0 0 0 0 0 0 0 0 0 0 0 0 0 0 0 0 0 0 0 0 0 0 0 0 0 0 0 0 0 0 0 0 0 0 0 0 0 0 0 0 0 0 0 0 0 0 0 0 0 0 0 0 0 0 0 0 0 0 0 0 0 0 0 0 0 0 0 0 0 0 0 0 0 0 0 0 0 0 0 0 0 0 0 0 0 0 0 0 0 0 0 0 0 0 0 0 0 0 0 0 0 0 0 0 0 0 0 0 0 0 0 0 0 0 0 0 0 0 0 0 0 0 0 0 0 0 0 0 0 0 0 0 0 0 0 0 0 0 0 0 0 0 0 0 0 0 0 0 0 0 0 0 0 0 0 0 0 0 0 0 0 0 0 0 0 0 0 0 0 0 0 0 0 0 0 0 0 0 0 0 0 0 0 0 0 0 0 0 0 0 0 0 0 0 0 0 0 0 0 0 0 0 0 0 0 0 0 0 0 0 0 0 0 0 0 0 0 0 0 0 0 0 0 0 0 0 0 0 0 0 0 0 0 0 0 0 0 0 0 0 0 0 0 0 0 0 0 
0 0 0 0 0 0 0 0 0 0 0 0 0 0 0 0 0 0 0 0 0 0 0 0 0 0 0 0 0 0 0 0 0 0 0 0 0 0 0 0 0 0 0 0 0 0 0 0 0 0 0 0 0 0 0 0 0 0 0 0 0 0 0 0 0 0 0 0 0 0 0 0 0 0 0 0 0 0 0 0 0 0 0 0 0 0 0 0 0 0 0 0 0 0 0 0 0 0 0 0 0 0 0 0 0 0 0 0 0 0 0 0 0 0 0 0 0 0 0 0 0 0 0 0 0 0 0 0 0 0 0 0 0 0 0 0 0 0 0 0 0 0 0 0 0 0 0 0 0 0 0 0 0 0 0 0 0 0 0 0 0 0 0 0 0 0 0 0 0 0 0 0 0 0 0 0 0 0 0 0 0 0 0 0 0 0 0 0 0 0 0 0 0 0 0 0 0 0 0 0 0 0 0 0 0 0 0 0 0 0 0 0 0 0 0 0 0 0 0 0 0 0 0 0 0 0 0 0 0 0 0 0 0 0 0 0 0 0 0 0 0 0 0 0 0 0 0 0 0 0 0 0 0 0 0 0 0 0 0 0 0 0 0 0 0 0 0 0 0 0 0 0 0 0 0 0 0 0 0 0 0 0 0 0 0 0 0 0 0 0 0 0 0 0 0 0 0 0 0 0 0 0 0 0 0 0 0 0 0 0 0 0 0 0 0 0 0 0 0 0 0 0 0 0 0 0 0 0 0 0 0 0 0 0 0 0 0 0 0 0 0 0 0 0 0 0 0 0 0 0 0 0 0 0 0 0 0 0 0 0 0 0 0 0 0 0 0 0 0 0 0 0 0 0 0 0 0 0 0 0 0 0 0 0 0 0 0 0 0 0 0 0 0 0 0 0 0 0 0 0 0 0 0 0 0 0 0 0 0 0 0 0 0 0 0 0 0 0 0 0 0 0 0 0 0 0 0 0 0 0 0 0 0 0 0 0 0 0 0 0 0 0 0 0 0 0 0 0 0 0 0 0 0 0 0 0 0 0 0 0 0 0 0 0 0 0 0 0 0 0 0 
0 0 0 0 0 0 0 0 0 0 0 0 0 0 0 0 0 0 0 0 0 0 0 0 0 0 0 0 0 0 0 0 0 0 0 0 0 0 0 0 0 0 0 0 0 0 0 0 0 0 0 0 0 0 0 0 0 0 0 0 0 0 0 0 0 0 0 0 0 0 0 0 0 0 0 0 0 0 0 0 0 0 0 0 0 0 0 0 0 0 0 0 0 0 0 0 0 0 0 0 0 0 0 0 0 0 0 0 0 0 0 0 0 0 0 0 0 0 0 0 0 0 0 0 0 0 0 0 0 0 0 0 0 0 0 0 0 0 0 0 0 0 0 0 0 0 0 0 0 0 0 0 0 0 0 0 0 0 0 0 0 0 0 0 0 0 0 0 0 0 0 0 0 0 0 0 0 0 0 0 0 0 0 0 0 0 0 0 0 0 0 0 0 0 0 0 0 0 0 0 0 0 0 0 0 0 0 0 0 0 0 0 0 0 0 0 0 0 0 0 0 0 0 0 0 0 0 0 0 0 0 0 0 0 0 0 0 0 0 0 0 0 0 0 0 0 0 0 0 0 0 0 0 0 0 0 0 0 0 0 0 0 0 0 0 0 0 0 0 0 0 0 0 0 0 0 0 0 0 0 0 0 0 0 0 0 0 0 0 0 0 0 0 0 0 0 0 0 0 0 0 0 0 0 0 0 0 0 0 0 0 0 0 0 0 0 0 0 0 0 0 0 0 0 0 0 0 0 0 0 0 0 0 0 0 0 0 0 0 0 0 0 0 0 0 0 0 0 0 0 0 0 0 0 0 0 0 0 0 0 0 0 0 0 0 0 0 0 0 0 0 0 0 0 0 0 0 0 0 0 0 0 0 0 0 0 0 0 0 0 0 0 0 0 0 0 0 0 0 0 0 0 0 0 0 0 0 0 0 0 0 0 0 0 0 0 0 0 0 0 0 0 0 0 0 0 0 0 0 0 0 0 0 0 0 0 0 0 0 0 0 0 0 0 0 0 0 0 0 0 0 0 0 0 0 0 0 0 0 0 0 0 0 0 0 0 0 0 0 0 0 
0 0 0 0 0 0 0 0 0 0 0 0 0 0 0 0 0 0 0 0 0 0 0 0 0 0 0 0 0 0 0 0 0 0 0 0 0 0 0 0 0 0 0 0 0 0 0 0 0 0 0 0 0 0 0 0 0 0 0 0 0 0 0 0 0 0 0 0 0 0 0 0 0 0 0 0 0 0 0 0 0 0 0 0 0 0 0 0 0 0 0 0 0 0 0 0 0 0 0 0 0 0 0 0 0 0 0 0 0 0 0 0 0 0 0 0 0 0 0 0 0 0 0 0 0 0 0 0 0 0 0 0 0 0 0 0 0 0 0 0 0 0 0 0 0 0 0 0 0 0 0 0 0 0 0 0 0 0 0 0 0 0 0 0 0 0 0 0 0 0 0 0 0 0 0 0 0 0 0 0 0 0 0 0 0 0 0 0 0 0 0 0 0 0 0 0 0 0 0 0 0 0 0 0 0 0 0 0 0 0 0 0 0 0 0 0 0 0 0 0 0 0 0 0 0 0 0 0 0 0 0 0 0 0 0 0 0 0 0 0 0 0 0 0 0 0 0 0 0 0 0 0 0 0 0 0 0 0 0 0 0 0 0 0 0 0 0 0 0 0 0 0 0 0 0 0 0 0 0 0 0 0 0 0 0 0 0 0 0 0 0 0 0 0 0 0 0 0 0 0 0 0 0 0 0 0 0 0 0 0 0 0 0 0 0 0 0 0 0 0 0 0 0 0 0 0 0 0 0 0 0 0 0 0 0 0 0 0 0 0 0 0 0 0 0 0 0 0 0 0 0 0 0 0 0 0 0 0 0 0 0 0 0 0 0 0 0 0 0 0 0 0 0 0 0 0 0 0 0 0 0 0 0 0 0 0 0 0 0 0 0 0 0 0 0 0 0 0 0 0 0 0 0 0 0 0 0 0 0 0 0 0 0 0 0 0 0 0 0 0 0 0 0 0 0 0 0 0 0 0 0 0 0 0 0 0 0 0 0 0 0 0 0 0 0 0 0 0 0 0 0 0 0 0 0 0 0 0 0 0 0 0 0 0 0 0 0 0 0 0 0 
0 0 0 0 0 0 0 0 0 0 0 0 0 0 0 0 0 0 0 0 0 0 0 0 0 0 0 0 0 0 0 0 0 0 0 0 0 0 0 0 0 0 0 0 0 0 0 0 0 0 0 0 0 0 0 0 0 0 0 0 0 0 0 0 0 0 0 0 0 0 0 0 0 0 0 0 0 0 0 0 0 0 0 0 0 0 0 0 0 0 0 0 0 0 0 0 0 0 0 0 0 0 0 0 0 0 0 0 0 0 0 0 0 0 0 0 0 0 0 0 0 0 0 0 0 0 0 0 0 0 0 0 0 0 0 0 0 0 0 0 0 0 0 0 0 0 0 0 0 0 0 0 0 0 0 0 0 0 0 0 0 0 0 0 0 0 0 0 0 0 0 0 0 0 0 0 0 0 0 0 0 0 0 0 0 0 0 0 0 0 0 0 0 0 0 0 0 0 0 0 0 0 0 0 0 0 0 0 0 0 0 0 0 0 0 0 0 0 0 0 0 0 0 0 0 0 0 0 0 0 0 0 0 0 0 0 0 0 0 0 0 0 0 0 0 0 0 0 0 0 0 0 0 0 0 0 0 0 0 0 0 0 0 0 0 0 0 0 0 0 0 0 0 0 0 0 0 0 0 0 0 0 0 0 0 0 0 0 0 0 0 0 0 0 0 0 0 0 0 0 0 0 0 0 0 0 0 0 0 0 0 0 0 0 0 0 0 0 0 0 0 0 0 0 0 0 0 0 0 0 0 0 0 0 0 0 0 0 0 0 0 0 0 0 0 0 0 0 0 0 0 0 0 0 0 0 0 0 0 0 0 0 0 0 0 0 0 0 0 0 0 0 0 0 0 0 0 0 0 0 0 0 0 0 0 0 0 0 0 0 0 0 0 0 0 0 0 0 0 0 0 0 0 0 0 0 0 0 0 0 0 0 0 0 0 0 0 0 0 0 0 0 0 0 0 0 0 0 0 0 0 0 0 0 0 0 0 0 0 0 0 0 0 0 0 0 0 0 0 0 0 0 0 0 0 0 0 0 0 0 0 0 0 0 0 0 0 0 0 0 0 
0 0 0 0 0 0 0 0 0 0 0 0 0 0 0 0 0 0 0 0 0 0 0 0 0 0 0 0 0 0 0 0 0 0 0 0 0 0 0 0 0 0 0 0 0 0 0 0 0 0 0 0 0 0 0 0 0 0 0 0 0 0 0 0 0 0 0 0 0 0 0 0 0 0 0 0 0 0 0 0 0 0 0 0 0 0 0 0 0 0 0 0 0 0 0 0 0 0 0 0 0 0 0 0 0 0 0 0 0 0 0 0 0 0 0 0 0 0 0 0 0 0 0 0 0 0 0 0 0 0 0 0 0 0 0 0 0 0 0 0 0 0 0 0 0 0 0 0 0 0 0 0 0 0 0 0 0 0 0 0 0 0 0 0 0 0 0 0 0 0 0 0 0 0 0 0 0 0 0 0 0 0 0 0 0 0 0 0 0 0 0 0 0 0 0 0 0 0 0 0 0 0 0 0 0 0 0 0 0 0 0 0 0 0 0 0 0 0 0 0 0 0 0 0 0 0 0 0 0 0 0 0 0 0 0 0 0 0 0 0 0 0 0 0 0 0 0 0 0 0 0 0 0 0 0 0 0 0 0 0 0 0 0 0 0 0 0 0 0 0 0 0 0 0 0 0 0 0 0 0 0 0 0 0 0 0 0 0 0 0 0 0 0 0 0 0 0 0 0 0 0 0 0 0 0 0 0 0 0 0 0 0 0 0 0 0 0 0 0 0 0 0 0 0 0 0 0 0 0 0 0 0 0 0 0 0 0 0 0 0 0 0 0 0 0 0 0 0 0 0 0 0 0 0 0 0 0 0 0 0 0 0 0 0 0 0 0 0 0 0 0 0 0 0 0 0 0 0 0 0 0 0 0 0 0 0 0 0 0 0 0 0 0 0 0 0 0 0 0 0 0 0 0 0 0 0 0 0 0 0 0 0 0 0 0 0 0 0 0 0 0 0 0 0 0 0 0 0 0 0 0 0 0 0 0 0 0 0 0 0 0 0 0 0 0 0 0 0 0 0 0 0 0 0 0 0 0 0 0 0 0 0 0 0 0 0 0 0 0 0 0 
0 0 0 0 0 0 0 0 0 0 0 0 0 0 0 0 0 0 0 0 0 0 0 0 0 0 0 0 0 0 0 0 0 0 0 0 0 0 0 0 0 0 0 0 0 0 0 0 0 0 0 0 0 0 0 0 0 0 0 0 0 0 0 0 0 0 0 0 0 0 0 0 0 0 0 0 0 0 0 0 0 0 0 0 0 0 0 0 0 0 0 0 0 0 0 0 0 0 0 0 0 0 0 0 0 0 0 0 0 0 0 0 0 0 0 0 0 0 0 0 0 0 0 0 0 0 0 0 0 0 0 0 0 0 0 0 0 0 0 0 0 0 0 0 0 0 0 0 0 0 0 0 0 0 0 0 0 0 0 0 0 0 0 0 0 0 0 0 0 0 0 0 0 0 0 0 0 0 0 0 0 0 0 0 0 0 0 0 0 0 0 0 0 0 0 0 0 0 0 0 0 0 0 0 0 0 0 0 0 0 0 0 0 0 0 0 0 0 0 0 0 0 0 0 0 0 0 0 0 0 0 0 0 0 0 0 0 0 0 0 0 0 0 0 0 0 0 0 0 0 0 0 0 0 0 0 0 0 0 0 0 0 0 0 0 0 0 0 0 0 0 0 0 0 0 0 0 0 0 0 0 0 0 0 0 0 0 0 0 0 0 0 0 0 0 0 0 0 0 0 0 0 0 0 0 0 0 0 0 0 0 0 0 0 0 0 0 0 0 0 0 0 0 0 0 0 0 0 0 0 0 0 0 0 0 0 0 0 0 0 0 0 0 0 0 0 0 0 0 0 0 0 0 0 0 0 0 0 0 0 0 0 0 0 0 0 0 0 0 0 0 0 0 0 0 0 0 0 0 0 0 0 0 0 0 0 0 0 0 0 0 0 0 0 0 0 0 0 0 0 0 0 0 0 0 0 0 0 0 0 0 0 0 0 0 0 0 0 0 0 0 0 0 0 0 0 0 0 0 0 0 0 0 0 0 0 0 0 0 0 0 0 0 0 0 0 0 0 0 0 0 0 0 0 0 0 0 0 0 0 0 0 0 0 0 0 0 0 0 0 0 
0 0 0 0 0 0 0 0 0 0 0 0 0 0 0 0 0 0 0 0 0 0 0 0 0 0 0 0 0 0 0 0 0 0 0 0 0 0 0 0 0 0 0 0 0 0 0 0 0 0 0 0 0 0 0 0 0 0 0 0 0 0 0 0 0 0 0 0 0 0 0 0 0 0 0 0 0 0 0 0 0 0 0 0 0 0 0 0 0 0 0 0 0 0 0 0 0 0 0 0 0 0 0 0 0 0 0 0 0 0 0 0 0 0 0 0 0 0 0 0 0 0 0 0 0 0 0 0 0 0 0 0 0 0 0 0 0 0 0 0 0 0 0 0 0 0 0 0 0 0 0 0 0 0 0 0 0 0 0 0 0 0 0 0 0 0 0 0 0 0 0 0 0 0 0 0 0 0 0 0 0 0 0 0 0 0 0 0 0 0 0 0 0 0 0 0 0 0 0 0 0 0 0 0 0 0 0 0 0 0 0 0 0 0 0 0 0 0 0 0 0 0 0 0 0 0 0 0 0 0 0 0 0 0 0 0 0 0 0 0 0 0 0 0 0 0 0 0 0 0 0 0 0 0 0 0 0 0 0 0 0 0 0 0 0 0 0 0 0 0 0 0 0 0 0 0 0 0 0 0 0 0 0 0 0 0 0 0 0 0 0 0 0 0 0 0 0 0 0 0 0 0 0 0 0 0 0 0 0 0 0 0 0 0 0 0 0 0 0 0 0 0 0 0 0 0 0 0 0 0 0 0 0 0 0 0 0 0 0 0 0 0 0 0 0 0 0 0 0 0 0 0 0 0 0 0 0 0 0 0 0 0 0 0 0 0 0 0 0 0 0 0 0 0 0 0 0 0 0 0 0 0 0 0 0 0 0 0 0 0 0 0 0 0 0 0 0 0 0 0 0 0 0 0 0 0 0 0 0 0 0 0 0 0 0 0 0 0 0 0 0 0 0 0 0 0 0 0 0 0 0 0 0 0 0 0 0 0 0 0 0 0 0 0 0 0 0 0 0 0 0 0 0 0 0 0 0 0 0 0 0 0 0 0 0 0 0 0 0 0 0 
0 0 0 0 0 0 0 0 0 0 0 0 0 0 0 0 0 0 0 0 0 0 0 0 0 0 0 0 0 0 0 0 0 0 0 0 0 0 0 0 0 0 0 0 0 0 0 0 0 0 0 0 0 0 0 0 0 0 0 0 0 0 0 0 0 0 0 0 0 0 0 0 0 0 0 0 0 0 0 0 0 0 0 0 0 0 0 0 0 0 0 0 0 0 0 0 0 0 0 0 0 0 0 0 0 0 0 0 0 0 0 0 0 0 0 0 0 0 0 0 0 0 0 0 0 0 0 0 0 0 0 0 0 0 0 0 0 0 0 0 0 0 0 0 0 0 0 0 0 0 0 0 0 0 0 0 0 0 0 0 0 0 0 0 0 0 0 0 0 0 0 0 0 0 0 0 0 0 0 0 0 0 0 0 0 0 0 0 0 0 0 0 0 0 0 0 0 0 0 0 0 0 0 0 0 0 0 0 0 0 0 0 0 0 0 0 0 0 0 0 0 0 0 0 0 0 0 0 0 0 0 0 0 0 0 0 0 0 0 0 0 0 0 0 0 0 0 0 0 0 0 0 0 0 0 0 0 0 0 0 0 0 0 0 0 0 0 0 0 0 0 0 0 0 0 0 0 0 0 0 0 0 0 0 0 0 0 0 0 0 0 0 0 0 0 0 0 0 0 0 0 0 0 0 0 0 0 0 0 0 0 0 0 0 0 0 0 0 0 0 0 0 0 0 0 0 0 0 0 0 0 0 0 0 0 0 0 0 0 0 0 0 0 0 0 0 0 0 0 0 0 0 0 0 0 0 0 0 0 0 0 0 0 0 0 0 0 0 0 0 0 0 0 0 0 0 0 0 0 0 0 0 0 0 0 0 0 0 0 0 0 0 0 0 0 0 0 0 0 0 0 0 0 0 0 0 0 0 0 0 0 0 0 0 0 0 0 0 0 0 0 0 0 0 0 0 0 0 0 0 0 0 0 0 0 0 0 0 0 0 0 0 0 0 0 0 0 0 0 0 0 0 0 0 0 0 0 0 0 0 0 0 0 0 0 0 0 0 0 0 0 
0 0 0 0 0 0 0 0 0 0 0 0 0 0 0 0 0 0 0 0 0 0 0 0 0 0 0 0 0 0 0 0 0 0 0 0 0 0 0 0 0 0 0 0 0 0 0 0 0 0 0 0 0 0 0 0 0 0 0 0 0 0 0 0 0 0 0 0 0 0 0 0 0 0 0 0 0 0 0 0 0 0 0 0 0 0 0 0 0 0 0 0 0 0 0 0 0 0 0 0 0 0 0 0 0 0 0 0 0 0 0 0 0 0 0 0 0 0 0 0 0 0 0 0 0 0 0 0 0 0 0 0 0 0 0 0 0 0 0 0 0 0 0 0 0 0 0 0 0 0 0 0 0 0 0 0 0 0 0 0 0 0 0 0 0 0 0 0 0 0 0 0 0 0 0 0 0 0 0 0 0 0 0 0 0 0 0 0 0 0 0 0 0 0 0 0 0 0 0 0 0 0 0 0 0 0 0 0 0 0 0 0 0 0 0 0 0 0 0 0 0 0 0 0 0 0 0 0 0 0 0 0 0 0 0 0 0 0 0 0 0 0 0 0 0 0 0 0 0 0 0 0 0 0 0 0 0 0 0 0 0 0 0 0 0 0 0 0 0 0 0 0 0 0 0 0 0 0 0 0 0 0 0 0 0 0 0 0 0 0 0 0 0 0 0 0 0 0 0 0 0 0 0 0 0 0 0 0 0 0 0 0 0 0 0 0 0 0 0 0 0 0 0 0 0 0 0 0 0 0 0 0 0 0 0 0 0 0 0 0 0 0 0 0 0 0 0 0 0 0 0 0 0 0 0 0 0 0 0 0 0 0 0 0 0 0 0 0 0 0 0 0 0 0 0 0 0 0 0 0 0 0 0 0 0 0 0 0 0 0 0 0 0 0 0 0 0 0 0 0 0 0 0 0 0 0 0 0 0 0 0 0 0 0 0 0 0 0 0 0 0 0 0 0 0 0 0 0 0 0 0 0 0 0 0 0 0 0 0 0 0 0 0 0 0 0 0 0 0 0 0 0 0 0 0 0 0 0 0 0 0 0 0 0 0 0 0 0 0 0 0 
0 0 0 0 0 0 0 0 0 0 0 0 0 0 0 0 0 0 0 0 0 0 0 0 0 0 0 0 0 0 0 0 0 0 0 0 0 0 0 0 0 0 0 0 0 0 0 0 0 0 0 0 0 0 0 0 0 0 0 0 0 0 0 0 0 0 0 0 0 0 0 0 0 0 0 0 0 0 0 0 0 0 0 0 0 0 0 0 0 0 0 0 0 0 0 0 0 0 0 0 0 0 0 0 0 0 0 0 0 0 0 0 0 0 0 0 0 0 0 0 0 0 0 0 0 0 0 0 0 0 0 0 0 0 0 0 0 0 0 0 0 0 0 0 0 0 0 0 0 0 0 0 0 0 0 0 0 0 0 0 0 0 0 0 0 0 0 0 0 0 0 0 0 0 0 0 0 0 0 0 0 0 0 0 0 0 0 0 0 0 0 0 0 0 0 0 0 0 0 0 0 0 0 0 0 0 0 0 0 0 0 0 0 0 0 0 0 0 0 0 0 0 0 0 0 0 0 0 0 0 0 0 0 0 0 0 0 0 0 0 0 0 0 0 0 0 0 0 0 0 0 0 0 0 0 0 0 0 0 0 0 0 0 0 0 0 0 0 0 0 0 0 0 0 0 0 0 0 0 0 0 0 0 0 0 0 0 0 0 0 0 0 0 0 0 0 0 0 0 0 0 0 0 0 0 0 0 0 0 0 0 0 0 0 0 0 0 0 0 0 0 0 0 0 0 0 0 0 0 0 0 0 0 0 0 0 0 0 0 0 0 0 0 0 0 0 0 0 0 0 0 0 0 0 0 0 0 0 0 0 0 0 0 0 0 0 0 0 0 0 0 0 0 0 0 0 0 0 0 0 0 0 0 0 0 0 0 0 0 0 0 0 0 0 0 0 0 0 0 0 0 0 0 0 0 0 0 0 0 0 0 0 0 0 0 0 0 0 0 0 0 0 0 0 0 0 0 0 0 0 0 0 0 0 0 0 0 0 0 0 0 0 0 0 0 0 0 0 0 0 0 0 0 0 0 0 0 0 0 0 0 0 0 0 0 0 0 0 0 0 0 
0 0 0 0 0 0 0 0 0 0 0 0 0 0 0 0 0 0 0 0 0 0 0 0 0 0 0 0 0 0 0 0 0 0 0 0 0 0 0 0 0 0 0 0 0 0 0 0 0 0 0 0 0 0 0 0 0 0 0 0 0 0 0 0 0 0 0 0 0 0 0 0 0 0 0 0 0 0 0 0 0 0 0 0 0 0 0 0 0 0 0 0 0 0 0 0 0 0 0 0 0 0 0 0 0 0 0 0 0 0 0 0 0 0 0 0 0 0 0 0 0 0 0 0 0 0 0 0 0 0 0 0 0 0 0 0 0 0 0 0 0 0 0 0 0 0 0 0 0 0 0 0 0 0 0 0 0 0 0 0 0 0 0 0 0 0 0 0 0 0 0 0 0 0 0 0 0 0 0 0 0 0 0 0 0 0 0 0 0 0 0 0 0 0 0 0 0 0 0 0 0 0 0 0 0 0 0 0 0 0 0 0 0 0 0 0 0 0 0 0 0 0 0 0 0 0 0 0 0 0 0 0 0 0 0 0 0 0 0 0 0 0 0 0 0 0 0 0 0 0 0 0 0 0 0 0 0 0 0 0 0 0 0 0 0 0 0 0 0 0 0 0 0 0 0 0 0 0 0 0 0 0 0 0 0 0 0 0 0 0 0 0 0 0 0 0 0 0 0 0 0 0 0 0 0 0 0 0 0 0 0 0 0 0 0 0 0 0 0 0 0 0 0 0 0 0 0 0 0 0 0 0 0 0 0 0 0 0 0 0 0 0 0 0 0 0 0 0 0 0 0 0 0 0 0 0 0 0 0 0 0 0 0 0 0 0 0 0 0 0 0 0 0 0 0 0 0 0 0 0 0 0 0 0 0 0 0 0 0 0 0 0 0 0 0 0 0 0 0 0 0 0 0 0 0 0 0 0 0 0 0 0 0 0 0 0 0 0 0 0 0 0 0 0 0 0 0 0 0 0 0 0 0 0 0 0 0 0 0 0 0 0 0 0 0 0 0 0 0 0 0 0 0 0 0 0 0 0 0 0 0 0 0 0 0 0 0 0 0 0 0 
0 0 0 0 0 0 0 0 0 0 0 0 0 0 0 0 0 0 0 0 0 0 0 0 0 0 0 0 0 0 0 0 0 0 0 0 0 0 0 0 0 0 0 0 0 0 0 0 0 0 0 0 0 0 0 0 0 0 0 0 0 0 0 0 0 0 0 0 0 0 0 0 0 0 0 0 0 0 0 0 0 0 0 0 0 0 0 0 0 0 0 0 0 0 0 0 0 0 0 0 0 0 0 0 0 0 0 0 0 0 0 0 0 0 0 0 0 0 0 0 0 0 0 0 0 0 0 0 0 0 0 0 0 0 0 0 0 0 0 0 0 0 0 0 0 0 0 0 0 0 0 0 0 0 0 0 0 0 0 0 0 0 0 0 0 0 0 0 0 0 0 0 0 0 0 0 0 0 0 0 0 0 0 0 0 0 0 0 0 0 0 0 0 0 0 0 0 0 0 0 0 0 0 0 0 0 0 0 0 0 0 0 0 0 0 0 0 0 0 0 0 0 0 0 0 0 0 0 0 0 0 0 0 0 0 0 0 0 0 0 0 0 0 0 0 0 0 0 0 0 0 0 0 0 0 0 0 0 0 0 0 0 0 0 0 0 0 0 0 0 0 0 0 0 0 0 0 0 0 0 0 0 0 0 0 0 0 0 0 0 0 0 0 0 0 0 0 0 0 0 0 0 0 0 0 0 0 0 0 0 0 0 0 0 0 0 0 0 0 0 0 0 0 0 0 0 0 0 0 0 0 0 0 0 0 0 0 0 0 0 0 0 0 0 0 0 0 0 0 0 0 0 0 0 0 0 0 0 0 0 0 0 0 0 0 0 0 0 0 0 0 0 0 0 0 0 0 0 0 0 0 0 0 0 0 0 0 0 0 0 0 0 0 0 0 0 0 0 0 0 0 0 0 0 0 0 0 0 0 0 0 0 0 0 0 0 0 0 0 0 0 0 0 0 0 0 0 0 0 0 0 0 0 0 0 0 0 0 0 0 0 0 0 0 0 0 0 0 0 0 0 0 0 0 0 0 0 0 0 0 0 0 0 0 0 0 0 0 0 0 0 
0 0 0 0 0 0 0 0 0 0 0 0 0 0 0 0 0 0 0 0 0 0 0 0 0 0 0 0 0 0 0 0 0 0 0 0 0 0 0 0 0 0 0 0 0 0 0 0 0 0 0 0 0 0 0 0 0 0 0 0 0 0 0 0 0 0 0 0 0 0 0 0 0 0 0 0 0 0 0 0 0 0 0 0 0 0 0 0 0 0 0 0 0 0 0 0 0 0 0 0 0 0 0 0 0 0 0 0 0 0 0 0 0 0 0 0 0 0 0 0 0 0 0 0 0 0 0 0 0 0 0 0 0 0 0 0 0 0 0 0 0 0 0 0 0 0 0 0 0 0 0 0 0 0 0 0 0 0 0 0 0 0 0 0 0 0 0 0 0 0 0 0 0 0 0 0 0 0 0 0 0 0 0 0 0 0 0 0 0 0 0 0 0 0 0 0 0 0 0 0 0 0 0 0 0 0 0 0 0 0 0 0 0 0 0 0 0 0 0 0 0 0 0 0 0 0 0 0 0 0 0 0 0 0 0 0 0 0 0 0 0 0 0 0 0 0 0 0 0 0 0 0 0 0 0 0 0 0 0 0 0 0 0 0 0 0 0 0 0 0 0 0 0 0 0 0 0 0 0 0 0 0 0 0 0 0 0 0 0 0 0 0 0 0 0 0 0 0 0 0 0 0 0 0 0 0 0 0 0 0 0 0 0 0 0 0 0 0 0 0 0 0 0 0 0 0 0 0 0 0 0 0 0 0 0 0 0 0 0 0 0 0 0 0 0 0 0 0 0 0 0 0 0 0 0 0 0 0 0 0 0 0 0 0 0 0 0 0 0 0 0 0 0 0 0 0 0 0 0 0 0 0 0 0 0 0 0 0 0 0 0 0 0 0 0 0 0 0 0 0 0 0 0 0 0 0 0 0 0 0 0 0 0 0 0 0 0 0 0 0 0 0 0 0 0 0 0 0 0 0 0 0 0 0 0 0 0 0 0 0 0 0 0 0 0 0 0 0 0 0 0 0 0 0 0 0 0 0 0 0 0 0 0 0 0 0 0 0 0 0 0 
0 0 0 0 0 0 0 0 0 0 0 0 0 0 0 0 0 0 0 0 0 0 0 0 0 0 0 0 0 0 0 0 0 0 0 0 0 0 0 0 0 0 0 0 0 0 0 0 0 0 0 0 0 0 0 0 0 0 0 0 0 0 0 0 0 0 0 0 0 0 0 0 0 0 0 0 0 0 0 0 0 0 0 0 0 0 0 0 0 0 0 0 0 0 0 0 0 0 0 0 0 0 0 0 0 0 0 0 0 0 0 0 0 0 0 0 0 0 0 0 0 0 0 0 0 0 0 0 0 0 0 0 0 0 0 0 0 0 0 0 0 0 0 0 0 0 0 0 0 0 0 0 0 0 0 0 0 0 0 0 0 0 0 0 0 0 0 0 0 0 0 0 0 0 0 0 0 0 0 0 0 0 0 0 0 0 0 0 0 0 0 0 0 0 0 0 0 0 0 0 0 0 0 0 0 0 0 0 0 0 0 0 0 0 0 0 0 0 0 0 0 0 0 0 0 0 0 0 0 0 0 0 0 0 0 0 0 0 0 0 0 0 0 0 0 0 0 0 0 0 0 0 0 0 0 0 0 0 0 0 0 0 0 0 0 0 0 0 0 0 0 0 0 0 0 0 0 0 0 0 0 0 0 0 0 0 0 0 0 0 0 0 0 0 0 0 0 0 0 0 0 0 0 0 0 0 0 0 0 0 0 0 0 0 0 0 0 0 0 0 0 0 0 0 0 0 0 0 0 0 0 0 0 0 0 0 0 0 0 0 0 0 0 0 0 0 0 0 0 0 0 0 0 0 0 0 0 0 0 0 0 0 0 0 0 0 0 0 0 0 0 0 0 0 0 0 0 0 0 0 0 0 0 0 0 0 0 0 0 0 0 0 0 0 0 0 0 0 0 0 0 0 0 0 0 0 0 0 0 0 0 0 0 0 0 0 0 0 0 0 0 0 0 0 0 0 0 0 0 0 0 0 0 0 0 0 0 0 0 0 0 0 0 0 0 0 0 0 0 0 0 0 0 0 0 0 0 0 0 0 0 0 0 0 0 0 0 0 0 0 0 
0 0 0 0 0 0 0 0 0 0 0 0 0 0 0 0 0 0 0 0 0 0 0 0 0 0 0 0 0 0 0 0 0 0 0 0 0 0 0 0 0 0 0 0 0 0 0 0 0 0 0 0 0 0 0 0 0 0 0 0 0 0 0 0 0 0 0 0 0 0 0 0 0 0 0 0 0 0 0 0 0 0 0 0 0 0 0 0 0 0 0 0 0 0 0 0 0 0 0 0 0 0 0 0 0 0 0 0 0 0 0 0 0 0 0 0 0 0 0 0 0 0 0 0 0 0 0 0 0 0 0 0 0 0 0 0 0 0 0 0 0 0 0 0 0 0 0 0 0 0 0 0 0 0 0 0 0 0 0 0 0 0 0 0 0 0 0 0 0 0 0 0 0 0 0 0 0 0 0 0 0 0 0 0 0 0 0 0 0 0 0 0 0 0 0 0 0 0 0 0 0 0 0 0 0 0 0 0 0 0 0 0 0 0 0 0 0 0 0 0 0 0 0 0 0 0 0 0 0 0 0 0 0 0 0 0 0 0 0 0 0 0 0 0 0 0 0 0 0 0 0 0 0 0 0 0 0 0 0 0 0 0 0 0 0 0 0 0 0 0 0 0 0 0 0 0 0 0 0 0 0 0 0 0 0 0 0 0 0 0 0 0 0 0 0 0 0 0 0 0 0 0 0 0 0 0 0 0 0 0 0 0 0 0 0 0 0 0 0 0 0 0 0 0 0 0 0 0 0 0 0 0 0 0 0 0 0 0 0 0 0 0 0 0 0 0 0 0 0 0 0 0 0 0 0 0 0 0 0 0 0 0 0 0 0 0 0 0 0 0 0 0 0 0 0 0 0 0 0 0 0 0 0 0 0 0 0 0 0 0 0 0 0 0 0 0 0 0 0 0 0 0 0 0 0 0 0 0 0 0 0 0 0 0 0 0 0 0 0 0 0 0 0 0 0 0 0 0 0 0 0 0 0 0 0 0 0 0 0 0 0 0 0 0 0 0 0 0 0 0 0 0 0 0 0 0 0 0 0 0 0 0 0 0 0 0 0 0 0 0 0 
0 0 0 0 0 0 0 0 0 0 0 0 0 0 0 0 0 0 0 0 0 0 0 0 0 0 0 0 0 0 0 0 0 0 0 0 0 0 0 0 0 0 0 0 0 0 0 0 0 0 0 0 0 0 0 0 0 0 0 0 0 0 0 0 0 0 0 0 0 0 0 0 0 0 0 0 0 0 0 0 0 0 0 0 0 0 0 0 0 0 0 0 0 0 0 0 0 0 0 0 0 0 0 0 0 0 0 0 0 0 0 0 0 0 0 0 0 0 0 0 0 0 0 0 0 0 0 0 0 0 0 0 0 0 0 0 0 0 0 0 0 0 0 0 0 0 0 0 0 0 0 0 0 0 0 0 0 0 0 0 0 0 0 0 0 0 0 0 0 0 0 0 0 0 0 0 0 0 0 0 0 0 0 0 0 0 0 0 0 0 0 0 0 0 0 0 0 0 0 0 0 0 0 0 0 0 0 0 0 0 0 0 0 0 0 0 0 0 0 0 0 0 0 0 0 0 0 0 0 0 0 0 0 0 0 0 0 0 0 0 0 0 0 0 0 0 0 0 0 0 0 0 0 0 0 0 0 0 0 0 0 0 0 0 0 0 0 0 0 0 0 0 0 0 0 0 0 0 0 0 0 0 0 0 0 0 0 0 0 0 0 0 0 0 0 0 0 0 0 0 0 0 0 0 0 0 0 0 0 0 0 0 0 0 0 0 0 0 0 0 0 0 0 0 0 0 0 0 0 0 0 0 0 0 0 0 0 0 0 0 0 0 0 0 0 0 0 0 0 0 0 0 0 0 0 0 0 0 0 0 0 0 0 0 0 0 0 0 0 0 0 0 0 0 0 0 0 0 0 0 0 0 0 0 0 0 0 0 0 0 0 0 0 0 0 0 0 0 0 0 0 0 0 0 0 0 0 0 0 0 0 0 0 0 0 0 0 0 0 0 0 0 0 0 0 0 0 0 0 0 0 0 0 0 0 0 0 0 0 0 0 0 0 0 0 0 0 0 0 0 0 0 0 0 0 0 0 0 0 0 0 0 0 0 0 0 0 0 0 0 0 
0 0 0 0 0 0 0 0 0 0 0 0 0 0 0 0 0 0 0 0 0 0 0 0 0 0 0 0 0 0 0 0 0 0 0 0 0 0 0 0 0 0 0 0 0 0 0 0 0 0 0 0 0 0 0 0 0 0 0 0 0 0 0 0 0 0 0 0 0 0 0 0 0 0 0 0 0 0 0 0 0 0 0 0 0 0 0 0 0 0 0 0 0 0 0 0 0 0 0 0 0 0 0 0 0 0 0 0 0 0 0 0 0 0 0 0 0 0 0 0 0 0 0 0 0 0 0 0 0 0 0 0 0 0 0 0 0 0 0 0 0 0 0 0 0 0 0 0 0 0 0 0 0 0 0 0 0 0 0 0 0 0 0 0 0 0 0 0 0 0 0 0 0 0 0 0 0 0 0 0 0 0 0 0 0 0 0 0 0 0 0 0 0 0 0 0 0 0 0 0 0 0 0 0 0 0 0 0 0 0 0 0 0 0 0 0 0 0 0 0 0 0 0 0 0 0 0 0 0 0 0 0 0 0 0 0 0 0 0 0 0 0 0 0 0 0 0 0 0 0 0 0 0 0 0 0 0 0 0 0 0 0 0 0 0 0 0 0 0 0 0 0 0 0 0 0 0 0 0 0 0 0 0 0 0 0 0 0 0 0 0 0 0 0 0 0 0 0 0 0 0 0 0 0 0 0 0 0 0 0 0 0 0 0 0 0 0 0 0 0 0 0 0 0 0 0 0 0 0 0 0 0 0 0 0 0 0 0 0 0 0 0 0 0 0 0 0 0 0 0 0 0 0 0 0 0 0 0 0 0 0 0 0 0 0 0 0 0 0 0 0 0 0 0 0 0 0 0 0 0 0 0 0 0 0 0 0 0 0 0 0 0 0 0 0 0 0 0 0 0 0 0 0 0 0 0 0 0 0 0 0 0 0 0 0 0 0 0 0 0 0 0 0 0 0 0 0 0 0 0 0 0 0 0 0 0 0 0 0 0 0 0 0 0 0 0 0 0 0 0 0 0 0 0 0 0 0 0 0 0 0 0 0 0 0 0 0 0 0 0 0 
0 0 0 0 0 0 0 0 0 0 0 0 0 0 0 0 0 0 0 0 0 0 0 0 0 0 0 0 0 0 0 0 0 0 0 0 0 0 0 0 0 0 0 0 0 0 0 0 0 0 0 0 0 0 0 0 0 0 0 0 0 0 0 0 0 0 0 0 0 0 0 0 0 0 0 0 0 0 0 0 0 0 0 0 0 0 0 0 0 0 0 0 0 0 0 0 0 0 0 0 0 0 0 0 0 0 0 0 0 0 0 0 0 0 0 0 0 0 0 0 0 0 0 0 0 0 0 0 0 0 0 0 0 0 0 0 0 0 0 0 0 0 0 0 0 0 0 0 0 0 0 0 0 0 0 0 0 0 0 0 0 0 0 0 0 0 0 0 0 0 0 0 0 0 0 0 0 0 0 0 0 0 0 0 0 0 0 0 0 0 0 0 0 0 0 0 0 0 0 0 0 0 0 0 0 0 0 0 0 0 0 0 0 0 0 0 0 0 0 0 0 0 0 0 0 0 0 0 0 0 0 0 0 0 0 0 0 0 0 0 0 0 0 0 0 0 0 0 0 0 0 0 0 0 0 0 0 0 0 0 0 0 0 0 0 0 0 0 0 0 0 0 0 0 0 0 0 0 0 0 0 0 0 0 0 0 0 0 0 0 0 0 0 0 0 0 0 0 0 0 0 0 0 0 0 0 0 0 0 0 0 0 0 0 0 0 0 0 0 0 0 0 0 0 0 0 0 0 0 0 0 0 0 0 0 0 0 0 0 0 0 0 0 0 0 0 0 0 0 0 0 0 0 0 0 0 0 0 0 0 0 0 0 0 0 0 0 0 0 0 0 0 0 0 0 0 0 0 0 0 0 0 0 0 0 0 0 0 0 0 0 0 0 0 0 0 0 0 0 0 0 0 0 0 0 0 0 0 0 0 0 0 0 0 0 0 0 0 0 0 0 0 0 0 0 0 0 0 0 0 0 0 0 0 0 0 0 0 0 0 0 0 0 0 0 0 0 0 0 0 0 0 0 0 0 0 0 0 0 0 0 0 0 0 0 0 0 0 0 0 0 
0 0 0 0 0 0 0 0 0 0 0 0 0 0 0 0 0 0 0 0 0 0 0 0 0 0 0 0 0 0 0 0 0 0 0 0 0 0 0 0 0 0 0 0 0 0 0 0 0 0 0 0 0 0 0 0 0 0 0 0 0 0 0 0 0 0 0 0 0 0 0 0 0 0 0 0 0 0 0 0 0 0 0 0 0 0 0 0 0 0 0 0 0 0 0 0 0 0 0 0 0 0 0 0 0 0 0 0 0 0 0 0 0 0 0 0 0 0 0 0 0 0 0 0 0 0 0 0 0 0 0 0 0 0 0 0 0 0 0 0 0 0 0 0 0 0 0 0 0 0 0 0 0 0 0 0 0 0 0 0 0 0 0 0 0 0 0 0 0 0 0 0 0 0 0 0 0 0 0 0 0 0 0 0 0 0 0 0 0 0 0 0 0 0 0 0 0 0 0 0 0 0 0 0 0 0 0 0 0 0 0 0 0 0 0 0 0 0 0 0 0 0 0 0 0 0 0 0 0 0 0 0 0 0 0 0 0 0 0 0 0 0 0 0 0 0 0 0 0 0 0 0 0 0 0 0 0 0 0 0 0 0 0 0 0 0 0 0 0 0 0 0 0 0 0 0 0 0 0 0 0 0 0 0 0 0 0 0 0 0 0 0 0 0 0 0 0 0 0 0 0 0 0 0 0 0 0 0 0 0 0 0 0 0 0 0 0 0 0 0 0 0 0 0 0 0 0 0 0 0 0 0 0 0 0 0 0 0 0 0 0 0 0 0 0 0 0 0 0 0 0 0 0 0 0 0 0 0 0 0 0 0 0 0 0 0 0 0 0 0 0 0 0 0 0 0 0 0 0 0 0 0 0 0 0 0 0 0 0 0 0 0 0 0 0 0 0 0 0 0 0 0 0 0 0 0 0 0 0 0 0 0 0 0 0 0 0 0 0 0 0 0 0 0 0 0 0 0 0 0 0 0 0 0 0 0 0 0 0 0 0 0 0 0 0 0 0 0 0 0 0 0 0 0 0 0 0 0 0 0 0 0 0 0 0 0 0 0 0 0 0 
0 0 0 0 0 0 0 0 0 0 0 0 0 0 0 0 0 0 0 0 0 0 0 0 0 0 0 0 0 0 0 0 0 0 0 0 0 0 0 0 0 0 0 0 0 0 0 0 0 0 0 0 0 0 0 0 0 0 0 0 0 0 0 0 0 0 0 0 0 0 0 0 0 0 0 0 0 0 0 0 0 0 0 0 0 0 0 0 0 0 0 0 0 0 0 0 0 0 0 0 0 0 0 0 0 0 0 0 0 0 0 0 0 0 0 0 0 0 0 0 0 0 0 0 0 0 0 0 0 0 0 0 0 0 0 0 0 0 0 0 0 0 0 0 0 0 0 0 0 0 0 0 0 0 0 0 0 0 0 0 0 0 0 0 0 0 0 0 0 0 0 0 0 0 0 0 0 0 0 0 0 0 0 0 0 0 0 0 0 0 0 0 0 0 0 0 0 0 0 0 0 0 0 0 0 0 0 0 0 0 0 0 0 0 0 0 0 0 0 0 0 0 0 0 0 0 0 0 0 0 0 0 0 0 0 0 0 0 0 0 0 0 0 0 0 0 0 0 0 0 0 0 0 0 0 0 0 0 0 0 0 0 0 0 0 0 0 0 0 0 0 0 0 0 0 0 0 0 0 0 0 0 0 0 0 0 0 0 0 0 0 0 0 0 0 0 0 0 0 0 0 0 0 0 0 0 0 0 0 0 0 0 0 0 0 0 0 0 0 0 0 0 0 0 0 0 0 0 0 0 0 0 0 0 0 0 0 0 0 0 0 0 0 0 0 0 0 0 0 0 0 0 0 0 0 0 0 0 0 0 0 0 0 0 0 0 0 0 0 0 0 0 0 0 0 0 0 0 0 0 0 0 0 0 0 0 0 0 0 0 0 0 0 0 0 0 0 0 0 0 0 0 0 0 0 0 0 0 0 0 0 0 0 0 0 0 0 0 0 0 0 0 0 0 0 0 0 0 0 0 0 0 0 0 0 0 0 0 0 0 0 0 0 0 0 0 0 0 0 0 0 0 0 0 0 0 0 0 0 0 0 0 0 0 0 0 0 0 0 0 0 
0 0 0 0 0 0 0 0 0 0 0 0 0 0 0 0 0 0 0 0 0 0 0 0 0 0 0 0 0 0 0 0 0 0 0 0 0 0 0 0 0 0 0 0 0 0 0 0 0 0 0 0 0 0 0 0 0 0 0 0 0 0 0 0 0 0 0 0 0 0 0 0 0 0 0 0 0 0 0 0 0 0 0 0 0 0 0 0 0 0 0 0 0 0 0 0 0 0 0 0 0 0 0 0 0 0 0 0 0 0 0 0 0 0 0 0 0 0 0 0 0 0 0 0 0 0 0 0 0 0 0 0 0 0 0 0 0 0 0 0 0 0 0 0 0 0 0 0 0 0 0 0 0 0 0 0 0 0 0 0 0 0 0 0 0 0 0 0 0 0 0 0 0 0 0 0 0 0 0 0 0 0 0 0 0 0 0 0 0 0 0 0 0 0 0 0 0 0 0 0 0 0 0 0 0 0 0 0 0 0 0 0 0 0 0 0 0 0 0 0 0 0 0 0 0 0 0 0 0 0 0 0 0 0 0 0 0 0 0 0 0 0 0 0 0 0 0 0 0 0 0 0 0 0 0 0 0 0 0 0 0 0 0 0 0 0 0 0 0 0 0 0 0 0 0 0 0 0 0 0 0 0 0 0 0 0 0 0 0 0 0 0 0 0 0 0 0 0 0 0 0 0 0 0 0 0 0 0 0 0 0 0 0 0 0 0 0 0 0 0 0 0 0 0 0 0 0 0 0 0 0 0 0 0 0 0 0 0 0 0 0 0 0 0 0 0 0 0 0 0 0 0 0 0 0 0 0 0 0 0 0 0 0 0 0 0 0 0 0 0 0 0 0 0 0 0 0 0 0 0 0 0 0 0 0 0 0 0 0 0 0 0 0 0 0 0 0 0 0 0 0 0 0 0 0 0 0 0 0 0 0 0 0 0 0 0 0 0 0 0 0 0 0 0 0 0 0 0 0 0 0 0 0 0 0 0 0 0 0 0 0 0 0 0 0 0 0 0 0 0 0 0 0 0 0 0 0 0 0 0 0 0 0 0 0 0 0 0 0 0 0 
0 0 0 0 0 0 0 0 0 0 0 0 0 0 0 0 0 0 0 0 0 0 0 0 0 0 0 0 0 0 0 0 0 0 0 0 0 0 0 0 0 0 0 0 0 0 0 0 0 0 0 0 0 0 0 0 0 0 0 0 0 0 0 0 0 0 0 0 0 0 0 0 0 0 0 0 0 0 0 0 0 0 0 0 0 0 0 0 0 0 0 0 0 0 0 0 0 0 0 0 0 0 0 0 0 0 0 0 0 0 0 0 0 0 0 0 0 0 0 0 0 0 0 0 0 0 0 0 0 0 0 0 0 0 0 0 0 0 0 0 0 0 0 0 0 0 0 0 0 0 0 0 0 0 0 0 0 0 0 0 0 0 0 0 0 0 0 0 0 0 0 0 0 0 0 0 0 0 0 0 0 0 0 0 0 0 0 0 0 0 0 0 0 0 0 0 0 0 0 0 0 0 0 0 0 0 0 0 0 0 0 0 0 0 0 0 0 0 0 0 0 0 0 0 0 0 0 0 0 0 0 0 0 0 0 0 0 0 0 0 0 0 0 0 0 0 0 0 0 0 0 0 0 0 0 0 0 0 0 0 0 0 0 0 0 0 0 0 0 0 0 0 0 0 0 0 0 0 0 0 0 0 0 0 0 0 0 0 0 0 0 0 0 0 0 0 0 0 0 0 0 0 0 0 0 0 0 0 0 0 0 0 0 0 0 0 0 0 0 0 0 0 0 0 0 0 0 0 0 0 0 0 0 0 0 0 0 0 0 0 0 0 0 0 0 0 0 0 0 0 0 0 0 0 0 0 0 0 0 0 0 0 0 0 0 0 0 0 0 0 0 0 0 0 0 0 0 0 0.035755146294832229614 0.27071753144264221191 0.85556954145431518555 1.0420070886611938477 0.42139989137649536133 0 0 0 0 0 0 0 0 0 0 0 0 0 0 0 0 0 0 0 0 0 0 0 0 0 0 0 0 0 0 0 0 0 0 0 0 0 0 0 0 0 0 0 0 0 0 0 0 0 0 0 0 0 0 0 0 0 0 0 0 0 0 0 0 0 0 0 0 0 0 0 0 0 0 0 0 0 0 0 0 0 0 0 0 0 0 0 0 
0 0 0 0 0 0 0 0 0 0 0 0 0 0 0 0 0 0 0 0 0 0 0 0 0 0 0 0 0 0 0 0 0 0 0 0 0 0 0 0 0 0 0 0 0 0 0 0 0 0 0 0 0 0 0 0 0 0 0 0 0 0 0 0 0 0 0 0 0 0 0 0 0 0 0 0 0 0 0 0 0 0 0 0 0 0 0 0 0 0 0 0 0 0 0 0 0 0 0 0 0 0 0 0 0 0 0 0 0 0 0 0 0 0 0 0 0 0 0 0 0 0 0 0 0 0 0 0 0 0 0 0 0 0 0 0 0 0 0 0 0 0 0 0 0 0 0 0 0 0 0 0 0 0 0 0 0 0 0 0 0 0 0 0 0 0 0 0 0 0 0 0 0 0 0 0 0 0 0 0 0 0 0 0 0 0 0 0 0 0 0 0 0 0 0 0 0 0 0 0 0 0 0 0 0 0 0 0 0 0 0 0 0 0 0 0 0 0 0 0 0 0 0 0 0 0 0 0 0 0 0 0 0 0 0 0 0 0 0 0 0 0 0 0 0 0 0 0 0 0 0 0 0 0 0 0 0 0 0 0 0 0 0 0 0 0 0 0 0 0 0 0 0 0 0 0 0 0 0 0 0 0 0 0 0 0 0 0 0 0 0 0 0 0 0 0 0 0 0 0 0 0 0 0 0 0 0 0 0 0 0 0 0 0 0 0 0 0 0 0 0 0 0 0 0 0 0 0 0 0 0 0 0 0 0 0 0 0 0 0 0 0 0 0 0 0 0 0 0 0 0 0 0 0 0 0 0 0 0 0 0 0 0 0 0 0 0 0 0 0 0 0 0 0.0025539391208440065384 0.007661817595362663269 0.017877575010061264038 0.045970901846885681152 0.14812846481800079346 0.50823384523391723633 1.6064276695251464844 3.8462321758270263672 5.161510467529296875 1.7826493978500366211 0.28604117035865783691 0 0 0 0 0 0 0 0 0 0 0 0 0 0 0 0 0 0 0 0 0 0 0 0 0 0 0 0 0 0 0 0 0 0 0 0 0 0 0 0 0 0 0 0 0 0 0 0 0 0 0 0 0 0 0 0 0 0 0 0 0 0 0 0 0 0 0 0 0 0 0 0 0 0 0 0 0 0 0 0 0 0 0 0 0 0 0 
0 0 0 0 0 0 0 0 0 0 0 0 0 0 0 0 0 0 0 0 0 0 0 0 0 0 0 0 0 0 0 0 0 0 0 0 0 0 0 0 0 0 0 0 0 0 0 0 0 0 0 0 0 0 0 0 0 0 0 0 0 0 0 0 0 0 0 0 0 0 0 0 0 0 0 0 0 0 0 0 0 0 0 0 0 0 0 0 0 0 0 0 0 0 0 0 0 0 0 0 0 0 0 0 0 0 0 0 0 0 0 0 0 0 0 0 0 0 0 0 0 0 0 0 0 0 0 0 0 0 0 0 0 0 0 0 0 0 0 0 0 0 0 0 0 0 0 0 0 0 0 0 0 0 0 0 0 0 0 0 0 0 0 0 0 0 0 0 0 0 0 0 0 0 0 0 0 0 0 0 0 0 0 0 0 0 0 0 0 0 0 0 0 0 0 0 0 0 0 0 0 0 0 0 0 0 0 0 0 0 0 0 0 0 0 0 0 0 0 0 0 0 0 0 0 0 0 0 0 0 0 0 0 0 0 0 0 0 0 0 0 0 0 0 0 0 0 0 0 0 0 0 0 0 0 0 0 0 0 0 0 0 0 0 0 0 0 0 0 0 0 0 0 0 0 0 0 0 0 0 0 0 0 0 0 0 0 0 0 0 0 0 0 0 0 0 0 0 0 0 0 0 0 0 0 0 0 0 0 0 0 0 0 0 0 0 0 0 0 0 0 0 0 0 0 0 0 0 0 0 0 0 0 0 0 0 0 0 0 0.0051078782416880130768 0.017877575010061264038 0.028093332424759864807 0.030647270381450653076 0.030647270381450653076 0.030647270381450653076 0.030647270381450653076 0.030647270381450653076 0.030647270381450653076 0.030647270381450653076 0.028093332424759864807 0.022985454648733139038 0.020431512966752052307 0.020431512966752052307 0.020431512966752052307 0.020431512966752052307 0.020431512966752052307 0.017877575010061264038 0.012769696302711963654 0.010215756483376026154 0.010215756483376026154 0.010215756483376026154 0.010215756483376026154 0.010215756483376026154 0.012769696302711963654 0.022985450923442840576 0.035755150020122528076 0.040863025933504104614 0.040863025933504104614 0.040863025933504104614 0.040863025933504104614 0.040863025933504104614 0.040863025933504104614 0.040863025933504104614 0.048524841666221618652 0.074064232409000396729 0.1123733222484588623 0.30136480927467346191 0.81470656394958496094 2.1121077537536621094 4.2369847297668457031 6.244380950927734375 6.2367191314697265625 3.9611594676971435547 0.71254903078079223633 0 0 0 0 0 0 0 0 0 0 0 0 0 0 0 0 0 0 0 0 0 0 0 0 0 0 0 0 0 0 0 0 0 0 0 0 0 0 0 0 0 0 0 0 0 0 0 0 0 0 0 0 0 0 0 0 0 0 0 0 0 0 0 0 0 0 0 0 0 0 0 0 0 0 0 0 0 0 0 0 0 0 0 0 0 0 0 
0 0 0 0 0 0 0 0 0 0 0 0 0 0 0 0 0 0 0 0 0 0 0 0 0 0 0 0 0 0 0 0 0 0 0 0 0 0 0 0 0 0 0 0 0 0 0 0 0 0 0 0 0 0 0 0 0 0 0 0 0 0 0 0 0 0 0 0 0 0 0 0 0 0 0 0 0 0 0 0 0 0 0 0 0 0 0 0 0 0 0 0 0 0 0 0 0 0 0 0 0 0 0 0 0 0 0 0 0 0 0 0 0 0 0 0 0 0 0 0 0 0 0 0 0 0 0 0 0 0 0 0 0 0 0 0 0 0 0 0 0 0 0 0 0 0 0 0 0 0 0 0 0 0 0 0 0 0 0 0 0 0 0 0 0 0 0 0 0 0 0 0 0 0 0 0 0 0 0 0 0 0 0 0 0 0 0 0 0 0 0 0 0 0 0 0 0 0 0 0 0 0 0 0 0 0 0 0 0 0 0 0 0 0 0 0 0 0 0 0 0 0 0 0 0 0 0 0 0 0 0 0 0 0 0 0 0 0 0 0 0 0 0 0 0 0 0 0 0 0 0 0 0 0 0 0 0 0 0 0 0 0 0 0 0 0 0 0 0 0 0 0 0 0 0 0 0 0 0 0 0 0 0 0 0 0 0 0 0 0 0 0 0 0 0 0 0 0 0 0 0 0 0 0 0 0 0 0 0 0 0 0 0 0 0 0 0 0 0 0 0 0 0 0 0 0 0 0 0 0 0 0.0025539391208440065384 0.010215756483376026154 0.022985450923442840576 0.038309089839458465576 0.048524841666221618652 0.051078781485557556152 0.051078781485557556152 0.051078781485557556152 0.06129453703761100769 0.099603630602359771729 0.11237332969903945923 0.1047115027904510498 0.099603630602359771729 0.094495750963687896729 0.091941818594932556152 0.091941818594932556152 0.091941818594932556152 0.094495750963687896729 0.094495750963687896729 0.076618179678916931152 0.068956352770328521729 0.063848480582237243652 0.061294540762901306152 0.061294540762901306152 0.063848480582237243652 0.063848480582237243652 0.045970901846885681152 0.040863025933504104614 0.040863025933504104614 0.040863025933504104614 0.040863025933504104614 0.051078785210847854614 0.081726051867008209229 0.13535876572132110596 0.18643756210803985596 0.19665332138538360596 0.20942300558090209961 0.22219270467758178711 0.22730058431625366211 0.23240846395492553711 0.23240846395492553711 0.22730058431625366211 0.23751632869243621826 0.28604117035865783691 0.41373813152313232422 0.91941809654235839844 2.1299853324890136719 3.9049727916717529297 5.723377227783203125 5.9123687744140625 4.6992478370666503906 2.7837936878204345703 0.63337695598602294922 0 0 0 0 0 0 0 0 0 0 0 0 0 0 0 0 0 0 0 0 0 0 0 0 0 0 0 0 0 0 0 0 0 0 0 0 0 0 0 0 0 0 0 0 0 0 0 0 0 0 0 0 0 0 0 0 0 0 0 0 0 0 0 0 0 0 0 0 0 0 0 0 0 0 0 0 0 0 0 0 0 0 0 0 0 0 0 
0 0 0 0 0 0 0 0 0 0 0 0 0 0 0 0 0 0 0 0 0 0 0 0 0 0 0 0 0 0 0 0 0 0 0 0 0 0 0 0 0 0 0 0 0 0 0 0 0 0 0 0 0 0 0 0 0 0 0 0 0 0 0 0 0 0 0 0 0 0 0 0 0 0 0 0 0 0 0 0 0 0 0 0 0 0 0 0 0 0 0 0 0 0 0 0 0 0 0 0 0 0 0 0 0 0 0 0 0 0 0 0 0 0 0 0 0 0 0 0 0 0 0 0 0 0 0 0 0 0 0 0 0 0 0 0 0 0 0 0 0 0 0 0 0 0 0 0 0 0 0 0 0 0 0 0 0 0 0 0 0 0 0 0 0 0 0 0 0 0 0 0 0 0 0 0 0 0 0 0 0 0 0 0 0 0 0 0 0 0 0 0 0 0 0 0 0 0 0 0 0 0 0 0 0 0 0 0 0 0 0 0 0 0 0 0 0 0 0 0 0 0 0 0 0 0 0 0 0 0 0 0 0 0 0 0 0 0 0 0 0 0 0 0 0 0 0 0 0 0 0 0 0 0 0 0 0 0 0 0 0 0 0 0 0 0 0 0 0 0 0 0 0 0 0 0 0 0 0 0 0 0 0 0 0 0 0 0 0 0 0 0 0 0 0 0 0 0 0 0 0 0 0 0 0 0 0 0 0 0 0 0 0 0 0 0 0 0 0 0 0 0 0 0 0 0 0 0 0.0025539391208440065384 0.017877573147416114807 0.043416965752840042114 0.063848480582237243652 0.089387871325016021729 0.1174812018871307373 0.1557902991771697998 0.17111392319202423096 0.16600602865219116211 0.16345208883285522461 0.16345208883285522461 0.17111390829086303711 0.17366786301136016846 0.1174812018871307373 0.079172119498252868652 0.066402420401573181152 0.045970909297466278076 0.038309089839458465576 0.033201210200786590576 0.030647270381450653076 0.035755150020122528076 0.053632721304893493652 0.056186664849519729614 0.053632721304893493652 0.033201210200786590576 0.022985450923442840576 0.020431512966752052307 0.025539392605423927307 0.043416965752840042114 0.043416965752840042114 0.040863025933504104614 0.043416965752840042114 0.051078785210847854614 0.074064239859580993652 0.1302509009838104248 0.24007026851177215576 0.30647268891334533691 0.32690420746803283691 0.30902665853500366211 0.36776721477508544922 0.39586055278778076172 0.39586055278778076172 0.41629204154014587402 0.42395389080047607422 0.42395386099815368652 0.48269447684288024902 0.63593089580535888672 1.0190217494964599609 2.0380432605743408203 3.6163778305053710938 4.9444260597229003906 5.4501061439514160156 4.1756901741027832031 2.7199451923370361328 1.4276520013809204102 0.30391877889633178711 0 0 0 0 0 0 0 0 0 0 0 0 0 0 0 0 0 0 0 0 0 0 0 0 0 0 0 0 0 0 0 0 0 0 0 0 0 0 0 0 0 0 0 0 0 0 0 0 0 0 0 0 0 0 0 0 0 0 0 0 0 0 0 0 0 0 0 0 0 0 0 0 0 0 0 0 0 0 0 0 0 0 0 0 0 0 0 
0 0 0 0 0 0 0 0 0 0 0 0 0 0 0 0 0 0 0 0 0 0 0 0 0 0 0 0 0 0 0 0 0 0 0 0 0 0 0 0 0 0 0 0 0 0 0 0 0 0 0 0 0 0 0 0 0 0 0 0 0 0 0 0 0 0 0 0 0 0 0 0 0 0 0 0 0 0 0 0 0 0 0 0 0 0 0 0 0 0 0 0 0 0 0 0 0 0 0 0 0 0 0 0 0 0 0 0 0 0 0 0 0 0 0 0 0 0 0 0 0 0 0 0 0 0 0 0 0 0 0 0 0 0 0 0 0 0 0 0 0 0 0 0 0 0 0 0 0 0 0 0 0 0 0 0 0 0 0 0 0 0 0 0 0 0 0 0 0 0 0 0 0 0 0 0 0 0 0 0 0 0 0 0 0 0 0 0 0 0 0 0 0 0 0 0 0 0 0 0 0 0 0 0 0 0 0 0 0 0 0 0 0 0 0 0 0 0 0 0 0 0 0 0 0 0 0 0 0 0 0 0 0 0 0 0 0 0 0 0 0 0 0 0 0 0 0 0 0 0 0 0 0 0 0 0 0 0 0 0 0 0 0 0 0 0 0 0 0 0 0 0 0 0 0 0 0 0 0 0 0 0 0 0 0 0 0 0 0 0 0 0 0 0 0 0 0 0 0 0 0 0 0 0 0 0 0 0 0 0 0 0 0 0 0 0 0 0 0 0 0 0 0.0025539391208440065384 0.015323635190725326538 0.035755146294832229614 0.051078785210847854614 0.061294540762901306152 0.068956352770328521729 0.076618172228336334229 0.1149272620677947998 0.19154542684555053711 0.20942300558090209961 0.20176120102405548096 0.18643754720687866211 0.16600604355335235596 0.1251430213451385498 0.097049683332443237305 0.091941803693771362305 0.091941803693771362305 0.097049683332443237305 0.1123733222484588623 0.10215757042169570923 0.076618179678916931152 0.066402420401573181152 0.058740600943565368652 0.051078785210847854614 0.025539392605423927307 0.012769696302711963654 0.012769696302711963654 0.017877575010061264038 0.025539392605423927307 0.045970901846885681152 0.045970901846885681152 0.025539392605423927307 0.022985454648733139038 0.035755146294832229614 0.053632721304893493652 0.066402420401573181152 0.076618172228336334229 0.099603630602359771729 0.1583442389965057373 0.24007028341293334961 0.37032115459442138672 0.40096843242645263672 0.36010542511940002441 0.31924238801002502441 0.29370298981666564941 0.31924235820770263672 0.28093329071998596191 0.24517814815044403076 0.25283998250961303711 0.30136480927467346191 0.40096846222877502441 0.64870053529739379883 1.0879780054092407227 1.8541598320007324219 3.2996892929077148438 4.7835278511047363281 5.2994236946105957031 4.5638895034790039062 2.8910591602325439453 1.6626144647598266602 0.72531878948211669922 0.13535876572132110596 0 0 0 0 0 0 0 0 0 0 0 0 0 0 0 0 0 0 0 0 0 0 0 0 0 0 0 0 0 0 0 0 0 0 0 0 0 0 0 0 0 0 0 0 0 0 0 0 0 0 0 0 0 0 0 0 0 0 0 0 0 0 0 0 0 0 0 0 0 0 0 0 0 0 0 0 0 0 0 0 0 0 0 0 0 0 0 
0 0 0 0 0 0 0 0 0 0 0 0 0 0 0 0 0 0 0 0 0 0 0 0 0 0 0 0 0 0 0 0 0 0 0 0 0 0 0 0 0 0 0 0 0 0 0 0 0 0 0 0 0 0 0 0 0 0 0 0 0 0 0 0 0 0 0 0 0 0 0 0 0 0 0 0 0 0 0 0 0 0 0 0 0 0 0 0 0 0 0 0 0 0 0 0 0 0 0 0 0 0 0 0 0 0 0 0 0 0 0 0 0 0 0 0 0 0 0 0 0 0 0 0 0 0 0 0 0 0 0 0 0 0 0 0 0 0 0 0 0 0 0 0 0 0 0 0 0 0 0 0 0 0 0 0 0 0 0 0 0 0 0 0 0 0 0 0 0 0 0 0 0 0 0 0 0 0 0 0 0 0 0 0 0 0 0 0 0 0 0 0 0 0 0 0 0 0 0 0 0 0 0 0 0 0 0 0 0 0 0 0 0 0 0 0 0 0 0 0 0 0 0 0 0 0 0 0 0 0 0 0 0 0 0 0 0 0 0 0 0 0 0 0 0 0 0 0 0 0 0 0 0 0 0 0 0 0 0 0 0 0 0 0 0 0 0 0 0 0 0 0 0 0 0 0 0 0 0 0 0 0 0 0 0 0 0 0 0 0 0 0 0 0 0 0 0 0 0 0 0 0 0 0 0 0 0 0 0 0 0 0 0 0 0 0 0 0 0 0 0.0025539391208440065384 0.007661817595362663269 0.025539390742778778076 0.079172119498252868652 0.1506824195384979248 0.17877574265003204346 0.20176120102405548096 0.21963876485824584961 0.21963876485824584961 0.22730058431625366211 0.21197694540023803711 0.13535876572132110596 0.094495750963687896729 0.081726051867008209229 0.068956352770328521729 0.053632721304893493652 0.043416965752840042114 0.040863025933504104614 0.040863025933504104614 0.043416965752840042114 0.053632721304893493652 0.079172119498252868652 0.10215757042169570923 0.1047115027904510498 0.094495750963687896729 0.10981938987970352173 0.089387871325016021729 0.058740600943565368652 0.051078785210847854614 0.053632721304893493652 0.061294540762901306152 0.074064239859580993652 0.094495750963687896729 0.094495750963687896729 0.099603630602359771729 0.13791270554065704346 0.18899148702621459961 0.21197693049907684326 0.26050180196762084961 0.31668847799301147461 0.45460119843482971191 0.53632724285125732422 0.50312602519989013672 0.37798297405242919922 0.31668847799301147461 0.27327147126197814941 0.23496238887310028076 0.19920726120471954346 0.14046664535999298096 0.099603630602359771729 0.1302509009838104248 0.26816362142562866211 0.54398900270462036133 1.0547769069671630859 1.8567137718200683594 3.1336832046508789062 4.6481690406799316406 5.1870503425598144531 4.5536737442016601562 3.0902662277221679688 1.7085852622985839844 0.92963385581970214844 0.31924238801002502441 0.045970909297466278076 0 0 0 0 0 0 0 0 0 0 0 0 0 0 0 0 0 0 0 0 0 0 0 0 0 0 0 0 0 0 0 0 0 0 0 0 0 0 0 0 0 0 0 0 0 0 0 0 0 0 0 0 0 0 0 0 0 0 0 0 0 0 0 0 0 0 0 0 0 0 0 0 0 0 0 0 0 0 0 0 0 0 0 0 0 0 0 
0 0 0 0 0 0 0 0 0 0 0 0 0 0 0 0 0 0 0 0 0 0 0 0 0 0 0 0 0 0 0 0 0 0 0 0 0 0 0 0 0 0 0 0 0 0 0 0 0 0 0 0 0 0 0 0 0 0 0 0 0 0 0 0 0 0 0 0 0 0 0 0 0 0 0 0 0 0 0 0 0 0 0 0 0 0 0 0 0 0 0 0 0 0 0 0 0 0 0 0 0 0 0 0 0 0 0 0 0 0 0 0 0 0 0 0 0 0 0 0 0 0 0 0 0 0 0 0 0 0 0 0 0 0 0 0 0 0 0 0 0 0 0 0 0 0 0 0 0 0 0 0 0 0 0 0 0 0 0 0 0 0 0 0 0 0 0 0 0 0 0 0 0 0 0 0 0 0 0 0 0 0 0 0 0 0 0 0 0 0 0 0 0 0 0 0 0 0 0 0 0 0 0 0 0 0 0 0 0 0 0 0 0 0 0 0 0 0 0 0 0 0 0 0 0 0 0 0 0 0 0 0 0 0 0 0 0 0 0 0 0 0 0 0 0 0 0 0 0 0 0 0 0 0 0 0 0 0 0 0 0 0 0 0 0 0 0 0 0 0 0 0 0 0 0 0 0 0 0 0 0 0 0 0 0 0 0 0 0 0 0 0 0 0 0 0 0 0 0 0 0 0 0 0 0 0 0 0 0 0 0 0 0 0 0 0 0 0 0 0.010215756483376026154 0.040863025933504104614 0.079172119498252868652 0.1098193824291229248 0.19154542684555053711 0.18388360738754272461 0.14046664535999298096 0.1276969611644744873 0.10215757042169570923 0.076618172228336334229 0.068956352770328521729 0.053632721304893493652 0.028093332424759864807 0.012769696302711963654 0.010215756483376026154 0.010215756483376026154 0.010215756483376026154 0.010215756483376026154 0.010215756483376026154 0.010215756483376026154 0.010215756483376026154 0.012769696302711963654 0.020431512966752052307 0.033201210200786590576 0.053632721304893493652 0.061294540762901306152 0.089387871325016021729 0.10981938987970352173 0.089387871325016021729 0.084279991686344146729 0.094495750963687896729 0.11492726951837539673 0.1174812018871307373 0.1200351417064666748 0.1251430213451385498 0.1430206000804901123 0.19409938156604766846 0.23496238887310028076 0.25283998250961303711 0.32435026764869689941 0.38309088349342346191 0.46737083792686462402 0.36521330475807189941 0.23240846395492553711 0.18132968246936798096 0.17877574265003204346 0.16855998337268829346 0.14046664535999298096 0.1276969611644744873 0.1276969611644744873 0.1583442389965057373 0.29881086945533752441 0.71254903078079223633 1.2769695520401000977 2.2244808673858642578 3.3839693069458007812 4.4004368782043457031 5.0031666755676269531 4.2880635261535644531 3.0034322738647460938 1.7136931419372558594 0.88366293907165527344 0.44183146953582763672 0.1123733222484588623 0.007661817595362663269 0 0 0 0 0 0 0 0 0 0 0 0 0 0 0 0 0 0 0 0 0 0 0 0 0 0 0 0 0 0 0 0 0 0 0 0 0 0 0 0 0 0 0 0 0 0 0 0 0 0 0 0 0 0 0 0 0 0 0 0 0 0 0 0 0 0 0 0 0 0 0 0 0 0 0 0 0 0 0 0 0 0 0 0 0 0 0 
0 0 0 0 0 0 0 0 0 0 0 0 0 0 0 0 0 0 0 0 0 0 0 0 0 0 0 0 0 0 0 0 0 0 0 0 0 0 0 0 0 0 0 0 0 0 0 0 0 0 0 0 0 0 0 0 0 0 0 0 0 0 0 0 0 0 0 0 0 0 0 0 0 0 0 0 0 0 0 0 0 0 0 0 0 0 0 0 0 0 0 0 0 0 0 0 0 0 0 0 0 0 0 0 0 0 0 0 0 0 0 0 0 0 0 0 0 0 0 0 0 0 0 0 0 0 0 0 0 0 0 0 0 0 0 0 0 0 0 0 0 0 0 0 0 0 0 0 0 0 0 0 0 0 0 0 0 0 0 0 0 0 0 0 0 0 0 0 0 0 0 0 0 0 0 0 0 0 0 0 0 0 0 0 0 0 0 0 0 0 0 0 0 0 0 0 0 0 0 0 0 0 0 0 0 0 0 0 0 0 0 0 0 0 0 0 0 0 0 0 0 0 0 0 0 0 0 0 0 0 0 0 0 0 0 0 0 0 0 0 0 0 0 0 0 0 0 0 0 0 0 0 0 0 0 0 0 0 0 0 0 0 0 0 0 0 0 0 0 0 0 0 0 0 0 0 0 0 0 0 0 0 0 0 0 0 0 0 0 0 0 0 0 0 0 0 0 0 0 0 0 0 0 0 0 0 0 0 0 0 0 0 0 0 0 0 0 0 0.0051078782416880130768 0.043416965752840042114 0.1506824195384979248 0.20176120102405548096 0.19665330648422241211 0.20431514084339141846 0.1225890815258026123 0.081726051867008209229 0.048524845391511917114 0.015323635190725326538 0.0025539391208440065384 0 0 0 0 0 0 0 0 0 0 0 0 0 0.0025539391208440065384 0.007661817595362663269 0.012769696302711963654 0.028093332424759864807 0.058740600943565368652 0.063848480582237243652 0.066402420401573181152 0.086833931505680084229 0.086833931505680084229 0.068956352770328521729 0.071510300040245056152 0.084279991686344146729 0.1225890815258026123 0.20431514084339141846 0.28093329071998596191 0.33201208710670471191 0.44183146953582763672 0.42139995098114013672 0.34222784638404846191 0.20942300558090209961 0.1583442389965057373 0.16345210373401641846 0.17877574265003204346 0.18388360738754272461 0.19409938156604766846 0.23496240377426147461 0.37287512421607971191 0.81981450319290161133 1.5502409934997558594 2.4849827289581298828 3.4605875015258789062 4.5306878089904785156 4.95208740234375 4.742664337158203125 4.1910138130187988281 2.8859512805938720703 1.7698798179626464844 1.0496690273284912109 0.50823390483856201172 0.20942300558090209961 0.040863025933504104614 0 0 0 0 0 0 0 0 0 0 0 0 0 0 0 0 0 0 0 0 0 0 0 0 0 0 0 0 0 0 0 0 0 0 0 0 0 0 0 0 0 0 0 0 0 0 0 0 0 0 0 0 0 0 0 0 0 0 0 0 0 0 0 0 0 0 0 0 0 0 0 0 0 0 0 0 0 0 0 0 0 0 0 0 0 0 0 0 
0 0 0 0 0 0 0 0 0 0 0 0 0 0 0 0 0 0 0 0 0 0 0 0 0 0 0 0 0 0 0 0 0 0 0 0 0 0 0 0 0 0 0 0 0 0 0 0 0 0 0 0 0 0 0 0 0 0 0 0 0 0 0 0 0 0 0 0 0 0 0 0 0 0 0 0 0 0 0 0 0 0 0 0 0 0 0 0 0 0 0 0 0 0 0 0 0 0 0 0 0 0 0 0 0 0 0 0 0 0 0 0 0 0 0 0 0 0 0 0 0 0 0 0 0 0 0 0 0 0 0 0 0 0 0 0 0 0 0 0 0 0 0 0 0 0 0 0 0 0 0 0 0 0 0 0 0 0 0 0 0 0 0 0 0 0 0 0 0 0 0 0 0 0 0 0 0 0 0 0 0 0 0 0 0 0 0 0 0 0 0 0 0 0 0 0 0 0 0 0 0 0 0 0 0 0 0 0 0 0 0 0 0 0 0 0 0 0 0 0 0 0 0 0 0 0 0 0 0 0 0 0 0 0 0 0 0 0 0 0 0 0 0 0 0 0 0 0 0 0 0 0 0 0 0 0 0 0 0 0 0 0 0 0 0 0 0 0 0 0 0 0 0 0 0 0 0 0 0 0 0 0 0 0 0 0 0 0 0 0 0 0 0 0 0 0 0 0 0 0 0 0 0 0 0 0 0 0 0 0 0 0 0 0 0 0 0.0025539391208440065384 0.010215756483376026154 0.038309089839458465576 0.1251430213451385498 0.20431512594223022461 0.15068240463733673096 0.10215757042169570923 0.076618179678916931152 0.035755150020122528076 0.017877575010061264038 0.010215756483376026154 0.0025539391208440065384 0 0 0 0 0 0 0 0 0 0 0 0 0 0 0 0 0 0.010215756483376026154 0.038309089839458465576 0.045970901846885681152 0.051078785210847854614 0.053632721304893493652 0.035755150020122528076 0.043416965752840042114 0.086833931505680084229 0.1328048408031463623 0.18132968246936798096 0.29625692963600158691 0.47503265738487243652 0.53888112306594848633 0.50567996501922607422 0.35499754548072814941 0.27837935090065002441 0.26560968160629272461 0.28093332052230834961 0.34478178620338439941 0.38564479351043701172 0.43416965007781982422 0.58995991945266723633 0.89132475852966308594 1.5068240165710449219 2.8272106647491455078 4.4745011329650878906 5.60589599609375 5.9200305938720703125 5.6084499359130859375 4.6788163185119628906 3.6572408676147460938 2.7250530719757080078 1.7520022392272949219 1.0241296291351318359 0.58740597963333129883 0.24262422323226928711 0.061294540762901306152 0.010215756483376026154 0 0 0 0 0 0 0 0 0 0 0 0 0 0 0 0 0 0 0 0 0 0 0 0 0 0 0 0 0 0 0 0 0 0 0 0 0 0 0 0 0 0 0 0 0 0 0 0 0 0 0 0 0 0 0 0 0 0 0 0 0 0 0 0 0 0 0 0 0 0 0 0 0 0 0 0 0 0 0 0 0 0 0 0 0 0 0 0 
0 0 0 0 0 0 0 0 0 0 0 0 0 0 0 0 0 0 0 0 0 0 0 0 0 0 0 0 0 0 0 0 0 0 0 0 0 0 0 0 0 0 0 0 0 0 0 0 0 0 0 0 0 0 0 0 0 0 0 0 0 0 0 0 0 0 0 0 0 0 0 0 0 0 0 0 0 0 0 0 0 0 0 0 0 0 0 0 0 0 0 0 0 0 0 0 0 0 0 0 0 0 0 0 0 0 0 0 0 0 0 0 0 0 0 0 0 0 0 0 0 0 0 0 0 0 0 0 0 0 0 0 0 0 0 0 0 0 0 0 0 0 0 0 0 0 0 0 0 0 0 0 0 0 0 0 0 0 0 0 0 0 0 0 0 0 0 0 0 0 0 0 0 0 0 0 0 0 0 0 0 0 0 0 0 0 0 0 0 0 0 0 0 0 0 0 0 0 0 0 0 0 0 0 0 0 0 0 0 0 0 0 0 0 0 0 0 0 0 0 0 0 0 0 0 0 0 0 0 0 0 0 0 0 0 0 0 0 0 0 0 0 0 0 0 0 0 0 0 0 0 0 0 0 0 0 0 0 0 0 0 0 0 0 0 0 0 0 0 0 0 0 0 0 0 0 0 0 0 0 0 0 0 0 0 0 0 0 0 0 0 0 0 0 0 0 0 0 0 0 0 0 0 0 0 0 0 0 0 0 0 0 0.0051078782416880130768 0.017877575010061264038 0.030647270381450653076 0.038309089839458465576 0.048524841666221618652 0.079172119498252868652 0.1328048408031463623 0.22219270467758178711 0.19665330648422241211 0.099603623151779174805 0.043416965752840042114 0.012769696302711963654 0.0025539391208440065384 0 0 0 0 0 0 0 0 0 0 0 0 0 0 0 0 0.0025539391208440065384 0.007661817595362663269 0.010215756483376026154 0.012769696302711963654 0.028093332424759864807 0.056186664849519729614 0.053632721304893493652 0.071510300040245056152 0.074064239859580993652 0.076618179678916931152 0.11748119443655014038 0.20176118612289428711 0.26305574178695678711 0.36265936493873596191 0.54654294252395629883 0.62060725688934326172 0.44949328899383544922 0.33201208710670471191 0.27582541108131408691 0.25539389252662658691 0.27582541108131408691 0.33456602692604064941 0.45204722881317138672 0.56697446107864379883 0.81215262413024902344 1.4353138208389282227 2.3572857379913330078 3.6368093490600585938 5.0210442543029785156 5.4679837226867675781 4.9137787818908691406 4.0352234840393066406 3.2026395797729492188 2.3955948352813720703 1.7698798179626464844 1.3944507837295532227 1.0241296291351318359 0.56442052125930786133 0.25028604269027709961 0.084279991686344146729 0.012769696302711963654 0 0 0 0 0 0 0 0 0 0 0 0 0 0 0 0 0 0 0 0 0 0 0 0 0 0 0 0 0 0 0 0 0 0 0 0 0 0 0 0 0 0 0 0 0 0 0 0 0 0 0 0 0 0 0 0 0 0 0 0 0 0 0 0 0 0 0 0 0 0 0 0 0 0 0 0 0 0 0 0 0 0 0 0 0 0 0 0 0 
0 0 0 0 0 0 0 0 0 0 0 0 0 0 0 0 0 0 0 0 0 0 0 0 0 0 0 0 0 0 0 0 0 0 0 0 0 0 0 0 0 0 0 0 0 0 0 0 0 0 0 0 0 0 0 0 0 0 0 0 0 0 0 0 0 0 0 0 0 0 0 0 0 0 0 0 0 0 0 0 0 0 0 0 0 0 0 0 0 0 0 0 0 0 0 0 0 0 0 0 0 0 0 0 0 0 0 0 0 0 0 0 0 0 0 0 0 0 0 0 0 0 0 0 0 0 0 0 0 0 0 0 0 0 0 0 0 0 0 0 0 0 0 0 0 0 0 0 0 0 0 0 0 0 0 0 0 0 0 0 0 0 0 0 0 0 0 0 0 0 0 0 0 0 0 0 0 0 0 0 0 0 0 0 0 0 0 0 0 0 0 0 0 0 0 0 0 0 0 0 0 0 0 0 0 0 0 0 0 0 0 0 0 0 0 0 0 0 0 0 0 0 0 0 0 0 0 0 0 0 0 0 0 0 0 0 0 0 0 0 0 0 0 0 0 0 0 0 0 0 0 0 0 0 0 0 0 0 0 0 0 0 0 0 0 0 0 0 0 0 0 0 0 0 0 0 0 0 0 0 0 0 0 0 0 0 0 0 0 0 0 0 0 0 0 0 0 0 0 0 0 0 0 0 0 0 0 0 0 0.0025539391208440065384 0.010215756483376026154 0.022985450923442840576 0.045970901846885681152 0.091941818594932556152 0.11492726951837539673 0.1302509009838104248 0.14557452499866485596 0.18132968246936798096 0.20176118612289428711 0.19154542684555053711 0.094495743513107299805 0.030647270381450653076 0.010215756483376026154 0.0025539391208440065384 0 0 0 0 0 0 0 0 0 0 0 0 0 0 0 0 0 0.007661817595362663269 0.030647270381450653076 0.033201210200786590576 0.040863025933504104614 0.079172119498252868652 0.11237332969903945923 0.1225890815258026123 0.13791270554065704346 0.1251430213451385498 0.1455745398998260498 0.18899148702621459961 0.26050180196762084961 0.31924235820770263672 0.41884601116180419922 0.51334178447723388672 0.42650783061981201172 0.28093329071998596191 0.27837935090065002441 0.25283998250961303711 0.26050180196762084961 0.32179632782936096191 0.41884601116180419922 0.64103865623474121094 1.0547769069671630859 1.6549526453018188477 2.6841900348663330078 3.6955499649047851562 4.3851132392883300781 4.5970902442932128906 3.8206927776336669922 2.8501961231231689453 1.8873609304428100586 1.1824737787246704102 0.79427504539489746094 0.62316113710403442383 0.60017567873001098633 0.40607634186744689941 0.1557902991771697998 0.051078785210847854614 0.015323635190725326538 0.0025539391208440065384 0 0 0 0 0 0 0 0 0 0 0 0 0 0 0 0 0 0 0 0 0 0 0 0 0 0 0 0 0 0 0 0 0 0 0 0 0 0 0 0 0 0 0 0 0 0 0 0 0 0 0 0 0 0 0 0 0 0 0 0 0 0 0 0 0 0 0 0 0 0 0 0 0 0 0 0 0 0 0 0 0 0 0 0 0 0 0 0 0 
0 0 0 0 0 0 0 0 0 0 0 0 0 0 0 0 0 0 0 0 0 0 0 0 0 0 0 0 0 0 0 0 0 0 0 0 0 0 0 0 0 0 0 0 0 0 0 0 0 0 0 0 0 0 0 0 0 0 0 0 0 0 0 0 0 0 0 0 0 0 0 0 0 0 0 0 0 0 0 0 0 0 0 0 0 0 0 0 0 0 0 0 0 0 0 0 0 0 0 0 0 0 0 0 0 0 0 0 0 0 0 0 0 0 0 0 0 0 0 0 0 0 0 0 0 0 0 0 0 0 0 0 0 0 0 0 0 0 0 0 0 0 0 0 0 0 0 0 0 0 0 0 0 0 0 0 0 0 0 0 0 0 0 0 0 0 0 0 0 0 0 0 0 0 0 0 0 0 0 0 0 0 0 0 0 0 0 0 0 0 0 0 0 0 0 0 0 0 0 0 0 0 0 0 0 0 0 0 0 0 0 0 0 0 0 0 0 0 0 0 0 0 0 0 0 0 0 0 0 0 0 0 0 0 0 0 0 0 0 0 0 0 0 0 0 0 0 0 0 0 0 0 0 0 0 0 0 0 0 0 0 0 0 0 0 0 0 0 0 0 0 0 0 0 0 0 0 0 0 0 0 0 0 0 0 0 0 0 0 0 0 0 0 0 0 0 0 0 0 0 0 0 0 0 0 0 0 0 0.015323635190725326538 0.053632721304893493652 0.097049690783023834229 0.1276969611644744873 0.16600604355335235596 0.16600604355335235596 0.1276969611644744873 0.1047115027904510498 0.11237332969903945923 0.14302058517932891846 0.11748119443655014038 0.071510292589664459229 0.022985450923442840576 0.0025539391208440065384 0 0 0 0 0 0 0 0 0 0 0 0 0 0 0 0 0 0 0 0.010215756483376026154 0.033201210200786590576 0.022985450923442840576 0.038309089839458465576 0.091941818594932556152 0.1098193824291229248 0.11237332969903945923 0.1072654426097869873 0.091941818594932556152 0.10981938987970352173 0.19154544174671173096 0.32435026764869689941 0.42906177043914794922 0.50057202577590942383 0.48014053702354431152 0.34733572602272033691 0.26560968160629272461 0.32435026764869689941 0.34478178620338439941 0.39841452240943908691 0.48524844646453857422 0.72021085023880004883 1.2284446954727172852 1.9026845693588256836 2.5386157035827636719 3.3992929458618164062 3.7849376201629638672 3.7900454998016357422 3.3022434711456298828 2.3394081592559814453 1.5834422111511230469 0.98326659202575683594 0.60272961854934692383 0.41118422150611877441 0.31413453817367553711 0.28604117035865783691 0.1225890815258026123 0.020431512966752052307 0 0 0 0 0 0 0 0 0 0 0 0 0 0 0 0 0 0 0 0 0 0 0 0 0 0 0 0 0 0 0 0 0 0 0 0 0 0 0 0 0 0 0 0 0 0 0 0 0 0 0 0 0 0 0 0 0 0 0 0 0 0 0 0 0 0 0 0 0 0 0 0 0 0 0 0 0 0 0 0 0 0 0 0 0 0 0 0 0 0 0 0 
0 0 0 0 0 0 0 0 0 0 0 0 0 0 0 0 0 0 0 0 0 0 0 0 0 0 0 0 0 0 0 0 0 0 0 0 0 0 0 0 0 0 0 0 0 0 0 0 0 0 0 0 0 0 0 0 0 0 0 0 0 0 0 0 0 0 0 0 0 0 0 0 0 0 0 0 0 0 0 0 0 0 0 0 0 0 0 0 0 0 0 0 0 0 0 0 0 0 0 0 0 0 0 0 0 0 0 0 0 0 0 0 0 0 0 0 0 0 0 0 0 0 0 0 0 0 0 0 0 0 0 0 0 0 0 0 0 0 0 0 0 0 0 0 0 0 0 0 0 0 0 0 0 0 0 0 0 0 0 0 0 0 0 0 0 0 0 0 0 0 0 0 0 0 0 0 0 0 0 0 0 0 0 0 0 0 0 0 0 0 0 0 0 0 0 0 0 0 0 0 0 0 0 0 0 0 0 0 0 0 0 0 0 0 0 0 0 0 0 0 0 0 0 0 0 0 0 0 0 0 0 0 0 0 0 0 0 0 0 0 0 0 0 0 0 0 0 0 0 0 0 0 0 0 0 0 0 0 0 0 0 0 0 0 0 0 0 0 0 0 0 0 0 0 0 0 0 0 0 0 0 0 0 0 0 0 0 0 0 0 0 0 0 0 0 0 0 0 0 0 0 0 0 0 0 0 0.017877573147416114807 0.053632721304893493652 0.10215757042169570923 0.21708482503890991211 0.23751634359359741211 0.20942300558090209961 0.18388360738754272461 0.13791270554065704346 0.11492726951837539673 0.1047115027904510498 0.10215757042169570923 0.079172119498252868652 0.030647270381450653076 0.010215756483376026154 0.0025539391208440065384 0 0 0 0 0 0 0 0 0 0 0 0 0 0 0 0 0 0 0 0 0.010215756483376026154 0.033201210200786590576 0.030647270381450653076 0.068956352770328521729 0.086833931505680084229 0.097049690783023834229 0.097049690783023834229 0.086833931505680084229 0.11748119443655014038 0.17622180283069610596 0.28093329071998596191 0.42906177043914794922 0.54398900270462036133 0.56442052125930786133 0.46737083792686462402 0.39586055278778076172 0.42395389080047607422 0.51589572429656982422 0.59251385927200317383 0.66147023439407348633 0.89387869834899902344 1.4174362421035766602 2.0737986564636230469 2.7633621692657470703 3.2613804340362548828 3.6138238906860351562 3.5295438766479492188 3.0877122879028320312 2.1631863117218017578 1.4021126031875610352 0.86833930015563964844 0.59251385927200317383 0.36521330475807189941 0.22730058431625366211 0.14302058517932891846 0.1328048408031463623 0.043416965752840042114 0.0025539391208440065384 0 0 0 0 0 0 0 0 0 0 0 0 0 0 0 0 0 0 0 0 0 0 0 0 0 0 0 0 0 0 0 0 0 0 0 0 0 0 0 0 0 0 0 0 0 0 0 0 0 0 0 0 0 0 0 0 0 0 0 0 0 0 0 0 0 0 0 0 0 0 0 0 0 0 0 0 0 0 0 0 0 0 0 0 0 0 0 0 0 0 0 0 
0 0 0 0 0 0 0 0 0 0 0 0 0 0 0 0 0 0 0 0 0 0 0 0 0 0 0 0 0 0 0 0 0 0 0 0 0 0 0 0 0 0 0 0 0 0 0 0 0 0 0 0 0 0 0 0 0 0 0 0 0 0 0 0 0 0 0 0 0 0 0 0 0 0 0 0 0 0 0 0 0 0 0 0 0 0 0 0 0 0 0 0 0 0 0 0 0 0 0 0 0 0 0 0 0 0 0 0 0 0 0 0 0 0 0 0 0 0 0 0 0 0 0 0 0 0 0 0 0 0 0 0 0 0 0 0 0 0 0 0 0 0 0 0 0 0 0 0 0 0 0 0 0 0 0 0 0 0 0 0 0 0 0 0 0 0 0 0 0 0 0 0 0 0 0 0 0 0 0 0 0 0 0 0 0 0 0 0 0 0 0 0 0 0 0 0 0 0 0 0 0 0 0 0 0 0 0 0 0 0 0 0 0 0 0 0 0 0 0 0 0 0 0 0 0 0 0 0 0 0 0 0 0 0 0 0 0 0 0 0 0 0 0 0 0 0 0 0 0 0 0 0 0 0 0 0 0 0 0 0 0 0 0 0 0 0 0 0 0 0 0 0 0 0 0 0 0 0 0 0 0 0 0 0 0 0 0 0 0 0 0 0 0 0 0 0 0 0 0 0 0 0 0 0 0 0.017877573147416114807 0.089387871325016021729 0.23240846395492553711 0.24773210287094116211 0.23240846395492553711 0.1225890815258026123 0.066402420401573181152 0.048524841666221618652 0.035755146294832229614 0.030647270381450653076 0.030647270381450653076 0.028093332424759864807 0.017877575010061264038 0.0051078782416880130768 0 0 0 0 0 0 0 0 0 0 0 0 0 0 0 0 0 0 0 0.0025539391208440065384 0.010215756483376026154 0.022985450923442840576 0.045970901846885681152 0.079172119498252868652 0.094495743513107299805 0.1149272620677947998 0.099603630602359771729 0.14046664535999298096 0.19920726120471954346 0.32179632782936096191 0.53888112306594848633 0.77895140647888183594 1.0675466060638427734 1.1850277185440063477 1.1671501398086547852 1.0394532680511474609 0.90664839744567871094 0.88110899925231933594 0.94240349531173706055 1.0522229671478271484 1.1033016443252563477 1.1748119592666625977 1.6677222251892089844 2.4134726524353027344 2.9727849960327148438 3.3405523300170898438 3.4376020431518554688 3.2639341354370117188 2.9217064380645751953 2.1938335895538330078 1.3612495660781860352 0.87600111961364746094 0.57463628053665161133 0.39841449260711669922 0.20431514084339141846 0.1098193824291229248 0.074064239859580993652 0.071510300040245056152 0.020431512966752052307 0 0 0 0 0 0 0 0 0 0 0 0 0 0 0 0 0 0 0 0 0 0 0 0 0 0 0 0 0 0 0 0 0 0 0 0 0 0 0 0 0 0 0 0 0 0 0 0 0 0 0 0 0 0 0 0 0 0 0 0 0 0 0 0 0 0 0 0 0 0 0 0 0 0 0 0 0 0 0 0 0 0 0 0 0 0 0 0 0 0 0 0 0 
0 0 0 0 0 0 0 0 0 0 0 0 0 0 0 0 0 0 0 0 0 0 0 0 0 0 0 0 0 0 0 0 0 0 0 0 0 0 0 0 0 0 0 0 0 0 0 0 0 0 0 0 0 0 0 0 0 0 0 0 0 0 0 0 0 0 0 0 0 0 0 0 0 0 0 0 0 0 0 0 0 0 0 0 0 0 0 0 0 0 0 0 0 0 0 0 0 0 0 0 0 0 0 0 0 0 0 0 0 0 0 0 0 0 0 0 0 0 0 0 0 0 0 0 0 0 0 0 0 0 0 0 0 0 0 0 0 0 0 0 0 0 0 0 0 0 0 0 0 0 0 0 0 0 0 0 0 0 0 0 0 0 0 0 0 0 0 0 0 0 0 0 0 0 0 0 0 0 0 0 0 0 0 0 0 0 0 0 0 0 0 0 0 0 0 0 0 0 0 0 0 0 0 0 0 0 0 0 0 0 0 0 0 0 0 0 0 0 0 0 0 0 0 0 0 0 0 0 0 0 0 0 0 0 0 0 0 0 0 0 0 0 0 0 0 0 0 0 0 0 0 0 0 0 0 0 0 0 0 0 0 0 0 0 0 0 0 0 0 0 0 0 0 0 0 0 0 0 0 0 0 0 0 0 0 0 0 0 0 0 0 0 0 0 0 0 0 0 0 0 0 0 0 0.017877573147416114807 0.053632721304893493652 0.1072654426097869873 0.25028604269027709961 0.25028604269027709961 0.1072654426097869873 0.056186661124229431152 0.022985450923442840576 0.0025539391208440065384 0 0 0 0 0 0 0 0 0 0 0 0 0 0 0 0 0 0 0 0.0051078782416880130768 0.015323635190725326538 0.022985454648733139038 0.028093332424759864807 0.035755146294832229614 0.045970901846885681152 0.053632721304893493652 0.068956352770328521729 0.1047115027904510498 0.14046664535999298096 0.18899148702621459961 0.22730058431625366211 0.26050180196762084961 0.31924238801002502441 0.42650783061981201172 0.60272967815399169922 0.97560471296310424805 1.5732265710830688477 2.0942301750183105469 2.5948021411895751953 2.8272106647491455078 2.5973560810089111328 2.3777172565460205078 2.0661368370056152344 1.7596640586853027344 1.5783343315124511719 1.5834422111511230469 1.6319671869277954102 1.6626144647598266602 1.9588712453842163086 2.6867439746856689453 3.3456602096557617188 3.4146165847778320312 3.4248323440551757812 3.2435028553009033203 2.7965633869171142578 2.2985451221466064453 1.4812846183776855469 0.84279990196228027344 0.58740597963333129883 0.38819876313209533691 0.21963876485824584961 0.094495750963687896729 0.053632721304893493652 0.053632721304893493652 0.045970901846885681152 0.012769696302711963654 0 0 0 0 0 0 0 0 0 0 0 0 0 0 0 0 0 0 0 0 0 0 0 0 0 0 0 0 0 0 0 0 0 0 0 0 0 0 0 0 0 0 0 0 0 0 0 0 0 0 0 0 0 0 0 0 0 0 0 0 0 0 0 0 0 0 0 0 0 0 0 0 0 0 0 0 0 0 0 0 0 0 0 0 0 0 0 0 0 0 0 0 0 
0 0 0 0 0 0 0 0 0 0 0 0 0 0 0 0 0 0 0 0 0 0 0 0 0 0 0 0 0 0 0 0 0 0 0 0 0 0 0 0 0 0 0 0 0 0 0 0 0 0 0 0 0 0 0 0 0 0 0 0 0 0 0 0 0 0 0 0 0 0 0 0 0 0 0 0 0 0 0 0 0 0 0 0 0 0 0 0 0 0 0 0 0 0 0 0 0 0 0 0 0 0 0 0 0 0 0 0 0 0 0 0 0 0 0 0 0 0 0 0 0 0 0 0 0 0 0 0 0 0 0 0 0 0 0 0 0 0 0 0 0 0 0 0 0 0 0 0 0 0 0 0 0 0 0 0 0 0 0 0 0 0 0 0 0 0 0 0 0 0 0 0 0 0 0 0 0 0 0 0 0 0 0 0 0 0 0 0 0 0 0 0 0 0 0 0 0 0 0 0 0 0 0 0 0 0 0 0 0 0 0 0 0 0 0 0 0 0 0 0 0 0 0 0 0 0 0 0 0 0 0 0 0 0 0 0 0 0 0 0 0 0 0 0 0 0 0 0 0 0 0 0 0 0 0 0 0 0 0 0 0 0 0 0 0 0 0 0 0 0 0 0 0 0 0 0 0 0 0 0 0 0 0 0 0 0 0 0 0 0 0 0 0 0 0 0 0 0 0 0 0 0 0 0.035755146294832229614 0.17877574265003204346 0.23240846395492553711 0.23240846395492553711 0.089387871325016021729 0.017877573147416114807 0 0 0 0 0 0 0 0 0 0 0 0 0 0.0025539391208440065384 0.010215756483376026154 0.020431512966752052307 0.030647270381450653076 0.056186661124229431152 0.14302058517932891846 0.34988966584205627441 0.69211751222610473633 1.0701004266738891602 1.3433718681335449219 1.4863923788070678711 1.5042700767517089844 1.4787306785583496094 1.4174362421035766602 1.3663574457168579102 1.2846312522888183594 1.2284446954727172852 1.1901355981826782227 1.1339489221572875977 1.1543804407119750977 1.2412143945693969727 1.4480835199356079102 1.7596639394760131836 2.1836178302764892578 2.6280033588409423828 3.2869195938110351562 3.8538939952850341797 3.9177427291870117188 3.5218820571899414062 2.8527500629425048828 2.2781136035919189453 2.1504168510437011719 2.0737986564636230469 1.9869645833969116211 1.8899149894714355469 2.0022883415222167969 2.1708481311798095703 2.4645512104034423828 3.0008783340454101562 3.5193281173706054688 3.6010541915893554688 3.2103013992309570312 2.9804468154907226562 2.4875369071960449219 1.8822530508041381836 1.2897392511367797852 0.68700963258743286133 0.39330661296844482422 0.29114904999732971191 0.16345210373401641846 0.10215757042169570923 0.038309089839458465576 0.025539392605423927307 0.043416965752840042114 0.035755150020122528076 0.007661817595362663269 0 0 0 0 0 0 0 0 0 0 0 0 0 0 0 0 0 0 0 0 0 0 0 0 0 0 0 0 0 0 0 0 0 0 0 0 0 0 0 0 0 0 0 0 0 0 0 0 0 0 0 0 0 0 0 0 0 0 0 0 0 0 0 0 0 0 0 0 0 0 0 0 0 0 0 0 0 0 0 0 0 0 0 0 0 0 0 0 0 0 0 0 0 
0 0 0 0 0 0 0 0 0 0 0 0 0 0 0 0 0 0 0 0 0 0 0 0 0 0 0 0 0 0 0 0 0 0 0 0 0 0 0 0 0 0 0 0 0 0 0 0 0 0 0 0 0 0 0 0 0 0 0 0 0 0 0 0 0 0 0 0 0 0 0 0 0 0 0 0 0 0 0 0 0 0 0 0 0 0 0 0 0 0 0 0 0 0 0 0 0 0 0 0 0 0 0 0 0 0 0 0 0 0 0 0 0 0 0 0 0 0 0 0 0 0 0 0 0 0 0 0 0 0 0 0 0 0 0 0 0 0 0 0 0 0 0 0 0 0 0 0 0 0 0 0 0 0 0 0 0 0 0 0 0 0 0 0 0 0 0 0 0 0 0 0 0 0 0 0 0 0 0 0 0 0 0 0 0 0 0 0 0 0 0 0 0 0 0 0 0 0 0 0 0 0 0 0 0 0 0 0 0 0 0 0 0 0 0 0 0 0 0 0 0 0 0 0 0 0 0 0 0 0 0 0 0 0 0 0 0 0 0 0 0 0 0 0 0 0 0 0 0 0 0 0 0 0 0 0 0 0 0 0 0 0 0 0 0 0 0 0 0 0 0 0 0 0 0 0 0 0 0 0 0 0 0 0 0 0 0 0 0 0 0 0 0 0 0 0 0 0 0 0 0 0 0 0.017877573147416114807 0.053632721304893493652 0.071510292589664459229 0.053632721304893493652 0.017877573147416114807 0 0 0 0 0 0 0 0 0 0.0051078782416880130768 0.015323635190725326538 0.020431512966752052307 0.030647270381450653076 0.056186664849519729614 0.094495750963687896729 0.18643754720687866211 0.37542903423309326172 0.66657811403274536133 1.0573308467864990234 1.6498447656631469727 2.5309536457061767578 3.6368093490600585938 4.5817666053771972656 4.998058319091796875 5.0261521339416503906 4.9316558837890625 4.8473763465881347656 4.6762628555297851562 4.5179181098937988281 4.2906179428100585938 4.1246113777160644531 3.9126346111297607422 3.7287509441375732422 3.8487861156463623047 4.1297192573547363281 4.5179181098937988281 4.9137787818908691406 5.2636685371398925781 5.2560062408447265625 4.9597496986389160156 4.3161568641662597656 3.4044008255004882812 2.5437235832214355469 2.0022883415222167969 1.8005270957946777344 1.8184046745300292969 1.9512094259262084961 2.2193729877471923828 2.3828253746032714844 2.6177875995635986328 2.9217064380645751953 3.1438989639282226562 3.3073511123657226562 3.2281789779663085938 2.8527500629425048828 2.4083645343780517578 1.9588712453842163086 1.3816810846328735352 0.89132475852966308594 0.54909688234329223633 0.32179632782936096191 0.19920726120471954346 0.16600604355335235596 0.094495743513107299805 0.051078785210847854614 0.040863025933504104614 0.035755150020122528076 0.033201210200786590576 0.012769696302711963654 0.0025539391208440065384 0 0 0 0 0 0 0 0 0 0 0 0 0 0 0 0 0 0 0 0 0 0 0 0 0 0 0 0 0 0 0 0 0 0 0 0 0 0 0 0 0 0 0 0 0 0 0 0 0 0 0 0 0 0 0 0 0 0 0 0 0 0 0 0 0 0 0 0 0 0 0 0 0 0 0 0 0 0 0 0 0 0 0 0 0 0 0 0 0 0 0 0 0 
0 0 0 0 0 0 0 0 0 0 0 0 0 0 0 0 0 0 0 0 0 0 0 0 0 0 0 0 0 0 0 0 0 0 0 0 0 0 0 0 0 0 0 0 0 0 0 0 0 0 0 0 0 0 0 0 0 0 0 0 0 0 0 0 0 0 0 0 0 0 0 0 0 0 0 0 0 0 0 0 0 0 0 0 0 0 0 0 0 0 0 0 0 0 0 0 0 0 0 0 0 0 0 0 0 0 0 0 0 0 0 0 0 0 0 0 0 0 0 0 0 0 0 0 0 0 0 0 0 0 0 0 0 0 0 0 0 0 0 0 0 0 0 0 0 0 0 0 0 0 0 0 0 0 0 0 0 0 0 0 0 0 0 0 0 0 0 0 0 0 0 0 0 0 0 0 0 0 0 0 0 0 0 0 0 0 0 0 0 0 0 0 0 0 0 0 0 0 0 0 0 0 0 0 0 0 0 0 0 0 0 0 0 0 0 0 0 0 0 0 0 0 0 0 0 0 0 0 0 0 0 0 0 0 0 0 0 0 0 0 0 0 0 0 0 0 0 0 0 0 0 0 0 0 0 0 0 0 0 0 0 0 0 0 0 0 0 0 0 0 0 0 0 0 0 0 0 0 0 0 0 0 0 0 0 0 0 0 0 0 0 0 0 0 0 0 0 0 0 0 0 0 0 0 0 0 0 0 0 0 0 0 0.0051078782416880130768 0.040863025933504104614 0.1149272620677947998 0.21197694540023803711 0.31668847799301147461 0.41373816132545471191 0.52866542339324951172 0.60783755779266357422 0.69211751222610473633 0.86833930015563964844 1.1186252832412719727 1.5885500907897949219 2.4109184741973876953 3.4656953811645507812 4.3697900772094726562 5.2432370185852050781 5.8842754364013671875 6.1166844367980957031 5.3632721900939941406 4.3289265632629394531 3.6087157726287841797 3.3890769481658935547 3.4886808395385742188 3.6495790481567382812 3.8411242961883544922 3.9866988658905029297 4.1475973129272460938 4.2369847297668457031 4.2191076278686523438 4.4361925125122070312 4.5894289016723632812 4.5664429664611816406 4.2625246047973632812 3.7517364025115966797 3.1004819869995117188 2.6228954792022705078 2.3010990619659423828 2.0737986564636230469 2.0814604759216308594 2.0559210777282714844 2.0584750175476074219 2.1197695732116699219 2.1887257099151611328 2.2781136035919189453 2.3675017356872558594 2.5437235832214355469 2.5999100208282470703 2.4441199302673339844 2.2576820850372314453 2.0201656818389892578 1.6064276695251464844 1.2641998529434204102 0.93729561567306518555 0.61294543743133544922 0.46737083792686462402 0.35244360566139221191 0.22730058431625366211 0.1481284797191619873 0.094495750963687896729 0.035755150020122528076 0.025539392605423927307 0.038309089839458465576 0.017877575010061264038 0.007661817595362663269 0.0025539391208440065384 0 0 0 0 0 0 0 0 0 0 0 0 0 0 0 0 0 0 0 0 0 0 0 0 0 0 0 0 0 0 0 0 0 0 0 0 0 0 0 0 0 0 0 0 0 0 0 0 0 0 0 0 0 0 0 0 0 0 0 0 0 0 0 0 0 0 0 0 0 0 0 0 0 0 0 0 0 0 0 0 0 0 0 0 0 0 0 0 0 0 0 0 0 0 
0 0 0 0 0 0 0 0 0 0 0 0 0 0 0 0 0 0 0 0 0 0 0 0 0 0 0 0 0 0 0 0 0 0 0 0 0 0 0 0 0 0 0 0 0 0 0 0 0 0 0 0 0 0 0 0 0 0 0 0 0 0 0 0 0 0 0 0 0 0 0 0 0 0 0 0 0 0 0 0 0 0 0 0 0 0 0 0 0 0 0 0 0 0 0 0 0 0 0 0 0 0 0 0 0 0 0 0 0 0 0 0 0 0 0 0 0 0 0 0 0 0 0 0 0 0 0 0 0 0 0 0 0 0 0 0 0 0 0 0 0 0 0 0 0 0 0 0 0 0 0 0 0 0 0 0 0 0 0 0 0 0 0 0 0 0 0 0 0 0 0 0 0 0 0 0 0 0 0 0 0 0 0 0 0 0 0 0 0 0 0 0 0 0 0 0 0 0 0 0 0 0 0 0 0 0 0 0 0 0 0 0 0 0 0 0 0 0 0 0 0 0 0 0 0 0 0 0 0 0 0 0 0 0 0 0 0 0 0 0 0 0 0 0 0 0 0 0 0 0 0 0 0 0 0 0 0 0 0 0 0 0 0 0 0 0 0 0 0 0 0 0 0 0 0 0 0 0 0 0 0 0 0 0 0 0 0 0 0 0 0 0 0 0 0 0 0 0 0 0 0 0 0 0 0 0 0 0 0 0.0025539391208440065384 0.028093330562114715576 0.14557452499866485596 0.44438540935516357422 0.92197203636169433594 1.4174362421035766602 1.7009234428405761719 1.9639791250228881836 2.1121077537536621094 2.3368544578552246094 2.6152336597442626953 2.8706276416778564453 3.2281792163848876953 3.8385703563690185547 4.8294987678527832031 5.866397857666015625 6.5661773681640625 6.1269001960754394531 5.3428401947021484375 4.4106526374816894531 3.3992929458618164062 2.2372505664825439453 1.6728299856185913086 1.3995586633682250977 1.3586956262588500977 1.4429756402969360352 1.5425792932510375977 1.6396290063858032227 1.7239089012145996094 1.8541598320007324219 1.9997342824935913086 2.0840144157409667969 2.1402010917663574219 1.9767489433288574219 1.7034773826599121094 1.4327598810195922852 1.2080132961273193359 1.0011441707611083984 0.93729561567306518555 0.95772713422775268555 1.0139138698577880859 1.1262871026992797852 1.2514302730560302734 1.2871853113174438477 1.3152786493301391602 1.3561416864395141602 1.4021126031875610352 1.4838385581970214844 1.4557453393936157227 1.3229404687881469727 1.1543804407119750977 1.0701005458831787109 0.93984955549240112305 0.66657811403274536133 0.57719022035598754883 0.50057202577590942383 0.35244360566139221191 0.31924238801002502441 0.21197694540023803711 0.1225890815258026123 0.094495750963687896729 0.035755150020122528076 0.017877575010061264038 0.035755150020122528076 0.033201210200786590576 0.007661817595362663269 0 0 0 0 0 0 0 0 0 0 0 0 0 0 0 0 0 0 0 0 0 0 0 0 0 0 0 0 0 0 0 0 0 0 0 0 0 0 0 0 0 0 0 0 0 0 0 0 0 0 0 0 0 0 0 0 0 0 0 0 0 0 0 0 0 0 0 0 0 0 0 0 0 0 0 0 0 0 0 0 0 0 0 0 0 0 0 0 0 0 0 0 0 0 0 0 
0 0 0 0 0 0 0 0 0 0 0 0 0 0 0 0 0 0 0 0 0 0 0 0 0 0 0 0 0 0 0 0 0 0 0 0 0 0 0 0 0 0 0 0 0 0 0 0 0 0 0 0 0 0 0 0 0 0 0 0 0 0 0 0 0 0 0 0 0 0 0 0 0 0 0 0 0 0 0 0 0 0 0 0 0 0 0 0 0 0 0 0 0 0 0 0 0 0 0 0 0 0 0 0 0 0 0 0 0 0 0 0 0 0 0 0 0 0 0 0 0 0 0 0 0 0 0 0 0 0 0 0 0 0 0 0 0 0 0 0 0 0 0 0 0 0 0 0 0 0 0 0 0 0 0 0 0 0 0 0 0 0 0 0 0 0 0 0 0 0 0 0 0 0 0 0 0 0 0 0 0 0 0 0 0 0 0 0 0 0 0 0 0 0 0 0 0 0 0 0 0 0 0 0 0 0 0 0 0 0 0 0 0 0 0 0 0 0 0 0 0 0 0 0 0 0 0 0 0 0 0 0 0 0 0 0 0 0 0 0 0 0 0 0 0 0 0 0 0 0 0 0 0 0 0 0 0 0 0 0 0 0 0 0 0 0 0 0 0 0 0 0 0 0 0 0 0 0 0 0 0 0 0 0 0 0 0 0 0 0 0 0 0 0 0 0 0 0 0 0 0 0 0 0 0 0 0 0.0025539391208440065384 0.038309089839458465576 0.14557452499866485596 0.43672358989715576172 1.1313949823379516602 2.2908833026885986328 3.4912347793579101562 3.9969148635864257812 3.7874915599822998047 3.5831766128540039062 3.4120626449584960938 3.5550832748413085938 3.9330663681030273438 4.1935682296752929688 4.4872713088989257812 5.1155400276184082031 5.5062928199768066406 5.0619072914123535156 3.9688212871551513672 2.5437231063842773438 1.7775416374206542969 1.3510338068008422852 1.0368993282318115234 0.79172110557556152344 0.74064230918884277344 0.75596594810485839844 0.77384352684020996094 0.78150534629821777344 0.74064230918884277344 0.69977933168411254883 0.65636235475540161133 0.66147023439407348633 0.69722539186477661133 0.74830412864685058594 0.71510297060012817383 0.61549931764602661133 0.49546420574188232422 0.46737083792686462402 0.50567996501922607422 0.53888112306594848633 0.53121936321258544922 0.50823390483856201172 0.53377330303192138672 0.53377330303192138672 0.56952840089797973633 0.60017567873001098633 0.65891629457473754883 0.73042660951614379883 0.84279990196228027344 0.95006531476974487305 0.83769202232360839844 0.77895140647888183594 0.67934781312942504883 0.63082301616668701172 0.50057208538055419922 0.42395389080047607422 0.39075270295143127441 0.36521330475807189941 0.30647271871566772461 0.23751632869243621826 0.1532363593578338623 0.094495750963687896729 0.066402420401573181152 0.022985450923442840576 0.033201210200786590576 0.035755150020122528076 0.012769696302711963654 0.0025539391208440065384 0 0 0 0 0 0 0 0 0 0 0 0 0 0 0 0 0 0 0 0 0 0 0 0 0 0 0 0 0 0 0 0 0 0 0 0 0 0 0 0 0 0 0 0 0 0 0 0 0 0 0 0 0 0 0 0 0 0 0 0 0 0 0 0 0 0 0 0 0 0 0 0 0 0 0 0 0 0 0 0 0 0 0 0 0 0 0 0 0 0 0 0 0 0 0 0 
0 0 0 0 0 0 0 0 0 0 0 0 0 0 0 0 0 0 0 0 0 0 0 0 0 0 0 0 0 0 0 0 0 0 0 0 0 0 0 0 0 0 0 0 0 0 0 0 0 0 0 0 0 0 0 0 0 0 0 0 0 0 0 0 0 0 0 0 0 0 0 0 0 0 0 0 0 0 0 0 0 0 0 0 0 0 0 0 0 0 0 0 0 0 0 0 0 0 0 0 0 0 0 0 0 0 0 0 0 0 0 0 0 0 0 0 0 0 0 0 0 0 0 0 0 0 0 0 0 0 0 0 0 0 0 0 0 0 0 0 0 0 0 0 0 0 0 0 0 0 0 0 0 0 0 0 0 0 0 0 0 0 0 0 0 0 0 0 0 0 0 0 0 0 0 0 0 0 0 0 0 0 0 0 0 0 0 0 0 0 0 0 0 0 0 0 0 0 0 0 0 0 0 0 0 0 0 0 0 0 0 0 0 0 0 0 0 0 0 0 0 0 0 0 0 0 0 0 0 0 0 0 0 0 0 0 0 0 0 0 0 0 0 0 0 0 0 0 0 0 0 0 0 0 0 0 0 0 0 0 0 0 0 0 0 0 0 0 0 0 0 0 0 0 0 0 0 0 0 0 0 0 0 0 0 0 0 0 0 0 0 0 0 0 0 0 0 0 0 0 0 0 0 0 0 0.012769695371389389038 0.056186661124229431152 0.1404666602611541748 0.36265939474105834961 0.88877081871032714844 1.7468943595886230469 3.2128553390502929688 4.2472004890441894531 4.0224537849426269531 2.9370300769805908203 2.1197695732116699219 1.9818568229675292969 2.2423584461212158203 2.7250530719757080078 3.1209137439727783203 3.1132519245147705078 3.1030361652374267578 3.3226749897003173828 2.8578579425811767578 1.8796991109848022461 1.0905319452285766602 0.64359265565872192383 0.48014053702354431152 0.46737083792686462402 0.48269447684288024902 0.50057208538055419922 0.53632724285125732422 0.56186658143997192383 0.58740597963333129883 0.58995991945266723633 0.56697446107864379883 0.53377330303192138672 0.51334178447723388672 0.49546420574188232422 0.51078784465789794922 0.52355754375457763672 0.48014056682586669922 0.43927752971649169922 0.39841449260711669922 0.39586055278778076172 0.42139995098114013672 0.44693934917449951172 0.40607634186744689941 0.33711996674537658691 0.29881086945533752441 0.25283998250961303711 0.26560968160629272461 0.31158059835433959961 0.36010542511940002441 0.48269450664520263672 0.61805325746536254883 0.61294537782669067383 0.52355754375457763672 0.54398900270462036133 0.49546417593955993652 0.40863028168678283691 0.34988966584205627441 0.35244360566139221191 0.33711996674537658691 0.36521330475807189941 0.27071753144264221191 0.17366786301136016846 0.1072654426097869873 0.058740600943565368652 0.028093332424759864807 0.022985450923442840576 0.035755150020122528076 0.015323635190725326538 0.0025539391208440065384 0 0 0 0 0 0 0 0 0 0 0 0 0 0 0 0 0 0 0 0 0 0 0 0 0 0 0 0 0 0 0 0 0 0 0 0 0 0 0 0 0 0 0 0 0 0 0 0 0 0 0 0 0 0 0 0 0 0 0 0 0 0 0 0 0 0 0 0 0 0 0 0 0 0 0 0 0 0 0 0 0 0 0 0 0 0 0 0 0 0 0 0 0 0 0 0 0 
0 0 0 0 0 0 0 0 0 0 0 0 0 0 0 0 0 0 0 0 0 0 0 0 0 0 0 0 0 0 0 0 0 0 0 0 0 0 0 0 0 0 0 0 0 0 0 0 0 0 0 0 0 0 0 0 0 0 0 0 0 0 0 0 0 0 0 0 0 0 0 0 0 0 0 0 0 0 0 0 0 0 0 0 0 0 0 0 0 0 0 0 0 0 0 0 0 0 0 0 0 0 0 0 0 0 0 0 0 0 0 0 0 0 0 0 0 0 0 0 0 0 0 0 0 0 0 0 0 0 0 0 0 0 0 0 0 0 0 0 0 0 0 0 0 0 0 0 0 0 0 0 0 0 0 0 0 0 0 0 0 0 0 0 0 0 0 0 0 0 0 0 0 0 0 0 0 0 0 0 0 0 0 0 0 0 0 0 0 0 0 0 0 0 0 0 0 0 0 0 0 0 0 0 0 0 0 0 0 0 0 0 0 0 0 0 0 0 0 0 0 0 0 0 0 0 0 0 0 0 0 0 0 0 0 0 0 0 0 0 0 0 0 0 0 0 0 0 0 0 0 0 0 0 0 0 0 0 0 0 0 0 0 0 0 0 0 0 0 0 0 0 0 0 0 0 0 0 0 0 0 0 0 0 0 0 0 0 0 0 0 0 0 0 0 0 0 0 0 0 0 0 0 0.0025539391208440065384 0.020431512966752052307 0.1302509009838104248 0.43161571025848388672 0.82492238283157348633 1.3970047235488891602 2.2193729877471923828 3.0621728897094726562 3.8360164165496826172 3.1975317001342773438 1.9512094259262084961 1.1186252832412719727 0.92707991600036621094 1.2182289361953735352 1.7724337577819824219 2.4594435691833496094 2.6050179004669189453 2.3062069416046142578 2.0737986564636230469 1.8337283134460449219 1.1773658990859985352 0.61805331707000732422 0.42395389080047607422 0.40096846222877502441 0.39841452240943908691 0.42395389080047607422 0.43672358989715576172 0.44183146953582763672 0.45715510845184326172 0.50312596559524536133 0.51844966411590576172 0.53377330303192138672 0.58740597963333129883 0.60017567873001098633 0.61294543743133544922 0.64870053529739379883 0.69722539186477661133 0.74064230918884277344 0.69722539186477661133 0.64870053529739379883 0.60272961854934692383 0.59762173891067504883 0.60783749818801879883 0.67168599367141723633 0.55420476198196411133 0.40096843242645263672 0.29881086945533752441 0.24007028341293334961 0.29114907979965209961 0.34733572602272033691 0.39330664277076721191 0.52100360393524169922 0.58995991945266723633 0.53632724285125732422 0.49801814556121826172 0.46737083792686462402 0.41118422150611877441 0.34222784638404846191 0.38819873332977294922 0.42139995098114013672 0.43672358989715576172 0.36265936493873596191 0.21963876485824584961 0.13791270554065704346 0.068956352770328521729 0.030647270381450653076 0.035755150020122528076 0.035755150020122528076 0.030647270381450653076 0.007661817595362663269 0 0 0 0 0 0 0 0 0 0 0 0 0 0 0 0 0 0 0 0 0 0 0 0 0 0 0 0 0 0 0 0 0 0 0 0 0 0 0 0 0 0 0 0 0 0 0 0 0 0 0 0 0 0 0 0 0 0 0 0 0 0 0 0 0 0 0 0 0 0 0 0 0 0 0 0 0 0 0 0 0 0 0 0 0 0 0 0 0 0 0 0 0 0 0 0 0 0 
0 0 0 0 0 0 0 0 0 0 0 0 0 0 0 0 0 0 0 0 0 0 0 0 0 0 0 0 0 0 0 0 0 0 0 0 0 0 0 0 0 0 0 0 0 0 0 0 0 0 0 0 0 0 0 0 0 0 0 0 0 0 0 0 0 0 0 0 0 0 0 0 0 0 0 0 0 0 0 0 0 0 0 0 0 0 0 0 0 0 0 0 0 0 0 0 0 0 0 0 0 0 0 0 0 0 0 0 0 0 0 0 0 0 0 0 0 0 0 0 0 0 0 0 0 0 0 0 0 0 0 0 0 0 0 0 0 0 0 0 0 0 0 0 0 0 0 0 0 0 0 0 0 0 0 0 0 0 0 0 0 0 0 0 0 0 0 0 0 0 0 0 0 0 0 0 0 0 0 0 0 0 0 0 0 0 0 0 0 0 0 0 0 0 0 0 0 0 0 0 0 0 0 0 0 0 0 0 0 0 0 0 0 0 0 0 0 0 0 0 0 0 0 0 0 0 0 0 0 0 0 0 0 0 0 0 0 0 0 0 0 0 0 0 0 0 0 0 0 0 0 0 0 0 0 0 0 0 0 0 0 0 0 0 0 0 0 0 0 0 0 0 0 0 0 0 0 0 0 0 0 0 0 0 0 0 0 0 0 0 0 0 0 0 0 0 0 0 0 0 0 0.0051078782416880130768 0.030647270381450653076 0.10981938987970352173 0.33967390656471252441 0.84024596214294433594 1.6038737297058105469 2.1504168510437011719 2.6177875995635986328 3.0826044082641601562 3.1311292648315429688 2.9549074172973632812 1.8567137718200683594 1.0547769069671630859 0.88621687889099121094 1.1033016443252563477 1.6549526453018188477 2.1912796497344970703 2.4313499927520751953 1.9231162071228027344 1.4455295801162719727 1.2131210565567016602 0.88621687889099121094 0.53632724285125732422 0.38564479351043701172 0.39075270295143127441 0.43416965007781982422 0.44949328899383544922 0.49035629630088806152 0.52355754375457763672 0.52611148357391357422 0.53377330303192138672 0.54654294252395629883 0.54654294252395629883 0.54398900270462036133 0.55165082216262817383 0.56442052125930786133 0.60528361797332763672 0.64103871583938598633 0.68445569276809692383 0.65636235475540161133 0.55675870180130004883 0.55165082216262817383 0.52866542339324951172 0.50823384523391723633 0.50567996501922607422 0.66147023439407348633 0.69467145204544067383 0.56697446107864379883 0.48524841666221618652 0.42139995098114013672 0.40096846222877502441 0.38564479351043701172 0.40863028168678283691 0.48014053702354431152 0.44693934917449951172 0.38309088349342346191 0.36265936493873596191 0.39841449260711669922 0.41118422150611877441 0.37798297405242919922 0.42906177043914794922 0.38309085369110107422 0.32435026764869689941 0.20431514084339141846 0.1200351417064666748 0.084279991686344146729 0.048524845391511917114 0.035755150020122528076 0.033201210200786590576 0.015323635190725326538 0.007661817595362663269 0.0025539391208440065384 0 0 0 0 0 0 0 0 0 0 0 0 0 0 0 0 0 0 0 0 0 0 0 0 0 0 0 0 0 0 0 0 0 0 0 0 0 0 0 0 0 0 0 0 0 0 0 0 0 0 0 0 0 0 0 0 0 0 0 0 0 0 0 0 0 0 0 0 0 0 0 0 0 0 0 0 0 0 0 0 0 0 0 0 0 0 0 0 0 0 0 0 0 0 0 0 0 0 
0 0 0 0 0 0 0 0 0 0 0 0 0 0 0 0 0 0 0 0 0 0 0 0 0 0 0 0 0 0 0 0 0 0 0 0 0 0 0 0 0 0 0 0 0 0 0 0 0 0 0 0 0 0 0 0 0 0 0 0 0 0 0 0 0 0 0 0 0 0 0 0 0 0 0 0 0 0 0 0 0 0 0 0 0 0 0 0 0 0 0 0 0 0 0 0 0 0 0 0 0 0 0 0 0 0 0 0 0 0 0 0 0 0 0 0 0 0 0 0 0 0 0 0 0 0 0 0 0 0 0 0 0 0 0 0 0 0 0 0 0 0 0 0 0 0 0 0 0 0 0 0 0 0 0 0 0 0 0 0 0 0 0 0 0 0 0 0 0 0 0 0 0 0 0 0 0 0 0 0 0 0 0 0 0 0 0 0 0 0 0 0 0 0 0 0 0 0 0 0 0 0 0 0 0 0 0 0 0 0 0 0 0 0 0 0 0 0 0 0 0 0 0 0 0 0 0 0 0 0 0 0 0 0 0 0 0 0 0 0 0 0 0 0 0 0 0 0 0 0 0 0 0 0 0 0 0 0 0 0 0 0 0 0 0 0 0 0 0 0 0 0 0 0 0 0 0 0 0 0 0 0 0 0 0 0 0 0 0 0 0 0 0 0 0 0 0 0 0 0.007661817595362663269 0.033201210200786590576 0.094495743513107299805 0.29625692963600158691 0.77639752626419067383 1.6345211267471313477 2.7378227710723876953 3.2486104965209960938 3.1081438064575195312 2.9344761371612548828 2.8961670398712158203 2.4900908470153808594 2.1248774528503417969 1.2744157314300537109 0.97560471296310424805 1.2284446954727172852 1.6702761650085449219 2.2372505664825439453 2.4109187126159667969 1.9895186424255371094 1.3178325891494750977 0.90409445762634277344 0.68700963258743286133 0.50057208538055419922 0.46226298809051513672 0.47247871756553649902 0.50823390483856201172 0.50823390483856201172 0.50312602519989013672 0.55931264162063598633 0.55931264162063598633 0.53377330303192138672 0.54654294252395629883 0.55165082216262817383 0.53888112306594848633 0.49546420574188232422 0.48269450664520263672 0.46992477774620056152 0.46737083792686462402 0.43672358989715576172 0.41118422150611877441 0.37287509441375732422 0.35244360566139221191 0.36010542511940002441 0.36265936493873596191 0.37287509441375732422 0.36010542511940002441 0.45715510845184326172 0.61039149761199951172 0.62571513652801513672 0.61294543743133544922 0.59762173891067504883 0.51334178447723388672 0.46992477774620056152 0.44693934917449951172 0.44693934917449951172 0.37798297405242919922 0.36010542511940002441 0.39330664277076721191 0.39330664277076721191 0.36521330475807189941 0.30902665853500366211 0.27582541108131408691 0.18643756210803985596 0.1481284797191619873 0.076618179678916931152 0.028093332424759864807 0.017877575010061264038 0.012769696302711963654 0.010215756483376026154 0.007661817595362663269 0.0025539391208440065384 0 0 0 0 0 0 0 0 0 0 0 0 0 0 0 0 0 0 0 0 0 0 0 0 0 0 0 0 0 0 0 0 0 0 0 0 0 0 0 0 0 0 0 0 0 0 0 0 0 0 0 0 0 0 0 0 0 0 0 0 0 0 0 0 0 0 0 0 0 0 0 0 0 0 0 0 0 0 0 0 0 0 0 0 0 0 0 0 0 0 0 0 0 0 0 0 0 0 0 0 
0 0 0 0 0 0 0 0 0 0 0 0 0 0 0 0 0 0 0 0 0 0 0 0 0 0 0 0 0 0 0 0 0 0 0 0 0 0 0 0 0 0 0 0 0 0 0 0 0 0 0 0 0 0 0 0 0 0 0 0 0 0 0 0 0 0 0 0 0 0 0 0 0 0 0 0 0 0 0 0 0 0 0 0 0 0 0 0 0 0 0 0 0 0 0 0 0 0 0 0 0 0 0 0 0 0 0 0 0 0 0 0 0 0 0 0 0 0 0 0 0 0 0 0 0 0 0 0 0 0 0 0 0 0 0 0 0 0 0 0 0 0 0 0 0 0 0 0 0 0 0 0 0 0 0 0 0 0 0 0 0 0 0 0 0 0 0 0 0 0 0 0 0 0 0 0 0 0 0 0 0 0 0 0 0 0 0 0 0 0 0 0 0 0 0 0 0 0 0 0 0 0 0 0 0 0 0 0 0 0 0 0 0 0 0 0 0 0 0 0 0 0 0 0 0 0 0 0 0 0 0 0 0 0 0 0 0 0 0 0 0 0 0 0 0 0 0 0 0 0 0 0 0 0 0 0 0 0 0 0 0 0 0 0 0 0 0 0 0 0 0 0 0 0 0 0 0 0 0 0 0 0 0 0 0 0 0 0 0 0 0 0 0 0 0 0 0.0051078782416880130768 0.017877575010061264038 0.035755150020122528076 0.089387871325016021729 0.24007028341293334961 0.51844966411590576172 1.1518265008926391602 2.3394081592559814453 3.5933923721313476562 4.0454392433166503906 3.2511644363403320312 2.4671053886413574219 2.1018919944763183594 1.9588713645935058594 1.6217514276504516602 1.4889465570449829102 1.3382641077041625977 1.6523985862731933594 2.1478629112243652344 2.5258460044860839844 2.4109184741973876953 1.9435477256774902344 1.2693078517913818359 0.79938298463821411133 0.56442052125930786133 0.46226298809051513672 0.45970904827117919922 0.47503268718719482422 0.43672358989715576172 0.39586058259010314941 0.32945814728736877441 0.31413453817367553711 0.30647271871566772461 0.24262422323226928711 0.20431514084339141846 0.20176120102405548096 0.20431514084339141846 0.19409938156604766846 0.16855998337268829346 0.17622180283069610596 0.17622180283069610596 0.16855998337268829346 0.1557902991771697998 0.14557452499866485596 0.14302058517932891846 0.1583442389965057373 0.22219270467758178711 0.26816362142562866211 0.31924238801002502441 0.33967390656471252441 0.37798297405242919922 0.45204722881317138672 0.51334178447723388672 0.52611148357391357422 0.59762173891067504883 0.60017567873001098633 0.55165082216262817383 0.51589572429656982422 0.48014053702354431152 0.44183146953582763672 0.44438540935516357422 0.43672358989715576172 0.32945814728736877441 0.22985452413558959961 0.14302058517932891846 0.1072654426097869873 0.068956352770328521729 0.048524845391511917114 0.017877575010061264038 0.0025539391208440065384 0 0 0 0 0 0 0 0 0 0 0 0 0 0 0 0 0 0 0 0 0 0 0 0 0 0 0 0 0 0 0 0 0 0 0 0 0 0 0 0 0 0 0 0 0 0 0 0 0 0 0 0 0 0 0 0 0 0 0 0 0 0 0 0 0 0 0 0 0 0 0 0 0 0 0 0 0 0 0 0 0 0 0 0 0 0 0 0 0 0 0 0 0 0 0 0 0 0 0 0 0 0 0 0 0 
0 0 0 0 0 0 0 0 0 0 0 0 0 0 0 0 0 0 0 0 0 0 0 0 0 0 0 0 0 0 0 0 0 0 0 0 0 0 0 0 0 0 0 0 0 0 0 0 0 0 0 0 0 0 0 0 0 0 0 0 0 0 0 0 0 0 0 0 0 0 0 0 0 0 0 0 0 0 0 0 0 0 0 0 0 0 0 0 0 0 0 0 0 0 0 0 0 0 0 0 0 0 0 0 0 0 0 0 0 0 0 0 0 0 0 0 0 0 0 0 0 0 0 0 0 0 0 0 0 0 0 0 0 0 0 0 0 0 0 0 0 0 0 0 0 0 0 0 0 0 0 0 0 0 0 0 0 0 0 0 0 0 0 0 0 0 0 0 0 0 0 0 0 0 0 0 0 0 0 0 0 0 0 0 0 0 0 0 0 0 0 0 0 0 0 0 0 0 0 0 0 0 0 0 0 0 0 0 0 0 0 0 0 0 0 0 0 0 0 0 0 0 0 0 0 0 0 0 0 0 0 0 0 0 0 0 0 0 0 0 0 0 0 0 0 0 0 0 0 0 0 0 0 0 0 0 0 0 0 0 0 0 0 0 0 0 0 0 0 0 0 0 0 0 0 0 0 0 0 0 0 0 0 0 0 0 0 0 0 0 0 0 0 0 0.0051078782416880130768 0.017877575010061264038 0.040863025933504104614 0.10215757042169570923 0.19409938156604766846 0.41373816132545471191 0.85046172142028808594 1.4991621971130371094 2.6101257801055908203 3.8079230785369873047 4.0147924423217773438 2.9625692367553710938 1.7520022392272949219 1.3152786493301391602 1.3382641077041625977 1.4327598810195922852 1.3663574457168579102 1.5579029321670532227 1.9588712453842163086 2.4951984882354736328 2.6126797199249267578 2.2959911823272705078 1.6038737297058105469 1.0879780054092407227 0.62060719728469848633 0.38819873332977294922 0.31924238801002502441 0.32945814728736877441 0.31924238801002502441 0.23240847885608673096 0.17366786301136016846 0.1251430213451385498 0.099603630602359771729 0.086833931505680084229 0.058740600943565368652 0.035755150020122528076 0.022985454648733139038 0.020431512966752052307 0.020431512966752052307 0.017877575010061264038 0.015323635190725326538 0.017877575010061264038 0.020431512966752052307 0.020431512966752052307 0.020431512966752052307 0.025539392605423927307 0.045970901846885681152 0.058740600943565368652 0.076618179678916931152 0.099603630602359771729 0.13791270554065704346 0.17877574265003204346 0.22730058431625366211 0.25283995270729064941 0.28348723053932189941 0.29881089925765991211 0.32690420746803283691 0.37798297405242919922 0.39586055278778076172 0.38819873332977294922 0.37798297405242919922 0.36265936493873596191 0.31668844819068908691 0.24773208796977996826 0.14302058517932891846 0.05874059721827507019 0.028093330562114715576 0.017877575010061264038 0.012769696302711963654 0.007661817595362663269 0.0025539391208440065384 0 0 0 0 0 0 0 0 0 0 0 0 0 0 0 0 0 0 0 0 0 0 0 0 0 0 0 0 0 0 0 0 0 0 0 0 0 0 0 0 0 0 0 0 0 0 0 0 0 0 0 0 0 0 0 0 0 0 0 0 0 0 0 0 0 0 0 0 0 0 0 0 0 0 0 0 0 0 0 0 0 0 0 0 0 0 0 0 0 0 0 0 0 0 0 0 0 0 0 0 0 0 0 0 0 0 
0 0 0 0 0 0 0 0 0 0 0 0 0 0 0 0 0 0 0 0 0 0 0 0 0 0 0 0 0 0 0 0 0 0 0 0 0 0 0 0 0 0 0 0 0 0 0 0 0 0 0 0 0 0 0 0 0 0 0 0 0 0 0 0 0 0 0 0 0 0 0 0 0 0 0 0 0 0 0 0 0 0 0 0 0 0 0 0 0 0 0 0 0 0 0 0 0 0 0 0 0 0 0 0 0 0 0 0 0 0 0 0 0 0 0 0 0 0 0 0 0 0 0 0 0 0 0 0 0 0 0 0 0 0 0 0 0 0 0 0 0 0 0 0 0 0 0 0 0 0 0 0 0 0 0 0 0 0 0 0 0 0 0 0 0 0 0 0 0 0 0 0 0 0 0 0 0 0 0 0 0 0 0 0 0 0 0 0 0 0 0 0 0 0 0 0 0 0 0 0 0 0 0 0 0 0 0 0 0 0 0 0 0 0 0 0 0 0 0 0 0 0 0 0 0 0 0 0 0 0 0 0 0 0 0 0 0 0 0 0 0 0 0 0 0 0 0 0 0 0 0 0 0 0 0 0 0 0 0 0 0 0 0 0 0 0 0 0 0 0 0 0 0 0 0 0 0 0 0 0 0 0 0 0 0 0 0 0 0 0 0.0025539391208440065384 0.010215756483376026154 0.048524841666221618652 0.12258907407522201538 0.18388360738754272461 0.23751632869243621826 0.28859513998031616211 0.43161574006080627441 0.74575018882751464844 1.2922931909561157227 2.0610289573669433594 3.0647268295288085938 3.7925994396209716797 3.8385703563690185547 2.7148373126983642578 1.3280483484268188477 0.72787266969680786133 0.84024596214294433594 1.1135174036026000977 1.2744157314300537109 1.3229404687881469727 1.7264628410339355469 2.2832214832305908203 2.1938335895538330078 1.5987659692764282227 1.0011441707611083984 0.55675870180130004883 0.32690420746803283691 0.19920724630355834961 0.14812846481800079346 0.1506824195384979248 0.19154544174671173096 0.13535876572132110596 0.074064239859580993652 0.045970909297466278076 0.017877575010061264038 0.010215756483376026154 0.007661817595362663269 0.0025539391208440065384 0 0 0 0 0 0 0 0 0 0 0.0025539391208440065384 0.007661817595362663269 0.010215756483376026154 0.010215756483376026154 0.012769696302711963654 0.020431512966752052307 0.033201210200786590576 0.045970901846885681152 0.053632721304893493652 0.058740600943565368652 0.061294540762901306152 0.066402420401573181152 0.079172119498252868652 0.089387871325016021729 0.091941803693771362305 0.091941803693771362305 0.086833931505680084229 0.071510292589664459229 0.048524841666221618652 0.022985450923442840576 0.0051078782416880130768 0 0 0 0 0 0 0 0 0 0 0 0 0 0 0 0 0 0 0 0 0 0 0 0 0 0 0 0 0 0 0 0 0 0 0 0 0 0 0 0 0 0 0 0 0 0 0 0 0 0 0 0 0 0 0 0 0 0 0 0 0 0 0 0 0 0 0 0 0 0 0 0 0 0 0 0 0 0 0 0 0 0 0 0 0 0 0 0 0 0 0 0 0 0 0 0 0 0 0 0 0 0 0 0 0 0 0 0 0 0 0 
0 0 0 0 0 0 0 0 0 0 0 0 0 0 0 0 0 0 0 0 0 0 0 0 0 0 0 0 0 0 0 0 0 0 0 0 0 0 0 0 0 0 0 0 0 0 0 0 0 0 0 0 0 0 0 0 0 0 0 0 0 0 0 0 0 0 0 0 0 0 0 0 0 0 0 0 0 0 0 0 0 0 0 0 0 0 0 0 0 0 0 0 0 0 0 0 0 0 0 0 0 0 0 0 0 0 0 0 0 0 0 0 0 0 0 0 0 0 0 0 0 0 0 0 0 0 0 0 0 0 0 0 0 0 0 0 0 0 0 0 0 0 0 0 0 0 0 0 0 0 0 0 0 0 0 0 0 0 0 0 0 0 0 0 0 0 0 0 0 0 0 0 0 0 0 0 0 0 0 0 0 0 0 0 0 0 0 0 0 0 0 0 0 0 0 0 0 0 0 0 0 0 0 0 0 0 0 0 0 0 0 0 0 0 0 0 0 0 0 0 0 0 0 0 0 0 0 0 0 0 0 0 0 0 0 0 0 0 0 0 0 0 0 0 0 0 0 0 0 0 0 0 0 0 0 0 0 0 0 0 0 0 0 0 0 0 0 0 0 0 0 0 0 0 0 0 0 0 0 0 0 0 0 0 0 0 0 0 0 0.063848480582237243652 0.21197694540023803711 0.33967390656471252441 0.45460116863250732422 0.69211751222610473633 0.75851988792419433594 0.75085806846618652344 0.83258420228958129883 1.2182290554046630859 1.9614253044128417969 2.6101257801055908203 3.3099052906036376953 3.6112699508666992188 3.2920277118682861328 2.4415659904479980469 1.2080131769180297852 0.53888112306594848633 0.51844966411590576172 0.81215268373489379883 1.1365028619766235352 1.3918968439102172852 1.5527949333190917969 1.9716409444808959961 2.0814604759216308594 1.3842350244522094727 0.74064230918884277344 0.35244360566139221191 0.17111392319202423096 0.11237332969903945923 0.1455745398998260498 0.14046664535999298096 0.13535876572132110596 0.10981938987970352173 0.038309089839458465576 0.012769696302711963654 0.007661817595362663269 0.0025539391208440065384 0 0 0 0 0 0 0 0 0 0 0 0 0 0 0 0 0 0 0 0 0 0 0 0 0 0 0 0 0 0 0 0 0 0 0 0 0 0 0 0 0 0 0 0 0 0 0 0 0 0 0 0 0 0 0 0 0 0 0 0 0 0 0 0 0 0 0 0 0 0 0 0 0 0 0 0 0 0 0 0 0 0 0 0 0 0 0 0 0 0 0 0 0 0 0 0 0 0 0 0 0 0 0 0 0 0 0 0 0 0 0 0 0 0 0 0 0 0 0 0 0 0 0 0 0 0 0 0 0 0 0 0 0 0 0 0 0 0 0 0 0 0 0 0 0 
0 0 0 0 0 0 0 0 0 0 0 0 0 0 0 0 0 0 0 0 0 0 0 0 0 0 0 0 0 0 0 0 0 0 0 0 0 0 0 0 0 0 0 0 0 0 0 0 0 0 0 0 0 0 0 0 0 0 0 0 0 0 0 0 0 0 0 0 0 0 0 0 0 0 0 0 0 0 0 0 0 0 0 0 0 0 0 0 0 0 0 0 0 0 0 0 0 0 0 0 0 0 0 0 0 0 0 0 0 0 0 0 0 0 0 0 0 0 0 0 0 0 0 0 0 0 0 0 0 0 0 0 0 0 0 0 0 0 0 0 0 0 0 0 0 0 0 0 0 0 0 0 0 0 0 0 0 0 0 0 0 0 0 0 0 0 0 0 0 0 0 0 0 0 0 0 0 0 0 0 0 0 0 0 0 0 0 0 0 0 0 0 0 0 0 0 0 0 0 0 0 0 0 0 0 0 0 0 0 0 0 0 0 0 0 0 0 0 0 0 0 0 0 0 0 0 0 0 0 0 0 0 0 0 0 0 0 0 0 0 0 0 0 0 0 0 0 0 0 0 0 0 0 0 0 0 0 0 0 0 0 0 0 0 0 0 0 0 0 0.0025539391208440065384 0.007661817595362663269 0.010215756483376026154 0.015323635190725326538 0.028093332424759864807 0.038309089839458465576 0.043416965752840042114 0.056186661124229431152 0.084279991686344146729 0.1174812018871307373 0.13791270554065704346 0.14302058517932891846 0.14302058517932891846 0.14302058517932891846 0.14302058517932891846 0.14302058517932891846 0.14302058517932891846 0.14302058517932891846 0.14302058517932891846 0.14302058517932891846 0.27071753144264221191 0.81470662355422973633 1.0726544857025146484 1.1594883203506469727 1.1339489221572875977 0.90409445762634277344 0.86578536033630371094 1.1543804407119750977 1.7877573966979980469 2.4211344718933105469 2.5871403217315673828 2.7505924701690673828 2.4236881732940673828 1.8975766897201538086 1.0649926662445068359 0.50567996501922607422 0.44438540935516357422 0.58485203981399536133 0.85301566123962402344 1.1850277185440063477 1.3791271448135375977 1.5425791740417480469 1.8618215322494506836 1.5859962701797485352 0.86578536033630371094 0.42139995098114013672 0.25028604269027709961 0.13535876572132110596 0.11237332969903945923 0.10981938987970352173 0.056186664849519729614 0.038309089839458465576 0.025539392605423927307 0.007661817595362663269 0 0 0 0 0 0 0 0 0 0 0 0 0 0 0 0 0 0 0 0 0 0 0 0 0 0 0 0 0 0 0 0 0 0 0 0 0 0 0 0 0 0 0 0 0 0 0 0 0 0 0 0 0 0 0 0 0 0 0 0 0 0 0 0 0 0 0 0 0 0 0 0 0 0 0 0 0 0 0 0 0 0 0 0 0 0 0 0 0 0 0 0 0 0 0 0 0 0 0 0 0 0 0 0 0 0 0 0 0 0 0 0 0 0 0 0 0 0 0 0 0 0 0 0 0 0 0 0 0 0 0 0 0 0 0 0 0 0 0 0 0 0 0 0 0 0 0 0 
0 0 0 0 0 0 0 0 0 0 0 0 0 0 0 0 0 0 0 0 0 0 0 0 0 0 0 0 0 0 0 0 0 0 0 0 0 0 0 0 0 0 0 0 0 0 0 0 0 0 0 0 0 0 0 0 0 0 0 0 0 0 0 0 0 0 0 0 0 0 0 0 0 0 0 0 0 0 0 0 0 0 0 0 0 0 0 0 0 0 0 0 0 0 0 0 0 0 0 0 0 0 0 0 0 0 0 0 0 0 0 0 0 0 0 0 0 0 0 0 0 0 0 0 0 0 0 0 0 0 0 0 0 0 0 0 0 0 0 0 0 0 0 0 0 0 0 0 0 0 0 0 0 0 0 0 0 0 0 0 0 0 0 0 0 0 0 0 0 0 0 0 0 0 0 0 0 0 0 0 0 0 0 0 0 0 0 0 0 0 0 0 0 0 0 0 0 0 0 0 0 0 0 0 0 0 0 0 0 0 0 0 0 0 0 0 0 0 0 0 0 0 0 0 0 0 0 0 0 0 0 0 0 0 0 0 0 0 0 0 0 0 0 0 0 0 0 0 0 0 0 0 0 0 0 0 0 0 0 0 0 0.0025539391208440065384 0.015323635190725326538 0.035755146294832229614 0.05874059721827507019 0.084279991686344146729 0.1072654426097869873 0.1251430213451385498 0.1328048408031463623 0.14046664535999298096 0.16345210373401641846 0.16600604355335235596 0.17366786301136016846 0.21453088521957397461 0.23240846395492553711 0.23240846395492553711 0.26305574178695678711 0.33711996674537658691 0.41629210114479064941 0.44438540935516357422 0.43416965007781982422 0.42906177043914794922 0.42906177043914794922 0.42906177043914794922 0.42906177043914794922 0.42906177043914794922 0.42906177043914794922 0.42906177043914794922 0.42906177043914794922 0.49291026592254638672 0.63593089580535888672 0.71510297060012817383 0.62571513652801513672 0.54143506288528442383 0.57974416017532348633 0.80704474449157714844 1.2437683343887329102 1.9537633657455444336 2.2346966266632080078 2.1606323719024658203 2.0150580406188964844 1.5834422111511230469 1.1390568017959594727 0.60017567873001098633 0.44183146953582763672 0.55420476198196411133 0.75085806846618652344 1.0879780054092407227 1.3918968439102172852 1.4531913995742797852 1.5604567527770996094 1.6038737297058105469 1.0701005458831787109 0.49035632610321044922 0.24007026851177215576 0.1225890815258026123 0.048524845391511917114 0.030647270381450653076 0.022985454648733139038 0.007661817595362663269 0 0 0 0 0 0 0 0 0 0 0 0 0 0 0 0 0 0 0 0 0 0 0 0 0 0 0 0 0 0 0 0 0 0 0 0 0 0 0 0 0 0 0 0 0 0 0 0 0 0 0 0 0 0 0 0 0 0 0 0 0 0 0 0 0 0 0 0 0 0 0 0 0 0 0 0 0 0 0 0 0 0 0 0 0 0 0 0 0 0 0 0 0 0 0 0 0 0 0 0 0 0 0 0 0 0 0 0 0 0 0 0 0 0 0 0 0 0 0 0 0 0 0 0 0 0 0 0 0 0 0 0 0 0 0 0 0 0 0 0 0 0 0 0 0 0 0 0 0 0 0 
0 0 0 0 0 0 0 0 0 0 0 0 0 0 0 0 0 0 0 0 0 0 0 0 0 0 0 0 0 0 0 0 0 0 0 0 0 0 0 0 0 0 0 0 0 0 0 0 0 0 0 0 0 0 0 0 0 0 0 0 0 0 0 0 0 0 0 0 0 0 0 0 0 0 0 0 0 0 0 0 0 0 0 0 0 0 0 0 0 0 0 0 0 0 0 0 0 0 0 0 0 0 0 0 0 0 0 0 0 0 0 0 0 0 0 0 0 0 0 0 0 0 0 0 0 0 0 0 0 0 0 0 0 0 0 0 0 0 0 0 0 0 0 0 0 0 0 0 0 0 0 0 0 0 0 0 0 0 0 0 0 0 0 0 0 0 0 0 0 0 0 0 0 0 0 0 0 0 0 0 0 0 0 0 0 0 0 0 0 0 0 0 0 0 0 0 0 0 0 0 0 0 0 0 0 0 0 0 0 0 0 0 0 0 0 0 0 0 0 0 0 0 0 0 0 0 0 0 0 0 0 0 0 0 0 0 0 0 0 0 0 0 0 0 0 0 0 0 0 0 0 0 0 0 0 0 0 0 0 0 0.0051078782416880130768 0.030647270381450653076 0.099603630602359771729 0.19920726120471954346 0.26560968160629272461 0.34478178620338439941 0.37542903423309326172 0.41884601116180419922 0.41629210114479064941 0.41629210114479064941 0.43416965007781982422 0.41629210114479064941 0.41373816132545471191 0.41629210114479064941 0.38053691387176513672 0.35499754548072814941 0.35755148530006408691 0.34988966584205627441 0.29625695943832397461 0.20942300558090209961 0.15323634445667266846 0.14302058517932891846 0.14302058517932891846 0.14302058517932891846 0.14302058517932891846 0.14302058517932891846 0.14302058517932891846 0.14302058517932891846 0.14302058517932891846 0.14302058517932891846 0.14302058517932891846 0.1506824195384979248 0.20431514084339141846 0.27327147126197814941 0.45204722881317138672 0.84279990196228027344 1.4327598810195922852 1.8771451711654663086 1.6983695030212402344 1.5936579704284667969 1.4097744226455688477 1.1365028619766235352 0.85556960105895996094 0.50057208538055419922 0.47758659720420837402 0.62826901674270629883 0.84535384178161621094 1.2182290554046630859 1.4787306785583496094 1.4736227989196777344 1.4966082572937011719 1.1901355981826782227 0.56442052125930786133 0.1557902991771697998 0.051078781485557556152 0.022985450923442840576 0.0051078782416880130768 0 0 0 0 0 0 0 0 0 0 0 0 0 0 0 0 0 0 0 0 0 0 0 0 0 0 0 0 0 0 0 0 0 0 0 0 0 0 0 0 0 0 0 0 0 0 0 0 0 0 0 0 0 0 0 0 0 0 0 0 0 0 0 0 0 0 0 0 0 0 0 0 0 0 0 0 0 0 0 0 0 0 0 0 0 0 0 0 0 0 0 0 0 0 0 0 0 0 0 0 0 0 0 0 0 0 0 0 0 0 0 0 0 0 0 0 0 0 0 0 0 0 0 0 0 0 0 0 0 0 0 0 0 0 0 0 0 0 0 0 0 0 0 0 0 0 0 0 0 0 0 0 0 0 
0 0 0 0 0 0 0 0 0 0 0 0 0 0 0 0 0 0 0 0 0 0 0 0 0 0 0 0 0 0 0 0 0 0 0 0 0 0 0 0 0 0 0 0 0 0 0 0 0 0 0 0 0 0 0 0 0 0 0 0 0 0 0 0 0 0 0 0 0 0 0 0 0 0 0 0 0 0 0 0 0 0 0 0 0 0 0 0 0 0 0 0 0 0 0 0 0 0 0 0 0 0 0 0 0 0 0 0 0 0 0 0 0 0 0 0 0 0 0 0 0 0 0 0 0 0 0 0 0 0 0 0 0 0 0 0 0 0 0 0 0 0 0 0 0 0 0 0 0 0 0 0 0 0 0 0 0 0 0 0 0 0 0 0 0 0 0 0 0 0 0 0 0 0 0 0 0 0 0 0 0 0 0 0 0 0 0 0 0 0 0 0 0 0 0 0 0 0 0 0 0 0 0 0 0 0 0 0 0 0 0 0 0 0 0 0 0 0 0 0 0 0 0 0 0 0 0 0 0 0 0 0 0 0 0 0 0 0 0 0 0 0 0 0 0 0 0 0 0 0 0 0 0 0 0 0 0 0 0.0025539391208440065384 0.025539392605423927307 0.079172119498252868652 0.17111392319202423096 0.28859511017799377441 0.37287509441375732422 0.39330661296844482422 0.35499754548072814941 0.27582541108131408691 0.23751634359359741211 0.17877574265003204346 0.16600604355335235596 0.16345210373401641846 0.14046664535999298096 0.1328048408031463623 0.1276969611644744873 0.1149272620677947998 0.10471149533987045288 0.099603623151779174805 0.086833931505680084229 0.058740600943565368652 0.025539392605423927307 0.0051078782416880130768 0 0 0 0 0 0 0 0 0 0 0.030647270381450653076 0.1506824195384979248 0.27582541108131408691 0.49546420574188232422 1.0598847866058349609 1.5604567527770996094 1.5783343315124511719 1.3867889642715454102 1.4174362421035766602 1.3152786493301391602 1.1518266201019287109 0.86323142051696777344 0.65636235475540161133 0.70488721132278442383 0.86833930015563964844 1.1135174036026000977 1.4991621971130371094 1.6217514276504516602 1.5502409934997558594 1.3076168298721313477 0.73042660951614379883 0.24262422323226928711 0.035755150020122528076 0 0 0 0 0 0 0 0 0 0 0 0 0 0 0 0 0 0 0 0 0 0 0 0 0 0 0 0 0 0 0 0 0 0 0 0 0 0 0 0 0 0 0 0 0 0 0 0 0 0 0 0 0 0 0 0 0 0 0 0 0 0 0 0 0 0 0 0 0 0 0 0 0 0 0 0 0 0 0 0 0 0 0 0 0 0 0 0 0 0 0 0 0 0 0 0 0 0 0 0 0 0 0 0 0 0 0 0 0 0 0 0 0 0 0 0 0 0 0 0 0 0 0 0 0 0 0 0 0 0 0 0 0 0 0 0 0 0 0 0 0 0 0 0 0 0 0 0 0 0 0 0 0 0 0 0 0 
0 0 0 0 0 0 0 0 0 0 0 0 0 0 0 0 0 0 0 0 0 0 0 0 0 0 0 0 0 0 0 0 0 0 0 0 0 0 0 0 0 0 0 0 0 0 0 0 0 0 0 0 0 0 0 0 0 0 0 0 0 0 0 0 0 0 0 0 0 0 0 0 0 0 0 0 0 0 0 0 0 0 0 0 0 0 0 0 0 0 0 0 0 0 0 0 0 0 0 0 0 0 0 0 0 0 0 0 0 0 0 0 0 0 0 0 0 0 0 0 0 0 0 0 0 0 0 0 0 0 0 0 0 0 0 0 0 0 0 0 0 0 0 0 0 0 0 0 0 0 0 0 0 0 0 0 0 0 0 0 0 0 0 0 0 0 0 0 0 0 0 0 0 0 0 0 0 0 0 0 0 0 0 0 0 0 0 0 0 0 0 0 0 0 0 0 0 0 0 0 0 0 0 0 0 0 0 0 0 0 0 0 0 0 0 0 0 0 0 0 0 0 0 0 0 0 0 0 0 0 0 0 0 0 0 0 0 0 0 0 0 0 0 0 0 0 0 0 0 0 0 0 0 0.0025539391208440065384 0.007661817595362663269 0.012769696302711963654 0.017877575010061264038 0.022985454648733139038 0.038309089839458465576 0.1149272620677947998 0.29114904999732971191 0.37798297405242919922 0.38819873332977294922 0.32435026764869689941 0.22474664449691772461 0.1072654426097869873 0.05874059721827507019 0.035755146294832229614 0.017877575010061264038 0.010215756483376026154 0.007661817595362663269 0.0025539391208440065384 0 0 0 0 0 0 0 0 0 0 0 0 0 0 0 0 0 0 0 0.030647270381450653076 0.17111392319202423096 0.36776721477508544922 0.67168599367141723633 1.3612495660781860352 1.6575065851211547852 1.4531913995742797852 1.3152786493301391602 1.4710688591003417969 1.3893429040908813477 1.1262871026992797852 0.77384358644485473633 0.69722539186477661133 0.82492238283157348633 1.1160714626312255859 1.4659610986709594727 1.7290167808532714844 1.6830458641052246094 1.3408180475234985352 0.73808836936950683594 0.26560968160629272461 0.061294540762901306152 0.007661817595362663269 0 0 0 0 0 0 0 0 0 0 0 0 0 0 0 0 0 0 0 0 0 0 0 0 0 0 0 0 0 0 0 0 0 0 0 0 0 0 0 0 0 0 0 0 0 0 0 0 0 0 0 0 0 0 0 0 0 0 0 0 0 0 0 0 0 0 0 0 0 0 0 0 0 0 0 0 0 0 0 0 0 0 0 0 0 0 0 0 0 0 0 0 0 0 0 0 0 0 0 0 0 0 0 0 0 0 0 0 0 0 0 0 0 0 0 0 0 0 0 0 0 0 0 0 0 0 0 0 0 0 0 0 0 0 0 0 0 0 0 0 0 0 0 0 0 0 0 0 0 0 0 0 0 0 0 0 0 
0 0 0 0 0 0 0 0 0 0 0 0 0 0 0 0 0 0 0 0 0 0 0 0 0 0 0 0 0 0 0 0 0 0 0 0 0 0 0 0 0 0 0 0 0 0 0 0 0 0 0 0 0 0 0 0 0 0 0 0 0 0 0 0 0 0 0 0 0 0 0 0 0 0 0 0 0 0 0 0 0 0 0 0 0 0 0 0 0 0 0 0 0 0 0 0 0 0 0 0 0 0 0 0 0 0 0 0 0 0 0 0 0 0 0 0 0 0 0 0 0 0 0 0 0 0 0 0 0 0 0 0 0 0 0 0 0 0 0 0 0 0 0 0 0 0 0 0 0 0 0 0 0 0 0 0 0 0 0 0 0 0 0 0 0 0 0 0 0 0 0 0 0 0 0 0 0 0 0 0 0 0 0 0 0 0 0 0 0 0 0 0 0 0 0 0 0 0 0 0 0 0 0 0 0 0 0 0 0 0 0 0 0 0 0 0 0 0 0 0 0 0 0 0 0 0 0 0 0 0 0 0 0 0 0 0 0 0 0 0 0 0 0 0 0 0 0 0 0 0 0 0 0 0.007661817595362663269 0.030647270381450653076 0.040863025933504104614 0.061294540762901306152 0.076618179678916931152 0.1251430213451385498 0.22730058431625366211 0.33456602692604064941 0.29881086945533752441 0.22730058431625366211 0.14046664535999298096 0.068956352770328521729 0.015323635190725326538 0 0 0 0 0 0 0 0 0 0 0 0 0 0 0 0 0 0 0 0 0 0 0 0 0 0.030647270381450653076 0.18899148702621459961 0.45460116863250732422 0.81470662355422973633 1.4429756402969360352 1.4915003776550292969 1.2820774316787719727 1.2948471307754516602 1.5119318962097167969 1.3663574457168579102 0.98582053184509277344 0.70233327150344848633 0.83513808250427246094 1.1058555841445922852 1.4072204828262329102 1.5834423303604125977 1.5630106925964355469 1.3076168298721313477 0.69467145204544067383 0.20686908066272735596 0.043416965752840042114 0.0051078782416880130768 0 0 0 0 0 0 0 0 0 0 0 0 0 0 0 0 0 0 0 0 0 0 0 0 0 0 0 0 0 0 0 0 0 0 0 0 0 0 0 0 0 0 0 0 0 0 0 0 0 0 0 0 0 0 0 0 0 0 0 0 0 0 0 0 0 0 0 0 0 0 0 0 0 0 0 0 0 0 0 0 0 0 0 0 0 0 0 0 0 0 0 0 0 0 0 0 0 0 0 0 0 0 0 0 0 0 0 0 0 0 0 0 0 0 0 0 0 0 0 0 0 0 0 0 0 0 0 0 0 0 0 0 0 0 0 0 0 0 0 0 0 0 0 0 0 0 0 0 0 0 0 0 0 0 0 0 0 0 
0 0 0 0 0 0 0 0 0 0 0 0 0 0 0 0 0 0 0 0 0 0 0 0 0 0 0 0 0 0 0 0 0 0 0 0 0 0 0 0 0 0 0 0 0 0 0 0 0 0 0 0 0 0 0 0 0 0 0 0 0 0 0 0 0 0 0 0 0 0 0 0 0 0 0 0 0 0 0 0 0 0 0 0 0 0 0 0 0 0 0 0 0 0 0 0 0 0 0 0 0 0 0 0 0 0 0 0 0 0 0 0 0 0 0 0 0 0 0 0 0 0 0 0 0 0 0 0 0 0 0 0 0 0 0 0 0 0 0 0 0 0 0 0 0 0 0 0 0 0 0 0 0 0 0 0 0 0 0 0 0 0 0 0 0 0 0 0 0 0 0 0 0 0 0 0 0 0 0 0 0 0 0 0 0 0 0 0 0 0 0 0 0 0 0 0 0 0 0 0 0 0 0 0 0 0 0 0 0 0 0 0 0 0 0 0 0 0 0 0 0 0 0 0 0 0 0 0 0 0 0 0 0 0 0 0 0 0 0 0 0 0 0 0 0 0 0 0 0 0 0 0 0 0.012769696302711963654 0.043416965752840042114 0.045970909297466278076 0.066402420401573181152 0.084279991686344146729 0.17622180283069610596 0.25028604269027709961 0.28348726034164428711 0.20176120102405548096 0.089387871325016021729 0.030647270381450653076 0.010215756483376026154 0.0025539391208440065384 0 0 0 0 0 0 0 0 0 0 0 0 0 0 0 0 0 0 0 0 0 0 0 0 0 0.030647270381450653076 0.19665330648422241211 0.51334178447723388672 0.99092841148376464844 1.6115355491638183594 1.5732264518737792969 1.4915003776550292969 1.5834422111511230469 1.7417864799499511719 1.4327598810195922852 1.0368993282318115234 1.0368993282318115234 1.4250980615615844727 1.8516058921813964844 2.0303816795349121094 1.7009234428405761719 1.3050628900527954102 0.75596594810485839844 0.20942300558090209961 0.028093330562114715576 0 0 0 0 0 0 0 0 0 0 0 0 0 0 0 0 0 0 0 0 0 0 0 0 0 0 0 0 0 0 0 0 0 0 0 0 0 0 0 0 0 0 0 0 0 0 0 0 0 0 0 0 0 0 0 0 0 0 0 0 0 0 0 0 0 0 0 0 0 0 0 0 0 0 0 0 0 0 0 0 0 0 0 0 0 0 0 0 0 0 0 0 0 0 0 0 0 0 0 0 0 0 0 0 0 0 0 0 0 0 0 0 0 0 0 0 0 0 0 0 0 0 0 0 0 0 0 0 0 0 0 0 0 0 0 0 0 0 0 0 0 0 0 0 0 0 0 0 0 0 0 0 0 0 0 0 0 0 0 0 
0 0 0 0 0 0 0 0 0 0 0 0 0 0 0 0 0 0 0 0 0 0 0 0 0 0 0 0 0 0 0 0 0 0 0 0 0 0 0 0 0 0 0 0 0 0 0 0 0 0 0 0 0 0 0 0 0 0 0 0 0 0 0 0 0 0 0 0 0 0 0 0 0 0 0 0 0 0 0 0 0 0 0 0 0 0 0 0 0 0 0 0 0 0 0 0 0 0 0 0 0 0 0 0 0 0 0 0 0 0 0 0 0 0 0 0 0 0 0 0 0 0 0 0 0 0 0 0 0 0 0 0 0 0 0 0 0 0 0 0 0 0 0 0 0 0 0 0 0 0 0 0 0 0 0 0 0 0 0 0 0 0 0 0 0 0 0 0 0 0 0 0 0 0 0 0 0 0 0 0 0 0 0 0 0 0 0 0 0 0 0 0 0 0 0 0 0 0 0 0 0 0 0 0 0 0 0 0 0 0 0 0 0 0 0 0 0 0 0 0 0 0 0 0 0 0 0 0 0 0 0 0 0 0 0 0 0 0 0 0 0 0 0 0 0 0 0 0 0 0 0.0025539391208440065384 0.007661817595362663269 0.010215756483376026154 0.028093332424759864807 0.086833931505680084229 0.11748119443655014038 0.1481284797191619873 0.18899150192737579346 0.28604117035865783691 0.30136480927467346191 0.24517816305160522461 0.1276969611644744873 0.053632721304893493652 0.010215756483376026154 0 0 0 0 0 0 0 0 0 0 0 0 0 0 0 0 0 0 0 0 0 0 0 0 0 0 0 0.030647270381450653076 0.20431514084339141846 0.60528361797332763672 1.2616460323333740234 1.8822530508041381836 1.8081889152526855469 1.8490519523620605469 1.9920725822448730469 1.9180082082748413086 1.5681185722351074219 1.4225441217422485352 1.5757805109024047852 1.9971804618835449219 2.0967841148376464844 1.5042700767517089844 0.85301566123962402344 0.52866542339324951172 0.20431514084339141846 0.040863025933504104614 0 0 0 0 0 0 0 0 0 0 0 0 0 0 0 0 0 0 0 0 0 0 0 0 0 0 0 0 0 0 0 0 0 0 0 0 0 0 0 0 0 0 0 0 0 0 0 0 0 0 0 0 0 0 0 0 0 0 0 0 0 0 0 0 0 0 0 0 0 0 0 0 0 0 0 0 0 0 0 0 0 0 0 0 0 0 0 0 0 0 0 0 0 0 0 0 0 0 0 0 0 0 0 0 0 0 0 0 0 0 0 0 0 0 0 0 0 0 0 0 0 0 0 0 0 0 0 0 0 0 0 0 0 0 0 0 0 0 0 0 0 0 0 0 0 0 0 0 0 0 0 0 0 0 0 0 0 0 0 0 0 
0 0 0 0 0 0 0 0 0 0 0 0 0 0 0 0 0 0 0 0 0 0 0 0 0 0 0 0 0 0 0 0 0 0 0 0 0 0 0 0 0 0 0 0 0 0 0 0 0 0 0 0 0 0 0 0 0 0 0 0 0 0 0 0 0 0 0 0 0 0 0 0 0 0 0 0 0 0 0 0 0 0 0 0 0 0 0 0 0 0 0 0 0 0 0 0 0 0 0 0 0 0 0 0 0 0 0 0 0 0 0 0 0 0 0 0 0 0 0 0 0 0 0 0 0 0 0 0 0 0 0 0 0 0 0 0 0 0 0 0 0 0 0 0 0 0 0 0 0 0 0 0 0 0 0 0 0 0 0 0 0 0 0 0 0 0 0 0 0 0 0 0 0 0 0 0 0 0 0 0 0 0 0 0 0 0 0 0 0 0 0 0 0 0 0 0 0 0 0 0 0 0 0 0 0 0 0 0 0 0 0 0 0 0 0 0 0 0 0 0 0 0 0 0 0 0 0 0 0 0 0 0 0 0 0 0 0 0 0 0 0 0 0 0 0 0 0 0 0 0 0.012769696302711963654 0.045970909297466278076 0.058740600943565368652 0.089387871325016021729 0.17111392319202423096 0.23240846395492553711 0.24517814815044403076 0.28604117035865783691 0.29625692963600158691 0.23496238887310028076 0.1302509009838104248 0.063848480582237243652 0.035755150020122528076 0.007661817595362663269 0 0 0 0 0 0 0 0 0 0 0 0 0 0 0 0 0 0 0 0 0 0 0 0 0 0 0 0.033201210200786590576 0.23751634359359741211 0.77895146608352661133 1.6447368860244750977 2.2423584461212158203 2.0916762351989746094 2.2346966266632080078 2.1504168510437011719 1.7954192161560058594 1.5221476554870605469 1.5093779563903808594 1.6268593072891235352 1.7724337577819824219 1.1722580194473266602 0.43416965007781982422 0.1583442389965057373 0.068956352770328521729 0.020431512966752052307 0 0 0 0 0 0 0 0 0 0 0 0 0 0 0 0 0 0 0 0 0 0 0 0 0 0 0 0 0 0 0 0 0 0 0 0 0 0 0 0 0 0 0 0 0 0 0 0 0 0 0 0 0 0 0 0 0 0 0 0 0 0 0 0 0 0 0 0 0 0 0 0 0 0 0 0 0 0 0 0 0 0 0 0 0 0 0 0 0 0 0 0 0 0 0 0 0 0 0 0 0 0 0 0 0 0 0 0 0 0 0 0 0 0 0 0 0 0 0 0 0 0 0 0 0 0 0 0 0 0 0 0 0 0 0 0 0 0 0 0 0 0 0 0 0 0 0 0 0 0 0 0 0 0 0 0 0 0 0 0 0 0 
0 0 0 0 0 0 0 0 0 0 0 0 0 0 0 0 0 0 0 0 0 0 0 0 0 0 0 0 0 0 0 0 0 0 0 0 0 0 0 0 0 0 0 0 0 0 0 0 0 0 0 0 0 0 0 0 0 0 0 0 0 0 0 0 0 0 0 0 0 0 0 0 0 0 0 0 0 0 0 0 0 0 0 0 0 0 0 0 0 0 0 0 0 0 0 0 0 0 0 0 0 0 0 0 0 0 0 0 0 0 0 0 0 0 0 0 0 0 0 0 0 0 0 0 0 0 0 0 0 0 0 0 0 0 0 0 0 0 0 0 0 0 0 0 0 0 0 0 0 0 0 0 0 0 0 0 0 0 0 0 0 0 0 0 0 0 0 0 0 0 0 0 0 0 0 0 0 0 0 0 0 0 0 0 0 0 0 0 0 0 0 0 0 0 0 0 0 0 0 0 0 0 0 0 0 0 0 0 0 0 0 0 0 0 0 0 0 0 0 0 0 0 0 0 0 0 0 0 0 0 0 0 0 0 0 0 0 0 0 0 0 0 0 0 0 0 0 0 0.0025539391208440065384 0.010215756483376026154 0.040863025933504104614 0.11237332969903945923 0.1276969611644744873 0.19665332138538360596 0.28348723053932189941 0.28604117035865783691 0.23240846395492553711 0.19920726120471954346 0.16855998337268829346 0.1098193824291229248 0.035755146294832229614 0.012769696302711963654 0.007661817595362663269 0.0025539391208440065384 0 0 0 0 0 0 0 0 0 0 0 0 0 0 0 0 0 0 0 0 0 0 0 0 0 0 0 0.048524845391511917114 0.34733572602272033691 1.1645961999893188477 2.2755596637725830078 2.7429306507110595703 2.6663124561309814453 2.4415659904479980469 2.0431513786315917969 1.7315707206726074219 1.6166434288024902344 1.6345210075378417969 1.4863924980163574219 1.0215756893157958984 0.33201208710670471191 0.053632721304893493652 0 0 0 0 0 0 0 0 0 0 0 0 0 0 0 0 0 0 0 0 0 0 0 0 0 0 0 0 0 0 0 0 0 0 0 0 0 0 0 0 0 0 0 0 0 0 0 0 0 0 0 0 0 0 0 0 0 0 0 0 0 0 0 0 0 0 0 0 0 0 0 0 0 0 0 0 0 0 0 0 0 0 0 0 0 0 0 0 0 0 0 0 0 0 0 0 0 0 0 0 0 0 0 0 0 0 0 0 0 0 0 0 0 0 0 0 0 0 0 0 0 0 0 0 0 0 0 0 0 0 0 0 0 0 0 0 0 0 0 0 0 0 0 0 0 0 0 0 0 0 0 0 0 0 0 0 0 0 0 0 0 0 0 0 0 
0 0 0 0 0 0 0 0 0 0 0 0 0 0 0 0 0 0 0 0 0 0 0 0 0 0 0 0 0 0 0 0 0 0 0 0 0 0 0 0 0 0 0 0 0 0 0 0 0 0 0 0 0 0 0 0 0 0 0 0 0 0 0 0 0 0 0 0 0 0 0 0 0 0 0 0 0 0 0 0 0 0 0 0 0 0 0 0 0 0 0 0 0 0 0 0 0 0 0 0 0 0 0 0 0 0 0 0 0 0 0 0 0 0 0 0 0 0 0 0 0 0 0 0 0 0 0 0 0 0 0 0 0 0 0 0 0 0 0 0 0 0 0 0 0 0 0 0 0 0 0 0 0 0 0 0 0 0 0 0 0 0 0 0 0 0 0 0 0 0 0 0 0 0 0 0 0 0 0 0 0 0 0 0 0 0 0 0 0 0 0 0 0 0 0 0 0 0 0 0 0 0 0 0 0 0 0 0 0 0 0 0 0 0 0 0 0 0 0 0 0 0 0 0 0 0 0 0 0 0 0 0 0 0 0 0 0 0 0 0 0 0 0 0 0.0025539391208440065384 0.007661817595362663269 0.010215756483376026154 0.012769696302711963654 0.022985450923442840576 0.058740600943565368652 0.1200351417064666748 0.18388360738754272461 0.19409938156604766846 0.25794786214828491211 0.26305574178695678711 0.18643756210803985596 0.1251430213451385498 0.076618179678916931152 0.084279991686344146729 0.033201210200786590576 0.0051078782416880130768 0 0 0 0 0 0 0 0 0 0 0 0 0 0 0 0 0 0 0 0 0 0 0 0 0 0 0 0 0 0.0025539391208440065384 0.086833931505680084229 0.57208234071731567383 1.6779379844665527344 2.9217064380645751953 3.2179634571075439453 2.8757355213165283203 2.2781136035919189453 2.0048422813415527344 1.7060313224792480469 1.5783343315124511719 1.2233368158340454102 0.70744115114212036133 0.26560968160629272461 0.058740600943565368652 0 0 0 0 0 0 0 0 0 0 0 0 0 0 0 0 0 0 0 0 0 0 0 0 0 0 0 0 0 0 0 0 0 0 0 0 0 0 0 0 0 0 0 0 0 0 0 0 0 0 0 0 0 0 0 0 0 0 0 0 0 0 0 0 0 0 0 0 0 0 0 0 0 0 0 0 0 0 0 0 0 0 0 0 0 0 0 0 0 0 0 0 0 0 0 0 0 0 0 0 0 0 0 0 0 0 0 0 0 0 0 0 0 0 0 0 0 0 0 0 0 0 0 0 0 0 0 0 0 0 0 0 0 0 0 0 0 0 0 0 0 0 0 0 0 0 0 0 0 0 0 0 0 0 0 0 0 0 0 0 0 0 0 0 0 0 
0 0 0 0 0 0 0 0 0 0 0 0 0 0 0 0 0 0 0 0 0 0 0 0 0 0 0 0 0 0 0 0 0 0 0 0 0 0 0 0 0 0 0 0 0 0 0 0 0 0 0 0 0 0 0 0 0 0 0 0 0 0 0 0 0 0 0 0 0 0 0 0 0 0 0 0 0 0 0 0 0 0 0 0 0 0 0 0 0 0 0 0 0 0 0 0 0 0 0 0 0 0 0 0 0 0 0 0 0 0 0 0 0 0 0 0 0 0 0 0 0 0 0 0 0 0 0 0 0 0 0 0 0 0 0 0 0 0 0 0 0 0 0 0 0 0 0 0 0 0 0 0 0 0 0 0 0 0 0 0 0 0 0 0 0 0 0 0 0 0 0 0 0 0 0 0 0 0 0 0 0 0 0 0 0 0 0 0 0 0 0 0 0 0 0 0 0 0 0 0 0 0 0 0 0 0 0 0 0 0 0 0 0 0 0 0 0 0 0 0 0 0 0 0 0 0 0 0 0 0 0 0 0 0 0 0 0 0 0 0 0 0 0 0 0.007661817595362663269 0.035755150020122528076 0.048524845391511917114 0.061294540762901306152 0.094495750963687896729 0.1328048408031463623 0.21453088521957397461 0.24262422323226928711 0.22474664449691772461 0.21963876485824584961 0.1583442389965057373 0.089387878775596618652 0.081726051867008209229 0.063848480582237243652 0.063848480582237243652 0.017877575010061264038 0 0 0 0 0 0 0 0 0 0 0 0 0 0 0 0 0 0 0 0 0 0 0 0 0 0 0 0 0 0 0.012769696302711963654 0.1762218177318572998 0.91431027650833129883 2.3470702171325683594 3.4171705245971679688 3.3890771865844726562 2.6944057941436767578 2.1223235130310058594 1.7800955772399902344 1.3867889642715454102 0.96538895368576049805 0.43416965007781982422 0.14046664535999298096 0.028093330562114715576 0 0 0 0 0 0 0 0 0 0 0 0 0 0 0 0 0 0 0 0 0 0 0 0 0 0 0 0 0 0 0 0 0 0 0 0 0 0 0 0 0 0 0 0 0 0 0 0 0 0 0 0 0 0 0 0 0 0 0 0 0 0 0 0 0 0 0 0 0 0 0 0 0 0 0 0 0 0 0 0 0 0 0 0 0 0 0 0 0 0 0 0 0 0 0 0 0 0 0 0 0 0 0 0 0 0 0 0 0 0 0 0 0 0 0 0 0 0 0 0 0 0 0 0 0 0 0 0 0 0 0 0 0 0 0 0 0 0 0 0 0 0 0 0 0 0 0 0 0 0 0 0 0 0 0 0 0 0 0 0 0 0 0 0 0 0 0 
0 0 0 0 0 0 0 0 0 0 0 0 0 0 0 0 0 0 0 0 0 0 0 0 0 0 0 0 0 0 0 0 0 0 0 0 0 0 0 0 0 0 0 0 0 0 0 0 0 0 0 0 0 0 0 0 0 0 0 0 0 0 0 0 0 0 0 0 0 0 0 0 0 0 0 0 0 0 0 0 0 0 0 0 0 0 0 0 0 0 0 0 0 0 0 0 0 0 0 0 0 0 0 0 0 0 0 0 0 0 0 0 0 0 0 0 0 0 0 0 0 0 0 0 0 0 0 0 0 0 0 0 0 0 0 0 0 0 0 0 0 0 0 0 0 0 0 0 0 0 0 0 0 0 0 0 0 0 0 0 0 0 0 0 0 0 0 0 0 0 0 0 0 0 0 0 0 0 0 0 0 0 0 0 0 0 0 0 0 0 0 0 0 0 0 0 0 0 0 0 0 0 0 0 0 0 0 0 0 0 0 0 0 0 0 0 0 0 0 0 0 0 0 0 0 0 0 0 0 0 0 0 0 0 0 0 0 0 0 0 0 0.0025539391208440065384 0.007661817595362663269 0.010215756483376026154 0.020431512966752052307 0.058740600943565368652 0.091941818594932556152 0.1098193824291229248 0.1583442389965057373 0.19154544174671173096 0.23240847885608673096 0.1813296973705291748 0.14557452499866485596 0.14046664535999298096 0.079172119498252868652 0.045970909297466278076 0.074064239859580993652 0.056186664849519729614 0.038309089839458465576 0.010215756483376026154 0 0 0 0 0 0 0 0 0 0 0 0 0 0 0 0 0 0 0 0 0 0 0 0 0 0 0 0 0 0 0.058740600943565368652 0.41373816132545471191 1.5144859552383422852 3.1081438064575195312 3.5908384323120117188 3.2230713367462158203 2.3930408954620361328 1.8209586143493652344 1.3331562280654907227 0.77639746665954589844 0.33711996674537658691 0.086833931505680084229 0.007661817595362663269 0 0 0 0 0 0 0 0 0 0 0 0 0 0 0 0 0 0 0 0 0 0 0 0 0 0 0 0 0 0 0 0 0 0 0 0 0 0 0 0 0 0 0 0 0 0 0 0 0 0 0 0 0 0 0 0 0 0 0 0 0 0 0 0 0 0 0 0 0 0 0 0 0 0 0 0 0 0 0 0 0 0 0 0 0 0 0 0 0 0 0 0 0 0 0 0 0 0 0 0 0 0 0 0 0 0 0 0 0 0 0 0 0 0 0 0 0 0 0 0 0 0 0 0 0 0 0 0 0 0 0 0 0 0 0 0 0 0 0 0 0 0 0 0 0 0 0 0 0 0 0 0 0 0 0 0 0 0 0 0 0 0 0 0 0 0 0 0 
0 0 0 0 0 0 0 0 0 0 0 0 0 0 0 0 0 0 0 0 0 0 0 0 0 0 0 0 0 0 0 0 0 0 0 0 0 0 0 0 0 0 0 0 0 0 0 0 0 0 0 0 0 0 0 0 0 0 0 0 0 0 0 0 0 0 0 0 0 0 0 0 0 0 0 0 0 0 0 0 0 0 0 0 0 0 0 0 0 0 0 0 0 0 0 0 0 0 0 0 0 0 0 0 0 0 0 0 0 0 0 0 0 0 0 0 0 0 0 0 0 0 0 0 0 0 0 0 0 0 0 0 0 0 0 0 0 0 0 0 0 0 0 0 0 0 0 0 0 0 0 0 0 0 0 0 0 0 0 0 0 0 0 0 0 0 0 0 0 0 0 0 0 0 0 0 0 0 0 0 0 0 0 0 0 0 0 0 0 0 0 0 0 0 0 0 0 0 0 0 0 0 0 0 0 0 0 0 0 0 0 0 0 0 0 0 0 0 0 0 0 0 0 0 0 0 0 0 0 0 0 0 0 0 0 0.0025539391208440065384 0.007661817595362663269 0.010215756483376026154 0.010215756483376026154 0.010215756483376026154 0.010215756483376026154 0.017877575010061264038 0.040863025933504104614 0.043416965752840042114 0.056186664849519729614 0.1047115027904510498 0.13535876572132110596 0.1200351417064666748 0.1379127204418182373 0.1557902991771697998 0.16089816391468048096 0.13535876572132110596 0.1174812018871307373 0.099603630602359771729 0.058740600943565368652 0.048524845391511917114 0.063848480582237243652 0.025539392605423927307 0.007661817595362663269 0.0025539391208440065384 0 0 0 0 0 0 0 0 0 0 0 0 0 0 0 0 0 0 0 0 0 0 0 0 0 0 0 0 0 0.010215756483376026154 0.19154544174671173096 0.97815871238708496094 2.3675017356872558594 3.5729608535766601562 3.4350481033325195312 2.8731815814971923828 2.1606323719024658203 1.3970047235488891602 0.72787266969680786133 0.24517816305160522461 0.061294540762901306152 0.010215756483376026154 0 0 0 0 0 0 0 0 0 0 0 0 0 0 0 0 0 0 0 0 0 0 0 0 0 0 0 0 0 0 0 0 0 0 0 0 0 0 0 0 0 0 0 0 0 0 0 0 0 0 0 0 0 0 0 0 0 0 0 0 0 0 0 0 0 0 0 0 0 0 0 0 0 0 0 0 0 0 0 0 0 0 0 0 0 0 0 0 0 0 0 0 0 0 0 0 0 0 0 0 0 0 0 0 0 0 0 0 0 0 0 0 0 0 0 0 0 0 0 0 0 0 0 0 0 0 0 0 0 0 0 0 0 0 0 0 0 0 0 0 0 0 0 0 0 0 0 0 0 0 0 0 0 0 0 0 0 0 0 0 0 0 0 0 0 0 0 0 0 
0 0 0 0 0 0 0 0 0 0 0 0 0 0 0 0 0 0 0 0 0 0 0 0 0 0 0 0 0 0 0 0 0 0 0 0 0 0 0 0 0 0 0 0 0 0 0 0 0 0 0 0 0 0 0 0 0 0 0 0 0 0 0 0 0 0 0 0 0 0 0 0 0 0 0 0 0 0 0 0 0 0 0 0 0 0 0 0 0 0 0 0 0 0 0 0 0 0 0 0 0 0 0 0 0 0 0 0 0 0 0 0 0 0 0 0 0 0 0 0 0 0 0 0 0 0 0 0 0 0 0 0 0 0 0 0 0 0 0 0 0 0 0 0 0 0 0 0 0 0 0 0 0 0 0 0 0 0 0 0 0 0 0 0 0 0 0 0 0 0 0 0 0 0 0 0 0 0 0 0 0 0 0 0 0 0 0 0 0 0 0 0 0 0 0 0 0 0 0 0 0 0 0 0 0 0 0 0 0 0 0 0 0 0 0 0 0 0 0 0 0 0 0 0 0 0 0 0 0 0 0 0 0 0 0 0.007661817595362663269 0.030647270381450653076 0.033201210200786590576 0.030647270381450653076 0.030647270381450653076 0.033201210200786590576 0.048524845391511917114 0.074064239859580993652 0.058740600943565368652 0.074064239859580993652 0.1481284797191619873 0.1506824195384979248 0.10215757042169570923 0.097049690783023834229 0.1302509009838104248 0.14046664535999298096 0.1557902991771697998 0.1200351417064666748 0.081726051867008209229 0.051078785210847854614 0.033201210200786590576 0.040863025933504104614 0.012769696302711963654 0 0 0 0 0 0 0 0 0 0 0 0 0 0 0 0 0 0 0 0 0 0 0 0 0 0 0 0 0 0 0 0.048524841666221618652 0.45460116863250732422 1.6421829462051391602 3.0468494892120361328 3.6368093490600585938 3.1030359268188476562 2.5539391040802001953 1.8720372915267944336 0.87089323997497558594 0.26050180196762084961 0.048524845391511917114 0.0025539391208440065384 0 0 0 0 0 0 0 0 0 0 0 0 0 0 0 0 0 0 0 0 0 0 0 0 0 0 0 0 0 0 0 0 0 0 0 0 0 0 0 0 0 0 0 0 0 0 0 0 0 0 0 0 0 0 0 0 0 0 0 0 0 0 0 0 0 0 0 0 0 0 0 0 0 0 0 0 0 0 0 0 0 0 0 0 0 0 0 0 0 0 0 0 0 0 0 0 0 0 0 0 0 0 0 0 0 0 0 0 0 0 0 0 0 0 0 0 0 0 0 0 0 0 0 0 0 0 0 0 0 0 0 0 0 0 0 0 0 0 0 0 0 0 0 0 0 0 0 0 0 0 0 0 0 0 0 0 0 0 0 0 0 0 0 0 0 0 0 0 0 0 
0 0 0 0 0 0 0 0 0 0 0 0 0 0 0 0 0 0 0 0 0 0 0 0 0 0 0 0 0 0 0 0 0 0 0 0 0 0 0 0 0 0 0 0 0 0 0 0 0 0 0 0 0 0 0 0 0 0 0 0 0 0 0 0 0 0 0 0 0 0 0 0 0 0 0 0 0 0 0 0 0 0 0 0 0 0 0 0 0 0 0 0 0 0 0 0 0 0 0 0 0 0 0 0 0 0 0 0 0 0 0 0 0 0 0 0 0 0 0 0 0 0 0 0 0 0 0 0 0 0 0 0 0 0 0 0 0 0 0 0 0 0 0 0 0 0 0 0 0 0 0 0 0 0 0 0 0 0 0 0 0 0 0 0 0 0 0 0 0 0 0 0 0 0 0 0 0 0 0 0 0 0 0 0 0 0 0 0 0 0 0 0 0 0 0 0 0 0 0 0 0 0 0 0 0 0 0 0 0 0 0 0 0 0 0 0 0 0 0 0 0 0 0 0 0 0 0 0 0 0 0 0 0 0 0.0025539391208440065384 0.015323635190725326538 0.035755150020122528076 0.020431512966752052307 0.017877575010061264038 0.022985450923442840576 0.033201210200786590576 0.063848480582237243652 0.086833931505680084229 0.068956352770328521729 0.079172119498252868652 0.1251430213451385498 0.094495750963687896729 0.079172119498252868652 0.1506824195384979248 0.19665330648422241211 0.17111392319202423096 0.1251430213451385498 0.048524845391511917114 0.028093332424759864807 0.040863025933504104614 0.038309089839458465576 0.030647270381450653076 0.007661817595362663269 0 0 0 0 0 0 0 0 0 0 0 0 0 0 0 0 0 0 0 0 0 0 0 0 0 0 0 0 0 0 0 0.1123733222484588623 0.77128958702087402344 2.1274313926696777344 3.2332870960235595703 3.2869198322296142578 2.7659161090850830078 2.3113148212432861328 1.4761767387390136719 0.48269447684288024902 0.068956352770328521729 0.0051078782416880130768 0 0 0 0 0 0 0 0 0 0 0 0 0 0 0 0 0 0 0 0 0 0 0 0 0 0 0 0 0 0 0 0 0 0 0 0 0 0 0 0 0 0 0 0 0 0 0 0 0 0 0 0 0 0 0 0 0 0 0 0 0 0 0 0 0 0 0 0 0 0 0 0 0 0 0 0 0 0 0 0 0 0 0 0 0 0 0 0 0 0 0 0 0 0 0 0 0 0 0 0 0 0 0 0 0 0 0 0 0 0 0 0 0 0 0 0 0 0 0 0 0 0 0 0 0 0 0 0 0 0 0 0 0 0 0 0 0 0 0 0 0 0 0 0 0 0 0 0 0 0 0 0 0 0 0 0 0 0 0 0 0 0 0 0 0 0 0 0 0 0 0 
0 0 0 0 0 0 0 0 0 0 0 0 0 0 0 0 0 0 0 0 0 0 0 0 0 0 0 0 0 0 0 0 0 0 0 0 0 0 0 0 0 0 0 0 0 0 0 0 0 0 0 0 0 0 0 0 0 0 0 0 0 0 0 0 0 0 0 0 0 0 0 0 0 0 0 0 0 0 0 0 0 0 0 0 0 0 0 0 0 0 0 0 0 0 0 0 0 0 0 0 0 0 0 0 0 0 0 0 0 0 0 0 0 0 0 0 0 0 0 0 0 0 0 0 0 0 0 0 0 0 0 0 0 0 0 0 0 0 0 0 0 0 0 0 0 0 0 0 0 0 0 0 0 0 0 0 0 0 0 0 0 0 0 0 0 0 0 0 0 0 0 0 0 0 0 0 0 0 0 0 0 0 0 0 0 0 0 0 0 0 0 0 0 0 0 0 0 0 0 0 0 0 0 0 0 0 0 0 0 0 0 0 0 0 0 0 0 0 0 0 0 0 0 0 0 0 0 0 0 0 0 0 0 0 0.007661817595362663269 0.033201210200786590576 0.033201210200786590576 0.015323635190725326538 0.030647270381450653076 0.040863025933504104614 0.068956352770328521729 0.091941818594932556152 0.10215757042169570923 0.094495750963687896729 0.094495750963687896729 0.11492726951837539673 0.1328048408031463623 0.16855998337268829346 0.22474665939807891846 0.18132968246936798096 0.1098193824291229248 0.056186664849519729614 0.012769696302711963654 0.010215756483376026154 0.033201210200786590576 0.017877575010061264038 0.007661817595362663269 0.0025539391208440065384 0 0 0 0 0 0 0 0 0 0 0 0 0 0 0 0 0 0 0 0 0 0 0 0 0 0 0 0 0 0 0.0051078782416880130768 0.19665330648422241211 1.0624387264251708984 2.4109187126159667969 3.2486107349395751953 3.1030359268188476562 2.6203415393829345703 1.9665331840515136719 1.0139138698577880859 0.22474664449691772461 0.012769695371389389038 0 0 0 0 0 0 0 0 0 0 0 0 0 0 0 0 0 0 0 0 0 0 0 0 0 0 0 0 0 0 0 0 0 0 0 0 0 0 0 0 0 0 0 0 0 0 0 0 0 0 0 0 0 0 0 0 0 0 0 0 0 0 0 0 0 0 0 0 0 0 0 0 0 0 0 0 0 0 0 0 0 0 0 0 0 0 0 0 0 0 0 0 0 0 0 0 0 0 0 0 0 0 0 0 0 0 0 0 0 0 0 0 0 0 0 0 0 0 0 0 0 0 0 0 0 0 0 0 0 0 0 0 0 0 0 0 0 0 0 0 0 0 0 0 0 0 0 0 0 0 0 0 0 0 0 0 0 0 0 0 0 0 0 0 0 0 0 0 0 0 0 0 
0 0 0 0 0 0 0 0 0 0 0 0 0 0 0 0 0 0 0 0 0 0 0 0 0 0 0 0 0 0 0 0 0 0 0 0 0 0 0 0 0 0 0 0 0 0 0 0 0 0 0 0 0 0 0 0 0 0 0 0 0 0 0 0 0 0 0 0 0 0 0 0 0 0 0 0 0 0 0 0 0 0 0 0 0 0 0 0 0 0 0 0 0 0 0 0 0 0 0 0 0 0 0 0 0 0 0 0 0 0 0 0 0 0 0 0 0 0 0 0 0 0 0 0 0 0 0 0 0 0 0 0 0 0 0 0 0 0 0 0 0 0 0 0 0 0 0 0 0 0 0 0 0 0 0 0 0 0 0 0 0 0 0 0 0 0 0 0 0 0 0 0 0 0 0 0 0 0 0 0 0 0 0 0 0 0 0 0 0 0 0 0 0 0 0 0 0 0 0 0 0 0 0 0 0 0 0 0 0 0 0 0 0 0 0 0 0 0 0 0 0 0 0 0 0 0 0 0 0 0 0 0 0 0 0.010215756483376026154 0.033201210200786590576 0.015323635190725326538 0.015323635190725326538 0.043416965752840042114 0.045970909297466278076 0.074064239859580993652 0.10215757042169570923 0.11237332969903945923 0.089387871325016021729 0.091941818594932556152 0.16345210373401641846 0.23240847885608673096 0.22985453903675079346 0.17111392319202423096 0.081726051867008209229 0.028093332424759864807 0.010215756483376026154 0.0025539391208440065384 0.010215756483376026154 0.030647270381450653076 0.010215756483376026154 0 0 0 0 0 0 0 0 0 0 0 0 0 0 0 0 0 0 0 0 0 0 0 0 0 0 0 0 0 0 0 0 0.015323635190725326538 0.31158059835433959961 1.3714653253555297852 2.7301609516143798828 3.6061620712280273438 3.3686456680297851562 2.5564930438995361328 1.4736227989196777344 0.58229809999465942383 0.10471149533987045288 0 0 0 0 0 0 0 0 0 0 0 0 0 0 0 0 0 0 0 0 0 0 0 0 0 0 0 0 0 0 0 0 0 0 0 0 0 0 0 0 0 0 0 0 0 0 0 0 0 0 0 0 0 0 0 0 0 0 0 0 0 0 0 0 0 0 0 0 0 0 0 0 0 0 0 0 0 0 0 0 0 0 0 0 0 0 0 0 0 0 0 0 0 0 0 0 0 0 0 0 0 0 0 0 0 0 0 0 0 0 0 0 0 0 0 0 0 0 0 0 0 0 0 0 0 0 0 0 0 0 0 0 0 0 0 0 0 0 0 0 0 0 0 0 0 0 0 0 0 0 0 0 0 0 0 0 0 0 0 0 0 0 0 0 0 0 0 0 0 0 0 0 0 
0 0 0 0 0 0 0 0 0 0 0 0 0 0 0 0 0 0 0 0 0 0 0 0 0 0 0 0 0 0 0 0 0 0 0 0 0 0 0 0 0 0 0 0 0 0 0 0 0 0 0 0 0 0 0 0 0 0 0 0 0 0 0 0 0 0 0 0 0 0 0 0 0 0 0 0 0 0 0 0 0 0 0 0 0 0 0 0 0 0 0 0 0 0 0 0 0 0 0 0 0 0 0 0 0 0 0 0 0 0 0 0 0 0 0 0 0 0 0 0 0 0 0 0 0 0 0 0 0 0 0 0 0 0 0 0 0 0 0 0 0 0 0 0 0 0 0 0 0 0 0 0 0 0 0 0 0 0 0 0 0 0 0 0 0 0 0 0 0 0 0 0 0 0 0 0 0 0 0 0 0 0 0 0 0 0 0 0 0 0 0 0 0 0 0 0 0 0 0 0 0 0 0 0 0 0 0 0 0 0 0 0 0 0 0 0 0 0 0 0 0 0 0 0 0 0 0 0 0 0 0 0 0 0 0.010215756483376026154 0.033201210200786590576 0.020431512966752052307 0.030647270381450653076 0.074064239859580993652 0.084279991686344146729 0.10215757042169570923 0.099603630602359771729 0.091941803693771362305 0.089387871325016021729 0.1506824195384979248 0.23240847885608673096 0.19665332138538360596 0.1251430213451385498 0.051078785210847854614 0.015323635190725326538 0.0025539391208440065384 0 0 0.010215756483376026154 0.030647270381450653076 0.010215756483376026154 0 0 0 0 0 0 0 0 0 0 0 0 0 0 0 0 0 0 0 0 0 0 0 0 0 0 0 0 0 0 0 0 0.020431512966752052307 0.42395389080047607422 1.8081889152526855469 3.4631414413452148438 4.2088918685913085938 3.2715961933135986328 1.9282239675521850586 0.84279990196228027344 0.29370298981666564941 0.053632721304893493652 0 0 0 0 0 0 0 0 0 0 0 0 0 0 0 0 0 0 0 0 0 0 0 0 0 0 0 0 0 0 0 0 0 0 0 0 0 0 0 0 0 0 0 0 0 0 0 0 0 0 0 0 0 0 0 0 0 0 0 0 0 0 0 0 0 0 0 0 0 0 0 0 0 0 0 0 0 0 0 0 0 0 0 0 0 0 0 0 0 0 0 0 0 0 0 0 0 0 0 0 0 0 0 0 0 0 0 0 0 0 0 0 0 0 0 0 0 0 0 0 0 0 0 0 0 0 0 0 0 0 0 0 0 0 0 0 0 0 0 0 0 0 0 0 0 0 0 0 0 0 0 0 0 0 0 0 0 0 0 0 0 0 0 0 0 0 0 0 0 0 0 0 0 
0 0 0 0 0 0 0 0 0 0 0 0 0 0 0 0 0 0 0 0 0 0 0 0 0 0 0 0 0 0 0 0 0 0 0 0 0 0 0 0 0 0 0 0 0 0 0 0 0 0 0 0 0 0 0 0 0 0 0 0 0 0 0 0 0 0 0 0 0 0 0 0 0 0 0 0 0 0 0 0 0 0 0 0 0 0 0 0 0 0 0 0 0 0 0 0 0 0 0 0 0 0 0 0 0 0 0 0 0 0 0 0 0 0 0 0 0 0 0 0 0 0 0 0 0 0 0 0 0 0 0 0 0 0 0 0 0 0 0 0 0 0 0 0 0 0 0 0 0 0 0 0 0 0 0 0 0 0 0 0 0 0 0 0 0 0 0 0 0 0 0 0 0 0 0 0 0 0 0 0 0 0 0 0 0 0 0 0 0 0 0 0 0 0 0 0 0 0 0 0 0 0 0 0 0 0 0 0 0 0 0 0 0 0 0 0 0 0 0 0 0 0 0 0 0 0 0 0 0 0 0 0.0025539391208440065384 0.007661817595362663269 0.012769696302711963654 0.025539392605423927307 0.048524845391511917114 0.051078785210847854614 0.068956352770328521729 0.081726051867008209229 0.084279991686344146729 0.099603630602359771729 0.1225890815258026123 0.17622180283069610596 0.20176118612289428711 0.23751632869243621826 0.19409936666488647461 0.091941803693771362305 0.045970901846885681152 0.010215756483376026154 0 0 0 0 0.010215756483376026154 0.030647270381450653076 0.010215756483376026154 0 0 0 0 0 0 0 0 0 0 0 0 0 0 0 0 0 0 0 0 0 0 0 0 0 0 0 0 0 0 0 0 0.035755150020122528076 0.69467145204544067383 2.7582542896270751953 4.4898247718811035156 4.2829556465148925781 2.6484348773956298828 1.2488763332366943359 0.47247871756553649902 0.19409938156604766846 0.040863025933504104614 0 0 0 0 0 0 0 0 0 0 0 0 0 0 0 0 0 0 0 0 0 0 0 0 0 0 0 0 0 0 0 0 0 0 0 0 0 0 0 0 0 0 0 0 0 0 0 0 0 0 0 0 0 0 0 0 0 0 0 0 0 0 0 0 0 0 0 0 0 0 0 0 0 0 0 0 0 0 0 0 0 0 0 0 0 0 0 0 0 0 0 0 0 0 0 0 0 0 0 0 0 0 0 0 0 0 0 0 0 0 0 0 0 0 0 0 0 0 0 0 0 0 0 0 0 0 0 0 0 0 0 0 0 0 0 0 0 0 0 0 0 0 0 0 0 0 0 0 0 0 0 0 0 0 0 0 0 0 0 0 0 0 0 0 0 0 0 0 0 0 0 0 0 
0 0 0 0 0 0 0 0 0 0 0 0 0 0 0 0 0 0 0 0 0 0 0 0 0 0 0 0 0 0 0 0 0 0 0 0 0 0 0 0 0 0 0 0 0 0 0 0 0 0 0 0 0 0 0 0 0 0 0 0 0 0 0 0 0 0 0 0 0 0 0 0 0 0 0 0 0 0 0 0 0 0 0 0 0 0 0 0 0 0 0 0 0 0 0 0 0 0 0 0 0 0 0 0 0 0 0 0 0 0 0 0 0 0 0 0 0 0 0 0 0 0 0 0 0 0 0 0 0 0 0 0 0 0 0 0 0 0 0 0 0 0 0 0 0 0 0 0 0 0 0 0 0 0 0 0 0 0 0 0 0 0 0 0 0 0 0 0 0 0 0 0 0 0 0 0 0 0 0 0 0 0 0 0 0 0 0 0 0 0 0 0 0 0 0 0 0 0 0 0 0 0 0 0 0 0 0 0 0 0 0 0 0 0 0 0 0 0 0 0 0 0 0 0 0 0 0 0 0 0 0 0.007661817595362663269 0.030647270381450653076 0.040863025933504104614 0.063848480582237243652 0.066402420401573181152 0.051078785210847854614 0.051078785210847854614 0.058740600943565368652 0.1328048408031463623 0.18132968246936798096 0.22474665939807891846 0.21963877975940704346 0.16089816391468048096 0.1225890815258026123 0.05874059721827507019 0.020431512966752052307 0.007661817595362663269 0.0025539391208440065384 0 0 0 0 0.010215756483376026154 0.030647270381450653076 0.010215756483376026154 0 0 0 0 0 0 0 0 0 0 0 0 0 0 0 0 0 0 0 0 0 0 0 0 0 0 0 0 0 0 0 0 0.17877574265003204346 1.4455295801162719727 4.3008337020874023438 5.1180939674377441406 3.5372056961059570312 1.7417864799499511719 0.69211751222610473633 0.30647268891334533691 0.16345210373401641846 0.035755150020122528076 0 0 0 0 0 0 0 0 0 0 0 0 0 0 0 0 0 0 0 0 0 0 0 0 0 0 0 0 0 0 0 0 0 0 0 0 0 0 0 0 0 0 0 0 0 0 0 0 0 0 0 0 0 0 0 0 0 0 0 0 0 0 0 0 0 0 0 0 0 0 0 0 0 0 0 0 0 0 0 0 0 0 0 0 0 0 0 0 0 0 0 0 0 0 0 0 0 0 0 0 0 0 0 0 0 0 0 0 0 0 0 0 0 0 0 0 0 0 0 0 0 0 0 0 0 0 0 0 0 0 0 0 0 0 0 0 0 0 0 0 0 0 0 0 0 0 0 0 0 0 0 0 0 0 0 0 0 0 0 0 0 0 0 0 0 0 0 0 0 0 0 0 0 
0 0 0 0 0 0 0 0 0 0 0 0 0 0 0 0 0 0 0 0 0 0 0 0 0 0 0 0 0 0 0 0 0 0 0 0 0 0 0 0 0 0 0 0 0 0 0 0 0 0 0 0 0 0 0 0 0 0 0 0 0 0 0 0 0 0 0 0 0 0 0 0 0 0 0 0 0 0 0 0 0 0 0 0 0 0 0 0 0 0 0 0 0 0 0 0 0 0 0 0 0 0 0 0 0 0 0 0 0 0 0 0 0 0 0 0 0 0 0 0 0 0 0 0 0 0 0 0 0 0 0 0 0 0 0 0 0 0 0 0 0 0 0 0 0 0 0 0 0 0 0 0 0 0 0 0 0 0 0 0 0 0 0 0 0 0 0 0 0 0 0 0 0 0 0 0 0 0 0 0 0 0 0 0 0 0 0 0 0 0 0 0 0 0 0 0 0 0 0 0 0 0 0 0 0 0 0 0 0 0 0 0 0 0 0 0 0 0 0 0 0 0 0 0 0 0 0 0 0 0 0 0.010215756483376026154 0.035755150020122528076 0.033201210200786590576 0.048524845391511917114 0.035755150020122528076 0.035755150020122528076 0.058740600943565368652 0.10215757042169570923 0.20176120102405548096 0.20942300558090209961 0.18899150192737579346 0.10981938987970352173 0.056186664849519729614 0.045970909297466278076 0.012769696302711963654 0 0 0 0 0 0 0 0.010215756483376026154 0.030647270381450653076 0.010215756483376026154 0 0 0 0 0 0 0 0 0 0 0 0 0 0 0 0 0 0 0 0 0 0 0 0 0 0 0 0 0 0 0 0 0.55931264162063598633 2.9370300769805908203 5.4449982643127441406 4.3059415817260742188 2.2295887470245361328 0.98837441205978393555 0.41884601116180419922 0.22730058431625366211 0.1174812018871307373 0.025539392605423927307 0 0 0 0 0 0 0 0 0 0 0 0 0 0 0 0 0 0 0 0 0 0 0 0 0 0 0 0 0 0 0 0 0 0 0 0 0 0 0 0 0 0 0 0 0 0 0 0 0 0 0 0 0 0 0 0 0 0 0 0 0 0 0 0 0 0 0 0 0 0 0 0 0 0 0 0 0 0 0 0 0 0 0 0 0 0 0 0 0 0 0 0 0 0 0 0 0 0 0 0 0 0 0 0 0 0 0 0 0 0 0 0 0 0 0 0 0 0 0 0 0 0 0 0 0 0 0 0 0 0 0 0 0 0 0 0 0 0 0 0 0 0 0 0 0 0 0 0 0 0 0 0 0 0 0 0 0 0 0 0 0 0 0 0 0 0 0 0 0 0 0 0 0 
0 0 0 0 0 0 0 0 0 0 0 0 0 0 0 0 0 0 0 0 0 0 0 0 0 0 0 0 0 0 0 0 0 0 0 0 0 0 0 0 0 0 0 0 0 0 0 0 0 0 0 0 0 0 0 0 0 0 0 0 0 0 0 0 0 0 0 0 0 0 0 0 0 0 0 0 0 0 0 0 0 0 0 0 0 0 0 0 0 0 0 0 0 0 0 0 0 0 0 0 0 0 0 0 0 0 0 0 0 0 0 0 0 0 0 0 0 0 0 0 0 0 0 0 0 0 0 0 0 0 0 0 0 0 0 0 0 0 0 0 0 0 0 0 0 0 0 0 0 0 0 0 0 0 0 0 0 0 0 0 0 0 0 0 0 0 0 0 0 0 0 0 0 0 0 0 0 0 0 0 0 0 0 0 0 0 0 0 0 0 0 0 0 0 0 0 0 0 0 0 0 0 0 0 0 0 0 0 0 0 0 0 0 0 0 0 0 0 0 0 0 0 0 0 0 0 0 0 0 0.0025539391208440065384 0.010215756483376026154 0.025539392605423927307 0.051078785210847854614 0.056186664849519729614 0.056186664849519729614 0.061294540762901306152 0.086833931505680084229 0.11237332969903945923 0.17877574265003204346 0.22474665939807891846 0.16855998337268829346 0.1276969611644744873 0.061294540762901306152 0.035755150020122528076 0.030647270381450653076 0.007661817595362663269 0 0 0 0 0 0 0 0.010215756483376026154 0.030647270381450653076 0.010215756483376026154 0 0 0 0 0 0 0 0 0 0 0 0 0 0 0 0 0 0 0 0 0 0 0 0 0 0 0 0 0 0 0 0 1.0215755701065063477 4.2982792854309082031 5.0823388099670410156 2.8808434009552001953 1.3433719873428344727 0.63337689638137817383 0.36010542511940002441 0.23496238887310028076 0.1047115027904510498 0.017877575010061264038 0 0 0 0 0 0 0 0 0 0 0 0 0 0 0 0 0 0 0 0 0 0 0 0 0 0 0 0 0 0 0 0 0 0 0 0 0 0 0 0 0 0 0 0 0 0 0 0 0 0 0 0 0 0 0 0 0 0 0 0 0 0 0 0 0 0 0 0 0 0 0 0 0 0 0 0 0 0 0 0 0 0 0 0 0 0 0 0 0 0 0 0 0 0 0 0 0 0 0 0 0 0 0 0 0 0 0 0 0 0 0 0 0 0 0 0 0 0 0 0 0 0 0 0 0 0 0 0 0 0 0 0 0 0 0 0 0 0 0 0 0 0 0 0 0 0 0 0 0 0 0 0 0 0 0 0 0 0 0 0 0 0 0 0 0 0 0 0 0 0 0 0 0 
0 0 0 0 0 0 0 0 0 0 0 0 0 0 0 0 0 0 0 0 0 0 0 0 0 0 0 0 0 0 0 0 0 0 0 0 0 0 0 0 0 0 0 0 0 0 0 0 0 0 0 0 0 0 0 0 0 0 0 0 0 0 0 0 0 0 0 0 0 0 0 0 0 0 0 0 0 0 0 0 0 0 0 0 0 0 0 0 0 0 0 0 0 0 0 0 0 0 0 0 0 0 0 0 0 0 0 0 0 0 0 0 0 0 0 0 0 0 0 0 0 0 0 0 0 0 0 0 0 0 0 0 0 0 0 0 0 0 0 0 0 0 0 0 0 0 0 0 0 0 0 0 0 0 0 0 0 0 0 0 0 0 0 0 0 0 0 0 0 0 0 0 0 0 0 0 0 0 0 0 0 0 0 0 0 0 0 0 0 0 0 0 0 0 0 0 0 0 0 0 0 0 0 0 0 0 0 0 0 0 0 0 0 0 0 0 0 0 0 0 0 0 0 0 0 0 0 0 0 0.010215756483376026154 0.045970901846885681152 0.076618179678916931152 0.084279991686344146729 0.091941818594932556152 0.099603630602359771729 0.11492726951837539673 0.1455745398998260498 0.1557902991771697998 0.17622180283069610596 0.1532363593578338623 0.099603630602359771729 0.084279991686344146729 0.030647270381450653076 0.010215756483376026154 0.007661817595362663269 0.0025539391208440065384 0 0 0 0 0 0 0.0025539391208440065384 0.015323635190725326538 0.033201210200786590576 0.010215756483376026154 0 0 0 0 0 0 0 0 0 0 0 0 0 0 0 0 0 0 0 0 0 0 0 0 0 0 0 0 0 0 0 0 1.3306022882461547852 4.8346066474914550781 3.9815909862518310547 1.8464980125427246094 0.95517319440841674805 0.58995991945266723633 0.40352237224578857422 0.23496238887310028076 0.081726051867008209229 0.012769696302711963654 0 0 0 0 0 0 0 0 0 0 0 0 0 0 0 0 0 0 0 0 0 0 0 0 0 0 0 0 0 0 0 0 0 0 0 0 0 0 0 0 0 0 0 0 0 0 0 0 0 0 0 0 0 0 0 0 0 0 0 0 0 0 0 0 0 0 0 0 0 0 0 0 0 0 0 0 0 0 0 0 0 0 0 0 0 0 0 0 0 0 0 0 0 0 0 0 0 0 0 0 0 0 0 0 0 0 0 0 0 0 0 0 0 0 0 0 0 0 0 0 0 0 0 0 0 0 0 0 0 0 0 0 0 0 0 0 0 0 0 0 0 0 0 0 0 0 0 0 0 0 0 0 0 0 0 0 0 0 0 0 0 0 0 0 0 0 0 0 0 0 0 0 0 
0 0 0 0 0 0 0 0 0 0 0 0 0 0 0 0 0 0 0 0 0 0 0 0 0 0 0 0 0 0 0 0 0 0 0 0 0 0 0 0 0 0 0 0 0 0 0 0 0 0 0 0 0 0 0 0 0 0 0 0 0 0 0 0 0 0 0 0 0 0 0 0 0 0 0 0 0 0 0 0 0 0 0 0 0 0 0 0 0 0 0 0 0 0 0 0 0 0 0 0 0 0 0 0 0 0 0 0 0 0 0 0 0 0 0 0 0 0 0 0 0 0 0 0 0 0 0 0 0 0 0 0 0 0 0 0 0 0 0 0 0 0 0 0 0 0 0 0 0 0 0 0 0 0 0 0 0 0 0 0 0 0 0 0 0 0 0 0 0 0 0 0 0 0 0 0 0 0 0 0 0 0 0 0 0 0 0 0 0 0 0 0 0 0 0 0 0 0 0 0 0 0 0 0 0 0 0 0 0 0 0 0 0 0 0 0 0 0 0 0 0 0 0 0 0 0 0 0 0 0.022985450923442840576 0.086833931505680084229 0.099603630602359771729 0.084279991686344146729 0.10981938987970352173 0.1328048408031463623 0.1430206000804901123 0.17366786301136016846 0.13535876572132110596 0.1072654426097869873 0.099603630602359771729 0.079172119498252868652 0.074064239859580993652 0.020431512966752052307 0 0 0 0 0 0 0 0 0 0.007661817595362663269 0.033201210200786590576 0.033201210200786590576 0.007661817595362663269 0 0 0 0 0 0 0 0 0 0 0 0 0 0 0 0 0 0 0 0 0 0 0 0 0 0 0 0 0 0 0 0 1.4608532190322875977 4.9801812171936035156 3.3099052906036376953 1.3510338068008422852 0.77128958702087402344 0.55931264162063598633 0.36265936493873596191 0.18132968246936798096 0.061294540762901306152 0.007661817595362663269 0 0 0 0 0 0 0 0 0 0 0 0 0 0 0 0 0 0 0 0 0 0 0 0 0 0 0 0 0 0 0 0 0 0 0 0 0 0 0 0 0 0 0 0 0 0 0 0 0 0 0 0 0 0 0 0 0 0 0 0 0 0 0 0 0 0 0 0 0 0 0 0 0 0 0 0 0 0 0 0 0 0 0 0 0 0 0 0 0 0 0 0 0 0 0 0 0 0 0 0 0 0 0 0 0 0 0 0 0 0 0 0 0 0 0 0 0 0 0 0 0 0 0 0 0 0 0 0 0 0 0 0 0 0 0 0 0 0 0 0 0 0 0 0 0 0 0 0 0 0 0 0 0 0 0 0 0 0 0 0 0 0 0 0 0 0 0 0 0 0 0 0 0 
0 0 0 0 0 0 0 0 0 0 0 0 0 0 0 0 0 0 0 0 0 0 0 0 0 0 0 0 0 0 0 0 0 0 0 0 0 0 0 0 0 0 0 0 0 0 0 0 0 0 0 0 0 0 0 0 0 0 0 0 0 0 0 0 0 0 0 0 0 0 0 0 0 0 0 0 0 0 0 0 0 0 0 0 0 0 0 0 0 0 0 0 0 0 0 0 0 0 0 0 0 0 0 0 0 0 0 0 0 0 0 0 0 0 0 0 0 0 0 0 0 0 0 0 0 0 0 0 0 0 0 0 0 0 0 0 0 0 0 0 0 0 0 0 0 0 0 0 0 0 0 0 0 0 0 0 0 0 0 0 0 0 0 0 0 0 0 0 0 0 0 0 0 0 0 0 0 0 0 0 0 0 0 0 0 0 0 0 0 0 0 0 0 0 0 0 0 0 0 0 0 0 0 0 0 0 0 0 0 0 0 0 0 0 0 0 0 0 0 0 0 0 0 0 0 0 0 0 0.0025539391208440065384 0.043416965752840042114 0.13791270554065704346 0.11492726951837539673 0.1072654426097869873 0.13535876572132110596 0.1302509009838104248 0.099603630602359771729 0.1072654426097869873 0.058740600943565368652 0.045970909297466278076 0.086833931505680084229 0.094495750963687896729 0.074064239859580993652 0.017877575010061264038 0 0 0 0 0 0 0 0 0 0.010215756483376026154 0.033201210200786590576 0.015323635190725326538 0.0025539391208440065384 0 0 0 0 0 0 0 0 0 0 0 0 0 0 0 0 0 0 0 0 0 0 0 0 0 0 0 0 0 0 0 0 1.4634071588516235352 5.0133824348449707031 3.3584299087524414062 1.2846313714981079102 0.70999509096145629883 0.54143506288528442383 0.31158056855201721191 0.1506824195384979248 0.035755150020122528076 0.0025539391208440065384 0 0 0 0 0 0 0 0 0 0 0 0 0 0 0 0 0 0 0 0 0 0 0 0 0 0 0 0 0 0 0 0 0 0 0 0 0 0 0 0 0 0 0 0 0 0 0 0 0 0 0 0 0 0 0 0 0 0 0 0 0 0 0 0 0 0 0 0 0 0 0 0 0 0 0 0 0 0 0 0 0 0 0 0 0 0 0 0 0 0 0 0 0 0 0 0 0 0 0 0 0 0 0 0 0 0 0 0 0 0 0 0 0 0 0 0 0 0 0 0 0 0 0 0 0 0 0 0 0 0 0 0 0 0 0 0 0 0 0 0 0 0 0 0 0 0 0 0 0 0 0 0 0 0 0 0 0 0 0 0 0 0 0 0 0 0 0 0 0 0 0 0 0 
0 0 0 0 0 0 0 0 0 0 0 0 0 0 0 0 0 0 0 0 0 0 0 0 0 0 0 0 0 0 0 0 0 0 0 0 0 0 0 0 0 0 0 0 0 0 0 0 0 0 0 0 0 0 0 0 0 0 0 0 0 0 0 0 0 0 0 0 0 0 0 0 0 0 0 0 0 0 0 0 0 0 0 0 0 0 0 0 0 0 0 0 0 0 0 0 0 0 0 0 0 0 0 0 0 0 0 0 0 0 0 0 0 0 0 0 0 0 0 0 0 0 0 0 0 0 0 0 0 0 0 0 0 0 0 0 0 0 0 0 0 0 0 0 0 0 0 0 0 0 0 0 0 0 0 0 0 0 0 0 0 0 0 0 0 0 0 0 0 0 0 0 0 0 0 0 0 0 0 0 0 0 0 0 0 0 0 0 0 0 0 0 0 0 0 0 0 0 0 0 0 0 0 0 0 0 0 0 0 0 0 0 0 0 0 0 0 0 0 0 0 0 0 0 0 0 0 0.0051078782416880130768 0.020431512966752052307 0.081726051867008209229 0.16345210373401641846 0.1047115027904510498 0.1225890815258026123 0.1276969611644744873 0.089387871325016021729 0.068956352770328521729 0.094495750963687896729 0.051078785210847854614 0.043416965752840042114 0.081726051867008209229 0.089387871325016021729 0.051078785210847854614 0.010215756483376026154 0 0 0 0 0 0 0 0 0 0.010215756483376026154 0.030647270381450653076 0.010215756483376026154 0 0 0 0 0 0 0 0 0 0 0 0 0 0 0 0 0 0 0 0 0 0 0 0 0 0 0 0 0 0 0 0 0 1.3280482292175292969 4.8550381660461425781 3.9918069839477539062 1.4940543174743652344 0.72787266969680786133 0.55931264162063598633 0.29114904999732971191 0.13535876572132110596 0.030647270381450653076 0 0 0 0 0 0 0 0 0 0 0 0 0 0 0 0 0 0 0 0 0 0 0 0 0 0 0 0 0 0 0 0 0 0 0 0 0 0 0 0 0 0 0 0 0 0 0 0 0 0 0 0 0 0 0 0 0 0 0 0 0 0 0 0 0 0 0 0 0 0 0 0 0 0 0 0 0 0 0 0 0 0 0 0 0 0 0 0 0 0 0 0 0 0 0 0 0 0 0 0 0 0 0 0 0 0 0 0 0 0 0 0 0 0 0 0 0 0 0 0 0 0 0 0 0 0 0 0 0 0 0 0 0 0 0 0 0 0 0 0 0 0 0 0 0 0 0 0 0 0 0 0 0 0 0 0 0 0 0 0 0 0 0 0 0 0 0 0 0 0 0 0 0 0 
0 0 0 0 0 0 0 0 0 0 0 0 0 0 0 0 0 0 0 0 0 0 0 0 0 0 0 0 0 0 0 0 0 0 0 0 0 0 0 0 0 0 0 0 0 0 0 0 0 0 0 0 0 0 0 0 0 0 0 0 0 0 0 0 0 0 0 0 0 0 0 0 0 0 0 0 0 0 0 0 0 0 0 0 0 0 0 0 0 0 0 0 0 0 0 0 0 0 0 0 0 0 0 0 0 0 0 0 0 0 0 0 0 0 0 0 0 0 0 0 0 0 0 0 0 0 0 0 0 0 0 0 0 0 0 0 0 0 0 0 0 0 0 0 0 0 0 0 0 0 0 0 0 0 0 0 0 0 0 0 0 0 0 0 0 0 0 0 0 0 0 0 0 0 0 0 0 0 0 0 0 0 0 0 0 0 0 0 0 0 0 0 0 0 0 0 0 0 0 0 0 0 0 0 0 0 0 0 0 0 0 0 0 0 0 0 0 0 0 0 0 0 0 0 0 0.0025539391208440065384 0.007661817595362663269 0.022985450923442840576 0.071510300040245056152 0.11492726951837539673 0.1532363593578338623 0.089387871325016021729 0.11237332969903945923 0.071510300040245056152 0.025539392605423927307 0.035755150020122528076 0.079172119498252868652 0.043416965752840042114 0.035755150020122528076 0.068956352770328521729 0.079172119498252868652 0.025539392605423927307 0.0025539391208440065384 0 0 0 0 0 0 0 0 0 0.010215756483376026154 0.030647270381450653076 0.010215756483376026154 0 0 0 0 0 0 0 0 0 0 0 0 0 0 0 0 0 0 0 0 0 0 0 0 0 0 0 0 0 0 0 0 0 1.0879780054092407227 4.3008337020874023438 4.5077028274536132812 1.8413902521133422852 0.70233327150344848633 0.49546420574188232422 0.22474664449691772461 0.1200351417064666748 0.030647270381450653076 0 0 0 0 0 0 0 0 0 0 0 0 0 0 0 0 0 0 0 0 0 0 0 0 0 0 0 0 0 0 0 0 0 0 0 0 0 0 0 0 0 0 0 0 0 0 0 0 0 0 0 0 0 0 0 0 0 0 0 0 0 0 0 0 0 0 0 0 0 0 0 0 0 0 0 0 0 0 0 0 0 0 0 0 0 0 0 0 0 0 0 0 0 0 0 0 0 0 0 0 0 0 0 0 0 0 0 0 0 0 0 0 0 0 0 0 0 0 0 0 0 0 0 0 0 0 0 0 0 0 0 0 0 0 0 0 0 0 0 0 0 0 0 0 0 0 0 0 0 0 0 0 0 0 0 0 0 0 0 0 0 0 0 0 0 0 0 0 0 0 0 0 0 0 
0 0 0 0 0 0 0 0 0 0 0 0 0 0 0 0 0 0 0 0 0 0 0 0 0 0 0 0 0 0 0 0 0 0 0 0 0 0 0 0 0 0 0 0 0 0 0 0 0 0 0 0 0 0 0 0 0 0 0 0 0 0 0 0 0 0 0 0 0 0 0 0 0 0 0 0 0 0 0 0 0 0 0 0 0 0 0 0 0 0 0 0 0 0 0 0 0 0 0 0 0 0 0 0 0 0 0 0 0 0 0 0 0 0 0 0 0 0 0 0 0 0 0 0 0 0 0 0 0 0 0 0 0 0 0 0 0 0 0 0 0 0 0 0 0 0 0 0 0 0 0 0 0 0 0 0 0 0 0 0 0 0 0 0 0 0 0 0 0 0 0 0 0 0 0 0 0 0 0 0 0 0 0 0 0 0 0 0 0 0 0 0 0 0 0 0 0 0 0 0 0 0 0 0 0 0 0 0 0 0 0 0 0 0 0 0 0 0 0 0 0 0 0 0 0 0.007661817595362663269 0.035755150020122528076 0.063848480582237243652 0.1072654426097869873 0.13535876572132110596 0.1557902991771697998 0.11237332969903945923 0.10726545006036758423 0.048524845391511917114 0.022985450923442840576 0.045970909297466278076 0.1047115027904510498 0.068956352770328521729 0.066402420401573181152 0.076618179678916931152 0.068956352770328521729 0.017877575010061264038 0 0 0 0 0 0 0 0 0 0.0025539391208440065384 0.015323635190725326538 0.033201210200786590576 0.010215756483376026154 0 0 0 0 0 0 0 0 0 0 0 0 0 0 0 0 0 0 0 0 0 0 0 0 0 0 0 0 0 0 0 0 0 0.91941809654235839844 3.9024190902709960938 4.7988514900207519531 1.9231160879135131836 0.56186658143997192383 0.44438540935516357422 0.20686908066272735596 0.11492726951837539673 0.030647270381450653076 0 0 0 0 0 0 0 0 0 0 0 0 0 0 0 0 0 0 0 0 0 0 0 0 0 0 0 0 0 0 0 0 0 0 0 0 0 0 0 0 0 0 0 0 0 0 0 0 0 0 0 0 0 0 0 0 0 0 0 0 0 0 0 0 0 0 0 0 0 0 0 0 0 0 0 0 0 0 0 0 0 0 0 0 0 0 0 0 0 0 0 0 0 0 0 0 0 0 0 0 0 0 0 0 0 0 0 0 0 0 0 0 0 0 0 0 0 0 0 0 0 0 0 0 0 0 0 0 0 0 0 0 0 0 0 0 0 0 0 0 0 0 0 0 0 0 0 0 0 0 0 0 0 0 0 0 0 0 0 0 0 0 0 0 0 0 0 0 0 0 0 0 0 0 
0 0 0 0 0 0 0 0 0 0 0 0 0 0 0 0 0 0 0 0 0 0 0 0 0 0 0 0 0 0 0 0 0 0 0 0 0 0 0 0 0 0 0 0 0 0 0 0 0 0 0 0 0 0 0 0 0 0 0 0 0 0 0 0 0 0 0 0 0 0 0 0 0 0 0 0 0 0 0 0 0 0 0 0 0 0 0 0 0 0 0 0 0 0 0 0 0 0 0 0 0 0 0 0 0 0 0 0 0 0 0 0 0 0 0 0 0 0 0 0 0 0 0 0 0 0 0 0 0 0 0 0 0 0 0 0 0 0 0 0 0 0 0 0 0 0 0 0 0 0 0 0 0 0 0 0 0 0 0 0 0 0 0 0 0 0 0 0 0 0 0 0 0 0 0 0 0 0 0 0 0 0 0 0 0 0 0 0 0 0 0 0 0 0 0 0 0 0 0 0 0 0 0 0 0 0 0 0 0 0 0 0 0 0 0 0 0 0 0 0 0 0 0 0 0 0.012769696302711963654 0.058740600943565368652 0.11492726951837539673 0.16600604355335235596 0.16855998337268829346 0.1404666602611541748 0.10215757042169570923 0.10215757042169570923 0.081726051867008209229 0.066402420401573181152 0.091941818594932556152 0.13535876572132110596 0.079172119498252868652 0.053632721304893493652 0.040863025933504104614 0.043416965752840042114 0.012769696302711963654 0 0 0 0 0 0 0 0 0 0.007661817595362663269 0.033201210200786590576 0.033201210200786590576 0.007661817595362663269 0 0 0 0 0 0 0 0 0 0 0 0 0 0 0 0 0 0 0 0 0 0 0 0 0 0 0 0 0 0 0 0 0 0.95517319440841674805 4.0709791183471679688 4.8780241012573242188 1.7698798179626464844 0.49546420574188232422 0.41373813152313232422 0.21708482503890991211 0.11492726951837539673 0.028093332424759864807 0 0 0 0 0 0 0 0 0 0 0 0 0 0 0 0 0 0 0 0 0 0 0 0 0 0 0 0 0 0 0 0 0 0 0 0 0 0 0 0 0 0 0 0 0 0 0 0 0 0 0 0 0 0 0 0 0 0 0 0 0 0 0 0 0 0 0 0 0 0 0 0 0 0 0 0 0 0 0 0 0 0 0 0 0 0 0 0 0 0 0 0 0 0 0 0 0 0 0 0 0 0 0 0 0 0 0 0 0 0 0 0 0 0 0 0 0 0 0 0 0 0 0 0 0 0 0 0 0 0 0 0 0 0 0 0 0 0 0 0 0 0 0 0 0 0 0 0 0 0 0 0 0 0 0 0 0 0 0 0 0 0 0 0 0 0 0 0 0 0 0 0 0 0 
0 0 0 0 0 0 0 0 0 0 0 0 0 0 0 0 0 0 0 0 0 0 0 0 0 0 0 0 0 0 0 0 0 0 0 0 0 0 0 0 0 0 0 0 0 0 0 0 0 0 0 0 0 0 0 0 0 0 0 0 0 0 0 0 0 0 0 0 0 0 0 0 0 0 0 0 0 0 0 0 0 0 0 0 0 0 0 0 0 0 0 0 0 0 0 0 0 0 0 0 0 0 0 0 0 0 0 0 0 0 0 0 0 0 0 0 0 0 0 0 0 0 0 0 0 0 0 0 0 0 0 0 0 0 0 0 0 0 0 0 0 0 0 0 0 0 0 0 0 0 0 0 0 0 0 0 0 0 0 0 0 0 0 0 0 0 0 0 0 0 0 0 0 0 0 0 0 0 0 0 0 0 0 0 0 0 0 0 0 0 0 0 0 0 0 0 0 0 0 0 0 0 0 0 0 0 0 0 0 0 0 0 0 0 0 0 0 0 0 0 0.0025539391208440065384 0.007661817595362663269 0.010215756483376026154 0.015323635190725326538 0.025539392605423927307 0.045970909297466278076 0.1098193824291229248 0.17366786301136016846 0.17622180283069610596 0.1251430213451385498 0.1072654426097869873 0.1174812018871307373 0.1047115027904510498 0.061294540762901306152 0.048524845391511917114 0.086833931505680084229 0.1174812018871307373 0.063848480582237243652 0.038309089839458465576 0.035755150020122528076 0.030647270381450653076 0.007661817595362663269 0 0 0 0 0 0 0 0 0.0025539391208440065384 0.015323635190725326538 0.035755150020122528076 0.015323635190725326538 0.0025539391208440065384 0 0 0 0 0 0 0 0 0 0 0 0 0 0 0 0 0 0 0 0 0 0 0 0 0 0 0 0 0 0 0 0 0 1.1339489221572875977 4.5281343460083007812 4.6507234573364257812 1.5604567527770996094 0.45970904827117919922 0.39075267314910888672 0.20431514084339141846 0.094495750963687896729 0.022985454648733139038 0 0 0 0 0 0 0 0 0 0 0 0 0 0 0 0 0 0 0 0 0 0 0 0 0 0 0 0 0 0 0 0 0 0 0 0 0 0 0 0 0 0 0 0 0 0 0 0 0 0 0 0 0 0 0 0 0 0 0 0 0 0 0 0 0 0 0 0 0 0 0 0 0 0 0 0 0 0 0 0 0 0 0 0 0 0 0 0 0 0 0 0 0 0 0 0 0 0 0 0 0 0 0 0 0 0 0 0 0 0 0 0 0 0 0 0 0 0 0 0 0 0 0 0 0 0 0 0 0 0 0 0 0 0 0 0 0 0 0 0 0 0 0 0 0 0 0 0 0 0 0 0 0 0 0 0 0 0 0 0 0 0 0 0 0 0 0 0 0 0 0 0 0 0 
0 0 0 0 0 0 0 0 0 0 0 0 0 0 0 0 0 0 0 0 0 0 0 0 0 0 0 0 0 0 0 0 0 0 0 0 0 0 0 0 0 0 0 0 0 0 0 0 0 0 0 0 0 0 0 0 0 0 0 0 0 0 0 0 0 0 0 0 0 0 0 0 0 0 0 0 0 0 0 0 0 0 0 0 0 0 0 0 0 0 0 0 0 0 0 0 0 0 0 0 0 0 0 0 0 0 0 0 0 0 0 0 0 0 0 0 0 0 0 0 0 0 0 0 0 0 0 0 0 0 0 0 0 0 0 0 0 0 0 0 0 0 0 0 0 0 0 0 0 0 0 0 0 0 0 0 0 0 0 0 0 0 0 0 0 0 0 0 0 0 0 0 0 0 0 0 0 0 0 0 0 0 0 0 0 0 0 0 0 0 0 0 0 0 0 0 0 0 0 0 0 0 0 0 0 0 0 0 0 0 0 0 0 0 0 0 0 0 0 0 0.010215756483376026154 0.038309089839458465576 0.045970901846885681152 0.061294540762901306152 0.1047115027904510498 0.1200351417064666748 0.1583442389965057373 0.17877574265003204346 0.1404666602611541748 0.071510300040245056152 0.063848480582237243652 0.084279991686344146729 0.043416965752840042114 0.035755150020122528076 0.081726051867008209229 0.10726545006036758423 0.079172119498252868652 0.025539392605423927307 0.010215756483376026154 0.010215756483376026154 0.007661817595362663269 0.0025539391208440065384 0 0 0 0 0 0 0 0 0.007661817595362663269 0.033201210200786590576 0.033201210200786590576 0.007661817595362663269 0 0 0 0 0 0 0 0 0 0 0 0 0 0 0 0 0 0 0 0 0 0 0 0 0 0 0 0 0 0 0 0 0 0.030647270381450653076 1.3791271448135375977 4.9546418190002441406 4.2472004890441894531 1.3714653253555297852 0.44949328899383544922 0.37287509441375732422 0.17622180283069610596 0.084279991686344146729 0.020431512966752052307 0 0 0 0 0 0 0 0 0 0 0 0 0 0 0 0 0 0 0 0 0 0 0 0 0 0 0 0 0 0 0 0 0 0 0 0 0 0 0 0 0 0 0 0 0 0 0 0 0 0 0 0 0 0 0 0 0 0 0 0 0 0 0 0 0 0 0 0 0 0 0 0 0 0 0 0 0 0 0 0 0 0 0 0 0 0 0 0 0 0 0 0 0 0 0 0 0 0 0 0 0 0 0 0 0 0 0 0 0 0 0 0 0 0 0 0 0 0 0 0 0 0 0 0 0 0 0 0 0 0 0 0 0 0 0 0 0 0 0 0 0 0 0 0 0 0 0 0 0 0 0 0 0 0 0 0 0 0 0 0 0 0 0 0 0 0 0 0 0 0 0 0 0 0 
0 0 0 0 0 0 0 0 0 0 0 0 0 0 0 0 0 0 0 0 0 0 0 0 0 0 0 0 0 0 0 0 0 0 0 0 0 0 0 0 0 0 0 0 0 0 0 0 0 0 0 0 0 0 0 0 0 0 0 0 0 0 0 0 0 0 0 0 0 0 0 0 0 0 0 0 0 0 0 0 0 0 0 0 0 0 0 0 0 0 0 0 0 0 0 0 0 0 0 0 0 0 0 0 0 0 0 0 0 0 0 0 0 0 0 0 0 0 0 0 0 0 0 0 0 0 0 0 0 0 0 0 0 0 0 0 0 0 0 0 0 0 0 0 0 0 0 0 0 0 0 0 0 0 0 0 0 0 0 0 0 0 0 0 0 0 0 0 0 0 0 0 0 0 0 0 0 0 0 0 0 0 0 0 0 0 0 0 0 0 0 0 0 0 0 0 0 0 0 0 0 0 0 0 0 0 0 0 0 0 0 0 0 0 0 0 0 0 0 0 0.017877575010061264038 0.066402420401573181152 0.066402420401573181152 0.094495750963687896729 0.1200351417064666748 0.094495750963687896729 0.1174812018871307373 0.13791270554065704346 0.094495750963687896729 0.028093332424759864807 0.028093332424759864807 0.063848480582237243652 0.028093332424759864807 0.051078785210847854614 0.10215757042169570923 0.066402420401573181152 0.022985454648733139038 0.0051078782416880130768 0 0 0 0 0 0 0 0 0 0 0 0 0.010215756483376026154 0.033201210200786590576 0.015323635190725326538 0.0025539391208440065384 0 0 0 0 0 0 0 0 0 0 0 0 0 0 0 0 0 0 0 0 0 0 0 0 0 0 0 0 0 0 0 0 0 0.1583442389965057373 1.8771451711654663086 5.2585606575012207031 3.8922030925750732422 1.2539840936660766602 0.41629210114479064941 0.33201208710670471191 0.16345210373401641846 0.081726051867008209229 0.020431512966752052307 0 0 0 0 0 0 0 0 0 0 0 0 0 0 0 0 0 0 0 0 0 0 0 0 0 0 0 0 0 0 0 0 0 0 0 0 0 0 0 0 0 0 0 0 0 0 0 0 0 0 0 0 0 0 0 0 0 0 0 0 0 0 0 0 0 0 0 0 0 0 0 0 0 0 0 0 0 0 0 0 0 0 0 0 0 0 0 0 0 0 0 0 0 0 0 0 0 0 0 0 0 0 0 0 0 0 0 0 0 0 0 0 0 0 0 0 0 0 0 0 0 0 0 0 0 0 0 0 0 0 0 0 0 0 0 0 0 0 0 0 0 0 0 0 0 0 0 0 0 0 0 0 0 0 0 0 0 0 0 0 0 0 0 0 0 0 0 0 0 0 0 0 0 0 
0 0 0 0 0 0 0 0 0 0 0 0 0 0 0 0 0 0 0 0 0 0 0 0 0 0 0 0 0 0 0 0 0 0 0 0 0 0 0 0 0 0 0 0 0 0 0 0 0 0 0 0 0 0 0 0 0 0 0 0 0 0 0 0 0 0 0 0 0 0 0 0 0 0 0 0 0 0 0 0 0 0 0 0 0 0 0 0 0 0 0 0 0 0 0 0 0 0 0 0 0 0 0 0 0 0 0 0 0 0 0 0 0 0 0 0 0 0 0 0 0 0 0 0 0 0 0 0 0 0 0 0 0 0 0 0 0 0 0 0 0 0 0 0 0 0 0 0 0 0 0 0 0 0 0 0 0 0 0 0 0 0 0 0 0 0 0 0 0 0 0 0 0 0 0 0 0 0 0 0 0 0 0 0 0 0 0 0 0 0 0 0 0 0 0 0 0 0 0 0 0 0 0 0 0 0 0 0 0 0 0 0 0 0 0 0 0 0 0.0025539391208440065384 0.007661817595362663269 0.030647270381450653076 0.079172119498252868652 0.071510300040245056152 0.086833931505680084229 0.086833931505680084229 0.066402420401573181152 0.091941818594932556152 0.099603630602359771729 0.058740600943565368652 0.015323635190725326538 0.025539392605423927307 0.063848480582237243652 0.030647270381450653076 0.053632721304893493652 0.079172119498252868652 0.028093332424759864807 0.0025539391208440065384 0 0 0 0 0 0 0 0 0 0 0 0 0 0.010215756483376026154 0.030647270381450653076 0.010215756483376026154 0 0 0 0 0 0 0 0 0 0 0 0 0 0 0 0 0 0 0 0 0 0 0 0 0 0 0 0 0 0 0 0 0.0051078782416880130768 0.030647270381450653076 0.44438540935516357422 2.6663122177124023438 5.5037384033203125 3.5985002517700195312 1.0675466060638427734 0.32179632782936096191 0.28604117035865783691 0.16089816391468048096 0.084279991686344146729 0.020431512966752052307 0 0 0 0 0 0 0 0 0 0 0 0 0 0 0 0 0 0 0 0 0 0 0 0 0 0 0 0 0 0 0 0 0 0 0 0 0 0 0 0 0 0 0 0 0 0 0 0 0 0 0 0 0 0 0 0 0 0 0 0 0 0 0 0 0 0 0 0 0 0 0 0 0 0 0 0 0 0 0 0 0 0 0 0 0 0 0 0 0 0 0 0 0 0 0 0 0 0 0 0 0 0 0 0 0 0 0 0 0 0 0 0 0 0 0 0 0 0 0 0 0 0 0 0 0 0 0 0 0 0 0 0 0 0 0 0 0 0 0 0 0 0 0 0 0 0 0 0 0 0 0 0 0 0 0 0 0 0 0 0 0 0 0 0 0 0 0 0 0 0 0 0 0 0 
0 0 0 0 0 0 0 0 0 0 0 0 0 0 0 0 0 0 0 0 0 0 0 0 0 0 0 0 0 0 0 0 0 0 0 0 0 0 0 0 0 0 0 0 0 0 0 0 0 0 0 0 0 0 0 0 0 0 0 0 0 0 0 0 0 0 0 0 0 0 0 0 0 0 0 0 0 0 0 0 0 0 0 0 0 0 0 0 0 0 0 0 0 0 0 0 0 0 0 0 0 0 0 0 0 0 0 0 0 0 0 0 0 0 0 0 0 0 0 0 0 0 0 0 0 0 0 0 0 0 0 0 0 0 0 0 0 0 0 0 0 0 0 0 0 0 0 0 0 0 0 0 0 0 0 0 0 0 0 0 0 0 0 0 0 0 0 0 0 0 0 0 0 0 0 0 0 0 0 0 0 0 0 0 0 0 0 0 0 0 0 0 0 0 0 0 0 0 0 0 0 0 0 0 0 0 0 0 0 0 0 0 0 0 0 0 0 0 0.007661817595362663269 0.033201210200786590576 0.058740600943565368652 0.097049690783023834229 0.068956352770328521729 0.068956352770328521729 0.063848480582237243652 0.045970901846885681152 0.084279991686344146729 0.084279991686344146729 0.045970901846885681152 0.028093332424759864807 0.068956352770328521729 0.094495750963687896729 0.056186664849519729614 0.068956352770328521729 0.076618179678916931152 0.020431512966752052307 0 0 0 0 0 0 0 0.0025539391208440065384 0.007661817595362663269 0.010215756483376026154 0.010215756483376026154 0.010215756483376026154 0.010215756483376026154 0.010215756483376026154 0.017877575010061264038 0.033201210200786590576 0.010215756483376026154 0 0 0 0 0 0 0 0 0 0 0 0 0 0 0 0 0 0 0 0 0 0 0 0 0 0 0 0 0 0 0 0 0.022985450923442840576 0.17622180283069610596 0.96283501386642456055 3.4095087051391601562 5.1768345832824707031 2.9727849960327148438 0.83769202232360839844 0.24773210287094116211 0.27582541108131408691 0.17877574265003204346 0.084279991686344146729 0.017877575010061264038 0 0 0 0 0 0 0 0 0 0 0 0 0 0 0 0 0 0 0 0 0 0 0 0 0 0 0 0 0 0 0 0 0 0 0 0 0 0 0 0 0 0 0 0 0 0 0 0 0 0 0 0 0 0 0 0 0 0 0 0 0 0 0 0 0 0 0 0 0 0 0 0 0 0 0 0 0 0 0 0 0 0 0 0 0 0 0 0 0 0 0 0 0 0 0 0 0 0 0 0 0 0 0 0 0 0 0 0 0 0 0 0 0 0 0 0 0 0 0 0 0 0 0 0 0 0 0 0 0 0 0 0 0 0 0 0 0 0 0 0 0 0 0 0 0 0 0 0 0 0 0 0 0 0 0 0 0 0 0 0 0 0 0 0 0 0 0 0 0 0 0 0 0 0 
0 0 0 0 0 0 0 0 0 0 0 0 0 0 0 0 0 0 0 0 0 0 0 0 0 0 0 0 0 0 0 0 0 0 0 0 0 0 0 0 0 0 0 0 0 0 0 0 0 0 0 0 0 0 0 0 0 0 0 0 0 0 0 0 0 0 0 0 0 0 0 0 0 0 0 0 0 0 0 0 0 0 0 0 0 0 0 0 0 0 0 0 0 0 0 0 0 0 0 0 0 0 0 0 0 0 0 0 0 0 0 0 0 0 0 0 0 0 0 0 0 0 0 0 0 0 0 0 0 0 0 0 0 0 0 0 0 0 0 0 0 0 0 0 0 0 0 0 0 0 0 0 0 0 0 0 0 0 0 0 0 0 0 0 0 0 0 0 0 0 0 0 0 0 0 0 0 0 0 0 0 0 0 0 0 0 0 0 0 0 0 0 0 0 0 0 0 0 0 0 0 0 0 0 0 0 0 0 0 0 0 0 0 0 0 0 0 0.0025539391208440065384 0.015323635190725326538 0.043416965752840042114 0.063848480582237243652 0.084279991686344146729 0.063848480582237243652 0.10215757042169570923 0.076618179678916931152 0.056186664849519729614 0.086833931505680084229 0.071510300040245056152 0.040863025933504104614 0.071510300040245056152 0.1455745398998260498 0.1455745398998260498 0.10726545006036758423 0.097049690783023834229 0.068956352770328521729 0.015323635190725326538 0 0 0 0 0 0.0025539391208440065384 0.007661817595362663269 0.015323635190725326538 0.033201210200786590576 0.033201210200786590576 0.030647270381450653076 0.030647270381450653076 0.030647270381450653076 0.030647270381450653076 0.033201210200786590576 0.030647270381450653076 0.007661817595362663269 0 0 0 0 0 0 0 0 0 0 0 0 0 0 0 0 0 0 0 0 0 0 0 0 0 0 0 0 0 0 0 0.007661817595362663269 0.081726051867008209229 0.45715510845184326172 1.5962120294570922852 3.5908384323120117188 4.4336380958557128906 2.4568893909454345703 0.73042660951614379883 0.27327147126197814941 0.31413453817367553711 0.18899150192737579346 0.066402420401573181152 0.012769696302711963654 0 0 0 0 0 0 0 0 0 0 0 0 0 0 0 0 0 0 0 0 0 0 0 0 0 0 0 0 0 0 0 0 0 0 0 0 0 0 0 0 0 0 0 0 0 0 0 0 0 0 0 0 0 0 0 0 0 0 0 0 0 0 0 0 0 0 0 0 0 0 0 0 0 0 0 0 0 0 0 0 0 0 0 0 0 0 0 0 0 0 0 0 0 0 0 0 0 0 0 0 0 0 0 0 0 0 0 0 0 0 0 0 0 0 0 0 0 0 0 0 0 0 0 0 0 0 0 0 0 0 0 0 0 0 0 0 0 0 0 0 0 0 0 0 0 0 0 0 0 0 0 0 0 0 0 0 0 0 0 0 0 0 0 0 0 0 0 0 0 0 0 0 0 0 
0 0 0 0 0 0 0 0 0 0 0 0 0 0 0 0 0 0 0 0 0 0 0 0 0 0 0 0 0 0 0 0 0 0 0 0 0 0 0 0 0 0 0 0 0 0 0 0 0 0 0 0 0 0 0 0 0 0 0 0 0 0 0 0 0 0 0 0 0 0 0 0 0 0 0 0 0 0 0 0 0 0 0 0 0 0 0 0 0 0 0 0 0 0 0 0 0 0 0 0 0 0 0 0 0 0 0 0 0 0 0 0 0 0 0 0 0 0 0 0 0 0 0 0 0 0 0 0 0 0 0 0 0 0 0 0 0 0 0 0 0 0 0 0 0 0 0 0 0 0 0 0 0 0 0 0 0 0 0 0 0 0 0 0 0 0 0 0 0 0 0 0 0 0 0 0 0 0 0 0 0 0 0 0 0 0 0 0 0 0 0 0 0 0 0 0 0 0 0 0 0 0 0 0 0 0 0 0 0 0 0 0 0 0 0 0 0 0.010215756483376026154 0.040863025933504104614 0.058740600943565368652 0.079172119498252868652 0.10215757042169570923 0.11492726951837539673 0.13535876572132110596 0.079172119498252868652 0.071510300040245056152 0.1225890815258026123 0.1047115027904510498 0.094495750963687896729 0.1174812018871307373 0.1532363593578338623 0.086833931505680084229 0.038309089839458465576 0.028093332424759864807 0.017877575010061264038 0.0051078782416880130768 0 0 0 0.0025539391208440065384 0.007661817595362663269 0.015323635190725326538 0.033201210200786590576 0.035755150020122528076 0.033201210200786590576 0.015323635190725326538 0.010215756483376026154 0.010215756483376026154 0.010215756483376026154 0.010215756483376026154 0.010215756483376026154 0.007661817595362663269 0.0025539391208440065384 0 0 0 0 0 0 0 0 0 0 0 0 0 0 0 0 0 0 0 0 0 0 0 0 0 0 0 0 0 0 0 0.033201210200786590576 0.23496238887310028076 0.84790778160095214844 2.0125041007995605469 3.2639343738555908203 3.8104770183563232422 2.2781136035919189453 0.78661322593688964844 0.36521330475807189941 0.39841449260711669922 0.20686908066272735596 0.056186664849519729614 0.007661817595362663269 0 0 0 0 0 0 0 0 0 0 0 0 0 0 0 0 0 0 0 0 0 0 0 0 0 0 0 0 0 0 0 0 0 0 0 0 0 0 0 0 0 0 0 0 0 0 0 0 0 0 0 0 0 0 0 0 0 0 0 0 0 0 0 0 0 0 0 0 0 0 0 0 0 0 0 0 0 0 0 0 0 0 0 0 0 0 0 0 0 0 0 0 0 0 0 0 0 0 0 0 0 0 0 0 0 0 0 0 0 0 0 0 0 0 0 0 0 0 0 0 0 0 0 0 0 0 0 0 0 0 0 0 0 0 0 0 0 0 0 0 0 0 0 0 0 0 0 0 0 0 0 0 0 0 0 0 0 0 0 0 0 0 0 0 0 0 0 0 0 0 0 0 0 0 
0 0 0 0 0 0 0 0 0 0 0 0 0 0 0 0 0 0 0 0 0 0 0 0 0 0 0 0 0 0 0 0 0 0 0 0 0 0 0 0 0 0 0 0 0 0 0 0 0 0 0 0 0 0 0 0 0 0 0 0 0 0 0 0 0 0 0 0 0 0 0 0 0 0 0 0 0 0 0 0 0 0 0 0 0 0 0 0 0 0 0 0 0 0 0 0 0 0 0 0 0 0 0 0 0 0 0 0 0 0 0 0 0 0 0 0 0 0 0 0 0 0 0 0 0 0 0 0 0 0 0 0 0 0 0 0 0 0 0 0 0 0 0 0 0 0 0 0 0 0 0 0 0 0 0 0 0 0 0 0 0 0 0 0 0 0 0 0 0 0 0 0 0 0 0 0 0 0 0 0 0 0 0 0 0 0 0 0 0 0 0 0 0 0 0 0 0 0 0 0 0 0 0 0 0 0 0 0 0 0 0 0 0 0.0025539391208440065384 0.010215756483376026154 0.020431512966752052307 0.030647270381450653076 0.051078785210847854614 0.089387871325016021729 0.089387871325016021729 0.13791270554065704346 0.1328048408031463623 0.1455745398998260498 0.17877574265003204346 0.14557452499866485596 0.13791270554065704346 0.1455745398998260498 0.11492726951837539673 0.1200351417064666748 0.1251430213451385498 0.10726545006036758423 0.030647270381450653076 0.0025539391208440065384 0 0 0 0.0025539391208440065384 0.007661817595362663269 0.010215756483376026154 0.015323635190725326538 0.033201210200786590576 0.035755150020122528076 0.033201210200786590576 0.015323635190725326538 0.007661817595362663269 0.0025539391208440065384 0 0 0 0 0 0 0 0 0 0 0 0 0 0 0 0 0 0 0 0 0 0 0 0 0 0 0 0 0 0 0 0 0 0 0 0 0 0.0025539391208440065384 0.084279991686344146729 0.45204722881317138672 1.1671501398086547852 2.0942301750183105469 2.8910591602325439453 3.3175668716430664062 2.0967841148376464844 0.78150534629821777344 0.42906177043914794922 0.50312602519989013672 0.22985452413558959961 0.035755150020122528076 0.0025539391208440065384 0 0 0 0 0 0 0 0 0 0 0 0 0 0 0 0 0 0 0 0 0 0 0 0 0 0 0 0 0 0 0 0 0 0 0 0 0 0 0 0 0 0 0 0 0 0 0 0 0 0 0 0 0 0 0 0 0 0 0 0 0 0 0 0 0 0 0 0 0 0 0 0 0 0 0 0 0 0 0 0 0 0 0 0 0 0 0 0 0 0 0 0 0 0 0 0 0 0 0 0 0 0 0 0 0 0 0 0 0 0 0 0 0 0 0 0 0 0 0 0 0 0 0 0 0 0 0 0 0 0 0 0 0 0 0 0 0 0 0 0 0 0 0 0 0 0 0 0 0 0 0 0 0 0 0 0 0 0 0 0 0 0 0 0 0 0 0 0 0 0 0 0 0 0 
0 0 0 0 0 0 0 0 0 0 0 0 0 0 0 0 0 0 0 0 0 0 0 0 0 0 0 0 0 0 0 0 0 0 0 0 0 0 0 0 0 0 0 0 0 0 0 0 0 0 0 0 0 0 0 0 0 0 0 0 0 0 0 0 0 0 0 0 0 0 0 0 0 0 0 0 0 0 0 0 0 0 0 0 0 0 0 0 0 0 0 0 0 0 0 0 0 0 0 0 0 0 0 0 0 0 0 0 0 0 0 0 0 0 0 0 0 0 0 0 0 0 0 0 0 0 0 0 0 0 0 0 0 0 0 0 0 0 0 0 0 0 0 0 0 0 0 0 0 0 0 0 0 0 0 0 0 0 0 0 0 0 0 0 0 0 0 0 0 0 0 0 0 0 0 0 0 0 0 0 0 0 0 0 0 0 0 0 0 0 0 0 0 0 0 0 0 0 0 0 0 0 0 0 0 0 0 0 0 0 0 0 0.0025539391208440065384 0.017877575010061264038 0.053632721304893493652 0.084279991686344146729 0.10981938987970352173 0.1328048408031463623 0.1302509009838104248 0.1098193824291229248 0.1328048408031463623 0.1072654426097869873 0.1225890815258026123 0.13791270554065704346 0.079172119498252868652 0.074064239859580993652 0.079172119498252868652 0.091941818594932556152 0.076618179678916931152 0.063848480582237243652 0.030647270381450653076 0.007661817595362663269 0 0 0 0.0025539391208440065384 0.012769696302711963654 0.033201210200786590576 0.033201210200786590576 0.033201210200786590576 0.033201210200786590576 0.015323635190725326538 0.007661817595362663269 0.0025539391208440065384 0 0 0 0 0 0 0 0 0 0 0 0 0 0 0 0 0 0 0 0 0 0 0 0 0 0 0 0 0 0 0 0 0 0 0 0 0 0 0 0.010215756483376026154 0.16600604355335235596 0.69722539186477661133 1.4046665430068969727 2.0457050800323486328 2.6765282154083251953 3.0442953109741210938 1.9333318471908569336 0.69977933168411254883 0.41118422150611877441 0.55420476198196411133 0.24262422323226928711 0.028093332424759864807 0 0 0 0 0 0 0 0 0 0 0 0 0 0 0 0 0 0 0 0 0 0 0 0 0 0 0 0 0 0 0 0 0 0 0 0 0 0 0 0 0 0 0 0 0 0 0 0 0 0 0 0 0 0 0 0 0 0 0 0 0 0 0 0 0 0 0 0 0 0 0 0 0 0 0 0 0 0 0 0 0 0 0 0 0 0 0 0 0 0 0 0 0 0 0 0 0 0 0 0 0 0 0 0 0 0 0 0 0 0 0 0 0 0 0 0 0 0 0 0 0 0 0 0 0 0 0 0 0 0 0 0 0 0 0 0 0 0 0 0 0 0 0 0 0 0 0 0 0 0 0 0 0 0 0 0 0 0 0 0 0 0 0 0 0 0 0 0 0 0 0 0 0 0 0 
0 0 0 0 0 0 0 0 0 0 0 0 0 0 0 0 0 0 0 0 0 0 0 0 0 0 0 0 0 0 0 0 0 0 0 0 0 0 0 0 0 0 0 0 0 0 0 0 0 0 0 0 0 0 0 0 0 0 0 0 0 0 0 0 0 0 0 0 0 0 0 0 0 0 0 0 0 0 0 0 0 0 0 0 0 0 0 0 0 0 0 0 0 0 0 0 0 0 0 0 0 0 0 0 0 0 0 0 0 0 0 0 0 0 0 0 0 0 0 0 0 0 0 0 0 0 0 0 0 0 0 0 0 0 0 0 0 0 0 0 0 0 0 0 0 0 0 0 0 0 0 0 0 0 0 0 0 0 0 0 0 0 0 0 0 0 0 0 0 0 0 0 0 0 0 0 0 0 0 0 0 0 0 0 0 0 0 0 0 0 0 0 0 0 0 0 0 0 0 0 0 0 0 0 0 0 0 0 0 0 0 0.0051078782416880130768 0.022985454648733139038 0.063848480582237243652 0.1072654426097869873 0.099603630602359771729 0.097049690783023834229 0.081726051867008209229 0.063848480582237243652 0.084279991686344146729 0.1251430213451385498 0.1225890815258026123 0.10981938987970352173 0.1174812018871307373 0.066402420401573181152 0.045970901846885681152 0.045970901846885681152 0.076618179678916931152 0.053632721304893493652 0.033201210200786590576 0.007661817595362663269 0 0 0 0 0.007661817595362663269 0.033201210200786590576 0.035755150020122528076 0.015323635190725326538 0.010215756483376026154 0.007661817595362663269 0.0025539391208440065384 0 0 0 0 0 0 0 0 0 0 0 0 0 0 0 0 0 0 0 0 0 0 0 0 0 0 0 0 0 0 0 0 0 0 0 0 0 0 0 0 0 0.017877575010061264038 0.23240846395492553711 0.84535384178161621094 1.4531913995742797852 2.1172156333923339844 2.8297646045684814453 2.8885052204132080078 1.7468943595886230469 0.68956357240676879883 0.52611148357391357422 0.62826907634735107422 0.23496238887310028076 0.020431512966752052307 0 0 0 0 0 0 0 0 0 0 0 0 0 0 0 0 0 0 0 0 0 0 0 0 0 0 0 0 0 0 0 0 0 0 0 0 0 0 0 0 0 0 0 0 0 0 0 0 0 0 0 0 0 0 0 0 0 0 0 0 0 0 0 0 0 0 0 0 0 0 0 0 0 0 0 0 0 0 0 0 0 0 0 0 0 0 0 0 0 0 0 0 0 0 0 0 0 0 0 0 0 0 0 0 0 0 0 0 0 0 0 0 0 0 0 0 0 0 0 0 0 0 0 0 0 0 0 0 0 0 0 0 0 0 0 0 0 0 0 0 0 0 0 0 0 0 0 0 0 0 0 0 0 0 0 0 0 0 0 0 0 0 0 0 0 0 0 0 0 0 0 0 0 0 0 
0 0 0 0 0 0 0 0 0 0 0 0 0 0 0 0 0 0 0 0 0 0 0 0 0 0 0 0 0 0 0 0 0 0 0 0 0 0 0 0 0 0 0 0 0 0 0 0 0 0 0 0 0 0 0 0 0 0 0 0 0 0 0 0 0 0 0 0 0 0 0 0 0 0 0 0 0 0 0 0 0 0 0 0 0 0 0 0 0 0 0 0 0 0 0 0 0 0 0 0 0 0 0 0 0 0 0 0 0 0 0 0 0 0 0 0 0 0 0 0 0 0 0 0 0 0 0 0 0 0 0 0 0 0 0 0 0 0 0 0 0 0 0 0 0 0 0 0 0 0 0 0 0 0 0 0 0 0 0 0 0 0 0 0 0 0 0 0 0 0 0 0 0 0 0 0 0 0 0 0 0 0 0 0 0 0 0 0 0 0 0 0 0 0 0 0 0 0 0 0 0 0 0 0 0 0 0 0 0 0.0051078782416880130768 0.020431512966752052307 0.048524841666221618652 0.10215757042169570923 0.1276969611644744873 0.10981938987970352173 0.086833931505680084229 0.079172119498252868652 0.074064239859580993652 0.086833931505680084229 0.1072654426097869873 0.1328048408031463623 0.1302509009838104248 0.1072654426097869873 0.1200351417064666748 0.071510300040245056152 0.053632721304893493652 0.071510300040245056152 0.066402420401573181152 0.022985450923442840576 0.007661817595362663269 0.0025539391208440065384 0.0025539391208440065384 0.007661817595362663269 0.010215756483376026154 0.010215756483376026154 0.017877575010061264038 0.035755150020122528076 0.015323635190725326538 0.0025539391208440065384 0 0 0 0 0 0 0 0 0 0 0 0 0 0 0 0 0 0 0 0 0 0 0 0 0 0 0 0 0 0 0 0 0 0 0 0 0 0 0 0 0 0 0 0 0.020431512966752052307 0.27327147126197814941 0.99092841148376464844 1.7468943595886230469 2.4415659904479980469 2.7608082294464111328 2.4645514488220214844 1.5119318962097167969 0.68445569276809692383 0.66147023439407348633 0.73042660951614379883 0.23751632869243621826 0.012769696302711963654 0 0 0 0 0 0 0 0 0 0 0 0 0 0 0 0 0 0 0 0 0 0 0 0 0 0 0 0 0 0 0 0 0 0 0 0 0 0 0 0 0 0 0 0 0 0 0 0 0 0 0 0 0 0 0 0 0 0 0 0 0 0 0 0 0 0 0 0 0 0 0 0 0 0 0 0 0 0 0 0 0 0 0 0 0 0 0 0 0 0 0 0 0 0 0 0 0 0 0 0 0 0 0 0 0 0 0 0 0 0 0 0 0 0 0 0 0 0 0 0 0 0 0 0 0 0 0 0 0 0 0 0 0 0 0 0 0 0 0 0 0 0 0 0 0 0 0 0 0 0 0 0 0 0 0 0 0 0 0 0 0 0 0 0 0 0 0 0 0 0 0 0 0 0 0 
0 0 0 0 0 0 0 0 0 0 0 0 0 0 0 0 0 0 0 0 0 0 0 0 0 0 0 0 0 0 0 0 0 0 0 0 0 0 0 0 0 0 0 0 0 0 0 0 0 0 0 0 0 0 0 0 0 0 0 0 0 0 0 0 0 0 0 0 0 0 0 0 0 0 0 0 0 0 0 0 0 0 0 0 0 0 0 0 0 0 0 0 0 0 0 0 0 0 0 0 0 0 0 0 0 0 0 0 0 0 0 0 0 0 0 0 0 0 0 0 0 0 0 0 0 0 0 0 0 0 0 0 0 0 0 0 0 0 0 0 0 0 0 0 0 0 0 0 0 0 0 0 0 0 0 0 0 0 0 0 0 0 0 0 0 0 0 0 0 0 0 0 0 0 0 0 0 0 0 0 0 0 0 0 0 0 0 0 0 0 0 0 0 0 0 0 0 0 0 0 0 0 0 0 0 0 0 0.0025539391208440065384 0.010215756483376026154 0.030647270381450653076 0.086833931505680084229 0.14557452499866485596 0.17366786301136016846 0.13535876572132110596 0.1072654426097869873 0.1225890815258026123 0.1276969611644744873 0.1302509009838104248 0.1302509009838104248 0.16089816391468048096 0.19409936666488647461 0.17366786301136016846 0.1225890815258026123 0.10215757042169570923 0.058740600943565368652 0.051078785210847854614 0.051078785210847854614 0.022985450923442840576 0.0051078782416880130768 0 0.0025539391208440065384 0.012769696302711963654 0.033201210200786590576 0.033201210200786590576 0.030647270381450653076 0.033201210200786590576 0.030647270381450653076 0.007661817595362663269 0 0 0 0 0 0 0 0 0 0 0 0 0 0 0 0 0 0 0 0 0 0 0 0 0 0 0 0 0 0 0 0 0 0 0 0 0 0 0 0 0 0 0 0 0 0.020431512966752052307 0.33711996674537658691 1.3178325891494750977 2.2755596637725830078 2.7071754932403564453 2.5462775230407714844 2.0533671379089355469 1.2641999721527099609 0.75596594810485839844 0.77895146608352661133 0.88110899925231933594 0.28093329071998596191 0.012769696302711963654 0 0 0 0 0 0 0 0 0 0 0 0 0 0 0 0 0 0 0 0 0 0 0 0 0 0 0 0 0 0 0 0 0 0 0 0 0 0 0 0 0 0 0 0 0 0 0 0 0 0 0 0 0 0 0 0 0 0 0 0 0 0 0 0 0 0 0 0 0 0 0 0 0 0 0 0 0 0 0 0 0 0 0 0 0 0 0 0 0 0 0 0 0 0 0 0 0 0 0 0 0 0 0 0 0 0 0 0 0 0 0 0 0 0 0 0 0 0 0 0 0 0 0 0 0 0 0 0 0 0 0 0 0 0 0 0 0 0 0 0 0 0 0 0 0 0 0 0 0 0 0 0 0 0 0 0 0 0 0 0 0 0 0 0 0 0 0 0 0 0 0 0 0 0 0 
0 0 0 0 0 0 0 0 0 0 0 0 0 0 0 0 0 0 0 0 0 0 0 0 0 0 0 0 0 0 0 0 0 0 0 0 0 0 0 0 0 0 0 0 0 0 0 0 0 0 0 0 0 0 0 0 0 0 0 0 0 0 0 0 0 0 0 0 0 0 0 0 0 0 0 0 0 0 0 0 0 0 0 0 0 0 0 0 0 0 0 0 0 0 0 0 0 0 0 0 0 0 0 0 0 0 0 0 0 0 0 0 0 0 0 0 0 0 0 0 0 0 0 0 0 0 0 0 0 0 0 0 0 0 0 0 0 0 0 0 0 0 0 0 0 0 0 0 0 0 0 0 0 0 0 0 0 0 0 0 0 0 0 0 0 0 0 0 0 0 0 0 0 0 0 0 0 0 0 0 0 0 0 0 0 0 0 0 0 0 0 0 0 0 0 0 0 0 0 0 0 0.0025539391208440065384 0.007661817595362663269 0.010215756483376026154 0.010215756483376026154 0.010215756483376026154 0.012769696302711963654 0.025539392605423927307 0.058740600943565368652 0.1047115027904510498 0.1532363593578338623 0.1583442389965057373 0.15068240463733673096 0.12003513425588607788 0.11748119443655014038 0.1506824195384979248 0.13791270554065704346 0.1455745398998260498 0.16345210373401641846 0.17877574265003204346 0.14046664535999298096 0.084279991686344146729 0.051078785210847854614 0.043416965752840042114 0.040863025933504104614 0.053632721304893493652 0.045970901846885681152 0.017877575010061264038 0.010215756483376026154 0.010215756483376026154 0.015323635190725326538 0.035755150020122528076 0.035755150020122528076 0.015323635190725326538 0.010215756483376026154 0.010215756483376026154 0.007661817595362663269 0.0025539391208440065384 0 0 0 0 0 0 0 0 0 0 0 0 0 0 0 0 0 0 0 0 0 0 0 0 0 0 0 0 0 0 0 0 0 0 0 0 0 0 0 0 0 0 0 0 0 0.020431512966752052307 0.41118422150611877441 1.6600605249404907227 2.6458809375762939453 2.6739742755889892578 2.0584750175476074219 1.6038738489151000977 1.1339489221572875977 0.81215268373489379883 0.84024596214294433594 1.0496690273284912109 0.36265936493873596191 0.020431512966752052307 0 0 0 0 0 0 0 0 0 0 0 0 0 0 0 0 0 0 0 0 0 0 0 0 0 0 0 0 0 0 0 0 0 0 0 0 0 0 0 0 0 0 0 0 0 0 0 0 0 0 0 0 0 0 0 0 0 0 0 0 0 0 0 0 0 0 0 0 0 0 0 0 0 0 0 0 0 0 0 0 0 0 0 0 0 0 0 0 0 0 0 0 0 0 0 0 0 0 0 0 0 0 0 0 0 0 0 0 0 0 0 0 0 0 0 0 0 0 0 0 0 0 0 0 0 0 0 0 0 0 0 0 0 0 0 0 0 0 0 0 0 0 0 0 0 0 0 0 0 0 0 0 0 0 0 0 0 0 0 0 0 0 0 0 0 0 0 0 0 0 0 0 0 0 0 
0 0 0 0 0 0 0 0 0 0 0 0 0 0 0 0 0 0 0 0 0 0 0 0 0 0 0 0 0 0 0 0 0 0 0 0 0 0 0 0 0 0 0 0 0 0 0 0 0 0 0 0 0 0 0 0 0 0 0 0 0 0 0 0 0 0 0 0 0 0 0 0 0 0 0 0 0 0 0 0 0 0 0 0 0 0 0 0 0 0 0 0 0 0 0 0 0 0 0 0 0 0 0 0 0 0 0 0 0 0 0 0 0 0 0 0 0 0 0 0 0 0 0 0 0 0 0 0 0 0 0 0 0 0 0 0 0 0 0 0 0 0 0 0 0 0 0 0 0 0 0 0 0 0 0 0 0 0 0 0 0 0 0 0 0 0 0 0 0 0 0 0 0 0 0 0 0 0 0 0 0 0 0 0 0 0 0 0 0 0 0 0 0 0 0 0 0 0 0 0.0025539391208440065384 0.007661817595362663269 0.017877575010061264038 0.043416965752840042114 0.053632721304893493652 0.061294540762901306152 0.068956352770328521729 0.076618179678916931152 0.1047115027904510498 0.1379127204418182373 0.17366786301136016846 0.24007028341293334961 0.22730058431625366211 0.20942299067974090576 0.19409936666488647461 0.18388360738754272461 0.17622180283069610596 0.13791270554065704346 0.1225890815258026123 0.091941803693771362305 0.079172119498252868652 0.045970901846885681152 0.028093332424759864807 0.043416965752840042114 0.063848480582237243652 0.066402420401573181152 0.063848480582237243652 0.043416965752840042114 0.033201210200786590576 0.030647270381450653076 0.030647270381450653076 0.033201210200786590576 0.033201210200786590576 0.012769696302711963654 0.0025539391208440065384 0 0 0 0 0 0 0 0 0 0 0 0 0 0 0 0 0 0 0 0 0 0 0 0 0 0 0 0 0 0 0 0 0 0 0 0 0 0 0 0 0 0 0 0 0 0 0 0 0 0.020431512966752052307 0.48524841666221618652 1.9486554861068725586 2.9370300769805908203 2.3777174949645996094 1.4940543174743652344 1.1058555841445922852 0.99603629112243652344 0.84279990196228027344 0.91175627708435058594 1.2693078517913818359 0.49546420574188232422 0.051078785210847854614 0 0 0 0 0 0 0 0 0 0 0 0 0 0 0 0 0 0 0 0 0 0 0 0 0 0 0 0 0 0 0 0 0 0 0 0 0 0 0 0 0 0 0 0 0 0 0 0 0 0 0 0 0 0 0 0 0 0 0 0 0 0 0 0 0 0 0 0 0 0 0 0 0 0 0 0 0 0 0 0 0 0 0 0 0 0 0 0 0 0 0 0 0 0 0 0 0 0 0 0 0 0 0 0 0 0 0 0 0 0 0 0 0 0 0 0 0 0 0 0 0 0 0 0 0 0 0 0 0 0 0 0 0 0 0 0 0 0 0 0 0 0 0 0 0 0 0 0 0 0 0 0 0 0 0 0 0 0 0 0 0 0 0 0 0 0 0 0 0 0 0 0 0 0 0 
0 0 0 0 0 0 0 0 0 0 0 0 0 0 0 0 0 0 0 0 0 0 0 0 0 0 0 0 0 0 0 0 0 0 0 0 0 0 0 0 0 0 0 0 0 0 0 0 0 0 0 0 0 0 0 0 0 0 0 0 0 0 0 0 0 0 0 0 0 0 0 0 0 0 0 0 0 0 0 0 0 0 0 0 0 0 0 0 0 0 0 0 0 0 0 0 0 0 0 0 0 0 0 0 0 0 0 0 0 0 0 0 0 0 0 0 0 0 0 0 0 0 0 0 0 0 0 0 0 0 0 0 0 0 0 0 0 0 0 0 0 0 0 0 0 0 0 0 0 0 0 0 0 0 0 0 0 0 0 0 0 0 0 0 0 0 0 0 0 0 0 0 0 0 0 0 0 0 0 0 0 0 0 0 0 0 0 0 0 0 0 0 0 0 0 0.0025539391208440065384 0.010215756483376026154 0.017877575010061264038 0.022985454648733139038 0.033201210200786590576 0.053632721304893493652 0.063848480582237243652 0.091941818594932556152 0.10981938987970352173 0.1379127204418182373 0.16600604355335235596 0.18132968246936798096 0.19409938156604766846 0.19920726120471954346 0.21453088521957397461 0.25028604269027709961 0.20686908066272735596 0.17366786301136016846 0.13791270554065704346 0.091941803693771362305 0.076618172228336334229 0.066402420401573181152 0.056186664849519729614 0.045970909297466278076 0.040863025933504104614 0.040863025933504104614 0.043416965752840042114 0.051078785210847854614 0.051078785210847854614 0.028093332424759864807 0.017877575010061264038 0.012769696302711963654 0.010215756483376026154 0.010215756483376026154 0.010215756483376026154 0.010215756483376026154 0.007661817595362663269 0.0025539391208440065384 0 0 0 0 0 0 0 0 0 0 0 0 0 0 0 0 0 0 0 0 0 0 0 0 0 0 0 0 0 0 0 0 0 0 0 0 0 0 0 0 0 0 0 0 0 0 0 0 0 0 0.020431512966752052307 0.55675870180130004883 2.2372505664825439453 3.0085401535034179688 2.0150580406188964844 1.0981937646865844727 0.71510297060012817383 0.77128958702087402344 0.71510297060012817383 0.87600111961364746094 1.4327598810195922852 0.74830412864685058594 0.1174812018871307373 0 0 0 0 0 0 0 0 0 0 0 0 0 0 0 0 0 0 0 0 0 0 0 0 0 0 0 0 0 0 0 0 0 0 0 0 0 0 0 0 0 0 0 0 0 0 0 0 0 0 0 0 0 0 0 0 0 0 0 0 0 0 0 0 0 0 0 0 0 0 0 0 0 0 0 0 0 0 0 0 0 0 0 0 0 0 0 0 0 0 0 0 0 0 0 0 0 0 0 0 0 0 0 0 0 0 0 0 0 0 0 0 0 0 0 0 0 0 0 0 0 0 0 0 0 0 0 0 0 0 0 0 0 0 0 0 0 0 0 0 0 0 0 0 0 0 0 0 0 0 0 0 0 0 0 0 0 0 0 0 0 0 0 0 0 0 0 0 0 0 0 0 0 0 0 
0 0 0 0 0 0 0 0 0 0 0 0 0 0 0 0 0 0 0 0 0 0 0 0 0 0 0 0 0 0 0 0 0 0 0 0 0 0 0 0 0 0 0 0 0 0 0 0 0 0 0 0 0 0 0 0 0 0 0 0 0 0 0 0 0 0 0 0 0 0 0 0 0 0 0 0 0 0 0 0 0 0 0 0 0 0 0 0 0 0 0 0 0 0 0 0 0 0 0 0 0 0 0 0 0 0 0 0 0 0 0 0 0 0 0 0 0 0 0 0 0 0 0 0 0 0 0 0 0 0 0 0 0 0 0 0 0 0 0 0 0 0 0 0 0 0 0 0 0 0 0 0 0 0 0 0 0 0 0 0 0 0 0 0 0 0 0 0 0 0 0 0 0 0 0 0 0 0 0 0 0 0 0 0 0 0 0 0 0 0 0 0 0 0 0 0.012769696302711963654 0.051078785210847854614 0.079172119498252868652 0.086833931505680084229 0.10726545006036758423 0.11237332969903945923 0.10981938987970352173 0.13535876572132110596 0.1532363593578338623 0.17877574265003204346 0.18132968246936798096 0.21453088521957397461 0.21197693049907684326 0.19920724630355834961 0.18388360738754272461 0.17366786301136016846 0.11492726951837539673 0.051078785210847854614 0.028093332424759864807 0.015323635190725326538 0.010215756483376026154 0.010215756483376026154 0.010215756483376026154 0.015323635190725326538 0.030647270381450653076 0.053632721304893493652 0.051078785210847854614 0.043416965752840042114 0.033201210200786590576 0.007661817595362663269 0 0 0 0 0 0 0 0 0 0 0 0 0 0 0 0 0 0 0 0 0 0 0 0 0 0 0 0 0 0 0 0 0 0 0 0 0 0 0 0 0 0 0 0 0 0 0 0 0 0 0 0 0 0 0 0 0 0 0.028093330562114715576 0.63082301616668701172 2.3700554370880126953 2.9497995376586914062 1.7877573966979980469 0.79682904481887817383 0.53377330303192138672 0.62826907634735107422 0.57719022035598754883 0.78916716575622558594 1.3867889642715454102 0.97305077314376831055 0.23240846395492553711 0.015323635190725326538 0 0 0 0 0 0 0 0 0 0 0 0 0 0 0 0 0 0 0 0 0 0 0 0 0 0 0 0 0 0 0 0 0 0 0 0 0 0 0 0 0 0 0 0 0 0 0 0 0 0 0 0 0 0 0 0 0 0 0 0 0 0 0 0 0 0 0 0 0 0 0 0 0 0 0 0 0 0 0 0 0 0 0 0 0 0 0 0 0 0 0 0 0 0 0 0 0 0 0 0 0 0 0 0 0 0 0 0 0 0 0 0 0 0 0 0 0 0 0 0 0 0 0 0 0 0 0 0 0 0 0 0 0 0 0 0 0 0 0 0 0 0 0 0 0 0 0 0 0 0 0 0 0 0 0 0 0 0 0 0 0 0 0 0 0 0 0 0 0 0 0 0 0 0 
0 0 0 0 0 0 0 0 0 0 0 0 0 0 0 0 0 0 0 0 0 0 0 0 0 0 0 0 0 0 0 0 0 0 0 0 0 0 0 0 0 0 0 0 0 0 0 0 0 0 0 0 0 0 0 0 0 0 0 0 0 0 0 0 0 0 0 0 0 0 0 0 0 0 0 0 0 0 0 0 0 0 0 0 0 0 0 0 0 0 0 0 0 0 0 0 0 0 0 0 0 0 0 0 0 0 0 0 0 0 0 0 0 0 0 0 0 0 0 0 0 0 0 0 0 0 0 0 0 0 0 0 0 0 0 0 0 0 0 0 0 0 0 0 0 0 0 0 0 0 0 0 0 0 0 0 0 0 0 0 0 0 0 0 0 0 0 0 0 0 0 0 0 0 0 0 0 0 0 0 0 0 0 0 0 0 0 0 0 0.0025539391208440065384 0.007661817595362663269 0.012769696302711963654 0.017877575010061264038 0.020431512966752052307 0.020431512966752052307 0.048524845391511917114 0.1251430213451385498 0.1251430213451385498 0.1200351417064666748 0.1174812018871307373 0.1047115027904510498 0.1379127204418182373 0.1557902991771697998 0.17366786301136016846 0.18643756210803985596 0.16345210373401641846 0.16089816391468048096 0.1072654426097869873 0.089387871325016021729 0.084279991686344146729 0.076618179678916931152 0.053632721304893493652 0.012769696302711963654 0 0 0.0025539391208440065384 0.007661817595362663269 0.012769696302711963654 0.028093332424759864807 0.068956352770328521729 0.068956352770328521729 0.040863025933504104614 0.015323635190725326538 0.007661817595362663269 0.0025539391208440065384 0 0 0 0 0 0 0 0 0 0 0 0 0 0 0 0 0 0 0 0 0 0 0 0 0 0 0 0 0 0 0 0 0 0 0 0 0 0 0 0 0 0 0 0 0 0 0 0 0 0 0 0 0 0 0 0 0 0 0.061294540762901306152 0.82747626304626464844 2.7071754932403564453 3.0774965286254882812 1.6370750665664672852 0.64870053529739379883 0.45460116863250732422 0.52866542339324951172 0.52611148357391357422 0.74319624900817871094 1.2999550104141235352 1.1977974176406860352 0.44438540935516357422 0.056186661124229431152 0 0 0 0 0 0 0 0 0 0 0 0 0 0 0 0 0 0 0 0 0 0 0 0 0 0 0 0 0 0 0 0 0 0 0 0 0 0 0 0 0 0 0 0 0 0 0 0 0 0 0 0 0 0 0 0 0 0 0 0 0 0 0 0 0 0 0 0 0 0 0 0 0 0 0 0 0 0 0 0 0 0 0 0 0 0 0 0 0 0 0 0 0 0 0 0 0 0 0 0 0 0 0 0 0 0 0 0 0 0 0 0 0 0 0 0 0 0 0 0 0 0 0 0 0 0 0 0 0 0 0 0 0 0 0 0 0 0 0 0 0 0 0 0 0 0 0 0 0 0 0 0 0 0 0 0 0 0 0 0 0 0 0 0 0 0 0 0 0 0 0 0 0 0 
0 0 0 0 0 0 0 0 0 0 0 0 0 0 0 0 0 0 0 0 0 0 0 0 0 0 0 0 0 0 0 0 0 0 0 0 0 0 0 0 0 0 0 0 0 0 0 0 0 0 0 0 0 0 0 0 0 0 0 0 0 0 0 0 0 0 0 0 0 0 0 0 0 0 0 0 0 0 0 0 0 0 0 0 0 0 0 0 0 0 0 0 0 0 0 0 0 0 0 0 0 0 0 0 0 0 0 0 0 0 0 0 0 0 0 0 0 0 0 0 0 0 0 0 0 0 0 0 0 0 0 0 0 0 0 0 0 0 0 0 0 0 0 0 0 0 0 0 0 0 0 0 0 0 0 0 0 0 0 0 0 0 0 0 0 0 0 0 0 0 0 0 0 0 0 0 0 0 0 0 0 0 0 0 0 0 0 0.0025539391208440065384 0.007661817595362663269 0.015323635190725326538 0.035755150020122528076 0.045970901846885681152 0.063848480582237243652 0.068956352770328521729 0.081726051867008209229 0.1251430213451385498 0.20686908066272735596 0.17111392319202423096 0.16855998337268829346 0.1481284797191619873 0.1430206000804901123 0.16089816391468048096 0.1838836371898651123 0.21197694540023803711 0.17877574265003204346 0.1225890815258026123 0.086833931505680084229 0.066402420401573181152 0.053632721304893493652 0.051078785210847854614 0.051078785210847854614 0.043416965752840042114 0.017877575010061264038 0.010215756483376026154 0.012769696302711963654 0.022985450923442840576 0.043416965752840042114 0.048524845391511917114 0.068956352770328521729 0.068956352770328521729 0.028093332424759864807 0.010215756483376026154 0.0025539391208440065384 0 0 0 0 0 0 0 0 0 0 0 0 0 0 0 0 0 0 0 0 0 0 0 0 0 0 0 0 0 0 0 0 0 0 0 0 0 0 0 0 0 0 0 0 0 0 0 0 0 0 0 0 0 0 0 0 0 0 0 0 0.1200351417064666748 1.1620422601699829102 3.1898698806762695312 3.0264177322387695312 1.4736227989196777344 0.57463628053665161133 0.37287509441375732422 0.37542903423309326172 0.43672358989715576172 0.70999509096145629883 1.1824738979339599609 1.2769695520401000977 0.64103865623474121094 0.11748119443655014038 0 0 0 0 0 0 0 0 0 0 0 0 0 0 0 0 0 0 0 0 0 0 0 0 0 0 0 0 0 0 0 0 0 0 0 0 0 0 0 0 0 0 0 0 0 0 0 0 0 0 0 0 0 0 0 0 0 0 0 0 0 0 0 0 0 0 0 0 0 0 0 0 0 0 0 0 0 0 0 0 0 0 0 0 0 0 0 0 0 0 0 0 0 0 0 0 0 0 0 0 0 0 0 0 0 0 0 0 0 0 0 0 0 0 0 0 0 0 0 0 0 0 0 0 0 0 0 0 0 0 0 0 0 0 0 0 0 0 0 0 0 0 0 0 0 0 0 0 0 0 0 0 0 0 0 0 0 0 0 0 0 0 0 0 0 0 0 0 0 0 0 0 0 0 
0 0 0 0 0 0 0 0 0 0 0 0 0 0 0 0 0 0 0 0 0 0 0 0 0 0 0 0 0 0 0 0 0 0 0 0 0 0 0 0 0 0 0 0 0 0 0 0 0 0 0 0 0 0 0 0 0 0 0 0 0 0 0 0 0 0 0 0 0 0 0 0 0 0 0 0 0 0 0 0 0 0 0 0 0 0 0 0 0 0 0 0 0 0 0 0 0 0 0 0 0 0 0 0 0 0 0 0 0 0 0 0 0 0 0 0 0 0 0 0 0 0 0 0 0 0 0 0 0 0 0 0 0 0 0 0 0 0 0 0 0 0 0 0 0 0 0 0 0 0 0 0 0 0 0 0 0 0 0 0 0 0 0 0 0 0 0 0 0 0 0 0 0 0 0 0 0 0 0 0 0 0.0025539391208440065384 0.007661817595362663269 0.010215756483376026154 0.010215756483376026154 0.010215756483376026154 0.012769696302711963654 0.022985450923442840576 0.045970901846885681152 0.056186664849519729614 0.066402420401573181152 0.074064239859580993652 0.079172119498252868652 0.081726051867008209229 0.1328048408031463623 0.18899148702621459961 0.20431514084339141846 0.19154544174671173096 0.19154544174671173096 0.16345210373401641846 0.16089816391468048096 0.19409938156604766846 0.22730059921741485596 0.18132968246936798096 0.1200351417064666748 0.094495750963687896729 0.084279991686344146729 0.076618179678916931152 0.056186664849519729614 0.051078785210847854614 0.051078785210847854614 0.048524845391511917114 0.043416965752840042114 0.040863025933504104614 0.045970901846885681152 0.066402420401573181152 0.066402420401573181152 0.048524845391511917114 0.043416965752840042114 0.020431512966752052307 0.0051078782416880130768 0 0 0 0 0 0 0 0 0 0 0 0 0 0 0 0 0 0 0 0 0 0 0 0 0 0 0 0 0 0 0 0 0 0 0 0 0 0 0 0 0 0 0 0 0 0 0 0 0 0 0 0 0 0 0 0 0 0 0 0 0 0 0.17877574265003204346 1.4634071588516235352 3.4886808395385742188 2.7378227710723876953 1.2412145137786865234 0.45970904827117919922 0.28604117035865783691 0.27582541108131408691 0.30902665853500366211 0.60272961854934692383 1.0854240655899047852 1.3484798669815063477 0.88366293907165527344 0.18643754720687866211 0 0 0 0 0 0 0 0 0 0 0 0 0 0 0 0 0 0 0 0 0 0 0 0 0 0 0 0 0 0 0 0 0 0 0 0 0 0 0 0 0 0 0 0 0 0 0 0 0 0 0 0 0 0 0 0 0 0 0 0 0 0 0 0 0 0 0 0 0 0 0 0 0 0 0 0 0 0 0 0 0 0 0 0 0 0 0 0 0 0 0 0 0 0 0 0 0 0 0 0 0 0 0 0 0 0 0 0 0 0 0 0 0 0 0 0 0 0 0 0 0 0 0 0 0 0 0 0 0 0 0 0 0 0 0 0 0 0 0 0 0 0 0 0 0 0 0 0 0 0 0 0 0 0 0 0 0 0 0 0 0 0 0 0 0 0 0 0 0 0 0 0 0 0 
0 0 0 0 0 0 0 0 0 0 0 0 0 0 0 0 0 0 0 0 0 0 0 0 0 0 0 0 0 0 0 0 0 0 0 0 0 0 0 0 0 0 0 0 0 0 0 0 0 0 0 0 0 0 0 0 0 0 0 0 0 0 0 0 0 0 0 0 0 0 0 0 0 0 0 0 0 0 0 0 0 0 0 0 0 0 0 0 0 0 0 0 0 0 0 0 0 0 0 0 0 0 0 0 0 0 0 0 0 0 0 0 0 0 0 0 0 0 0 0 0 0 0 0 0 0 0 0 0 0 0 0 0 0 0 0 0 0 0 0 0 0 0 0 0 0 0 0 0 0 0 0 0 0 0 0 0 0 0 0 0 0 0 0 0 0 0 0 0 0 0 0 0 0 0 0 0 0 0 0 0 0.007661817595362663269 0.030647270381450653076 0.033201210200786590576 0.030647270381450653076 0.030647270381450653076 0.038309089839458465576 0.066402420401573181152 0.079172119498252868652 0.091941818594932556152 0.1200351417064666748 0.1302509009838104248 0.1455745398998260498 0.18899148702621459961 0.20686906576156616211 0.20686906576156616211 0.1838836371898651123 0.22474665939807891846 0.18643756210803985596 0.1430206000804901123 0.1404666602611541748 0.16345210373401641846 0.1404666602611541748 0.081726051867008209229 0.056186664849519729614 0.051078785210847854614 0.051078785210847854614 0.048524845391511917114 0.043416965752840042114 0.040863025933504104614 0.040863025933504104614 0.040863025933504104614 0.040863025933504104614 0.040863025933504104614 0.043416965752840042114 0.043416965752840042114 0.022985450923442840576 0.012769696302711963654 0.007661817595362663269 0.0025539391208440065384 0 0 0 0 0 0 0 0 0 0 0 0 0 0 0 0 0 0 0 0 0 0 0 0 0 0 0 0 0 0 0 0 0 0 0 0 0 0 0 0 0 0 0 0 0 0 0 0 0 0 0 0 0 0 0 0 0 0 0 0 0 0 0 0.21453088521957397461 1.7009233236312866211 3.7440745830535888672 2.4747669696807861328 0.98582053184509277344 0.35244360566139221191 0.23240846395492553711 0.28348723053932189941 0.25028604269027709961 0.47247871756553649902 0.96028107404708862305 1.3025089502334594727 1.0139138698577880859 0.24262422323226928711 0 0 0 0 0 0 0 0 0 0 0 0 0 0 0 0 0 0 0 0 0 0 0 0 0 0 0 0 0 0 0 0 0 0 0 0 0 0 0 0 0 0 0 0 0 0 0 0 0 0 0 0 0 0 0 0 0 0 0 0 0 0 0 0 0 0 0 0 0 0 0 0 0 0 0 0 0 0 0 0 0 0 0 0 0 0 0 0 0 0 0 0 0 0 0 0 0 0 0 0 0 0 0 0 0 0 0 0 0 0 0 0 0 0 0 0 0 0 0 0 0 0 0 0 0 0 0 0 0 0 0 0 0 0 0 0 0 0 0 0 0 0 0 0 0 0 0 0 0 0 0 0 0 0 0 0 0 0 0 0 0 0 0 0 0 0 0 0 0 0 0 0 0 0 
0 0 0 0 0 0 0 0 0 0 0 0 0 0 0 0 0 0 0 0 0 0 0 0 0 0 0 0 0 0 0 0 0 0 0 0 0 0 0 0 0 0 0 0 0 0 0 0 0 0 0 0 0 0 0 0 0 0 0 0 0 0 0 0 0 0 0 0 0 0 0 0 0 0 0 0 0 0 0 0 0 0 0 0 0 0 0 0 0 0 0 0 0 0 0 0 0 0 0 0 0 0 0 0 0 0 0 0 0 0 0 0 0 0 0 0 0 0 0 0 0 0 0 0 0 0 0 0 0 0 0 0 0 0 0 0 0 0 0 0 0 0 0 0 0 0 0 0 0 0 0 0 0 0 0 0 0 0 0 0 0 0 0 0 0 0 0 0 0 0 0 0 0 0 0 0 0 0 0 0 0.0025539391208440065384 0.015323635190725326538 0.035755150020122528076 0.017877575010061264038 0.015323635190725326538 0.025539392605423927307 0.043416965752840042114 0.079172119498252868652 0.091941803693771362305 0.1072654426097869873 0.1506824195384979248 0.1506824195384979248 0.18388360738754272461 0.18643754720687866211 0.16345210373401641846 0.1532363593578338623 0.1481284797191619873 0.17622180283069610596 0.1225890815258026123 0.071510300040245056152 0.063848480582237243652 0.061294540762901306152 0.033201210200786590576 0.015323635190725326538 0.010215756483376026154 0.010215756483376026154 0.010215756483376026154 0.010215756483376026154 0.010215756483376026154 0.010215756483376026154 0.010215756483376026154 0.010215756483376026154 0.010215756483376026154 0.010215756483376026154 0.010215756483376026154 0.007661817595362663269 0.0025539391208440065384 0 0 0 0 0 0 0 0 0 0 0 0 0 0 0 0 0 0 0 0 0 0 0 0 0 0 0 0 0 0 0 0 0 0 0 0 0 0 0 0 0 0 0 0 0 0 0 0 0 0 0 0 0 0 0 0 0 0 0 0 0 0 0 0 0 0 0.21708482503890991211 1.8720372915267944336 4.1935682296752929688 2.3062069416046142578 0.69722539186477661133 0.20942300558090209961 0.16089816391468048096 0.29370301961898803711 0.25794786214828491211 0.37287509441375732422 0.87089323997497558594 1.3459259271621704102 1.1773658990859985352 0.29625692963600158691 0 0 0 0 0 0 0 0 0 0 0 0 0 0 0 0 0 0 0 0 0 0 0 0 0 0 0 0 0 0 0 0 0 0 0 0 0 0 0 0 0 0 0 0 0 0 0 0 0 0 0 0 0 0 0 0 0 0 0 0 0 0 0 0 0 0 0 0 0 0 0 0 0 0 0 0 0 0 0 0 0 0 0 0 0 0 0 0 0 0 0 0 0 0 0 0 0 0 0 0 0 0 0 0 0 0 0 0 0 0 0 0 0 0 0 0 0 0 0 0 0 0 0 0 0 0 0 0 0 0 0 0 0 0 0 0 0 0 0 0 0 0 0 0 0 0 0 0 0 0 0 0 0 0 0 0 0 0 0 0 0 0 0 0 0 0 0 0 0 0 0 0 0 0 
0 0 0 0 0 0 0 0 0 0 0 0 0 0 0 0 0 0 0 0 0 0 0 0 0 0 0 0 0 0 0 0 0 0 0 0 0 0 0 0 0 0 0 0 0 0 0 0 0 0 0 0 0 0 0 0 0 0 0 0 0 0 0 0 0 0 0 0 0 0 0 0 0 0 0 0 0 0 0 0 0 0 0 0 0 0 0 0 0 0 0 0 0 0 0 0 0 0 0 0 0 0 0 0 0 0 0 0 0 0 0 0 0 0 0 0 0 0 0 0 0 0 0 0 0 0 0 0 0 0 0 0 0 0 0 0 0 0 0 0 0 0 0 0 0 0 0 0 0 0 0 0 0 0 0 0 0 0 0 0 0 0 0 0 0 0 0 0 0 0 0 0 0 0 0 0 0.0025539391208440065384 0.007661817595362663269 0.010215756483376026154 0.012769696302711963654 0.025539392605423927307 0.053632721304893493652 0.058740600943565368652 0.048524845391511917114 0.068956352770328521729 0.1200351417064666748 0.14557452499866485596 0.18899150192737579346 0.19409938156604766846 0.19665332138538360596 0.21453088521957397461 0.19409938156604766846 0.17366786301136016846 0.1251430213451385498 0.097049690783023834229 0.11492726951837539673 0.13535876572132110596 0.1225890815258026123 0.061294540762901306152 0.017877575010061264038 0.010215756483376026154 0.007661817595362663269 0.0025539391208440065384 0 0 0 0 0 0 0 0 0 0 0 0 0 0 0 0 0 0 0 0 0 0 0 0 0 0 0 0 0 0 0 0 0 0 0 0 0 0 0 0 0 0 0 0 0 0 0 0 0 0 0 0 0 0 0 0 0 0 0 0 0 0 0 0 0 0 0 0 0 0 0 0 0 0 0 0 0 0 0 0 0.19409936666488647461 1.9282239675521850586 4.4310846328735351562 1.9103463888168334961 0.35499754548072814941 0.094495743513107299805 0.081726051867008209229 0.23496240377426147461 0.26305574178695678711 0.36521333456039428711 0.81981450319290161133 1.3867889642715454102 1.3791271448135375977 0.36776721477508544922 0 0 0 0 0 0 0 0 0 0 0 0 0 0 0 0 0 0 0 0 0 0 0 0 0 0 0 0 0 0 0 0 0 0 0 0 0 0 0 0 0 0 0 0 0 0 0 0 0 0 0 0 0 0 0 0 0 0 0 0 0 0 0 0 0 0 0 0 0 0 0 0 0 0 0 0 0 0 0 0 0 0 0 0 0 0 0 0 0 0 0 0 0 0 0 0 0 0 0 0 0 0 0 0 0 0 0 0 0 0 0 0 0 0 0 0 0 0 0 0 0 0 0 0 0 0 0 0 0 0 0 0 0 0 0 0 0 0 0 0 0 0 0 0 0 0 0 0 0 0 0 0 0 0 0 0 0 0 0 0 0 0 0 0 0 0 0 0 0 0 0 0 0 0 
0 0 0 0 0 0 0 0 0 0 0 0 0 0 0 0 0 0 0 0 0 0 0 0 0 0 0 0 0 0 0 0 0 0 0 0 0 0 0 0 0 0 0 0 0 0 0 0 0 0 0 0 0 0 0 0 0 0 0 0 0 0 0 0 0 0 0 0 0 0 0 0 0 0 0 0 0 0 0 0 0 0 0 0 0 0 0 0 0 0 0 0 0 0 0 0 0 0 0 0 0 0 0 0 0 0 0 0 0 0 0 0 0 0 0 0 0 0 0 0 0 0 0 0 0 0 0 0 0 0 0 0 0 0 0 0 0 0 0 0 0 0 0 0 0 0 0 0 0 0 0 0 0 0 0 0 0 0 0 0 0 0 0 0 0 0 0 0 0 0 0 0 0 0 0.0051078782416880130768 0.015323635190725326538 0.025539392605423927307 0.045970901846885681152 0.053632721304893493652 0.068956352770328521729 0.1072654426097869873 0.1302509009838104248 0.1251430213451385498 0.17622180283069610596 0.23240847885608673096 0.26050180196762084961 0.26560968160629272461 0.26305574178695678711 0.24007028341293334961 0.21453088521957397461 0.20176118612289428711 0.16600604355335235596 0.11492726951837539673 0.094495750963687896729 0.094495750963687896729 0.1174812018871307373 0.099603630602359771729 0.058740600943565368652 0.017877575010061264038 0.0025539391208440065384 0 0 0 0 0 0 0 0 0 0 0 0 0 0 0 0 0 0 0 0 0 0 0 0 0 0 0 0 0 0 0 0 0 0 0 0 0 0 0 0 0 0 0 0 0 0 0 0 0 0 0 0 0 0 0 0 0 0 0 0 0 0 0 0 0 0 0 0 0 0 0 0 0 0 0 0 0 0 0 0 0 0 0 0.20942300558090209961 1.9869647026062011719 4.5051484107971191406 1.6294132471084594727 0.1302509009838104248 0.025539390742778778076 0.045970909297466278076 0.1557902991771697998 0.1506824195384979248 0.25539392232894897461 0.71510297060012817383 1.4021126031875610352 1.6396290063858032227 0.46992477774620056152 0.010215756483376026154 0 0 0 0 0 0 0 0 0 0 0 0 0 0 0 0 0 0 0 0 0 0 0 0 0 0 0 0 0 0 0 0 0 0 0 0 0 0 0 0 0 0 0 0 0 0 0 0 0 0 0 0 0 0 0 0 0 0 0 0 0 0 0 0 0 0 0 0 0 0 0 0 0 0 0 0 0 0 0 0 0 0 0 0 0 0 0 0 0 0 0 0 0 0 0 0 0 0 0 0 0 0 0 0 0 0 0 0 0 0 0 0 0 0 0 0 0 0 0 0 0 0 0 0 0 0 0 0 0 0 0 0 0 0 0 0 0 0 0 0 0 0 0 0 0 0 0 0 0 0 0 0 0 0 0 0 0 0 0 0 0 0 0 0 0 0 0 0 0 0 0 0 0 
0 0 0 0 0 0 0 0 0 0 0 0 0 0 0 0 0 0 0 0 0 0 0 0 0 0 0 0 0 0 0 0 0 0 0 0 0 0 0 0 0 0 0 0 0 0 0 0 0 0 0 0 0 0 0 0 0 0 0 0 0 0 0 0 0 0 0 0 0 0 0 0 0 0 0 0 0 0 0 0 0 0 0 0 0 0 0 0 0 0 0 0 0 0 0 0 0 0 0 0 0 0 0 0 0 0 0 0 0 0 0 0 0 0 0 0 0 0 0 0 0 0 0 0 0 0 0 0 0 0 0 0 0 0 0 0 0 0 0 0 0 0 0 0 0 0 0 0 0 0 0 0 0 0 0 0 0 0 0 0 0 0 0 0 0 0 0 0 0 0 0 0.0025539391208440065384 0.007661817595362663269 0.012769696302711963654 0.030647270381450653076 0.079172119498252868652 0.094495750963687896729 0.099603630602359771729 0.1047115027904510498 0.1328048408031463623 0.17366786301136016846 0.1532363593578338623 0.1481284797191619873 0.22219271957874298096 0.22219270467758178711 0.18132968246936798096 0.16089816391468048096 0.1200351417064666748 0.1174812018871307373 0.094495743513107299805 0.081726051867008209229 0.058740600943565368652 0.058740600943565368652 0.053632721304893493652 0.061294540762901306152 0.081726051867008209229 0.053632721304893493652 0.015323635190725326538 0.0025539391208440065384 0 0 0 0 0 0 0 0 0 0 0 0 0 0 0 0 0 0 0 0 0 0 0 0 0 0 0 0 0 0 0 0 0 0 0 0 0 0 0 0 0 0 0 0 0 0 0 0 0 0 0 0 0 0 0 0 0 0 0 0 0 0 0 0 0 0 0 0 0 0 0 0 0 0 0 0 0 0 0 0 0 0 0 0 0.40607631206512451172 2.5156300067901611328 4.6583847999572753906 1.5451331138610839844 0.079172119498252868652 0.012769696302711963654 0.038309089839458465576 0.11492726951837539673 0.086833931505680084229 0.1302509009838104248 0.52866542339324951172 1.3408180475234985352 1.8516060113906860352 0.66402417421340942383 0.053632721304893493652 0 0 0 0 0 0 0 0 0 0 0 0 0 0 0 0 0 0 0 0 0 0 0 0 0 0 0 0 0 0 0 0 0 0 0 0 0 0 0 0 0 0 0 0 0 0 0 0 0 0 0 0 0 0 0 0 0 0 0 0 0 0 0 0 0 0 0 0 0 0 0 0 0 0 0 0 0 0 0 0 0 0 0 0 0 0 0 0 0 0 0 0 0 0 0 0 0 0 0 0 0 0 0 0 0 0 0 0 0 0 0 0 0 0 0 0 0 0 0 0 0 0 0 0 0 0 0 0 0 0 0 0 0 0 0 0 0 0 0 0 0 0 0 0 0 0 0 0 0 0 0 0 0 0 0 0 0 0 0 0 0 0 0 0 0 0 0 0 0 0 0 0 0 
0 0 0 0 0 0 0 0 0 0 0 0 0 0 0 0 0 0 0 0 0 0 0 0 0 0 0 0 0 0 0 0 0 0 0 0 0 0 0 0 0 0 0 0 0 0 0 0 0 0 0 0 0 0 0 0 0 0 0 0 0 0 0 0 0 0 0 0 0 0 0 0 0 0 0 0 0 0 0 0 0 0 0 0 0 0 0 0 0 0 0 0 0 0 0 0 0 0 0 0 0 0 0 0 0 0 0 0 0 0 0 0 0 0 0 0 0 0 0 0 0 0 0 0 0 0 0 0 0 0 0 0 0 0 0 0 0 0 0 0 0 0 0 0 0 0 0 0 0 0 0 0 0 0 0 0 0 0 0 0 0 0 0 0 0 0.0025539391208440065384 0.007661817595362663269 0.010215756483376026154 0.012769696302711963654 0.020431512966752052307 0.028093332424759864807 0.035755150020122528076 0.056186664849519729614 0.066402420401573181152 0.094495750963687896729 0.1276969611644744873 0.13535876572132110596 0.1302509009838104248 0.1302509009838104248 0.1276969611644744873 0.1225890815258026123 0.074064239859580993652 0.084279991686344146729 0.1532363593578338623 0.1149272620677947998 0.076618179678916931152 0.056186664849519729614 0.038309089839458465576 0.051078785210847854614 0.035755150020122528076 0.043416965752840042114 0.045970901846885681152 0.043416965752840042114 0.025539392605423927307 0.028093332424759864807 0.043416965752840042114 0.017877575010061264038 0.0025539391208440065384 0 0 0 0 0 0 0 0 0 0 0 0 0 0 0 0 0 0 0 0 0 0 0 0 0 0 0 0 0 0 0 0 0 0 0 0 0 0 0 0 0 0 0 0 0 0 0 0 0 0 0 0 0 0 0 0 0 0 0 0 0 0 0 0 0 0 0 0 0 0 0 0 0 0 0 0 0 0 0 0 0 0 0.0025539391208440065384 0.010215756483376026154 0.076618179678916931152 0.93729561567306518555 3.6878881454467773438 4.4898247718811035156 1.3025088310241699219 0.061294540762901306152 0.022985450923442840576 0.058740600943565368652 0.1047115027904510498 0.084279991686344146729 0.097049690783023834229 0.32179632782936096191 1.2080132961273193359 2.0457053184509277344 1.0573308467864990234 0.20942300558090209961 0.015323635190725326538 0 0 0 0 0 0 0 0 0 0 0 0 0 0 0 0 0 0 0 0 0 0 0 0 0 0 0 0 0 0 0 0 0 0 0 0 0 0 0 0 0 0 0 0 0 0 0 0 0 0 0 0 0 0 0 0 0 0 0 0 0 0 0 0 0 0 0 0 0 0 0 0 0 0 0 0 0 0 0 0 0 0 0 0 0 0 0 0 0 0 0 0 0 0 0 0 0 0 0 0 0 0 0 0 0 0 0 0 0 0 0 0 0 0 0 0 0 0 0 0 0 0 0 0 0 0 0 0 0 0 0 0 0 0 0 0 0 0 0 0 0 0 0 0 0 0 0 0 0 0 0 0 0 0 0 0 0 0 0 0 0 0 0 0 0 0 0 0 0 0 0 0 
0 0 0 0 0 0 0 0 0 0 0 0 0 0 0 0 0 0 0 0 0 0 0 0 0 0 0 0 0 0 0 0 0 0 0 0 0 0 0 0 0 0 0 0 0 0 0 0 0 0 0 0 0 0 0 0 0 0 0 0 0 0 0 0 0 0 0 0 0 0 0 0 0 0 0 0 0 0 0 0 0 0 0 0 0 0 0 0 0 0 0 0 0 0 0 0 0 0 0 0 0 0 0 0 0 0 0 0 0 0 0 0 0 0 0 0 0 0 0 0 0 0 0 0 0 0 0 0 0 0 0 0 0 0 0 0 0 0 0 0 0 0 0 0 0 0 0 0 0 0 0 0 0.0025539391208440065384 0.007661817595362663269 0.010215756483376026154 0.010215756483376026154 0.010215756483376026154 0.010215756483376026154 0.010215756483376026154 0.010215756483376026154 0.010215756483376026154 0.010215756483376026154 0.010215756483376026154 0.010215756483376026154 0.010215756483376026154 0.015323635190725326538 0.033201210200786590576 0.035755150020122528076 0.048524845391511917114 0.084279991686344146729 0.10726545006036758423 0.10726545006036758423 0.10981938987970352173 0.1174812018871307373 0.1276969611644744873 0.1276969611644744873 0.1353587806224822998 0.10215757042169570923 0.11492726951837539673 0.1302509009838104248 0.1174812018871307373 0.091941818594932556152 0.1149272620677947998 0.17366786301136016846 0.1123733222484588623 0.063848480582237243652 0.045970909297466278076 0.063848480582237243652 0.076618179678916931152 0.053632721304893493652 0.048524845391511917114 0.048524845391511917114 0.040863025933504104614 0.033201210200786590576 0.033201210200786590576 0.030647270381450653076 0.007661817595362663269 0 0 0 0 0 0 0 0 0 0 0 0 0 0 0 0 0 0 0 0 0 0 0 0 0 0 0 0 0 0 0 0 0 0 0 0 0 0 0 0 0 0 0 0 0 0 0 0 0 0 0 0 0 0 0 0 0 0 0 0 0 0 0 0 0 0 0 0 0 0 0 0 0 0 0 0 0 0 0 0 0 0 0 0.012769696302711963654 0.084279991686344146729 0.43672358989715576172 2.0508131980895996094 4.6098604202270507812 3.4886808395385742188 0.81215262413024902344 0.022985450923442840576 0.043416965752840042114 0.071510300040245056152 0.056186664849519729614 0.035755150020122528076 0.051078785210847854614 0.16600604355335235596 0.91175627708435058594 2.0712447166442871094 1.7341246604919433594 0.59506779909133911133 0.081726051867008209229 0 0 0 0 0 0 0 0 0 0 0 0 0 0 0 0 0 0 0 0 0 0 0 0 0 0 0 0 0 0 0 0 0 0 0 0 0 0 0 0 0 0 0 0 0 0 0 0 0 0 0 0 0 0 0 0 0 0 0 0 0 0 0 0 0 0 0 0 0 0 0 0 0 0 0 0 0 0 0 0 0 0 0 0 0 0 0 0 0 0 0 0 0 0 0 0 0 0 0 0 0 0 0 0 0 0 0 0 0 0 0 0 0 0 0 0 0 0 0 0 0 0 0 0 0 0 0 0 0 0 0 0 0 0 0 0 0 0 0 0 0 0 0 0 0 0 0 0 0 0 0 0 0 0 0 0 0 0 0 0 0 0 0 0 0 0 0 0 0 0 0 0 
0 0 0 0 0 0 0 0 0 0 0 0 0 0 0 0 0 0 0 0 0 0 0 0 0 0 0 0 0 0 0 0 0 0 0 0 0 0 0 0 0 0 0 0 0 0 0 0 0 0 0 0 0 0 0 0 0 0 0 0 0 0.0025539391208440065384 0.007661817595362663269 0.010215756483376026154 0.010215756483376026154 0.010215756483376026154 0.010215756483376026154 0.010215756483376026154 0.010215756483376026154 0.010215756483376026154 0.010215756483376026154 0.010215756483376026154 0.010215756483376026154 0.010215756483376026154 0.010215756483376026154 0.010215756483376026154 0.010215756483376026154 0.010215756483376026154 0.010215756483376026154 0.010215756483376026154 0.010215756483376026154 0.010215756483376026154 0.010215756483376026154 0.010215756483376026154 0.010215756483376026154 0.010215756483376026154 0.010215756483376026154 0.010215756483376026154 0.010215756483376026154 0.010215756483376026154 0.010215756483376026154 0.010215756483376026154 0.010215756483376026154 0.010215756483376026154 0.010215756483376026154 0.010215756483376026154 0.010215756483376026154 0.010215756483376026154 0.010215756483376026154 0.010215756483376026154 0.010215756483376026154 0.010215756483376026154 0.010215756483376026154 0.010215756483376026154 0.010215756483376026154 0.010215756483376026154 0.010215756483376026154 0.010215756483376026154 0.010215756483376026154 0.010215756483376026154 0.010215756483376026154 0.010215756483376026154 0.007661817595362663269 0.0025539391208440065384 0 0 0 0 0 0 0 0 0 0 0 0 0 0 0 0 0 0 0 0 0 0 0 0 0 0 0 0 0 0 0 0 0 0 0 0 0.0025539391208440065384 0.007661817595362663269 0.015323635190725326538 0.033201210200786590576 0.033201210200786590576 0.030647270381450653076 0.030647270381450653076 0.030647270381450653076 0.030647270381450653076 0.030647270381450653076 0.030647270381450653076 0.030647270381450653076 0.030647270381450653076 0.033201210200786590576 0.038309089839458465576 0.045970901846885681152 0.053632721304893493652 0.048524845391511917114 0.081726051867008209229 0.1328048408031463623 0.1225890815258026123 0.10215757042169570923 0.1098193824291229248 0.1276969611644744873 0.1532363593578338623 0.16600604355335235596 0.1532363593578338623 0.1302509009838104248 0.1404666602611541748 0.1225890815258026123 0.099603630602359771729 0.11492726951837539673 0.1506824195384979248 0.17111392319202423096 0.1174812018871307373 0.089387871325016021729 0.099603630602359771729 0.099603630602359771729 0.076618179678916931152 0.048524845391511917114 0.040863025933504104614 0.035755150020122528076 0.015323635190725326538 0.010215756483376026154 0.010215756483376026154 0.007661817595362663269 0.0025539391208440065384 0 0 0 0 0 0 0 0 0 0 0 0 0 0 0 0 0 0 0 0 0 0 0 0 0 0 0 0 0 0 0 0 0 0 0 0 0 0 0 0 0 0 0 0 0 0 0 0 0 0 0 0 0 0 0 0 0 0 0 0 0 0 0 0 0 0 0 0 0 0 0 0 0 0 0 0 0 0 0 0 0 0 0 0.028093332424759864807 0.24007028341293334961 1.1492725610733032227 3.3175671100616455078 4.5255799293518066406 2.2653439044952392578 0.39841449260711669922 0.017877575010061264038 0.051078785210847854614 0.051078785210847854614 0.017877575010061264038 0.010215756483376026154 0.030647270381450653076 0.089387871325016021729 0.51844966411590576172 1.5527950525283813477 2.0508131980895996094 1.1084095239639282227 0.20942299067974090576 0 0 0 0 0 0 0 0 0 0 0 0 0 0 0 0 0 0 0 0 0 0 0 0 0 0 0 0 0 0 0 0 0 0 0 0 0 0 0 0 0 0 0 0 0 0 0 0 0 0 0 0 0 0 0 0 0 0 0 0 0 0 0 0 0 0 0 0 0 0 0 0 0 0 0 0 0 0 0 0 0 0 0 0 0 0 0 0 0 0 0 0 0 0 0 0 0 0 0 0 0 0 0 0 0 0 0 0 0 0 0 0 0 0 0 0 0 0 0 0 0 0 0 0 0 0 0 0 0 0 0 0 0 0 0 0 0 0 0 0 0 0 0 0 0 0 0 0 0 0 0 0 0 0 0 0 0 0 0 0 0 0 0 0 0 0 0 0 0 0 0 0 
0 0 0 0 0 0 0 0 0 0 0 0 0 0 0 0 0 0 0 0 0 0 0 0 0 0 0 0 0 0 0 0 0 0 0 0 0 0 0 0 0 0 0 0 0 0 0 0 0 0 0 0 0 0 0 0 0 0.0025539391208440065384 0.007661817595362663269 0.010215756483376026154 0.010215756483376026154 0.015323635190725326538 0.033201210200786590576 0.033201210200786590576 0.030647270381450653076 0.030647270381450653076 0.030647270381450653076 0.030647270381450653076 0.030647270381450653076 0.030647270381450653076 0.030647270381450653076 0.030647270381450653076 0.030647270381450653076 0.030647270381450653076 0.030647270381450653076 0.030647270381450653076 0.030647270381450653076 0.030647270381450653076 0.030647270381450653076 0.030647270381450653076 0.030647270381450653076 0.030647270381450653076 0.030647270381450653076 0.030647270381450653076 0.030647270381450653076 0.030647270381450653076 0.030647270381450653076 0.030647270381450653076 0.030647270381450653076 0.030647270381450653076 0.030647270381450653076 0.030647270381450653076 0.030647270381450653076 0.030647270381450653076 0.030647270381450653076 0.030647270381450653076 0.030647270381450653076 0.030647270381450653076 0.030647270381450653076 0.030647270381450653076 0.030647270381450653076 0.030647270381450653076 0.030647270381450653076 0.030647270381450653076 0.030647270381450653076 0.030647270381450653076 0.030647270381450653076 0.030647270381450653076 0.030647270381450653076 0.030647270381450653076 0.030647270381450653076 0.033201210200786590576 0.030647270381450653076 0.007661817595362663269 0 0 0 0 0 0 0 0 0 0 0 0 0 0 0 0 0 0 0 0 0 0 0 0 0 0 0 0 0 0 0 0 0 0 0 0.0025539391208440065384 0.012769696302711963654 0.035755150020122528076 0.043416965752840042114 0.043416965752840042114 0.025539392605423927307 0.020431512966752052307 0.020431512966752052307 0.020431512966752052307 0.022985450923442840576 0.030647270381450653076 0.038309089839458465576 0.040863025933504104614 0.040863025933504104614 0.048524845391511917114 0.074064239859580993652 0.086833931505680084229 0.1098193824291229248 0.1302509009838104248 0.1455745398998260498 0.16855998337268829346 0.1430206000804901123 0.13791270554065704346 0.18132968246936798096 0.21197694540023803711 0.22730058431625366211 0.18899148702621459961 0.1583442389965057373 0.1583442389965057373 0.1583442389965057373 0.1302509009838104248 0.1200351417064666748 0.1302509009838104248 0.1404666602611541748 0.1302509009838104248 0.089387871325016021729 0.058740600943565368652 0.053632721304893493652 0.033201210200786590576 0.020431512966752052307 0.012769696302711963654 0.010215756483376026154 0.007661817595362663269 0.0025539391208440065384 0 0 0 0 0 0 0 0 0 0 0 0 0 0 0 0 0 0 0 0 0 0 0 0 0 0 0 0 0 0 0 0 0 0 0 0 0 0 0 0 0 0 0 0 0 0 0 0 0 0 0 0 0 0 0 0 0 0 0 0 0 0 0 0 0 0 0 0 0 0 0 0 0 0 0 0 0 0 0 0 0 0 0 0 0 0 0.0025539391208440065384 0.063848480582237243652 0.45460116863250732422 1.8567137718200683594 3.9381742477416992188 3.5780687332153320312 1.2693078517913818359 0.16600604355335235596 0.045970901846885681152 0.068956352770328521729 0.040863025933504104614 0.007661817595362663269 0.0025539391208440065384 0.007661817595362663269 0.028093330562114715576 0.22474664449691772461 0.96794295310974121094 1.9435477256774902344 1.5936580896377563477 0.39330661296844482422 0.007661817595362663269 0 0 0 0 0 0 0 0 0 0 0 0 0 0 0 0 0 0 0 0 0 0 0 0 0 0 0 0 0 0 0 0 0 0 0 0 0 0 0 0 0 0 0 0 0 0 0 0 0 0 0 0 0 0 0 0 0 0 0 0 0 0 0 0 0 0 0 0 0 0 0 0 0 0 0 0 0 0 0 0 0 0 0 0 0 0 0 0 0 0 0 0 0 0 0 0 0 0 0 0 0 0 0 0 0 0 0 0 0 0 0 0 0 0 0 0 0 0 0 0 0 0 0 0 0 0 0 0 0 0 0 0 0 0 0 0 0 0 0 0 0 0 0 0 0 0 0 0 0 0 0 0 0 0 0 0 0 0 0 0 0 0 0 0 0 0 0 0 0 0 0 
0 0 0 0 0 0 0 0 0 0 0 0 0 0 0 0 0 0 0 0 0 0 0 0 0 0 0 0 0 0 0 0 0 0 0 0 0 0 0 0 0 0 0 0 0 0 0 0 0 0 0 0.0025539391208440065384 0.007661817595362663269 0.010215756483376026154 0.010215756483376026154 0.010215756483376026154 0.010215756483376026154 0.015323635190725326538 0.033201210200786590576 0.033201210200786590576 0.030647270381450653076 0.033201210200786590576 0.033201210200786590576 0.015323635190725326538 0.010215756483376026154 0.010215756483376026154 0.010215756483376026154 0.010215756483376026154 0.010215756483376026154 0.010215756483376026154 0.010215756483376026154 0.010215756483376026154 0.010215756483376026154 0.010215756483376026154 0.010215756483376026154 0.010215756483376026154 0.010215756483376026154 0.010215756483376026154 0.010215756483376026154 0.010215756483376026154 0.010215756483376026154 0.010215756483376026154 0.010215756483376026154 0.010215756483376026154 0.010215756483376026154 0.010215756483376026154 0.010215756483376026154 0.010215756483376026154 0.010215756483376026154 0.010215756483376026154 0.010215756483376026154 0.010215756483376026154 0.010215756483376026154 0.010215756483376026154 0.010215756483376026154 0.010215756483376026154 0.010215756483376026154 0.010215756483376026154 0.010215756483376026154 0.010215756483376026154 0.010215756483376026154 0.010215756483376026154 0.010215756483376026154 0.010215756483376026154 0.010215756483376026154 0.010215756483376026154 0.010215756483376026154 0.010215756483376026154 0.010215756483376026154 0.010215756483376026154 0.010215756483376026154 0.017877575010061264038 0.035755150020122528076 0.015323635190725326538 0.0025539391208440065384 0 0 0 0 0 0 0 0 0 0 0 0 0 0 0 0 0 0 0 0 0 0 0 0 0 0 0 0 0 0 0.0025539391208440065384 0.007661817595362663269 0.010215756483376026154 0.012769696302711963654 0.025539392605423927307 0.053632721304893493652 0.063848480582237243652 0.066402420401573181152 0.061294540762901306152 0.053632721304893493652 0.051078785210847854614 0.056186664849519729614 0.066402420401573181152 0.076618179678916931152 0.099603630602359771729 0.1174812018871307373 0.11492726951837539673 0.11237332969903945923 0.1225890815258026123 0.1506824195384979248 0.1557902991771697998 0.16089816391468048096 0.17111392319202423096 0.16600604355335235596 0.17111392319202423096 0.1302509009838104248 0.1302509009838104248 0.1557902991771697998 0.1328048408031463623 0.1174812018871307373 0.084279991686344146729 0.076618179678916931152 0.099603630602359771729 0.1098193824291229248 0.081726051867008209229 0.076618179678916931152 0.094495750963687896729 0.089387871325016021729 0.058740600943565368652 0.025539392605423927307 0.012769696302711963654 0.007661817595362663269 0.0025539391208440065384 0 0 0 0 0 0 0 0 0 0 0 0 0 0 0 0 0 0 0 0 0 0 0 0 0 0 0 0 0 0 0 0 0 0 0 0 0 0 0 0 0 0 0 0 0 0 0 0 0 0 0 0 0 0 0 0 0 0 0 0 0 0 0 0 0 0 0 0 0 0 0 0 0 0 0 0 0 0 0 0 0 0 0 0 0 0 0 0 0 0 0 0.020431512966752052307 0.16855998337268829346 0.81726056337356567383 2.4747669696807861328 4.0556554794311523438 2.5360617637634277344 0.61805331707000732422 0.063848480582237243652 0.066402420401573181152 0.051078785210847854614 0.015323635190725326538 0.0025539391208440065384 0 0 0.007661817595362663269 0.097049683332443237305 0.57208234071731567383 1.6907076835632324219 2.0635828971862792969 0.68956357240676879883 0.058740600943565368652 0 0 0 0 0 0 0 0 0 0 0 0 0 0 0 0 0 0 0 0 0 0 0 0 0 0 0 0 0 0 0 0 0 0 0 0 0 0 0 0 0 0 0 0 0 0 0 0 0 0 0 0 0 0 0 0 0 0 0 0 0 0 0 0 0 0 0 0 0 0 0 0 0 0 0 0 0 0 0 0 0 0 0 0 0 0 0 0 0 0 0 0 0 0 0 0 0 0 0 0 0 0 0 0 0 0 0 0 0 0 0 0 0 0 0 0 0 0 0 0 0 0 0 0 0 0 0 0 0 0 0 0 0 0 0 0 0 0 0 0 0 0 0 0 0 0 0 0 0 0 0 0 0 0 0 0 0 0 0 0 0 0 0 0 0 0 0 0 0 0 0 
0 0 0 0 0 0 0 0 0 0 0 0 0 0 0 0 0 0 0 0 0 0 0 0 0 0 0 0 0 0 0 0 0 0 0 0 0 0 0 0 0 0 0 0 0 0 0 0 0 0.0025539391208440065384 0.007661817595362663269 0.015323635190725326538 0.033201210200786590576 0.033201210200786590576 0.030647270381450653076 0.030647270381450653076 0.030647270381450653076 0.033201210200786590576 0.033201210200786590576 0.015323635190725326538 0.010215756483376026154 0.010215756483376026154 0.007661817595362663269 0.0025539391208440065384 0 0 0 0 0 0 0 0 0 0 0 0 0 0 0 0 0 0 0 0 0 0 0 0 0 0 0 0 0 0 0 0 0 0 0 0 0 0 0 0 0 0 0 0 0 0 0 0.007661817595362663269 0.033201210200786590576 0.035755150020122528076 0.012769696302711963654 0.0025539391208440065384 0 0 0 0 0 0 0 0 0 0 0 0 0 0 0 0 0 0 0 0 0 0 0 0 0 0 0 0.0025539391208440065384 0.007661817595362663269 0.017877575010061264038 0.043416965752840042114 0.051078785210847854614 0.056186664849519729614 0.084279991686344146729 0.1072654426097869873 0.094495750963687896729 0.099603630602359771729 0.079172119498252868652 0.071510300040245056152 0.071510300040245056152 0.086833931505680084229 0.1328048408031463623 0.14046664535999298096 0.13791270554065704346 0.1225890815258026123 0.1047115027904510498 0.1047115027904510498 0.1174812018871307373 0.1430206000804901123 0.1302509009838104248 0.1174812018871307373 0.1481284797191619873 0.1481284797191619873 0.13535876572132110596 0.11492726951837539673 0.1302509009838104248 0.1328048408031463623 0.1174812018871307373 0.097049690783023834229 0.076618179678916931152 0.094495750963687896729 0.099603630602359771729 0.076618179678916931152 0.048524845391511917114 0.043416965752840042114 0.043416965752840042114 0.022985450923442840576 0.010215756483376026154 0.0025539391208440065384 0 0 0 0 0 0 0 0 0 0 0 0 0 0 0 0 0 0 0 0 0 0 0 0 0 0 0 0 0 0 0 0 0 0 0 0 0 0 0 0 0 0 0 0 0 0 0 0 0 0 0 0 0 0 0 0 0 0 0 0 0 0 0 0 0 0 0 0 0 0 0 0 0 0 0 0 0 0 0 0 0 0 0 0 0 0 0 0 0 0 0 0 0 0.012769695371389389038 0.084279991686344146729 0.36265936493873596191 1.1416107416152954102 2.8501961231231689453 3.8181388378143310547 1.7009234428405761719 0.25794786214828491211 0.028093332424759864807 0.063848480582237243652 0.025539392605423927307 0.0025539391208440065384 0 0 0 0.0025539391208440065384 0.022985450923442840576 0.23496238887310028076 1.1875816583633422852 2.2500202655792236328 1.1850277185440063477 0.23496238887310028076 0.020431512966752052307 0 0 0 0 0 0 0 0 0 0 0 0 0 0 0 0 0 0 0 0 0 0 0 0 0 0 0 0 0 0 0 0 0 0 0 0 0 0 0 0 0 0 0 0 0 0 0 0 0 0 0 0 0 0 0 0 0 0 0 0 0 0 0 0 0 0 0 0 0 0 0 0 0 0 0 0 0 0 0 0 0 0 0 0 0 0 0 0 0 0 0 0 0 0 0 0 0 0 0 0 0 0 0 0 0 0 0 0 0 0 0 0 0 0 0 0 0 0 0 0 0 0 0 0 0 0 0 0 0 0 0 0 0 0 0 0 0 0 0 0 0 0 0 0 0 0 0 0 0 0 0 0 0 0 0 0 0 0 0 0 0 0 0 0 0 0 0 0 0 0 
0 0 0 0 0 0 0 0 0 0 0 0 0 0 0 0 0 0 0 0 0 0 0 0 0 0 0 0 0 0 0 0 0 0 0 0 0 0 0 0 0 0 0 0 0 0 0 0 0.0025539391208440065384 0.012769696302711963654 0.033201210200786590576 0.035755150020122528076 0.033201210200786590576 0.015323635190725326538 0.010215756483376026154 0.010215756483376026154 0.010215756483376026154 0.010215756483376026154 0.007661817595362663269 0.0025539391208440065384 0 0 0 0 0 0 0 0 0 0 0 0 0 0 0 0 0 0 0 0 0 0 0 0 0 0 0 0 0 0 0 0 0 0 0 0 0 0 0 0 0 0 0 0 0 0 0 0 0 0 0 0.0025539391208440065384 0.012769696302711963654 0.035755150020122528076 0.035755150020122528076 0.012769696302711963654 0.0025539391208440065384 0 0 0 0 0 0 0 0 0 0 0 0 0 0 0 0 0 0 0 0 0 0.0025539391208440065384 0.007661817595362663269 0.010215756483376026154 0.010215756483376026154 0.012769696302711963654 0.022985450923442840576 0.045970901846885681152 0.061294540762901306152 0.089387871325016021729 0.091941818594932556152 0.086833931505680084229 0.091941818594932556152 0.089387871325016021729 0.063848480582237243652 0.051078785210847854614 0.028093332424759864807 0.022985450923442840576 0.030647270381450653076 0.053632721304893493652 0.091941803693771362305 0.058740600943565368652 0.045970909297466278076 0.051078785210847854614 0.071510300040245056152 0.079172119498252868652 0.099603630602359771729 0.11492726951837539673 0.1302509009838104248 0.1276969611644744873 0.1302509009838104248 0.10981938987970352173 0.081726051867008209229 0.091941818594932556152 0.099603630602359771729 0.097049690783023834229 0.071510300040245056152 0.043416965752840042114 0.040863025933504104614 0.056186664849519729614 0.035755150020122528076 0.020431512966752052307 0.012769696302711963654 0.010215756483376026154 0.007661817595362663269 0.0025539391208440065384 0 0 0 0 0 0 0 0 0 0 0 0 0 0 0 0 0 0 0 0 0 0 0 0 0 0 0 0 0 0 0 0 0 0 0 0 0 0 0 0 0 0 0 0 0 0 0 0 0 0 0 0 0 0 0 0 0 0 0 0 0 0 0 0 0 0 0 0 0 0 0 0 0 0 0 0 0 0 0 0 0 0 0 0 0 0 0 0 0 0 0 0 0 0 0.010215756483376026154 0.071510292589664459229 0.25283995270729064941 0.52866542339324951172 1.3510338068008422852 3.0442953109741210938 3.3558759689331054688 1.1416107416152954102 0.1021575629711151123 0.020431512966752052307 0.061294540762901306152 0.020431512966752052307 0 0 0 0 0 0 0.084279991686344146729 0.74319630861282348633 2.0227198600769042969 1.7775416374206542969 0.68700963258743286133 0.13535876572132110596 0.015323635190725326538 0 0 0 0 0 0 0 0 0 0 0 0 0 0 0 0 0 0 0 0 0 0 0 0 0 0 0 0 0 0 0 0 0 0 0 0 0 0 0 0 0 0 0 0 0 0 0 0 0 0 0 0 0 0 0 0 0 0 0 0 0 0 0 0 0 0 0 0 0 0 0 0 0 0 0 0 0 0 0 0 0 0 0 0 0 0 0 0 0 0 0 0 0 0 0 0 0 0 0 0 0 0 0 0 0 0 0 0 0 0 0 0 0 0 0 0 0 0 0 0 0 0 0 0 0 0 0 0 0 0 0 0 0 0 0 0 0 0 0 0 0 0 0 0 0 0 0 0 0 0 0 0 0 0 0 0 0 0 0 0 0 0 0 0 0 0 0 0 0 
0 0 0 0 0 0 0 0 0 0 0 0 0 0 0 0 0 0 0 0 0 0 0 0 0 0 0 0 0 0 0 0 0 0 0 0 0 0 0 0 0 0 0 0 0 0 0 0 0.007661817595362663269 0.033201210200786590576 0.035755150020122528076 0.015323635190725326538 0.007661817595362663269 0.0025539391208440065384 0 0 0 0 0 0 0 0 0 0 0 0 0 0 0 0 0 0 0 0 0 0 0 0 0 0 0 0 0 0 0 0 0 0 0 0 0 0 0 0 0 0 0 0 0 0 0 0 0 0 0 0 0 0 0 0 0 0 0.0025539391208440065384 0.012769696302711963654 0.035755150020122528076 0.033201210200786590576 0.007661817595362663269 0 0 0 0 0 0 0 0 0 0 0 0 0.0025539391208440065384 0.007661817595362663269 0.010215756483376026154 0.010215756483376026154 0.010215756483376026154 0.010215756483376026154 0.010215756483376026154 0.010215756483376026154 0.010215756483376026154 0.015323635190725326538 0.035755150020122528076 0.040863025933504104614 0.043416965752840042114 0.053632721304893493652 0.076618179678916931152 0.084279991686344146729 0.094495750963687896729 0.10981938987970352173 0.084279991686344146729 0.056186664849519729614 0.051078785210847854614 0.043416965752840042114 0.017877575010061264038 0.010215756483376026154 0.010215756483376026154 0.020431512966752052307 0.053632721304893493652 0.081726051867008209229 0.079172119498252868652 0.048524845391511917114 0.061294540762901306152 0.076618179678916931152 0.10981938987970352173 0.094495750963687896729 0.091941803693771362305 0.1072654426097869873 0.1251430213451385498 0.097049690783023834229 0.10215757042169570923 0.091941818594932556152 0.068956352770328521729 0.068956352770328521729 0.068956352770328521729 0.061294540762901306152 0.048524845391511917114 0.035755150020122528076 0.033201210200786590576 0.030647270381450653076 0.007661817595362663269 0 0 0 0 0 0 0 0 0 0 0 0 0 0 0 0 0 0 0 0 0 0 0 0 0 0 0 0 0 0 0 0 0 0 0 0 0 0 0 0 0 0 0 0 0 0 0 0 0 0 0 0 0 0 0 0 0 0 0 0 0 0 0 0 0 0 0 0 0 0 0 0 0 0 0 0 0 0 0 0 0 0 0 0 0 0 0 0 0 0 0 0 0 0 0 0 0 0 0.0051078782416880130768 0.048524845391511917114 0.20431514084339141846 0.40096843242645263672 0.61039143800735473633 1.6243053674697875977 3.4503717422485351562 3.0034322738647460938 0.84790778160095214844 0.051078781485557556152 0.020431512966752052307 0.061294540762901306152 0.020431512966752052307 0 0 0 0 0 0 0.038309089839458465576 0.44693934917449951172 1.5170397758483886719 2.0814604759216308594 1.2846313714981079102 0.45970907807350158691 0.097049690783023834229 0.010215756483376026154 0 0 0 0 0 0 0 0 0 0 0 0 0 0 0 0 0 0 0 0 0 0 0 0 0 0 0 0 0 0 0 0 0 0 0 0 0 0 0 0 0 0 0 0 0 0 0 0 0 0 0 0 0 0 0 0 0 0 0 0 0 0 0 0 0 0 0 0 0 0 0 0 0 0 0 0 0 0 0 0 0 0 0 0 0 0 0 0 0 0 0 0 0 0 0 0 0 0 0 0 0 0 0 0 0 0 0 0 0 0 0 0 0 0 0 0 0 0 0 0 0 0 0 0 0 0 0 0 0 0 0 0 0 0 0 0 0 0 0 0 0 0 0 0 0 0 0 0 0 0 0 0 0 0 0 0 0 0 0 0 0 0 0 0 0 0 0 0 
0 0 0 0 0 0 0 0 0 0 0 0 0 0 0 0 0 0 0 0 0 0 0 0 0 0 0 0 0 0 0 0 0 0 0 0 0 0 0 0 0 0 0 0 0 0 0 0 0.010215756483376026154 0.033201210200786590576 0.015323635190725326538 0.0025539391208440065384 0 0 0 0 0 0 0 0 0 0 0 0 0 0 0 0 0 0 0 0 0 0 0 0 0 0 0 0 0 0 0 0 0 0 0 0 0 0 0 0 0 0 0 0 0 0 0 0 0 0 0 0 0 0 0 0 0 0 0 0 0 0.0025539391208440065384 0.015323635190725326538 0.035755150020122528076 0.017877575010061264038 0.010215756483376026154 0.010215756483376026154 0.010215756483376026154 0.010215756483376026154 0.010215756483376026154 0.010215756483376026154 0.010215756483376026154 0.010215756483376026154 0.012769696302711963654 0.017877575010061264038 0.020431512966752052307 0.020431512966752052307 0.028093332424759864807 0.053632721304893493652 0.061294540762901306152 0.063848480582237243652 0.068956352770328521729 0.071510300040245056152 0.071510300040245056152 0.071510300040245056152 0.071510300040245056152 0.076618179678916931152 0.086833931505680084229 0.089387871325016021729 0.089387871325016021729 0.1072654426097869873 0.1072654426097869873 0.091941818594932556152 0.10215757042169570923 0.079172119498252868652 0.045970909297466278076 0.033201210200786590576 0.030647270381450653076 0.028093332424759864807 0.022985450923442840576 0.028093332424759864807 0.056186664849519729614 0.084279991686344146729 0.1302509009838104248 0.1174812018871307373 0.099603630602359771729 0.1302509009838104248 0.1430206000804901123 0.1251430213451385498 0.11492726951837539673 0.074064239859580993652 0.068956352770328521729 0.099603630602359771729 0.1098193824291229248 0.099603630602359771729 0.086833931505680084229 0.068956352770328521729 0.076618179678916931152 0.074064239859580993652 0.066402420401573181152 0.045970901846885681152 0.035755150020122528076 0.015323635190725326538 0.010215756483376026154 0.007661817595362663269 0.0025539391208440065384 0 0 0 0 0 0 0 0 0 0 0 0 0 0 0 0 0 0 0 0 0 0 0 0 0 0 0 0 0 0 0 0 0 0 0 0 0 0 0 0 0 0 0 0 0 0 0 0 0 0 0 0 0 0 0 0 0 0 0 0 0 0 0 0 0 0 0 0 0 0 0 0 0 0 0 0 0 0 0 0 0 0 0 0 0 0 0 0 0 0 0 0 0 0 0 0 0.0025539391208440065384 0.010215756483376026154 0.033201210200786590576 0.1251430213451385498 0.28604117035865783691 0.39330661296844482422 0.74830412864685058594 2.0840144157409667969 3.6546871662139892578 2.4007027149200439453 0.58740597963333129883 0.033201210200786590576 0.020431512966752052307 0.061294540762901306152 0.020431512966752052307 0 0 0 0 0 0 0.015323635190725326538 0.19665332138538360596 0.86578536033630371094 1.7622179985046386719 1.5987659692764282227 0.91686415672302246094 0.33456602692604064941 0.066402420401573181152 0.0051078782416880130768 0 0 0 0 0 0 0 0 0 0 0 0 0 0 0 0 0 0 0 0 0 0 0 0 0 0 0 0 0 0 0 0 0 0 0 0 0 0 0 0 0 0 0 0 0 0 0 0 0 0 0 0 0 0 0 0 0 0 0 0 0 0 0 0 0 0 0 0 0 0 0 0 0 0 0 0 0 0 0 0 0 0 0 0 0 0 0 0 0 0 0 0 0 0 0 0 0 0 0 0 0 0 0 0 0 0 0 0 0 0 0 0 0 0 0 0 0 0 0 0 0 0 0 0 0 0 0 0 0 0 0 0 0 0 0 0 0 0 0 0 0 0 0 0 0 0 0 0 0 0 0 0 0 0 0 0 0 0 0 0 0 0 0 0 0 0 0 
0 0 0 0 0 0 0 0 0 0 0 0 0 0 0 0 0 0 0 0 0 0 0 0 0 0 0 0 0 0 0 0 0 0 0 0 0 0 0 0 0 0 0 0 0 0 0 0.0025539391208440065384 0.015323635190725326538 0.033201210200786590576 0.010215756483376026154 0 0 0 0 0 0 0 0 0 0 0 0 0 0 0 0 0 0 0 0 0 0 0 0 0 0 0 0 0 0 0 0 0 0 0 0 0 0 0 0 0 0 0 0 0 0 0 0 0 0 0 0 0 0 0 0 0 0 0 0 0 0 0 0.007661817595362663269 0.030647270381450653076 0.033201210200786590576 0.030647270381450653076 0.030647270381450653076 0.030647270381450653076 0.030647270381450653076 0.030647270381450653076 0.030647270381450653076 0.030647270381450653076 0.030647270381450653076 0.038309089839458465576 0.061294540762901306152 0.066402420401573181152 0.068956352770328521729 0.084279991686344146729 0.1200351417064666748 0.1302509009838104248 0.1302509009838104248 0.1455745398998260498 0.1455745398998260498 0.1430206000804901123 0.1430206000804901123 0.1481284797191619873 0.16345210373401641846 0.18643754720687866211 0.18132968246936798096 0.16089816391468048096 0.1557902991771697998 0.13535876572132110596 0.1276969611644744873 0.1225890815258026123 0.097049690783023834229 0.084279991686344146729 0.081726051867008209229 0.081726051867008209229 0.086833931505680084229 0.097049690783023834229 0.1123733222484588623 0.1455745398998260498 0.17622180283069610596 0.18643754720687866211 0.1506824195384979248 0.16089816391468048096 0.16345210373401641846 0.1225890815258026123 0.089387871325016021729 0.076618179678916931152 0.068956352770328521729 0.076618179678916931152 0.1072654426097869873 0.1200351417064666748 0.086833931505680084229 0.053632721304893493652 0.045970901846885681152 0.043416965752840042114 0.025539392605423927307 0.017877575010061264038 0.012769696302711963654 0.007661817595362663269 0.0025539391208440065384 0 0 0 0 0 0 0 0 0 0 0 0 0 0 0 0 0 0 0 0 0 0 0 0 0 0 0 0 0 0 0 0 0 0 0 0 0 0 0 0 0 0 0 0 0 0 0 0 0 0 0 0 0 0 0 0 0 0 0 0 0 0 0 0 0 0 0 0 0 0 0 0 0 0 0 0 0 0 0 0 0 0 0 0 0 0 0 0 0 0 0 0 0 0 0 0 0 0 0 0.007661817595362663269 0.045970901846885681152 0.1047115027904510498 0.18388360738754272461 0.25283998250961303711 0.38564479351043701172 0.99348235130310058594 2.5283999443054199219 3.5397596359252929688 1.8516058921813964844 0.37287509441375732422 0.020431512966752052307 0.020431512966752052307 0.061294540762901306152 0.020431512966752052307 0 0 0 0 0 0 0.0025539391208440065384 0.074064239859580993652 0.50312602519989013672 1.2897392511367797852 1.5400252342224121094 1.2309987545013427734 0.69211751222610473633 0.21197694540023803711 0.030647270381450653076 0.0025539391208440065384 0 0 0 0 0 0 0 0 0 0 0 0 0 0 0 0 0 0 0 0 0 0 0 0 0 0 0 0 0 0 0 0 0 0 0 0 0 0 0 0 0 0 0 0 0 0 0 0 0 0 0 0 0 0 0 0 0 0 0 0 0 0 0 0 0 0 0 0 0 0 0 0 0 0 0 0 0 0 0 0 0 0 0 0 0 0 0 0 0 0 0 0 0 0 0 0 0 0 0 0 0 0 0 0 0 0 0 0 0 0 0 0 0 0 0 0 0 0 0 0 0 0 0 0 0 0 0 0 0 0 0 0 0 0 0 0 0 0 0 0 0 0 0 0 0 0 0 0 0 0 0 0 0 0 0 0 0 0 0 0 0 0 0 0 0 0 
0 0 0 0 0 0 0 0 0 0 0 0 0 0 0 0 0 0 0 0 0 0 0 0 0 0 0 0 0 0 0 0 0 0 0 0 0 0 0 0 0 0 0 0 0 0.0025539391208440065384 0.007661817595362663269 0.015323635190725326538 0.035755150020122528076 0.033201210200786590576 0.007661817595362663269 0 0 0 0 0 0 0 0 0 0 0 0 0 0 0 0 0 0 0 0 0 0 0 0 0 0 0 0 0 0 0 0 0 0 0 0 0 0 0 0 0 0 0 0 0 0 0 0 0 0 0 0 0 0 0 0 0 0 0 0 0 0 0 0.0025539391208440065384 0.007661817595362663269 0.010215756483376026154 0.010215756483376026154 0.010215756483376026154 0.010215756483376026154 0.010215756483376026154 0.010215756483376026154 0.010215756483376026154 0.012769696302711963654 0.020431512966752052307 0.040863025933504104614 0.074064239859580993652 0.071510300040245056152 0.086833931505680084229 0.1047115027904510498 0.1455745398998260498 0.1404666602611541748 0.11237332969903945923 0.1047115027904510498 0.089387871325016021729 0.089387871325016021729 0.091941803693771362305 0.10215757042169570923 0.1404666602611541748 0.14046664535999298096 0.1149272620677947998 0.1047115027904510498 0.099603630602359771729 0.094495750963687896729 0.091941818594932556152 0.089387871325016021729 0.084279991686344146729 0.081726051867008209229 0.081726051867008209229 0.081726051867008209229 0.099603630602359771729 0.1532363593578338623 0.17622180283069610596 0.20176118612289428711 0.18899148702621459961 0.1455745398998260498 0.1328048408031463623 0.1404666602611541748 0.11492726951837539673 0.094495750963687896729 0.084279991686344146729 0.081726051867008209229 0.086833931505680084229 0.10726545006036758423 0.10981938987970352173 0.081726051867008209229 0.030647270381450653076 0.012769696302711963654 0.010215756483376026154 0.007661817595362663269 0.0025539391208440065384 0 0 0 0 0 0 0 0 0 0 0 0 0 0 0 0 0 0 0 0 0 0 0 0 0 0 0 0 0 0 0 0 0 0 0 0 0 0 0 0 0 0 0 0 0 0 0 0 0 0 0 0 0 0 0 0 0 0 0 0 0 0 0 0 0 0 0 0 0 0 0 0 0 0 0 0 0 0 0 0 0 0 0 0 0 0 0 0 0 0 0 0 0 0 0 0 0 0 0 0 0 0 0 0.010215756483376026154 0.066402420401573181152 0.1557902991771697998 0.17622180283069610596 0.19154544174671173096 0.39841452240943908691 1.2565381526947021484 2.8936131000518798828 3.1796541213989257812 1.3484798669815063477 0.22219270467758178711 0.010215756483376026154 0.020431512966752052307 0.061294540762901306152 0.020431512966752052307 0 0 0 0 0 0 0 0.043416965752840042114 0.33711996674537658691 0.92197203636169433594 1.2795234918594360352 1.2999550104141235352 1.0190217494964599609 0.45970904827117919922 0.1328048408031463623 0.022985450923442840576 0 0 0 0 0 0 0 0 0 0 0 0 0 0 0 0 0 0 0 0 0 0 0 0 0 0 0 0 0 0 0 0 0 0 0 0 0 0 0 0 0 0 0 0 0 0 0 0 0 0 0 0 0 0 0 0 0 0 0 0 0 0 0 0 0 0 0 0 0 0 0 0 0 0 0 0 0 0 0 0 0 0 0 0 0 0 0 0 0 0 0 0 0 0 0 0 0 0 0 0 0 0 0 0 0 0 0 0 0 0 0 0 0 0 0 0 0 0 0 0 0 0 0 0 0 0 0 0 0 0 0 0 0 0 0 0 0 0 0 0 0 0 0 0 0 0 0 0 0 0 0 0 0 0 0 0 0 0 0 0 0 0 0 0 0 0 
0 0 0 0 0 0 0 0 0 0 0 0 0 0 0 0 0 0 0 0 0 0 0 0 0 0 0 0 0 0 0 0 0 0 0 0 0 0 0 0 0 0 0 0 0 0.007661817595362663269 0.030647270381450653076 0.035755150020122528076 0.033201210200786590576 0.012769696302711963654 0.0025539391208440065384 0 0 0 0 0 0 0 0 0 0 0 0 0 0 0 0 0 0 0 0 0 0 0 0 0 0 0 0 0 0 0 0 0 0 0 0 0 0 0 0 0 0 0 0 0 0 0 0 0 0 0 0 0 0 0 0 0 0 0 0 0 0 0 0 0 0.0025539391208440065384 0.007661817595362663269 0.010215756483376026154 0.010215756483376026154 0.010215756483376026154 0.012769696302711963654 0.017877575010061264038 0.025539392605423927307 0.051078785210847854614 0.089387871325016021729 0.13791270554065704346 0.1455745398998260498 0.1455745398998260498 0.1532363593578338623 0.1506824195384979248 0.1047115027904510498 0.068956352770328521729 0.061294540762901306152 0.066402420401573181152 0.084279991686344146729 0.086833931505680084229 0.097049690783023834229 0.1047115027904510498 0.068956360220909118652 0.053632725030183792114 0.051078785210847854614 0.051078785210847854614 0.051078785210847854614 0.051078785210847854614 0.051078785210847854614 0.051078785210847854614 0.051078785210847854614 0.051078785210847854614 0.051078785210847854614 0.074064239859580993652 0.1404666602611541748 0.14046664535999298096 0.1506824195384979248 0.1404666602611541748 0.1200351417064666748 0.10981938987970352173 0.086833931505680084229 0.058740600943565368652 0.051078785210847854614 0.051078785210847854614 0.051078785210847854614 0.053632721304893493652 0.053632721304893493652 0.033201210200786590576 0.017877575010061264038 0.0051078782416880130768 0 0 0 0 0 0 0 0 0 0 0 0 0 0 0 0 0 0 0 0 0 0 0 0 0 0 0 0 0 0 0 0 0 0 0 0 0 0 0 0 0 0 0 0 0 0 0 0 0 0 0 0 0 0 0 0 0 0 0 0 0 0 0 0 0 0 0 0 0 0 0 0 0 0 0 0 0 0 0 0 0 0 0 0 0 0 0 0 0 0 0 0 0 0 0 0 0 0 0 0 0 0 0 0 0 0 0 0.010215756483376026154 0.074064239859580993652 0.1583442389965057373 0.1225890815258026123 0.16089816391468048096 0.40863028168678283691 1.4021126031875610352 3.1004819869995117188 2.7608082294464111328 0.97560471296310424805 0.12003513425588607788 0.0025539391208440065384 0.020431512966752052307 0.061294540762901306152 0.020431512966752052307 0 0 0 0 0 0 0 0.028093332424759864807 0.24007028341293334961 0.74064230918884277344 1.1594883203506469727 1.3586956262588500977 1.2514302730560302734 0.78405934572219848633 0.34988966584205627441 0.071510292589664459229 0.0025539391208440065384 0 0 0 0 0 0 0 0 0 0 0 0 0 0 0 0 0 0 0 0 0 0 0 0 0 0 0 0 0 0 0 0 0 0 0 0 0 0 0 0 0 0 0 0 0 0 0 0 0 0 0 0 0 0 0 0 0 0 0 0 0 0 0 0 0 0 0 0 0 0 0 0 0 0 0 0 0 0 0 0 0 0 0 0 0 0 0 0 0 0 0 0 0 0 0 0 0 0 0 0 0 0 0 0 0 0 0 0 0 0 0 0 0 0 0 0 0 0 0 0 0 0 0 0 0 0 0 0 0 0 0 0 0 0 0 0 0 0 0 0 0 0 0 0 0 0 0 0 0 0 0 0 0 0 0 0 0 0 0 0 0 0 0 0 0 
0 0 0 0 0 0 0 0 0 0 0 0 0 0 0 0 0 0 0 0 0 0 0 0 0 0 0 0 0 0 0 0 0 0 0 0 0 0 0 0 0 0 0 0 0 0.010215756483376026154 0.033201210200786590576 0.017877575010061264038 0.007661817595362663269 0.0025539391208440065384 0 0 0 0 0 0 0 0 0 0 0 0 0 0 0 0 0 0 0 0 0 0 0 0 0 0 0 0 0 0 0 0 0.0025539391208440065384 0.007661817595362663269 0.010215756483376026154 0.010215756483376026154 0.010215756483376026154 0.010215756483376026154 0.010215756483376026154 0.010215756483376026154 0.010215756483376026154 0.010215756483376026154 0.010215756483376026154 0.010215756483376026154 0.010215756483376026154 0.010215756483376026154 0.010215756483376026154 0.010215756483376026154 0.010215756483376026154 0.010215756483376026154 0.010215756483376026154 0.010215756483376026154 0.010215756483376026154 0.007661817595362663269 0.0025539391208440065384 0 0 0 0 0 0 0 0 0 0 0 0.007661817595362663269 0.030647270381450653076 0.033201210200786590576 0.030647270381450653076 0.030647270381450653076 0.038309089839458465576 0.061294540762901306152 0.068956352770328521729 0.084279991686344146729 0.1098193824291229248 0.1302509009838104248 0.1328048408031463623 0.11492726951837539673 0.1225890815258026123 0.10215757042169570923 0.084279991686344146729 0.074064239859580993652 0.076618179678916931152 0.097049690783023834229 0.097049690783023834229 0.081726051867008209229 0.099603630602359771729 0.11237332969903945923 0.099603630602359771729 0.091941818594932556152 0.091941818594932556152 0.091941818594932556152 0.091941818594932556152 0.091941818594932556152 0.091941818594932556152 0.091941818594932556152 0.091941818594932556152 0.094495750963687896729 0.10215757042169570923 0.1251430213451385498 0.1532363593578338623 0.1174812018871307373 0.094495750963687896729 0.063848480582237243652 0.035755150020122528076 0.028093332424759864807 0.020431512966752052307 0.012769696302711963654 0.010215756483376026154 0.010215756483376026154 0.010215756483376026154 0.010215756483376026154 0.007661817595362663269 0.0025539391208440065384 0 0 0 0 0 0 0 0 0 0 0 0 0 0 0 0 0 0 0 0 0 0 0 0 0 0 0 0 0 0 0 0 0 0 0 0 0 0 0 0 0 0 0 0 0 0 0 0 0 0 0 0 0 0 0 0 0 0 0 0 0 0 0 0 0 0 0 0 0 0 0 0 0 0 0 0 0 0 0 0 0 0 0 0 0 0 0 0 0 0 0 0 0 0 0 0 0 0 0 0 0 0 0 0 0 0 0 0 0 0.007661817595362663269 0.074064232409000396729 0.18899148702621459961 0.18388360738754272461 0.25539392232894897461 0.48524841666221618652 1.5247015953063964844 3.2971355915069580078 2.4109187126159667969 0.68956357240676879883 0.066402420401573181152 0 0.020431512966752052307 0.061294540762901306152 0.020431512966752052307 0 0 0 0 0 0 0 0.012769696302711963654 0.1302509009838104248 0.46481692790985107422 0.86323142051696777344 1.1977975368499755859 1.2718617916107177734 1.0113599300384521484 0.59506779909133911133 0.16855998337268829346 0.015323635190725326538 0 0 0 0 0 0 0 0 0 0 0 0 0 0 0 0 0 0 0 0 0 0 0 0 0 0 0 0 0 0 0 0 0 0 0 0 0 0 0 0 0 0 0 0 0 0 0 0 0 0 0 0 0 0 0 0 0 0 0 0 0 0 0 0 0 0 0 0 0 0 0 0 0 0 0 0 0 0 0 0 0 0 0 0 0 0 0 0 0 0 0 0 0 0 0 0 0 0 0 0 0 0 0 0 0 0 0 0 0 0 0 0 0 0 0 0 0 0 0 0 0 0 0 0 0 0 0 0 0 0 0 0 0 0 0 0 0 0 0 0 0 0 0 0 0 0 0 0 0 0 0 0 0 0 0 0 0 0 0 0 0 0 0 0 0 
0 0 0 0 0 0 0 0 0 0 0 0 0 0 0 0 0 0 0 0 0 0 0 0 0 0 0 0 0 0 0 0 0 0 0 0 0 0 0 0 0 0 0 0 0 0.010215756483376026154 0.030647270381450653076 0.010215756483376026154 0 0 0 0 0 0 0 0 0 0 0 0 0 0 0 0 0 0 0 0 0 0 0 0 0 0 0 0 0 0 0 0 0 0.0025539391208440065384 0.012769696302711963654 0.033201210200786590576 0.033201210200786590576 0.030647270381450653076 0.030647270381450653076 0.030647270381450653076 0.030647270381450653076 0.030647270381450653076 0.030647270381450653076 0.030647270381450653076 0.030647270381450653076 0.030647270381450653076 0.030647270381450653076 0.030647270381450653076 0.030647270381450653076 0.030647270381450653076 0.030647270381450653076 0.030647270381450653076 0.030647270381450653076 0.030647270381450653076 0.033201210200786590576 0.033201210200786590576 0.015323635190725326538 0.010215756483376026154 0.010215756483376026154 0.010215756483376026154 0.010215756483376026154 0.007661817595362663269 0.0025539391208440065384 0 0 0.0025539391208440065384 0.007661817595362663269 0.010215756483376026154 0.017877575010061264038 0.035755150020122528076 0.022985450923442840576 0.025539392605423927307 0.035755150020122528076 0.053632721304893493652 0.079172119498252868652 0.071510300040245056152 0.094495750963687896729 0.1328048408031463623 0.1404666602611541748 0.1506824195384979248 0.1302509009838104248 0.1200351417064666748 0.11237332969903945923 0.1047115027904510498 0.10215757042169570923 0.1047115027904510498 0.1047115027904510498 0.084279991686344146729 0.076618179678916931152 0.076618179678916931152 0.058740600943565368652 0.038309089839458465576 0.038309089839458465576 0.040863025933504104614 0.040863025933504104614 0.040863025933504104614 0.040863025933504104614 0.043416965752840042114 0.048524845391511917114 0.053632725030183792114 0.063848480582237243652 0.089387878775596618652 0.11492726951837539673 0.1251430213451385498 0.089387871325016021729 0.048524845391511917114 0.015323635190725326538 0.0025539391208440065384 0 0 0 0 0 0 0 0 0 0 0 0 0 0 0 0 0 0 0 0 0 0 0 0 0 0 0 0 0 0 0 0 0 0 0 0 0 0 0 0 0 0 0 0 0 0 0 0 0 0 0 0 0 0 0 0 0 0 0 0 0 0 0 0 0 0 0 0 0 0 0 0 0 0 0 0 0 0 0 0 0 0 0 0 0 0 0 0 0 0 0 0 0 0 0 0 0 0 0 0 0 0 0 0 0 0 0 0 0 0 0 0 0 0 0 0 0 0 0.0025539391208440065384 0.05618665739893913269 0.24007026851177215576 0.38819873332977294922 0.48780238628387451172 0.73808836936950683594 1.7852034568786621094 3.4503717422485351562 2.1376471519470214844 0.49546420574188232422 0.035755150020122528076 0 0.020431512966752052307 0.061294540762901306152 0.020431512966752052307 0 0 0 0 0 0 0 0.0025539391208440065384 0.045970901846885681152 0.26050180196762084961 0.67934781312942504883 1.0547769069671630859 1.3025089502334594727 1.3459259271621704102 0.98071259260177612305 0.37542903423309326172 0.06129453703761100769 0 0 0 0 0 0 0 0 0 0 0 0 0 0 0 0 0 0 0 0 0 0 0 0 0 0 0 0 0 0 0 0 0 0 0 0 0 0 0 0 0 0 0 0 0 0 0 0 0 0 0 0 0 0 0 0 0 0 0 0 0 0 0 0 0 0 0 0 0 0 0 0 0 0 0 0 0 0 0 0 0 0 0 0 0 0 0 0 0 0 0 0 0 0 0 0 0 0 0 0 0 0 0 0 0 0 0 0 0 0 0 0 0 0 0 0 0 0 0 0 0 0 0 0 0 0 0 0 0 0 0 0 0 0 0 0 0 0 0 0 0 0 0 0 0 0 0 0 0 0 0 0 0 0 0 0 0 0 0 0 0 0 0 0 0 
0 0 0 0 0 0 0 0 0 0 0 0 0 0 0 0 0 0 0 0 0 0 0 0 0 0 0 0 0 0 0 0 0 0 0 0 0 0 0 0 0 0 0 0 0 0.010215756483376026154 0.030647270381450653076 0.010215756483376026154 0 0 0 0 0 0 0 0 0 0 0 0 0 0 0 0 0 0 0 0 0 0 0 0 0 0 0 0 0 0 0 0.0025539391208440065384 0.007661817595362663269 0.015323635190725326538 0.035755150020122528076 0.035755150020122528076 0.015323635190725326538 0.010215756483376026154 0.010215756483376026154 0.010215756483376026154 0.010215756483376026154 0.010215756483376026154 0.010215756483376026154 0.010215756483376026154 0.010215756483376026154 0.010215756483376026154 0.010215756483376026154 0.010215756483376026154 0.010215756483376026154 0.010215756483376026154 0.010215756483376026154 0.010215756483376026154 0.010215756483376026154 0.010215756483376026154 0.015323635190725326538 0.033201210200786590576 0.033201210200786590576 0.030647270381450653076 0.030647270381450653076 0.030647270381450653076 0.033201210200786590576 0.033201210200786590576 0.015323635190725326538 0.010215756483376026154 0.010215756483376026154 0.015323635190725326538 0.033201210200786590576 0.033201210200786590576 0.035755150020122528076 0.038309089839458465576 0.030647270381450653076 0.066402420401573181152 0.086833931505680084229 0.1276969611644744873 0.13791270554065704346 0.1430206000804901123 0.1506824195384979248 0.1379127204418182373 0.1200351417064666748 0.1174812018871307373 0.1047115027904510498 0.071510300040245056152 0.056186664849519729614 0.035755150020122528076 0.030647270381450653076 0.030647270381450653076 0.028093332424759864807 0.022985454648733139038 0.020431512966752052307 0.017877575010061264038 0.010215756483376026154 0.010215756483376026154 0.030647270381450653076 0.033201210200786590576 0.030647270381450653076 0.033201210200786590576 0.038309089839458465576 0.045970901846885681152 0.066402420401573181152 0.076618179678916931152 0.097049690783023834229 0.099603630602359771729 0.081726051867008209229 0.056186664849519729614 0.025539392605423927307 0.010215756483376026154 0.0025539391208440065384 0 0 0 0 0 0 0 0 0 0 0 0 0 0 0 0 0 0 0 0 0 0 0 0 0 0 0 0 0 0 0 0 0 0 0 0 0 0 0 0 0 0 0 0 0 0 0 0 0 0 0 0 0 0 0 0 0 0 0 0 0 0 0 0 0 0 0 0 0 0 0 0 0 0 0 0 0 0 0 0 0 0 0 0 0 0 0 0 0 0 0 0 0 0 0 0 0 0 0 0 0 0 0 0 0 0 0 0 0 0 0 0 0 0 0 0 0 0 0 0 0.051078781485557556152 0.31668844819068908691 0.65891629457473754883 0.74830412864685058594 1.0905319452285766602 2.1529707908630371094 3.5167741775512695312 1.9103463888168334961 0.37287509441375732422 0.020431512966752052307 0 0.020431512966752052307 0.063848480582237243652 0.025539392605423927307 0.0025539391208440065384 0 0 0 0 0 0 0 0.010215756483376026154 0.1098193824291229248 0.43672358989715576172 0.77639746665954589844 1.0368993282318115234 1.3816810846328735352 1.3306022882461547852 0.76873564720153808594 0.18388360738754272461 0.012769695371389389038 0 0 0 0 0 0 0 0 0 0 0 0 0 0 0 0 0 0 0 0 0 0 0 0 0 0 0 0 0 0 0 0 0 0 0 0 0 0 0 0 0 0 0 0 0 0 0 0 0 0 0 0 0 0 0 0 0 0 0 0 0 0 0 0 0 0 0 0 0 0 0 0 0 0 0 0 0 0 0 0 0 0 0 0 0 0 0 0 0 0 0 0 0 0 0 0 0 0 0 0 0 0 0 0 0 0 0 0 0 0 0 0 0 0 0 0 0 0 0 0 0 0 0 0 0 0 0 0 0 0 0 0 0 0 0 0 0 0 0 0 0 0 0 0 0 0 0 0 0 0 0 0 0 0 0 0 0 0 0 0 0 0 0 0 
0 0 0 0 0 0 0 0 0 0 0 0 0 0 0 0 0 0 0 0 0 0 0 0 0 0 0 0 0 0 0 0 0 0 0 0 0 0.0025539391208440065384 0.007661817595362663269 0.010215756483376026154 0.010215756483376026154 0.010215756483376026154 0.010215756483376026154 0.010215756483376026154 0.010215756483376026154 0.017877575010061264038 0.033201210200786590576 0.010215756483376026154 0 0 0 0 0 0 0 0 0 0 0 0 0 0 0 0 0 0 0 0 0 0 0 0 0 0 0 0 0.0025539391208440065384 0.007661817595362663269 0.010215756483376026154 0.015323635190725326538 0.033201210200786590576 0.035755150020122528076 0.033201210200786590576 0.012769696302711963654 0.0025539391208440065384 0 0 0 0 0 0 0 0 0 0 0 0 0 0 0 0 0 0.0025539391208440065384 0.007661817595362663269 0.010215756483376026154 0.010215756483376026154 0.010215756483376026154 0.010215756483376026154 0.015323635190725326538 0.033201210200786590576 0.033201210200786590576 0.030647270381450653076 0.030647270381450653076 0.033201210200786590576 0.033201210200786590576 0.015323635190725326538 0.020431512966752052307 0.045970901846885681152 0.061294540762901306152 0.089387871325016021729 0.089387871325016021729 0.10215757042169570923 0.084279991686344146729 0.11492726951837539673 0.11492726951837539673 0.10215757042169570923 0.094495750963687896729 0.091941803693771362305 0.076618179678916931152 0.025539392605423927307 0.007661817595362663269 0.0025539391208440065384 0 0 0 0 0 0.0025539391208440065384 0.007661817595362663269 0.017877575010061264038 0.035755150020122528076 0.020431512966752052307 0.017877575010061264038 0.025539392605423927307 0.043416965752840042114 0.048524845391511917114 0.056186664849519729614 0.061294540762901306152 0.056186664849519729614 0.033201210200786590576 0.020431512966752052307 0.010215756483376026154 0.0025539391208440065384 0 0 0 0 0 0 0 0 0 0 0 0 0 0 0 0 0 0 0 0 0 0 0 0 0 0 0 0 0 0 0 0 0 0 0 0 0 0 0 0 0 0 0 0 0 0 0 0 0 0 0 0 0 0 0 0 0 0 0 0 0 0 0 0 0 0 0 0 0 0 0 0 0 0 0 0 0 0 0 0 0 0 0 0 0 0 0 0 0 0 0 0 0 0 0 0 0 0 0 0 0 0 0 0 0 0 0 0 0 0 0 0 0 0 0 0 0 0 0 0 0 0 0.048524841666221618652 0.40607631206512451172 0.98326659202575683594 0.97815871238708496094 1.3306022882461547852 2.3700554370880126953 3.1592226028442382812 1.5247015953063964844 0.27071753144264221191 0.012769696302711963654 0 0.017877575010061264038 0.066402420401573181152 0.048524845391511917114 0.010215756483376026154 0 0 0 0 0 0 0 0 0.045970901846885681152 0.24262422323226928711 0.54143506288528442383 0.83003026247024536133 1.2003514766693115234 1.4404217004776000977 1.1850277185440063477 0.43416965007781982422 0.056186661124229431152 0 0 0 0 0 0 0 0 0 0 0 0 0 0 0 0 0 0 0 0 0 0 0 0 0 0 0 0 0 0 0 0 0 0 0 0 0 0 0 0 0 0 0 0 0 0 0 0 0 0 0 0 0 0 0 0 0 0 0 0 0 0 0 0 0 0 0 0 0 0 0 0 0 0 0 0 0 0 0 0 0 0 0 0 0 0 0 0 0 0 0 0 0 0 0 0 0 0 0 0 0 0 0 0 0 0 0 0 0 0 0 0 0 0 0 0 0 0 0 0 0 0 0 0 0 0 0 0 0 0 0 0 0 0 0 0 0 0 0 0 0 0 0 0 0 0 0 0 0 0 0 0 0 0 0 0 0 0 0 0 0 0 0 0 
0 0 0 0 0 0 0 0 0 0 0 0 0 0 0 0 0 0 0 0 0 0 0 0 0 0 0 0 0 0 0 0 0 0 0 0 0.0025539391208440065384 0.012769696302711963654 0.033201210200786590576 0.033201210200786590576 0.030647270381450653076 0.030647270381450653076 0.030647270381450653076 0.030647270381450653076 0.030647270381450653076 0.033201210200786590576 0.030647270381450653076 0.007661817595362663269 0 0 0 0 0 0 0 0 0 0 0 0 0 0 0 0 0 0 0 0 0 0 0 0 0 0 0 0.0025539391208440065384 0.012769696302711963654 0.033201210200786590576 0.033201210200786590576 0.033201210200786590576 0.033201210200786590576 0.015323635190725326538 0.007661817595362663269 0.0025539391208440065384 0 0 0 0 0 0 0 0 0 0 0 0 0 0 0 0 0 0 0 0 0 0 0 0 0.0025539391208440065384 0.007661817595362663269 0.010215756483376026154 0.010215756483376026154 0.010215756483376026154 0.012769696302711963654 0.015323635190725326538 0.012769696302711963654 0.028093332424759864807 0.076618179678916931152 0.084279991686344146729 0.11492726951837539673 0.10215757042169570923 0.097049690783023834229 0.099603630602359771729 0.10981938987970352173 0.074064239859580993652 0.058740600943565368652 0.056186664849519729614 0.058740600943565368652 0.048524845391511917114 0.012769696302711963654 0 0 0 0 0 0.0025539391208440065384 0.007661817595362663269 0.015323635190725326538 0.033201210200786590576 0.038309089839458465576 0.038309089839458465576 0.025539392605423927307 0.040863025933504104614 0.045970901846885681152 0.043416965752840042114 0.030647270381450653076 0.043416965752840042114 0.038309089839458465576 0.012769696302711963654 0.0025539391208440065384 0 0 0 0 0 0 0 0 0 0 0 0 0 0 0 0 0 0 0 0 0 0 0 0 0 0 0 0 0 0 0 0 0 0 0 0 0 0 0 0 0 0 0 0 0 0 0 0 0 0 0 0 0 0 0 0 0 0 0 0 0 0 0 0 0 0 0 0 0 0 0 0 0 0 0 0 0 0 0 0 0 0 0 0 0 0 0 0 0 0 0 0 0 0 0 0 0 0 0 0 0 0 0 0 0 0 0 0 0 0 0 0 0 0 0 0 0 0 0 0 0 0 0 0 0 0.035755146294832229614 0.45715510845184326172 1.2207829952239990234 1.0164678096771240234 1.3357101678848266602 2.4134726524353027344 2.6382191181182861328 1.2029054164886474609 0.20431514084339141846 0.007661817595362663269 0 0.010215756483376026154 0.048524845391511917114 0.066402420401573181152 0.017877575010061264038 0 0 0 0 0 0 0 0 0.022985450923442840576 0.1276969611644744873 0.29370301961898803711 0.58995991945266723633 0.97560471296310424805 1.3357101678848266602 1.4582992792129516602 0.77128958702087402344 0.16600604355335235596 0.010215756483376026154 0 0 0 0 0 0 0 0 0 0 0 0 0 0 0 0 0 0 0 0 0 0 0 0 0 0 0 0 0 0 0 0 0 0 0 0 0 0 0 0 0 0 0 0 0 0 0 0 0 0 0 0 0 0 0 0 0 0 0 0 0 0 0 0 0 0 0 0 0 0 0 0 0 0 0 0 0 0 0 0 0 0 0 0 0 0 0 0 0 0 0 0 0 0 0 0 0 0 0 0 0 0 0 0 0 0 0 0 0 0 0 0 0 0 0 0 0 0 0 0 0 0 0 0 0 0 0 0 0 0 0 0 0 0 0 0 0 0 0 0 0 0 0 0 0 0 0 0 0 0 0 0 0 0 0 0 0 0 0 0 0 0 0 
0 0 0 0 0 0 0 0 0 0 0 0 0 0 0 0 0 0 0 0 0 0 0 0 0 0 0 0 0 0 0 0 0 0 0.0025539391208440065384 0.007661817595362663269 0.015323635190725326538 0.035755150020122528076 0.035755150020122528076 0.015323635190725326538 0.010215756483376026154 0.010215756483376026154 0.010215756483376026154 0.010215756483376026154 0.010215756483376026154 0.010215756483376026154 0.007661817595362663269 0.0025539391208440065384 0 0 0 0 0 0 0 0 0 0 0 0 0 0 0 0 0 0 0 0 0 0 0.0025539391208440065384 0.007661817595362663269 0.010215756483376026154 0.010215756483376026154 0.010215756483376026154 0.015323635190725326538 0.035755150020122528076 0.035755150020122528076 0.015323635190725326538 0.010215756483376026154 0.007661817595362663269 0.0025539391208440065384 0 0 0 0 0 0 0 0 0 0 0 0 0 0 0 0 0 0 0 0 0 0 0 0 0 0 0 0 0 0 0 0.007661817595362663269 0.030647270381450653076 0.035755150020122528076 0.058740600943565368652 0.10981938987970352173 0.10981938987970352173 0.1251430213451385498 0.1047115027904510498 0.1225890815258026123 0.1072654426097869873 0.094495750963687896729 0.063848480582237243652 0.045970901846885681152 0.030647270381450653076 0.043416965752840042114 0.035755150020122528076 0.007661817595362663269 0 0 0 0 0 0.007661817595362663269 0.030647270381450653076 0.035755150020122528076 0.035755150020122528076 0.028093332424759864807 0.040863025933504104614 0.045970901846885681152 0.063848480582237243652 0.048524845391511917114 0.038309089839458465576 0.035755150020122528076 0.033201210200786590576 0.012769696302711963654 0.0025539391208440065384 0 0 0 0 0 0 0 0 0 0 0 0 0 0 0 0 0 0 0 0 0 0 0 0 0 0 0 0 0 0 0 0 0 0 0 0 0 0 0 0 0 0 0 0 0 0 0 0 0 0 0 0 0 0 0 0 0 0 0 0 0 0 0 0 0 0 0 0 0 0 0 0 0 0 0 0 0 0 0 0 0 0 0 0 0 0 0 0 0 0 0 0 0 0 0 0 0 0 0 0 0 0 0 0 0 0 0 0 0 0 0 0 0 0 0 0 0 0 0 0 0 0 0 0 0 0 0.015323635190725326538 0.44183146953582763672 1.3765732049942016602 1.0598847866058349609 1.4531913995742797852 2.5028605461120605469 2.2295887470245361328 0.90664845705032348633 0.13535876572132110596 0.0025539391208440065384 0 0.0025539391208440065384 0.025539392605423927307 0.063848480582237243652 0.020431512966752052307 0 0 0 0 0 0 0 0 0.010215756483376026154 0.068956352770328521729 0.18643754720687866211 0.36010542511940002441 0.74575018882751464844 1.1313949823379516602 1.5783343315124511719 1.2386604547500610352 0.43927752971649169922 0.071510292589664459229 0.0025539391208440065384 0 0 0 0 0 0 0 0 0 0 0 0 0 0 0 0 0 0 0 0 0 0 0 0 0 0 0 0 0 0 0 0 0 0 0 0 0 0 0 0 0 0 0 0 0 0 0 0 0 0 0 0 0 0 0 0 0 0 0 0 0 0 0 0 0 0 0 0 0 0 0 0 0 0 0 0 0 0 0 0 0 0 0 0 0 0 0 0 0 0 0 0 0 0 0 0 0 0 0 0 0 0 0 0 0 0 0 0 0 0 0 0 0 0 0 0 0 0 0 0 0 0 0 0 0 0 0 0 0 0 0 0 0 0 0 0 0 0 0 0 0 0 0 0 0 0 0 0 0 0 0 0 0 0 0 0 0 0 0 0 0 0 
0 0 0 0 0 0 0 0 0 0 0 0 0 0 0 0 0 0 0 0 0 0 0 0 0 0 0 0 0 0 0 0 0.0025539391208440065384 0.007661817595362663269 0.015323635190725326538 0.033201210200786590576 0.035755150020122528076 0.033201210200786590576 0.012769696302711963654 0.0025539391208440065384 0 0 0 0 0 0 0 0 0 0 0 0 0 0 0 0 0.0025539391208440065384 0.007661817595362663269 0.010215756483376026154 0.010215756483376026154 0.010215756483376026154 0.010215756483376026154 0.010215756483376026154 0.010215756483376026154 0.010215756483376026154 0.010215756483376026154 0.010215756483376026154 0.010215756483376026154 0.010215756483376026154 0.010215756483376026154 0.015323635190725326538 0.033201210200786590576 0.033201210200786590576 0.030647270381450653076 0.030647270381450653076 0.033201210200786590576 0.033201210200786590576 0.012769696302711963654 0.0025539391208440065384 0 0 0 0 0 0 0 0 0 0 0 0 0 0 0 0 0 0 0 0 0 0 0 0 0 0 0 0 0 0 0.0025539391208440065384 0.007661817595362663269 0.010215756483376026154 0.012769696302711963654 0.028093332424759864807 0.053632721304893493652 0.045970909297466278076 0.079172119498252868652 0.1251430213451385498 0.10981938987970352173 0.1379127204418182373 0.13535876572132110596 0.1174812018871307373 0.079172119498252868652 0.076618179678916931152 0.051078785210847854614 0.038309089839458465576 0.035755150020122528076 0.033201210200786590576 0.012769696302711963654 0.0025539391208440065384 0 0 0 0 0 0.010215756483376026154 0.033201210200786590576 0.017877575010061264038 0.017877575010061264038 0.043416965752840042114 0.045970901846885681152 0.033201210200786590576 0.043416965752840042114 0.020431512966752052307 0.010215756483376026154 0.010215756483376026154 0.007661817595362663269 0.0025539391208440065384 0 0 0 0 0 0 0 0 0 0 0 0 0 0 0 0 0 0 0 0 0 0 0 0 0 0 0 0 0 0 0 0 0 0 0 0 0 0 0 0 0 0 0 0 0 0 0 0 0 0 0 0 0 0 0 0 0 0 0 0 0 0 0 0 0 0 0 0 0 0 0 0 0 0 0 0 0 0 0 0 0 0 0 0 0 0 0 0 0 0 0 0 0 0 0 0 0 0 0 0 0 0 0 0 0 0 0 0 0 0 0 0 0 0 0 0 0 0 0 0 0 0 0 0 0 0 0 0.0025539391208440065384 0.40352240204811096191 1.3918968439102172852 1.2258908748626708984 1.7928652763366699219 2.7429306507110595703 1.9256701469421386719 0.59762173891067504883 0.071510292589664459229 0 0 0 0.020431512966752052307 0.063848480582237243652 0.025539392605423927307 0.0025539391208440065384 0 0 0 0 0 0 0 0.0025539391208440065384 0.030647270381450653076 0.11492726951837539673 0.25283998250961303711 0.58995991945266723633 0.93474167585372924805 1.4199901819229125977 1.5323634147644042969 0.93218773603439331055 0.25794786214828491211 0.035755150020122528076 0.0051078782416880130768 0 0 0 0 0 0 0 0 0 0 0 0 0 0 0 0 0 0 0 0 0 0 0 0 0 0 0 0 0 0 0 0 0 0 0 0 0 0 0 0 0 0 0 0 0 0 0 0 0 0 0 0 0 0 0 0 0 0 0 0 0 0 0 0 0 0 0 0 0 0 0 0 0 0 0 0 0 0 0 0 0 0 0 0 0 0 0 0 0 0 0 0 0 0 0 0 0 0 0 0 0 0 0 0 0 0 0 0 0 0 0 0 0 0 0 0 0 0 0 0 0 0 0 0 0 0 0 0 0 0 0 0 0 0 0 0 0 0 0 0 0 0 0 0 0 0 0 0 0 0 0 0 0 0 0 0 0 0 0 0 0 
0 0 0 0 0 0 0 0 0 0 0 0 0 0 0 0 0 0 0 0 0 0 0 0 0 0 0 0 0 0 0.0025539391208440065384 0.007661817595362663269 0.015323635190725326538 0.033201210200786590576 0.035755150020122528076 0.033201210200786590576 0.015323635190725326538 0.007661817595362663269 0.0025539391208440065384 0 0 0 0 0 0 0 0 0 0 0 0 0 0 0 0 0 0.007661817595362663269 0.030647270381450653076 0.033201210200786590576 0.030647270381450653076 0.030647270381450653076 0.030647270381450653076 0.030647270381450653076 0.030647270381450653076 0.030647270381450653076 0.030647270381450653076 0.030647270381450653076 0.030647270381450653076 0.030647270381450653076 0.030647270381450653076 0.033201210200786590576 0.033201210200786590576 0.015323635190725326538 0.010215756483376026154 0.010215756483376026154 0.010215756483376026154 0.007661817595362663269 0.0025539391208440065384 0 0 0 0 0 0 0 0 0 0 0 0 0 0 0 0 0 0 0 0 0 0 0 0 0 0 0 0 0.0025539391208440065384 0.010215756483376026154 0.017877575010061264038 0.025539392605423927307 0.043416965752840042114 0.043416965752840042114 0.051078785210847854614 0.089387878775596618652 0.1174812018871307373 0.10981938987970352173 0.13535876572132110596 0.1455745398998260498 0.1430206000804901123 0.1481284797191619873 0.1047115027904510498 0.063848480582237243652 0.048524845391511917114 0.040863025933504104614 0.017877575010061264038 0.010215756483376026154 0.010215756483376026154 0.007661817595362663269 0.0025539391208440065384 0 0 0 0 0 0 0.010215756483376026154 0.033201210200786590576 0.017877575010061264038 0.025539392605423927307 0.066402420401573181152 0.048524845391511917114 0.035755150020122528076 0.030647270381450653076 0.007661817595362663269 0 0 0 0 0 0 0 0 0 0 0 0 0 0 0 0 0 0 0 0 0 0 0 0 0 0 0 0 0 0 0 0 0 0 0 0 0 0 0 0 0 0 0 0 0 0 0 0 0 0 0 0 0 0 0 0 0 0 0 0 0 0 0 0 0 0 0 0 0 0 0 0 0 0 0 0 0 0 0 0 0 0 0 0 0 0 0 0 0 0 0 0 0 0 0 0 0 0 0 0 0 0 0 0 0 0 0 0 0 0 0 0 0 0 0 0 0 0 0 0 0 0 0 0 0 0 0 0 0 0 0 0 0.32945814728736877441 1.2412145137786865234 1.5783344507217407227 2.4287962913513183594 2.8450882434844970703 1.3918968439102172852 0.29370298981666564941 0.025539392605423927307 0 0 0 0.017877575010061264038 0.063848480582237243652 0.043416965752840042114 0.007661817595362663269 0 0 0 0 0 0 0 0 0.007661817595362663269 0.025539392605423927307 0.10215757042169570923 0.35244360566139221191 0.68445569276809692383 1.1339489221572875977 1.5962119102478027344 1.4608532190322875977 0.63848477602005004883 0.17877574265003204346 0.030647270381450653076 0 0 0 0 0 0 0 0 0 0 0 0 0 0 0 0 0 0 0 0 0 0 0 0 0 0 0 0 0 0 0 0 0 0 0 0 0 0 0 0 0 0 0 0 0 0 0 0 0 0 0 0 0 0 0 0 0 0 0 0 0 0 0 0 0 0 0 0 0 0 0 0 0 0 0 0 0 0 0 0 0 0 0 0 0 0 0 0 0 0 0 0 0 0 0 0 0 0 0 0 0 0 0 0 0 0 0 0 0 0 0 0 0 0 0 0 0 0 0 0 0 0 0 0 0 0 0 0 0 0 0 0 0 0 0 0 0 0 0 0 0 0 0 0 0 0 0 0 0 0 0 0 0 0 0 0 0 0 0 0 0 
0 0 0 0 0 0 0 0 0 0 0 0 0 0 0 0 0 0 0 0 0 0 0 0 0 0 0 0.0025539391208440065384 0.007661817595362663269 0.010215756483376026154 0.015323635190725326538 0.033201210200786590576 0.035755150020122528076 0.033201210200786590576 0.015323635190725326538 0.007661817595362663269 0.0025539391208440065384 0 0 0 0 0 0 0 0 0 0 0 0.0025539391208440065384 0.007661817595362663269 0.010215756483376026154 0.010215756483376026154 0.010215756483376026154 0.010215756483376026154 0.010215756483376026154 0.010215756483376026154 0.017877575010061264038 0.035755150020122528076 0.017877575010061264038 0.010215756483376026154 0.010215756483376026154 0.010215756483376026154 0.010215756483376026154 0.010215756483376026154 0.010215756483376026154 0.010215756483376026154 0.010215756483376026154 0.010215756483376026154 0.010215756483376026154 0.010215756483376026154 0.010215756483376026154 0.007661817595362663269 0.0025539391208440065384 0 0 0 0 0 0 0 0 0 0 0 0 0 0 0 0 0 0 0 0 0 0 0 0 0 0 0 0 0 0 0 0 0.0025539391208440065384 0.012769696302711963654 0.040863025933504104614 0.063848480582237243652 0.068956352770328521729 0.076618179678916931152 0.071510300040245056152 0.084279991686344146729 0.1302509009838104248 0.1430206000804901123 0.1481284797191619873 0.16089816391468048096 0.1430206000804901123 0.1302509009838104248 0.086833931505680084229 0.056186664849519729614 0.020431512966752052307 0.010215756483376026154 0.007661817595362663269 0.0025539391208440065384 0 0 0 0.0025539391208440065384 0.007661817595362663269 0.015323635190725326538 0.025539392605423927307 0.030647270381450653076 0.030647270381450653076 0.030647270381450653076 0.038309089839458465576 0.058740600943565368652 0.053632721304893493652 0.053632721304893493652 0.066402420401573181152 0.025539392605423927307 0.010215756483376026154 0.007661817595362663269 0.0025539391208440065384 0 0 0 0 0 0 0 0 0 0 0 0 0 0 0 0 0 0 0 0 0 0 0 0 0 0 0 0 0 0 0 0 0 0 0 0 0 0 0 0 0 0 0 0 0 0 0 0 0 0 0 0 0 0 0 0 0 0 0 0 0 0 0 0 0 0 0 0 0 0 0 0 0 0 0 0 0 0 0 0 0 0 0 0 0 0 0 0 0 0 0 0 0 0 0 0 0 0 0 0 0 0 0 0 0 0 0 0 0 0 0 0 0 0 0 0 0 0 0 0 0 0 0 0 0 0 0 0 0 0 0 0 0.22730058431625366211 0.96028107404708862305 1.8516058921813964844 3.1643304824829101562 2.7863476276397705078 0.95517319440841674805 0.1302509009838104248 0.007661817595362663269 0 0 0 0.012769696302711963654 0.045970901846885681152 0.043416965752840042114 0.010215756483376026154 0 0 0 0 0 0 0 0 0 0 0.035755150020122528076 0.19920726120471954346 0.48524841666221618652 0.81981444358825683594 1.4046665430068969727 1.7417864799499511719 1.1773658990859985352 0.52866542339324951172 0.1302509009838104248 0.015323635190725326538 0 0 0 0 0 0 0 0 0 0 0 0 0 0 0 0 0 0 0 0 0 0 0 0 0 0 0 0 0 0 0 0 0 0 0 0 0 0 0 0 0 0 0 0 0 0 0 0 0 0 0 0 0 0 0 0 0 0 0 0 0 0 0 0 0 0 0 0 0 0 0 0 0 0 0 0 0 0 0 0 0 0 0 0 0 0 0 0 0 0 0 0 0 0 0 0 0 0 0 0 0 0 0 0 0 0 0 0 0 0 0 0 0 0 0 0 0 0 0 0 0 0 0 0 0 0 0 0 0 0 0 0 0 0 0 0 0 0 0 0 0 0 0 0 0 0 0 0 0 0 0 0 0 0 0 0 0 0 0 0 
0 0 0 0 0 0 0 0 0 0 0 0 0 0 0 0 0 0 0 0 0 0 0 0 0 0 0 0.007661817595362663269 0.030647270381450653076 0.033201210200786590576 0.033201210200786590576 0.033201210200786590576 0.015323635190725326538 0.007661817595362663269 0.0025539391208440065384 0 0 0 0 0 0 0 0 0 0 0 0 0 0.007661817595362663269 0.030647270381450653076 0.033201210200786590576 0.030647270381450653076 0.030647270381450653076 0.030647270381450653076 0.030647270381450653076 0.030647270381450653076 0.033201210200786590576 0.030647270381450653076 0.007661817595362663269 0 0 0 0 0 0 0 0 0 0 0 0 0 0 0 0 0 0 0 0 0 0 0 0 0 0 0.0025539391208440065384 0.007661817595362663269 0.010215756483376026154 0.010215756483376026154 0.010215756483376026154 0.012769696302711963654 0.017877575010061264038 0.020431512966752052307 0.017877575010061264038 0.012769696302711963654 0.010215756483376026154 0.010215756483376026154 0.010215756483376026154 0.010215756483376026154 0.010215756483376026154 0.010215756483376026154 0.010215756483376026154 0.010215756483376026154 0.010215756483376026154 0.010215756483376026154 0.017877575010061264038 0.043416965752840042114 0.053632721304893493652 0.056186664849519729614 0.051078785210847854614 0.079172119498252868652 0.11237332969903945923 0.11237332969903945923 0.1174812018871307373 0.1174812018871307373 0.1302509009838104248 0.10215757042169570923 0.076618179678916931152 0.081726051867008209229 0.053632721304893493652 0.033201210200786590576 0.010215756483376026154 0.007661817595362663269 0.010215756483376026154 0.010215756483376026154 0.010215756483376026154 0.010215756483376026154 0.012769696302711963654 0.022985450923442840576 0.045970901846885681152 0.061294540762901306152 0.097049690783023834229 0.097049690783023834229 0.091941818594932556152 0.091941818594932556152 0.094495750963687896729 0.094495750963687896729 0.071510300040245056152 0.048524845391511917114 0.038309089839458465576 0.010215756483376026154 0 0 0 0 0 0 0 0 0 0 0 0 0 0 0 0 0 0 0 0 0 0 0 0 0 0 0 0 0 0 0 0 0 0 0 0 0 0 0 0 0 0 0 0 0 0 0 0 0 0 0 0 0 0 0 0 0 0 0 0 0 0 0 0 0 0 0 0 0 0 0 0 0 0 0 0 0 0 0 0 0 0 0 0 0 0 0 0 0 0 0 0 0 0 0 0 0 0 0 0 0 0 0 0 0 0 0 0 0 0 0 0 0 0 0 0 0 0 0 0 0 0 0 0 0 0 0 0 0 0 0 0 0 0 0 0.14302058517932891846 0.65891629457473754883 1.8541598320007324219 3.6878881454467773438 2.4977526664733886719 0.56952840089797973633 0.035755146294832229614 0.0025539391208440065384 0 0 0 0.010215756483376026154 0.040863025933504104614 0.040863025933504104614 0.010215756483376026154 0 0 0 0 0 0 0 0 0 0 0.020431512966752052307 0.11492726951837539673 0.24007026851177215576 0.43672358989715576172 0.97305077314376831055 1.6064276695251464844 1.6855998039245605469 1.0701005458831787109 0.43672358989715576172 0.091941803693771362305 0.0051078782416880130768 0 0 0 0 0 0 0 0 0 0 0 0 0 0 0 0 0 0 0 0 0 0 0 0 0 0 0 0 0 0 0 0 0 0 0 0 0 0 0 0 0 0 0 0 0 0 0 0 0 0 0 0 0 0 0 0 0 0 0 0 0 0 0 0 0 0 0 0 0 0 0 0 0 0 0 0 0 0 0 0 0 0 0 0 0 0 0 0 0 0 0 0 0 0 0 0 0 0 0 0 0 0 0 0 0 0 0 0 0 0 0 0 0 0 0 0 0 0 0 0 0 0 0 0 0 0 0 0 0 0 0 0 0 0 0 0 0 0 0 0 0 0 0 0 0 0 0 0 0 0 0 0 0 0 0 0 0 0 0 
0 0 0 0 0 0 0 0 0 0 0 0 0 0 0 0 0 0 0 0 0 0 0 0 0 0.0025539391208440065384 0.007661817595362663269 0.017877575010061264038 0.035755150020122528076 0.017877575010061264038 0.010215756483376026154 0.007661817595362663269 0.0025539391208440065384 0 0 0 0 0 0 0 0 0 0 0 0 0 0.0025539391208440065384 0.007661817595362663269 0.017877575010061264038 0.035755150020122528076 0.017877575010061264038 0.010215756483376026154 0.010215756483376026154 0.010215756483376026154 0.010215756483376026154 0.010215756483376026154 0.010215756483376026154 0.007661817595362663269 0.0025539391208440065384 0 0 0 0 0 0 0 0 0 0 0 0 0 0 0.0025539391208440065384 0.007661817595362663269 0.010215756483376026154 0.010215756483376026154 0.010215756483376026154 0.010215756483376026154 0.010215756483376026154 0.010215756483376026154 0.010215756483376026154 0.010215756483376026154 0.010215756483376026154 0.012769696302711963654 0.022985450923442840576 0.043416965752840042114 0.043416965752840042114 0.040863025933504104614 0.040863025933504104614 0.045970901846885681152 0.063848480582237243652 0.066402420401573181152 0.061294540762901306152 0.038309089839458465576 0.030647270381450653076 0.030647270381450653076 0.030647270381450653076 0.030647270381450653076 0.030647270381450653076 0.030647270381450653076 0.030647270381450653076 0.033201210200786590576 0.038309089839458465576 0.040863025933504104614 0.051078785210847854614 0.074064239859580993652 0.058740600943565368652 0.058740600943565368652 0.086833931505680084229 0.10726545006036758423 0.084279991686344146729 0.045970909297466278076 0.053632721304893493652 0.094495750963687896729 0.086833931505680084229 0.035755150020122528076 0.028093332424759864807 0.043416965752840042114 0.020431512966752052307 0.007661817595362663269 0.010215756483376026154 0.030647270381450653076 0.033201210200786590576 0.030647270381450653076 0.030647270381450653076 0.033201210200786590576 0.043416965752840042114 0.066402420401573181152 0.074064239859580993652 0.081726051867008209229 0.079172119498252868652 0.040863025933504104614 0.030647270381450653076 0.030647270381450653076 0.030647270381450653076 0.028093332424759864807 0.020431512966752052307 0.012769696302711963654 0.007661817595362663269 0.0025539391208440065384 0 0 0 0 0 0 0 0 0 0 0 0 0 0 0 0 0 0 0 0 0 0 0 0 0 0 0 0 0 0 0 0 0 0 0 0 0 0 0 0 0 0 0 0 0 0 0 0 0 0 0 0 0 0 0 0 0 0 0 0 0 0 0 0 0 0 0 0 0 0 0 0 0 0 0 0 0 0 0 0 0 0 0 0 0 0 0 0 0 0 0 0 0 0 0 0 0 0 0 0 0 0 0 0 0 0 0 0 0 0 0 0 0 0 0 0 0 0 0 0 0 0 0 0 0 0 0 0 0 0 0 0 0 0 0 0.099603623151779174805 0.55420476198196411133 1.9512094259262084961 4.0096840858459472656 2.1095538139343261719 0.33456602692604064941 0.0025539391208440065384 0 0 0 0 0.010215756483376026154 0.040863025933504104614 0.040863025933504104614 0.010215756483376026154 0 0 0 0 0 0 0 0 0 0 0.012769696302711963654 0.058740600943565368652 0.1123733222484588623 0.22474664449691772461 0.53888112306594848633 1.0522229671478271484 1.6089816093444824219 1.4608532190322875977 0.97305077314376831055 0.37542903423309326172 0.089387878775596618652 0.010215756483376026154 0 0 0 0 0 0 0 0 0 0 0 0 0 0 0 0 0 0 0 0 0 0 0 0 0 0 0 0 0 0 0 0 0 0 0 0 0 0 0 0 0 0 0 0 0 0 0 0 0 0 0 0 0 0 0 0 0 0 0 0 0 0 0 0 0 0 0 0 0 0 0 0 0 0 0 0 0 0 0 0 0 0 0 0 0 0 0 0 0 0 0 0 0 0 0 0 0 0 0 0 0 0 0 0 0 0 0 0 0 0 0 0 0 0 0 0 0 0 0 0 0 0 0 0 0 0 0 0 0 0 0 0 0 0 0 0 0 0 0 0 0 0 0 0 0 0 0 0 0 0 0 0 0 0 0 0 0 0 
0 0 0 0 0 0 0 0 0 0 0 0 0 0 0 0 0 0 0 0 0 0 0 0 0.0025539391208440065384 0.012769696302711963654 0.033201210200786590576 0.035755150020122528076 0.030647270381450653076 0.007661817595362663269 0 0 0 0 0 0 0 0 0 0 0 0 0 0 0 0.0025539391208440065384 0.012769696302711963654 0.033201210200786590576 0.035755150020122528076 0.030647270381450653076 0.007661817595362663269 0 0 0 0 0 0 0 0 0 0 0 0 0 0.0025539391208440065384 0.007661817595362663269 0.010215756483376026154 0.010215756483376026154 0.010215756483376026154 0.010215756483376026154 0.012769696302711963654 0.017877575010061264038 0.020431512966752052307 0.025539392605423927307 0.043416965752840042114 0.043416965752840042114 0.040863025933504104614 0.040863025933504104614 0.040863025933504104614 0.040863025933504104614 0.040863025933504104614 0.040863025933504104614 0.040863025933504104614 0.040863025933504104614 0.045970901846885681152 0.066402420401573181152 0.066402420401573181152 0.045970901846885681152 0.040863025933504104614 0.040863025933504104614 0.043416965752840042114 0.043416965752840042114 0.033201210200786590576 0.045970901846885681152 0.028093332424759864807 0.020431512966752052307 0.020431512966752052307 0.020431512966752052307 0.020431512966752052307 0.020431512966752052307 0.020431512966752052307 0.020431512966752052307 0.025539392605423927307 0.043416965752840042114 0.045970901846885681152 0.056186664849519729614 0.074064239859580993652 0.053632721304893493652 0.063848480582237243652 0.1047115027904510498 0.071510300040245056152 0.038309089839458465576 0.038309089839458465576 0.079172119498252868652 0.089387871325016021729 0.061294540762901306152 0.028093332424759864807 0.035755150020122528076 0.033201210200786590576 0.007661817595362663269 0.0025539391208440065384 0.015323635190725326538 0.035755150020122528076 0.017877575010061264038 0.010215756483376026154 0.012769696302711963654 0.022985450923442840576 0.045970901846885681152 0.045970901846885681152 0.033201210200786590576 0.045970901846885681152 0.022985450923442840576 0.0051078782416880130768 0 0 0 0 0 0 0 0 0 0 0 0 0 0 0 0 0 0 0 0 0 0 0 0 0 0 0 0 0 0 0 0 0 0 0 0 0 0 0 0 0 0 0 0 0 0 0 0 0 0 0 0 0 0 0 0 0 0 0 0 0 0 0 0 0 0 0 0 0 0 0 0 0 0 0 0 0 0 0 0 0 0 0 0 0 0 0 0 0 0 0 0 0 0 0 0 0 0 0 0 0 0 0 0 0 0 0 0 0 0 0 0 0 0 0 0 0 0 0 0 0 0 0 0 0 0 0 0 0 0 0 0 0 0 0 0 0 0 0 0 0 0 0 0.074064232409000396729 0.57208234071731567383 2.2934372425079345703 4.0990719795227050781 1.7647719383239746094 0.20686906576156616211 0 0 0 0 0 0.010215756483376026154 0.043416965752840042114 0.045970901846885681152 0.012769696302711963654 0 0 0 0 0 0 0 0 0 0 0.010215756483376026154 0.043416965752840042114 0.063848480582237243652 0.1251430213451385498 0.28859511017799377441 0.63848477602005004883 1.2156749963760375977 1.4506374597549438477 1.4506374597549438477 1.0088059902191162109 0.37287512421607971191 0.068956352770328521729 0.0051078782416880130768 0 0 0 0 0 0 0 0 0 0 0 0 0 0 0 0 0 0 0 0 0 0 0 0 0 0 0 0 0 0 0 0 0 0 0 0 0 0 0 0 0 0 0 0 0 0 0 0 0 0 0 0 0 0 0 0 0 0 0 0 0 0 0 0 0 0 0 0 0 0 0 0 0 0 0 0 0 0 0 0 0 0 0 0 0 0 0 0 0 0 0 0 0 0 0 0 0 0 0 0 0 0 0 0 0 0 0 0 0 0 0 0 0 0 0 0 0 0 0 0 0 0 0 0 0 0 0 0 0 0 0 0 0 0 0 0 0 0 0 0 0 0 0 0 0 0 0 0 0 0 0 0 0 0 0 0 0 
0 0 0 0 0 0 0 0 0 0 0 0 0 0 0 0 0 0 0 0 0 0 0.0025539391208440065384 0.007661817595362663269 0.015323635190725326538 0.035755150020122528076 0.035755150020122528076 0.015323635190725326538 0.007661817595362663269 0.0025539391208440065384 0 0 0 0 0 0 0 0 0 0 0 0 0 0 0 0.007661817595362663269 0.033201210200786590576 0.035755150020122528076 0.015323635190725326538 0.007661817595362663269 0.0025539391208440065384 0 0 0 0.0025539391208440065384 0.007661817595362663269 0.010215756483376026154 0.010215756483376026154 0.010215756483376026154 0.010215756483376026154 0.010215756483376026154 0.010215756483376026154 0.010215756483376026154 0.010215756483376026154 0.017877575010061264038 0.040863025933504104614 0.043416965752840042114 0.040863025933504104614 0.040863025933504104614 0.040863025933504104614 0.045970901846885681152 0.063848480582237243652 0.063848480582237243652 0.063848480582237243652 0.063848480582237243652 0.045970901846885681152 0.040863025933504104614 0.040863025933504104614 0.040863025933504104614 0.040863025933504104614 0.040863025933504104614 0.040863025933504104614 0.040863025933504104614 0.040863025933504104614 0.043416965752840042114 0.043416965752840042114 0.022985450923442840576 0.012769696302711963654 0.010215756483376026154 0.010215756483376026154 0.010215756483376026154 0.007661817595362663269 0.010215756483376026154 0.030647270381450653076 0.033201210200786590576 0.030647270381450653076 0.030647270381450653076 0.030647270381450653076 0.030647270381450653076 0.030647270381450653076 0.030647270381450653076 0.030647270381450653076 0.033201210200786590576 0.033201210200786590576 0.022985450923442840576 0.043416965752840042114 0.043416965752840042114 0.028093332424759864807 0.061294540762901306152 0.084279991686344146729 0.051078785210847854614 0.074064239859580993652 0.086833931505680084229 0.099603630602359771729 0.068956352770328521729 0.066402420401573181152 0.043416965752840042114 0.033201210200786590576 0.012769696302711963654 0.0051078782416880130768 0.012769696302711963654 0.035755150020122528076 0.033201210200786590576 0.010215756483376026154 0.007661817595362663269 0.015323635190725326538 0.035755150020122528076 0.035755150020122528076 0.012769696302711963654 0.012769696302711963654 0.030647270381450653076 0.010215756483376026154 0 0 0 0 0 0 0 0 0 0 0 0 0 0 0 0 0 0 0 0 0 0 0 0 0 0 0 0 0 0 0 0 0 0 0 0 0 0 0 0 0 0 0 0 0 0 0 0 0 0 0 0 0 0 0 0 0 0 0 0 0 0 0 0 0 0 0 0 0 0 0 0 0 0 0 0 0 0 0 0 0 0 0 0 0 0 0 0 0 0 0 0 0 0 0 0 0 0 0 0 0 0 0 0 0 0 0 0 0 0 0 0 0 0 0 0 0 0 0 0 0 0 0 0 0 0 0 0 0 0 0 0 0 0 0 0 0 0 0 0 0 0 0 0 0.053632721304893493652 0.64103871583938598633 2.6228954792022705078 3.9254043102264404297 1.5323634147644042969 0.14302058517932891846 0 0 0 0 0 0.007661817595362663269 0.043416965752840042114 0.063848480582237243652 0.017877575010061264038 0 0 0 0 0 0 0 0 0 0 0.010215756483376026154 0.043416965752840042114 0.051078785210847854614 0.053632721304893493652 0.16345210373401641846 0.40863028168678283691 0.84535384178161621094 1.2054593563079833984 1.3970047235488891602 1.4327598810195922852 0.83513808250427246094 0.26050180196762084961 0.043416965752840042114 0.0025539391208440065384 0 0 0 0 0 0 0 0 0 0 0 0 0 0 0 0 0 0 0 0 0 0 0 0 0 0 0 0 0 0 0 0 0 0 0 0 0 0 0 0 0 0 0 0 0 0 0 0 0 0 0 0 0 0 0 0 0 0 0 0 0 0 0 0 0 0 0 0 0 0 0 0 0 0 0 0 0 0 0 0 0 0 0 0 0 0 0 0 0 0 0 0 0 0 0 0 0 0 0 0 0 0 0 0 0 0 0 0 0 0 0 0 0 0 0 0 0 0 0 0 0 0 0 0 0 0 0 0 0 0 0 0 0 0 0 0 0 0 0 0 0 0 0 0 0 0 0 0 0 0 0 0 0 0 0 0 
0 0 0 0 0 0 0 0 0 0 0 0 0 0 0 0 0 0 0 0 0 0 0.007661817595362663269 0.030647270381450653076 0.035755150020122528076 0.033201210200786590576 0.012769696302711963654 0.0025539391208440065384 0 0 0 0 0 0 0 0 0 0 0 0 0 0 0 0 0 0.010215756483376026154 0.033201210200786590576 0.015323635190725326538 0.0051078782416880130768 0.007661817595362663269 0.010215756483376026154 0.012769696302711963654 0.017877575010061264038 0.020431512966752052307 0.025539392605423927307 0.043416965752840042114 0.043416965752840042114 0.040863025933504104614 0.040863025933504104614 0.043416965752840042114 0.048524845391511917114 0.051078785210847854614 0.051078785210847854614 0.051078785210847854614 0.058740600943565368652 0.076618179678916931152 0.058740600943565368652 0.051078785210847854614 0.051078785210847854614 0.051078785210847854614 0.053632721304893493652 0.051078785210847854614 0.028093332424759864807 0.020431512966752052307 0.017877575010061264038 0.012769696302711963654 0.010215756483376026154 0.010215756483376026154 0.010215756483376026154 0.010215756483376026154 0.010215756483376026154 0.010215756483376026154 0.010215756483376026154 0.010215756483376026154 0.010215756483376026154 0.007661817595362663269 0.0025539391208440065384 0 0 0 0 0 0.0025539391208440065384 0.007661817595362663269 0.010215756483376026154 0.010215756483376026154 0.010215756483376026154 0.010215756483376026154 0.010215756483376026154 0.010215756483376026154 0.010215756483376026154 0.010215756483376026154 0.012769696302711963654 0.017877575010061264038 0.030647270381450653076 0.056186664849519729614 0.043416965752840042114 0.048524845391511917114 0.097049690783023834229 0.099603630602359771729 0.079172119498252868652 0.10215757042169570923 0.068956352770328521729 0.048524845391511917114 0.030647270381450653076 0.040863025933504104614 0.020431512966752052307 0.007661817595362663269 0.0051078782416880130768 0.012769696302711963654 0.035755150020122528076 0.035755150020122528076 0.012769696302711963654 0.010215756483376026154 0.030647270381450653076 0.035755150020122528076 0.033201210200786590576 0.012769696302711963654 0.0025539391208440065384 0.010215756483376026154 0.030647270381450653076 0.010215756483376026154 0 0 0 0 0 0 0 0 0 0 0 0 0 0 0 0 0 0 0 0 0 0 0 0 0 0 0 0 0 0 0 0 0 0 0 0 0 0 0 0 0 0 0 0 0 0 0 0 0 0 0 0 0 0 0 0 0 0 0 0 0 0 0 0 0 0 0 0 0 0 0 0 0 0 0 0 0 0 0 0 0 0 0 0 0 0 0 0 0 0 0 0 0 0 0 0 0 0 0 0 0 0 0 0 0 0 0 0 0 0 0 0 0 0 0 0 0 0 0 0 0 0 0 0 0 0 0 0 0 0 0 0 0 0 0 0 0 0 0 0 0 0 0 0 0.043416965752840042114 0.71765691041946411133 2.8297646045684814453 3.7542905807495117188 1.3152786493301391602 0.094495743513107299805 0 0 0 0 0 0.0025539391208440065384 0.025539392605423927307 0.066402420401573181152 0.025539392605423927307 0.0025539391208440065384 0 0 0 0 0 0 0 0 0 0.007661817595362663269 0.043416965752840042114 0.063848480582237243652 0.033201210200786590576 0.079172119498252868652 0.20686908066272735596 0.44438540935516357422 0.85046172142028808594 1.2080132961273193359 1.5374712944030761719 1.3178325891494750977 0.68190175294876098633 0.19920724630355834961 0.028093330562114715576 0 0 0 0 0 0 0 0 0 0 0 0 0 0 0 0 0 0 0 0 0 0 0 0 0 0 0 0 0 0 0 0 0 0 0 0 0 0 0 0 0 0 0 0 0 0 0 0 0 0 0 0 0 0 0 0 0 0 0 0 0 0 0 0 0 0 0 0 0 0 0 0 0 0 0 0 0 0 0 0 0 0 0 0 0 0 0 0 0 0 0 0 0 0 0 0 0 0 0 0 0 0 0 0 0 0 0 0 0 0 0 0 0 0 0 0 0 0 0 0 0 0 0 0 0 0 0 0 0 0 0 0 0 0 0 0 0 0 0 0 0 0 0 0 0 0 0 0 0 0 0 0 0 0 0 0 
0 0 0 0 0 0 0 0 0 0 0 0 0 0 0 0 0 0 0 0 0 0.0025539391208440065384 0.015323635190725326538 0.035755150020122528076 0.017877575010061264038 0.007661817595362663269 0.0025539391208440065384 0 0 0 0 0 0 0 0 0 0 0 0 0 0 0 0 0 0.0051078782416880130768 0.025539392605423927307 0.051078785210847854614 0.030647270381450653076 0.025539392605423927307 0.043416965752840042114 0.043416965752840042114 0.045970901846885681152 0.063848480582237243652 0.063848480582237243652 0.063848480582237243652 0.063848480582237243652 0.045970901846885681152 0.040863025933504104614 0.043416965752840042114 0.053632721304893493652 0.074064239859580993652 0.074064239859580993652 0.071510300040245056152 0.071510300040245056152 0.074064239859580993652 0.071510300040245056152 0.048524845391511917114 0.040863025933504104614 0.040863025933504104614 0.040863025933504104614 0.043416965752840042114 0.040863025933504104614 0.017877575010061264038 0.010215756483376026154 0.007661817595362663269 0.0025539391208440065384 0 0 0 0 0 0 0 0 0 0 0 0 0 0 0 0 0 0 0 0 0 0 0 0 0 0 0.010215756483376026154 0.043416965752840042114 0.079172119498252868652 0.10726545006036758423 0.1047115027904510498 0.10726545006036758423 0.13535876572132110596 0.1174812018871307373 0.086833931505680084229 0.071510300040245056152 0.028093332424759864807 0.015323635190725326538 0.020431512966752052307 0.033201210200786590576 0.010215756483376026154 0 0.007661817595362663269 0.033201210200786590576 0.035755150020122528076 0.012769696302711963654 0.0051078782416880130768 0.015323635190725326538 0.035755150020122528076 0.017877575010061264038 0.010215756483376026154 0.010215756483376026154 0.010215756483376026154 0.017877575010061264038 0.033201210200786590576 0.010215756483376026154 0 0 0 0 0 0 0 0 0 0 0 0 0 0 0 0 0 0 0 0 0 0 0 0 0 0 0 0 0 0 0 0 0 0 0 0 0 0 0 0 0 0 0 0 0 0 0 0 0 0 0 0 0 0 0 0 0 0 0 0 0 0 0 0 0 0 0 0 0 0 0 0 0 0 0 0 0 0 0 0 0 0 0 0 0 0 0 0 0 0 0 0 0 0 0 0 0 0 0 0 0 0 0 0 0 0 0 0 0 0 0 0 0 0 0 0 0 0 0 0 0 0 0 0 0 0 0 0 0 0 0 0 0 0 0 0 0 0 0 0 0 0 0 0 0.038309089839458465576 0.82492238283157348633 3.1004822254180908203 3.6163780689239501953 1.0701005458831787109 0.043416965752840042114 0 0 0 0 0 0 0.017877575010061264038 0.066402420401573181152 0.048524845391511917114 0.010215756483376026154 0 0 0 0 0 0 0 0 0 0.0025539391208440065384 0.025539392605423927307 0.063848480582237243652 0.030647270381450653076 0.051078785210847854614 0.1072654426097869873 0.21708482503890991211 0.48269450664520263672 0.90920233726501464844 1.3459259271621704102 1.5553488731384277344 1.2565380334854125977 0.58995991945266723633 0.1276969611644744873 0.007661817595362663269 0 0 0 0 0 0 0 0 0 0 0 0 0 0 0 0 0 0 0 0 0 0 0 0 0 0 0 0 0 0 0 0 0 0 0 0 0 0 0 0 0 0 0 0 0 0 0 0 0 0 0 0 0 0 0 0 0 0 0 0 0 0 0 0 0 0 0 0 0 0 0 0 0 0 0 0 0 0 0 0 0 0 0 0 0 0 0 0 0 0 0 0 0 0 0 0 0 0 0 0 0 0 0 0 0 0 0 0 0 0 0 0 0 0 0 0 0 0 0 0 0 0 0 0 0 0 0 0 0 0 0 0 0 0 0 0 0 0 0 0 0 0 0 0 0 0 0 0 0 0 0 0 0 0 0 
0 0 0 0 0 0 0 0 0 0 0 0 0 0 0 0 0 0 0 0 0 0.007661817595362663269 0.033201210200786590576 0.033201210200786590576 0.007661817595362663269 0 0 0 0 0 0 0 0 0 0 0 0 0 0 0 0 0 0 0.0025539391208440065384 0.022985454648733139038 0.079172119498252868652 0.099603630602359771729 0.071510300040245056152 0.063848480582237243652 0.063848480582237243652 0.045970901846885681152 0.043416965752840042114 0.043416965752840042114 0.025539392605423927307 0.020431512966752052307 0.017877575010061264038 0.012769696302711963654 0.010215756483376026154 0.017877575010061264038 0.043416965752840042114 0.045970901846885681152 0.025539392605423927307 0.020431512966752052307 0.020431512966752052307 0.020431512966752052307 0.017877575010061264038 0.012769696302711963654 0.010215756483376026154 0.010215756483376026154 0.010215756483376026154 0.015323635190725326538 0.033201210200786590576 0.033201210200786590576 0.033201210200786590576 0.033201210200786590576 0.015323635190725326538 0.010215756483376026154 0.010215756483376026154 0.010215756483376026154 0.010215756483376026154 0.010215756483376026154 0.010215756483376026154 0.010215756483376026154 0.007661817595362663269 0.0025539391208440065384 0 0 0 0 0 0 0 0 0 0 0 0 0 0 0 0 0 0.017877575010061264038 0.071510300040245056152 0.084279991686344146729 0.10215757042169570923 0.079172119498252868652 0.061294540762901306152 0.079172119498252868652 0.066402420401573181152 0.033201210200786590576 0.022985450923442840576 0.020431512966752052307 0.035755150020122528076 0.043416965752840042114 0.040863025933504104614 0.017877575010061264038 0.010215756483376026154 0.017877575010061264038 0.035755150020122528076 0.015323635190725326538 0.0051078782416880130768 0.012769696302711963654 0.035755150020122528076 0.033201210200786590576 0.007661817595362663269 0.007661817595362663269 0.030647270381450653076 0.033201210200786590576 0.033201210200786590576 0.030647270381450653076 0.007661817595362663269 0 0 0 0 0 0 0 0 0 0 0 0 0 0 0 0 0 0 0 0 0 0 0 0 0 0 0 0 0 0 0 0 0 0 0 0 0 0 0 0 0 0 0 0 0 0 0 0 0 0 0 0 0 0 0 0 0 0 0 0 0 0 0 0 0 0 0 0 0 0 0 0 0 0 0 0 0 0 0 0 0 0 0 0 0 0 0 0 0 0 0 0 0 0 0 0 0 0 0 0 0 0 0 0 0 0 0 0 0 0 0 0 0 0 0 0 0 0 0 0 0 0 0 0 0 0 0 0 0 0 0 0 0 0 0 0 0 0 0 0 0 0 0 0 0.030647270381450653076 0.96794289350509643555 3.4937887191772460938 3.4631414413452148438 0.88877081871032714844 0.012769696302711963654 0 0 0 0 0 0 0.010215756483376026154 0.048524845391511917114 0.071510300040245056152 0.030647270381450653076 0.010215756483376026154 0.0025539391208440065384 0 0 0 0 0 0 0 0 0.020431512966752052307 0.061294540762901306152 0.028093332424759864807 0.035755150020122528076 0.056186664849519729614 0.1072654426097869873 0.24262422323226928711 0.55420476198196411133 0.95261925458908081055 1.3893429040908813477 1.5859961509704589844 1.1390568017959594727 0.38309085369110107422 0.053632721304893493652 0 0 0 0 0 0 0 0 0 0 0 0 0 0 0 0 0 0 0 0 0 0 0 0 0 0 0 0 0 0 0 0 0 0 0 0 0 0 0 0 0 0 0 0 0 0 0 0 0 0 0 0 0 0 0 0 0 0 0 0 0 0 0 0 0 0 0 0 0 0 0 0 0 0 0 0 0 0 0 0 0 0 0 0 0 0 0 0 0 0 0 0 0 0 0 0 0 0 0 0 0 0 0 0 0 0 0 0 0 0 0 0 0 0 0 0 0 0 0 0 0 0 0 0 0 0 0 0 0 0 0 0 0 0 0 0 0 0 0 0 0 0 0 0 0 0 0 0 0 0 0 0 0 0 0 
0 0 0 0 0 0 0 0 0 0 0 0 0 0 0 0 0 0 0 0 0 0.010215756483376026154 0.033201210200786590576 0.015323635190725326538 0.0025539391208440065384 0 0 0 0 0 0 0 0 0 0 0 0 0 0 0 0 0 0.0051078782416880130768 0.020431512966752052307 0.061294540762901306152 0.1047115027904510498 0.066402420401573181152 0.028093332424759864807 0.020431512966752052307 0.017877575010061264038 0.012769696302711963654 0.010215756483376026154 0.007661817595362663269 0.0025539391208440065384 0 0 0 0.0025539391208440065384 0.017877575010061264038 0.043416965752840042114 0.025539392605423927307 0.012769696302711963654 0.010215756483376026154 0.010215756483376026154 0.007661817595362663269 0.0025539391208440065384 0 0 0 0 0.0025539391208440065384 0.007661817595362663269 0.010215756483376026154 0.015323635190725326538 0.033201210200786590576 0.033201210200786590576 0.030647270381450653076 0.030647270381450653076 0.030647270381450653076 0.030647270381450653076 0.030647270381450653076 0.030647270381450653076 0.033201210200786590576 0.033201210200786590576 0.015323635190725326538 0.010215756483376026154 0.010215756483376026154 0.010215756483376026154 0.010215756483376026154 0.010215756483376026154 0.010215756483376026154 0.010215756483376026154 0.010215756483376026154 0.010215756483376026154 0.010215756483376026154 0.010215756483376026154 0.010215756483376026154 0.010215756483376026154 0.010215756483376026154 0.010215756483376026154 0.010215756483376026154 0.015323635190725326538 0.043416965752840042114 0.099603630602359771729 0.11237332969903945923 0.11237332969903945923 0.068956352770328521729 0.068956352770328521729 0.068956352770328521729 0.045970901846885681152 0.025539392605423927307 0.040863025933504104614 0.045970901846885681152 0.048524845391511917114 0.048524845391511917114 0.040863025933504104614 0.033201210200786590576 0.030647270381450653076 0.033201210200786590576 0.030647270381450653076 0.010215756483376026154 0.012769696302711963654 0.035755150020122528076 0.035755150020122528076 0.012769696302711963654 0.0025539391208440065384 0.010215756483376026154 0.033201210200786590576 0.017877575010061264038 0.010215756483376026154 0.007661817595362663269 0.0025539391208440065384 0 0 0 0 0 0 0 0 0 0 0 0 0 0 0 0 0 0 0 0 0 0 0 0 0 0 0 0 0 0 0 0 0 0 0 0 0 0 0 0 0 0 0 0 0 0 0 0 0 0 0 0 0 0 0 0 0 0 0 0 0 0 0 0 0 0 0 0 0 0 0 0 0 0 0 0 0 0 0 0 0 0 0 0 0 0 0 0 0 0 0 0 0 0 0 0 0 0 0 0 0 0 0 0 0 0 0 0 0 0 0 0 0 0 0 0 0 0 0 0 0 0 0 0 0 0 0 0 0 0 0 0 0 0 0 0 0 0 0 0 0 0 0 0 0.022985454648733139038 1.1645961999893188477 4.0071301460266113281 3.2051935195922851562 0.69977933168411254883 0.0025539391208440065384 0 0 0 0 0 0 0.0025539391208440065384 0.020431512966752052307 0.066402420401573181152 0.068956352770328521729 0.038309089839458465576 0.007661817595362663269 0 0 0 0 0 0 0 0 0.020431512966752052307 0.061294540762901306152 0.022985450923442840576 0.007661817595362663269 0.012769696302711963654 0.033201210200786590576 0.1302509009838104248 0.31413453817367553711 0.55420476198196411133 0.97560471296310424805 1.4659610986709594727 1.5400252342224121094 0.85046172142028808594 0.20431514084339141846 0.017877573147416114807 0 0 0 0 0 0 0 0 0 0 0 0 0 0 0 0 0 0 0 0 0 0 0 0 0 0 0 0 0 0 0 0 0 0 0 0 0 0 0 0 0 0 0 0 0 0 0 0 0 0 0 0 0 0 0 0 0 0 0 0 0 0 0 0 0 0 0 0 0 0 0 0 0 0 0 0 0 0 0 0 0 0 0 0 0 0 0 0 0 0 0 0 0 0 0 0 0 0 0 0 0 0 0 0 0 0 0 0 0 0 0 0 0 0 0 0 0 0 0 0 0 0 0 0 0 0 0 0 0 0 0 0 0 0 0 0 0 0 0 0 0 0 0 0 0 0 0 0 0 0 0 0 0 0 
0 0 0 0 0 0 0 0 0 0 0 0 0 0 0 0 0 0 0 0 0 0.010215756483376026154 0.030647270381450653076 0.010215756483376026154 0 0 0 0 0 0 0 0 0 0 0 0 0 0 0 0 0.0051078782416880130768 0.015323635190725326538 0.033201210200786590576 0.076618179678916931152 0.089387871325016021729 0.079172119498252868652 0.025539392605423927307 0.0025539391208440065384 0 0 0 0 0 0 0.0025539391208440065384 0.007661817595362663269 0.012769696302711963654 0.022985450923442840576 0.051078785210847854614 0.066402420401573181152 0.040863025933504104614 0.030647270381450653076 0.030647270381450653076 0.033201210200786590576 0.033201210200786590576 0.015323635190725326538 0.007661817595362663269 0.0025539391208440065384 0 0 0 0 0 0.0025539391208440065384 0.007661817595362663269 0.010215756483376026154 0.010215756483376026154 0.010215756483376026154 0.010215756483376026154 0.010215756483376026154 0.010215756483376026154 0.010215756483376026154 0.015323635190725326538 0.033201210200786590576 0.033201210200786590576 0.030647270381450653076 0.030647270381450653076 0.030647270381450653076 0.030647270381450653076 0.030647270381450653076 0.030647270381450653076 0.030647270381450653076 0.030647270381450653076 0.030647270381450653076 0.030647270381450653076 0.030647270381450653076 0.030647270381450653076 0.030647270381450653076 0.030647270381450653076 0.033201210200786590576 0.043416965752840042114 0.066402420401573181152 0.1200351417064666748 0.1506824195384979248 0.1328048408031463623 0.094495750963687896729 0.056186664849519729614 0.043416965752840042114 0.030647270381450653076 0.040863025933504104614 0.045970901846885681152 0.063848480582237243652 0.048524845391511917114 0.040863025933504104614 0.035755150020122528076 0.015323635190725326538 0.010215756483376026154 0.010215756483376026154 0.010215756483376026154 0.007661817595362663269 0.010215756483376026154 0.033201210200786590576 0.035755150020122528076 0.012769696302711963654 0.0051078782416880130768 0.007661817595362663269 0.017877575010061264038 0.033201210200786590576 0.010215756483376026154 0 0 0 0 0 0 0 0 0 0 0 0 0 0 0 0 0 0 0 0 0 0 0 0 0 0 0 0 0 0 0 0 0 0 0 0 0 0 0 0 0 0 0 0 0 0 0 0 0 0 0 0 0 0 0 0 0 0 0 0 0 0 0 0 0 0 0 0 0 0 0 0 0 0 0 0 0 0 0 0 0 0 0 0 0 0 0 0 0 0 0 0 0 0 0 0 0 0 0 0 0 0 0 0 0 0 0 0 0 0 0 0 0 0 0 0 0 0 0 0 0 0 0 0 0 0 0 0 0 0 0 0 0 0 0 0 0 0 0 0 0 0 0 0 0 0 0.056186661124229431152 0.41373816132545471191 1.9971803426742553711 4.7605423927307128906 2.7480385303497314453 0.47503268718719482422 0 0 0 0 0 0 0 0 0.0051078782416880130768 0.022985450923442840576 0.053632721304893493652 0.051078785210847854614 0.017877575010061264038 0.0025539391208440065384 0 0 0 0 0 0 0 0.020431512966752052307 0.061294540762901306152 0.020431512966752052307 0 0 0.012769696302711963654 0.068956352770328521729 0.17111392319202423096 0.31668844819068908691 0.60528355836868286133 1.1365028619766235352 1.5630106925964355469 1.3638035058975219727 0.55420476198196411133 0.091941803693771362305 0 0 0 0 0 0 0 0 0 0 0 0 0 0 0 0 0 0 0 0 0 0 0 0 0 0 0 0 0 0 0 0 0 0 0 0 0 0 0 0 0 0 0 0 0 0 0 0 0 0 0 0 0 0 0 0 0 0 0 0 0 0 0 0 0 0 0 0 0 0 0 0 0 0 0 0 0 0 0 0 0 0 0 0 0 0 0 0 0 0 0 0 0 0 0 0 0 0 0 0 0 0 0 0 0 0 0 0 0 0 0 0 0 0 0 0 0 0 0 0 0 0 0 0 0 0 0 0 0 0 0 0 0 0 0 0 0 0 0 0 0 0 0 0 0 0 0 0 0 0 0 0 0 0 
0 0 0 0 0 0 0 0 0 0 0 0 0 0 0 0 0 0 0 0 0.0025539391208440065384 0.015323635190725326538 0.033201210200786590576 0.010215756483376026154 0 0 0 0 0 0 0 0 0 0 0 0 0 0.0025539391208440065384 0.007661817595362663269 0.012769696302711963654 0.030647270381450653076 0.076618179678916931152 0.094495750963687896729 0.10981938987970352173 0.074064239859580993652 0.048524845391511917114 0.012769696302711963654 0 0 0.0025539391208440065384 0.007661817595362663269 0.010215756483376026154 0.010215756483376026154 0.010215756483376026154 0.015323635190725326538 0.035755150020122528076 0.045970901846885681152 0.066402420401573181152 0.068956352770328521729 0.045970901846885681152 0.017877575010061264038 0.010215756483376026154 0.010215756483376026154 0.015323635190725326538 0.033201210200786590576 0.035755150020122528076 0.033201210200786590576 0.015323635190725326538 0.007661817595362663269 0.0025539391208440065384 0 0 0 0 0 0 0 0 0 0 0 0 0.0025539391208440065384 0.007661817595362663269 0.010215756483376026154 0.010215756483376026154 0.010215756483376026154 0.010215756483376026154 0.010215756483376026154 0.010215756483376026154 0.010215756483376026154 0.010215756483376026154 0.010215756483376026154 0.010215756483376026154 0.010215756483376026154 0.010215756483376026154 0.010215756483376026154 0.010215756483376026154 0.012769696302711963654 0.025539392605423927307 0.063848480582237243652 0.11492726951837539673 0.1328048408031463623 0.1251430213451385498 0.1072654426097869873 0.063848480582237243652 0.030647270381450653076 0.025539392605423927307 0.030647270381450653076 0.045970901846885681152 0.035755150020122528076 0.043416965752840042114 0.020431512966752052307 0.010215756483376026154 0.007661817595362663269 0.0025539391208440065384 0 0.0025539391208440065384 0.007661817595362663269 0.010215756483376026154 0.017877575010061264038 0.035755150020122528076 0.015323635190725326538 0.0025539391208440065384 0.007661817595362663269 0.030647270381450653076 0.035755150020122528076 0.030647270381450653076 0.007661817595362663269 0 0 0 0 0 0 0 0 0 0 0 0 0 0 0 0 0 0 0 0 0 0 0 0 0 0 0 0 0 0 0 0 0 0 0 0 0 0 0 0 0 0 0 0 0 0 0 0 0 0 0 0 0 0 0 0 0 0 0 0 0 0 0 0 0 0 0 0 0 0 0 0 0 0 0 0 0 0 0 0 0 0 0 0 0 0 0 0 0 0 0 0 0 0 0 0 0 0 0 0 0 0 0 0 0 0 0 0 0 0 0 0 0 0 0 0 0 0 0 0 0 0 0 0 0 0 0 0 0 0 0 0 0 0 0 0 0 0 0 0 0 0 0 0 0 0 0.25028604269027709961 1.5757803916931152344 4.2727398872375488281 4.94187164306640625 1.9129003286361694336 0.25539392232894897461 0 0 0 0 0 0 0 0 0 0.007661817595362663269 0.040863025933504104614 0.066402420401573181152 0.040863025933504104614 0.007661817595362663269 0 0 0 0 0 0 0 0.020431512966752052307 0.063848480582237243652 0.025539392605423927307 0.0025539391208440065384 0 0.010215756483376026154 0.045970909297466278076 0.094495743513107299805 0.22219270467758178711 0.41629210114479064941 0.82747632265090942383 1.2922931909561157227 1.5349173545837402344 1.0317914485931396484 0.26560968160629272461 0.020431512966752052307 0 0 0 0 0 0 0 0 0 0 0 0 0 0 0 0 0 0 0 0 0 0 0 0 0 0 0 0 0 0 0 0 0 0 0 0 0 0 0 0 0 0 0 0 0 0 0 0 0 0 0 0 0 0 0 0 0 0 0 0 0 0 0 0 0 0 0 0 0 0 0 0 0 0 0 0 0 0 0 0 0 0 0 0 0 0 0 0 0 0 0 0 0 0 0 0 0 0 0 0 0 0 0 0 0 0 0 0 0 0 0 0 0 0 0 0 0 0 0 0 0 0 0 0 0 0 0 0 0 0 0 0 0 0 0 0 0 0 0 0 0 0 0 0 0 0 0 0 0 0 0 0 0 
0 0 0 0 0 0 0 0 0 0 0 0 0 0 0 0 0 0.0025539391208440065384 0.007661817595362663269 0.010215756483376026154 0.015323635190725326538 0.035755150020122528076 0.033201210200786590576 0.007661817595362663269 0 0 0 0 0 0 0 0 0 0.0025539391208440065384 0.007661817595362663269 0.010215756483376026154 0.010215756483376026154 0.015323635190725326538 0.033201210200786590576 0.040863025933504104614 0.076618179678916931152 0.11237332969903945923 0.099603630602359771729 0.081726051867008209229 0.053632721304893493652 0.040863025933504104614 0.017877575010061264038 0.010215756483376026154 0.010215756483376026154 0.015323635190725326538 0.033201210200786590576 0.033201210200786590576 0.030647270381450653076 0.030647270381450653076 0.033201210200786590576 0.040863025933504104614 0.048524845391511917114 0.045970901846885681152 0.022985450923442840576 0.010215756483376026154 0.0025539391208440065384 0 0 0.0025539391208440065384 0.007661817595362663269 0.015323635190725326538 0.033201210200786590576 0.035755150020122528076 0.033201210200786590576 0.012769696302711963654 0.0025539391208440065384 0 0 0 0 0 0 0 0 0 0 0 0 0 0 0 0 0 0 0 0 0 0 0 0.0051078782416880130768 0.017877575010061264038 0.028093332424759864807 0.030647270381450653076 0.040863025933504104614 0.076618179678916931152 0.1098193824291229248 0.11237332969903945923 0.097049690783023834229 0.11492726951837539673 0.084279991686344146729 0.045970901846885681152 0.040863025933504104614 0.061294540762901306152 0.066402420401573181152 0.061294540762901306152 0.040863025933504104614 0.030647270381450653076 0.007661817595362663269 0 0 0 0.0025539391208440065384 0.012769696302711963654 0.033201210200786590576 0.033201210200786590576 0.033201210200786590576 0.030647270381450653076 0.007661817595362663269 0.0025539391208440065384 0.015323635190725326538 0.035755150020122528076 0.017877575010061264038 0.007661817595362663269 0.0025539391208440065384 0 0 0 0 0 0 0 0 0 0 0 0 0 0 0 0 0 0 0 0 0 0 0 0 0 0 0 0 0 0 0 0 0 0 0 0 0 0 0 0 0 0 0 0 0 0 0 0 0 0 0 0 0 0 0 0 0 0 0 0 0 0 0 0 0 0 0 0 0 0 0 0 0 0 0 0 0 0 0 0 0 0 0 0 0 0 0 0 0 0 0 0 0 0 0 0 0 0 0 0 0 0 0 0 0 0 0 0 0 0 0 0 0 0 0 0 0 0 0 0 0 0 0 0 0 0 0 0 0 0 0 0 0 0 0 0 0 0 0 0 0 0 0 0 0 0 0.49801814556121826172 2.5871403217315673828 4.3008337020874023438 2.8144407272338867188 0.95261925458908081055 0.1149272620677947998 0 0 0 0 0 0 0 0 0 0.0025539391208440065384 0.017877575010061264038 0.048524845391511917114 0.043416965752840042114 0.010215756483376026154 0 0 0 0 0 0 0 0.017877575010061264038 0.063848480582237243652 0.043416965752840042114 0.007661817595362663269 0 0.007661817595362663269 0.033201210200786590576 0.058740600943565368652 0.1251430213451385498 0.27071753144264221191 0.58995991945266723633 1.0420072078704833984 1.4302059412002563477 1.4889464378356933594 0.66657811403274536133 0.1302509009838104248 0.010215756483376026154 0 0 0 0 0 0 0 0 0 0 0 0 0 0 0 0 0 0 0 0 0 0 0 0 0 0 0 0 0 0 0 0 0 0 0 0 0 0 0 0 0 0 0 0 0 0 0 0 0 0 0 0 0 0 0 0 0 0 0 0 0 0 0 0 0 0 0 0 0 0 0 0 0 0 0 0 0 0 0 0 0 0 0 0 0 0 0 0 0 0 0 0 0 0 0 0 0 0 0 0 0 0 0 0 0 0 0 0 0 0 0 0 0 0 0 0 0 0 0 0 0 0 0 0 0 0 0 0 0 0 0 0 0 0 0 0 0 0 0 0 0 0 0 0 0 0 0 0 0 0 0 0 
0 0 0 0 0 0 0 0 0 0 0 0 0 0 0 0 0 0.007661817595362663269 0.030647270381450653076 0.033201210200786590576 0.033201210200786590576 0.033201210200786590576 0.012769696302711963654 0.0025539391208440065384 0 0 0 0 0 0 0 0 0.0051078782416880130768 0.020431512966752052307 0.043416965752840042114 0.043416965752840042114 0.040863025933504104614 0.045970901846885681152 0.051078785210847854614 0.043416965752840042114 0.071510300040245056152 0.091941818594932556152 0.058740600943565368652 0.022985450923442840576 0.017877575010061264038 0.033201210200786590576 0.033201210200786590576 0.030647270381450653076 0.030647270381450653076 0.033201210200786590576 0.033201210200786590576 0.015323635190725326538 0.010215756483376026154 0.010215756483376026154 0.010215756483376026154 0.017877575010061264038 0.035755150020122528076 0.015323635190725326538 0.0025539391208440065384 0 0.0025539391208440065384 0.007661817595362663269 0.010215756483376026154 0.010215756483376026154 0.010215756483376026154 0.012769696302711963654 0.017877575010061264038 0.025539392605423927307 0.045970901846885681152 0.045970901846885681152 0.025539392605423927307 0.020431512966752052307 0.017877575010061264038 0.012769696302711963654 0.010215756483376026154 0.010215756483376026154 0.010215756483376026154 0.010215756483376026154 0.010215756483376026154 0.010215756483376026154 0.010215756483376026154 0.010215756483376026154 0.010215756483376026154 0.010215756483376026154 0.010215756483376026154 0.010215756483376026154 0.012769696302711963654 0.017877575010061264038 0.020431512966752052307 0.022985454648733139038 0.028093332424759864807 0.030647270381450653076 0.033201210200786590576 0.038309089839458465576 0.051078785210847854614 0.091941818594932556152 0.10981938987970352173 0.10726545006036758423 0.1225890815258026123 0.16345210373401641846 0.14557452499866485596 0.11237332969903945923 0.091941818594932556152 0.081726051867008209229 0.033201210200786590576 0.012769696302711963654 0.020431512966752052307 0.043416965752840042114 0.028093332424759864807 0.017877575010061264038 0.012769696302711963654 0.007661817595362663269 0.0025539391208440065384 0 0 0 0.007661817595362663269 0.033201210200786590576 0.035755150020122528076 0.015323635190725326538 0.010215756483376026154 0.007661817595362663269 0.0025539391208440065384 0.007661817595362663269 0.033201210200786590576 0.033201210200786590576 0.007661817595362663269 0 0 0 0 0 0 0 0 0 0 0 0 0 0 0 0 0 0 0 0 0 0 0 0 0 0 0 0 0 0 0 0 0 0 0 0 0 0 0 0 0 0 0 0 0 0 0 0 0 0 0 0 0 0 0 0 0 0 0 0 0 0 0 0 0 0 0 0 0 0 0 0 0 0 0 0 0 0 0 0 0 0 0 0 0 0 0 0 0 0 0 0 0 0 0 0 0 0 0 0 0 0 0 0 0 0 0 0 0 0 0 0 0 0 0 0 0 0 0 0 0 0 0 0 0 0 0 0 0 0 0 0 0 0 0 0 0 0 0 0 0 0 0 0 0 0 0 0 0.63848477602005004883 2.8169949054718017578 3.4861268997192382812 1.7136931419372558594 0.43161571025848388672 0.056186661124229431152 0 0 0 0 0 0 0 0 0 0 0.010215756483376026154 0.040863025933504104614 0.040863025933504104614 0.010215756483376026154 0 0 0 0 0 0 0 0.012769696302711963654 0.048524845391511917114 0.048524845391511917114 0.012769696302711963654 0 0.0025539391208440065384 0.007661817595362663269 0.017877575010061264038 0.058740600943565368652 0.16345210373401641846 0.42906177043914794922 0.86833930015563964844 1.2820774316787719727 1.7009234428405761719 1.2335525751113891602 0.42906177043914794922 0.068956352770328521729 0 0 0 0 0 0 0 0 0 0 0 0 0 0 0 0 0 0 0 0 0 0 0 0 0 0 0 0 0 0 0 0 0 0 0 0 0 0 0 0 0 0 0 0 0 0 0 0 0 0 0 0 0 0 0 0 0 0 0 0 0 0 0 0 0 0 0 0 0 0 0 0 0 0 0 0 0 0 0 0 0 0 0 0 0 0 0 0 0 0 0 0 0 0 0 0 0 0 0 0 0 0 0 0 0 0 0 0 0 0 0 0 0 0 0 0 0 0 0 0 0 0 0 0 0 0 0 0 0 0 0 0 0 0 0 0 0 0 0 0 0 0 0 0 0 0 0 0 0 0 0 0 
0 0 0 0 0 0 0 0 0 0 0 0 0 0 0.0025539391208440065384 0.007661817595362663269 0.010215756483376026154 0.020431512966752052307 0.043416965752840042114 0.028093332424759864807 0.020431512966752052307 0.017877575010061264038 0.012769696302711963654 0.007661817595362663269 0.0025539391208440065384 0 0 0 0.0025539391208440065384 0.007661817595362663269 0.010215756483376026154 0.010215756483376026154 0.022985450923442840576 0.066402420401573181152 0.068956352770328521729 0.045970901846885681152 0.043416965752840042114 0.053632721304893493652 0.071510300040245056152 0.068956352770328521729 0.074064239859580993652 0.071510300040245056152 0.022985450923442840576 0.0025539391208440065384 0.0025539391208440065384 0.007661817595362663269 0.010215756483376026154 0.010215756483376026154 0.010215756483376026154 0.010215756483376026154 0.007661817595362663269 0.0025539391208440065384 0 0 0.0025539391208440065384 0.015323635190725326538 0.033201210200786590576 0.010215756483376026154 0.0025539391208440065384 0.007661817595362663269 0.015323635190725326538 0.033201210200786590576 0.033201210200786590576 0.030647270381450653076 0.033201210200786590576 0.038309089839458465576 0.040863025933504104614 0.043416965752840042114 0.053632721304893493652 0.071510300040245056152 0.066402420401573181152 0.063848480582237243652 0.063848480582237243652 0.045970901846885681152 0.040863025933504104614 0.040863025933504104614 0.040863025933504104614 0.040863025933504104614 0.040863025933504104614 0.040863025933504104614 0.040863025933504104614 0.040863025933504104614 0.040863025933504104614 0.040863025933504104614 0.040863025933504104614 0.040863025933504104614 0.045970901846885681152 0.063848480582237243652 0.066402420401573181152 0.074064239859580993652 0.094495750963687896729 0.094495750963687896729 0.099603630602359771729 0.1225890815258026123 0.1302509009838104248 0.1302509009838104248 0.094495750963687896729 0.074064239859580993652 0.097049690783023834229 0.099603630602359771729 0.058740600943565368652 0.045970909297466278076 0.056186664849519729614 0.043416965752840042114 0.012769696302711963654 0.007661817595362663269 0.017877575010061264038 0.033201210200786590576 0.010215756483376026154 0 0 0 0 0 0 0 0.010215756483376026154 0.033201210200786590576 0.015323635190725326538 0.0025539391208440065384 0 0 0.0025539391208440065384 0.015323635190725326538 0.035755150020122528076 0.015323635190725326538 0.0025539391208440065384 0 0 0 0 0 0 0 0 0 0 0 0 0 0 0 0 0 0 0 0 0 0 0 0 0 0 0 0 0 0 0 0 0 0 0 0 0 0 0 0 0 0 0 0 0 0 0 0 0 0 0 0 0 0 0 0 0 0 0 0 0 0 0 0 0 0 0 0 0 0 0 0 0 0 0 0 0 0 0 0 0 0 0 0 0 0 0 0 0 0 0 0 0 0 0 0 0 0 0 0 0 0 0 0 0 0 0 0 0 0 0 0 0 0 0 0 0 0 0 0 0 0 0 0 0 0 0 0 0 0 0 0 0 0 0 0 0 0 0 0 0 0 0 0 0 0 0 0 0.67679387331008911133 2.8246567249298095703 3.2230710983276367188 1.4097744226455688477 0.29881089925765991211 0.035755146294832229614 0 0 0 0 0 0 0 0 0 0 0.010215756483376026154 0.040863025933504104614 0.040863025933504104614 0.010215756483376026154 0 0 0 0 0 0 0 0.007661817595362663269 0.043416965752840042114 0.063848480582237243652 0.017877575010061264038 0 0 0 0.0025539391208440065384 0.012769696302711963654 0.048524845391511917114 0.19920724630355834961 0.53377330303192138672 0.96283507347106933594 1.4480835199356079102 1.5400252342224121094 0.90920233726501464844 0.21197694540023803711 0.015323635190725326538 0 0 0 0 0 0 0 0 0 0 0 0 0 0 0 0 0 0 0 0 0 0 0 0 0 0 0 0 0 0 0 0 0 0 0 0 0 0 0 0 0 0 0 0 0 0 0 0 0 0 0 0 0 0 0 0 0 0 0 0 0 0 0 0 0 0 0 0 0 0 0 0 0 0 0 0 0 0 0 0 0 0 0 0 0 0 0 0 0 0 0 0 0 0 0 0 0 0 0 0 0 0 0 0 0 0 0 0 0 0 0 0 0 0 0 0 0 0 0 0 0 0 0 0 0 0 0 0 0 0 0 0 0 0 0 0 0 0 0 0 0 0 0 0 0 0 0 0 0 0 0 
0 0 0 0 0 0 0 0 0 0 0 0 0 0.0025539391208440065384 0.017877575010061264038 0.048524845391511917114 0.053632721304893493652 0.061294540762901306152 0.081726051867008209229 0.061294540762901306152 0.051078785210847854614 0.051078785210847854614 0.053632721304893493652 0.053632721304893493652 0.035755150020122528076 0.028093332424759864807 0.022985454648733139038 0.020431512966752052307 0.025539392605423927307 0.043416965752840042114 0.045970901846885681152 0.048524845391511917114 0.061294540762901306152 0.079172119498252868652 0.040863025933504104614 0.022985450923442840576 0.025539392605423927307 0.045970901846885681152 0.045970901846885681152 0.028093332424759864807 0.033201210200786590576 0.043416965752840042114 0.012769696302711963654 0 0 0 0 0 0 0 0 0 0.0025539391208440065384 0.010215756483376026154 0.025539392605423927307 0.053632721304893493652 0.053632721304893493652 0.028093332424759864807 0.025539392605423927307 0.043416965752840042114 0.045970901846885681152 0.043416965752840042114 0.025539392605423927307 0.020431512966752052307 0.025539392605423927307 0.043416965752840042114 0.043416965752840042114 0.040863025933504104614 0.045970901846885681152 0.051078785210847854614 0.035755150020122528076 0.035755150020122528076 0.053632721304893493652 0.053632721304893493652 0.051078785210847854614 0.051078785210847854614 0.051078785210847854614 0.051078785210847854614 0.051078785210847854614 0.051078785210847854614 0.051078785210847854614 0.051078785210847854614 0.051078785210847854614 0.051078785210847854614 0.051078785210847854614 0.051078785210847854614 0.053632721304893493652 0.053632721304893493652 0.040863025933504104614 0.056186664849519729614 0.056186664849519729614 0.035755150020122528076 0.040863025933504104614 0.063848480582237243652 0.048524845391511917114 0.035755150020122528076 0.025539392605423927307 0.030647270381450653076 0.053632721304893493652 0.038309089839458465576 0.038309089839458465576 0.038309089839458465576 0.040863025933504104614 0.022985450923442840576 0.017877575010061264038 0.033201210200786590576 0.035755150020122528076 0.030647270381450653076 0.007661817595362663269 0 0 0 0 0 0 0 0.010215756483376026154 0.030647270381450653076 0.010215756483376026154 0 0 0 0.007661817595362663269 0.033201210200786590576 0.033201210200786590576 0.007661817595362663269 0 0 0 0 0 0 0 0 0 0 0 0 0 0 0 0 0 0 0 0 0 0 0 0 0 0 0 0 0 0 0 0 0 0 0 0 0 0 0 0 0 0 0 0 0 0 0 0 0 0 0 0 0 0 0 0 0 0 0 0 0 0 0 0 0 0 0 0 0 0 0 0 0 0 0 0 0 0 0 0 0 0 0 0 0 0 0 0 0 0 0 0 0 0 0 0 0 0 0 0 0 0 0 0 0 0 0 0 0 0 0 0 0 0 0 0 0 0 0 0 0 0 0 0 0 0 0 0 0 0 0 0 0 0 0 0 0 0 0 0 0 0 0 0 0 0 0 0.0025539391208440065384 0.05874059721827507019 0.87089323997497558594 3.1030361652374267578 3.4248323440551757812 1.3306022882461547852 0.22730058431625366211 0.022985454648733139038 0 0 0 0 0 0 0 0 0 0 0.010215756483376026154 0.040863025933504104614 0.040863025933504104614 0.010215756483376026154 0 0 0 0 0 0 0 0.0025539391208440065384 0.025539392605423927307 0.063848480582237243652 0.020431512966752052307 0 0 0 0 0 0.0051078782416880130768 0.056186661124229431152 0.25794786214828491211 0.67423993349075317383 1.1671502590179443359 1.5093779563903808594 1.2488762140274047852 0.48780238628387451172 0.084279991686344146729 0.0051078782416880130768 0 0 0 0 0 0 0 0 0 0 0 0 0 0 0 0 0 0 0 0 0 0 0 0 0 0 0 0 0 0 0 0 0 0 0 0 0 0 0 0 0 0 0 0 0 0 0 0 0 0 0 0 0 0 0 0 0 0 0 0 0 0 0 0 0 0 0 0 0 0 0 0 0 0 0 0 0 0 0 0 0 0 0 0 0 0 0 0 0 0 0 0 0 0 0 0 0 0 0 0 0 0 0 0 0 0 0 0 0 0 0 0 0 0 0 0 0 0 0 0 0 0 0 0 0 0 0 0 0 0 0 0 0 0 0 0 0 0 0 0 0 0 0 0 0 0 0 0 0 0 
0 0 0 0 0 0 0 0 0 0 0 0.0025539391208440065384 0.010215756483376026154 0.025539392605423927307 0.063848480582237243652 0.10215757042169570923 0.081726051867008209229 0.081726051867008209229 0.10215757042169570923 0.081726051867008209229 0.071510300040245056152 0.071510300040245056152 0.076618179678916931152 0.094495750963687896729 0.097049690783023834229 0.094495750963687896729 0.076618179678916931152 0.071510300040245056152 0.074064239859580993652 0.074064239859580993652 0.061294540762901306152 0.074064239859580993652 0.076618179678916931152 0.068956352770328521729 0.040863025933504104614 0.030647270381450653076 0.033201210200786590576 0.033201210200786590576 0.017877575010061264038 0.025539392605423927307 0.053632721304893493652 0.053632721304893493652 0.028093332424759864807 0.020431512966752052307 0.020431512966752052307 0.022985454648733139038 0.028093332424759864807 0.030647270381450653076 0.030647270381450653076 0.030647270381450653076 0.030647270381450653076 0.030647270381450653076 0.035755150020122528076 0.058740600943565368652 0.084279991686344146729 0.099603630602359771729 0.076618179678916931152 0.063848480582237243652 0.063848480582237243652 0.063848480582237243652 0.045970901846885681152 0.038309089839458465576 0.033201210200786590576 0.030647270381450653076 0.033201210200786590576 0.033201210200786590576 0.015323635190725326538 0.010215756483376026154 0.015323635190725326538 0.033201210200786590576 0.033201210200786590576 0.033201210200786590576 0.038309089839458465576 0.040863025933504104614 0.043416965752840042114 0.048524845391511917114 0.051078785210847854614 0.051078785210847854614 0.051078785210847854614 0.048524845391511917114 0.043416965752840042114 0.040863025933504104614 0.040863025933504104614 0.040863025933504104614 0.040863025933504104614 0.040863025933504104614 0.040863025933504104614 0.038309089839458465576 0.035755150020122528076 0.033201210200786590576 0.012769696302711963654 0.0051078782416880130768 0.015323635190725326538 0.035755150020122528076 0.017877575010061264038 0.010215756483376026154 0.017877575010061264038 0.051078785210847854614 0.074064239859580993652 0.053632721304893493652 0.043416965752840042114 0.030647270381450653076 0.040863025933504104614 0.035755150020122528076 0.033201210200786590576 0.033201210200786590576 0.015323635190725326538 0.007661817595362663269 0.0025539391208440065384 0 0 0 0 0 0 0 0.010215756483376026154 0.030647270381450653076 0.010215756483376026154 0 0 0 0.010215756483376026154 0.033201210200786590576 0.015323635190725326538 0.0025539391208440065384 0 0 0 0 0 0 0 0 0 0 0 0 0 0 0 0 0 0 0 0 0 0 0 0 0 0 0 0 0 0 0 0 0 0 0 0 0 0 0 0 0 0 0 0 0 0 0 0 0 0 0 0 0 0 0 0 0 0 0 0 0 0 0 0 0 0 0 0 0 0 0 0 0 0 0 0 0 0 0 0 0 0 0 0 0 0 0 0 0 0 0 0 0 0 0 0 0 0 0 0 0 0 0 0 0 0 0 0 0 0 0 0 0 0 0 0 0 0 0 0 0 0 0 0 0 0 0 0 0 0 0 0 0 0 0 0 0 0 0 0 0 0 0 0 0 0 0 0.10726543515920639038 0.50057202577590942383 1.7698798179626464844 3.8513402938842773438 3.4631414413452148438 1.0496690273284912109 0.099603630602359771729 0.007661817595362663269 0 0 0 0 0 0 0 0 0 0 0.010215756483376026154 0.040863025933504104614 0.043416965752840042114 0.015323635190725326538 0.0025539391208440065384 0 0 0 0 0 0 0 0.020431512966752052307 0.061294540762901306152 0.020431512966752052307 0 0 0 0 0 0 0.017877575010061264038 0.13535876572132110596 0.43416965007781982422 0.90664839744567871094 1.3791271448135375977 1.4199901819229125977 0.88366293907165527344 0.26050180196762084961 0.028093330562114715576 0 0 0 0 0 0 0 0 0 0 0 0 0 0 0 0 0 0 0 0 0 0 0 0 0 0 0 0 0 0 0 0 0 0 0 0 0 0 0 0 0 0 0 0 0 0 0 0 0 0 0 0 0 0 0 0 0 0 0 0 0 0 0 0 0 0 0 0 0 0 0 0 0 0 0 0 0 0 0 0 0 0 0 0 0 0 0 0 0 0 0 0 0 0 0 0 0 0 0 0 0 0 0 0 0 0 0 0 0 0 0 0 0 0 0 0 0 0 0 0 0 0 0 0 0 0 0 0 0 0 0 0 0 0 0 0 0 0 0 0 0 0 0 0 0 0 0 0 0 0 
0 0 0 0 0 0 0 0 0 0.0025539391208440065384 0.007661817595362663269 0.017877575010061264038 0.045970901846885681152 0.076618179678916931152 0.10215757042169570923 0.081726051867008209229 0.033201210200786590576 0.030647270381450653076 0.051078785210847854614 0.030647270381450653076 0.020431512966752052307 0.020431512966752052307 0.022985454648733139038 0.028093332424759864807 0.035755150020122528076 0.053632721304893493652 0.053632721304893493652 0.051078785210847854614 0.051078785210847854614 0.048524845391511917114 0.045970901846885681152 0.043416965752840042114 0.025539392605423927307 0.017877575010061264038 0.012769696302711963654 0.010215756483376026154 0.010215756483376026154 0.007661817595362663269 0.022985450923442840576 0.084279991686344146729 0.11237332969903945923 0.086833931505680084229 0.074064239859580993652 0.071510300040245056152 0.071510300040245056152 0.076618179678916931152 0.094495750963687896729 0.094495750963687896729 0.091941818594932556152 0.091941818594932556152 0.091941818594932556152 0.091941818594932556152 0.094495750963687896729 0.097049690783023834229 0.081726051867008209229 0.056186664849519729614 0.028093332424759864807 0.020431512966752052307 0.020431512966752052307 0.017877575010061264038 0.012769696302711963654 0.010215756483376026154 0.010215756483376026154 0.010215756483376026154 0.010215756483376026154 0.007661817595362663269 0.0025539391208440065384 0 0.0025539391208440065384 0.007661817595362663269 0.010215756483376026154 0.012769696302711963654 0.017877575010061264038 0.020431512966752052307 0.025539392605423927307 0.043416965752840042114 0.043416965752840042114 0.040863025933504104614 0.043416965752840042114 0.043416965752840042114 0.025539392605423927307 0.020431512966752052307 0.020431512966752052307 0.020431512966752052307 0.020431512966752052307 0.020431512966752052307 0.020431512966752052307 0.020431512966752052307 0.020431512966752052307 0.017877575010061264038 0.012769696302711963654 0.017877575010061264038 0.043416965752840042114 0.051078785210847854614 0.048524845391511917114 0.043416965752840042114 0.048524845391511917114 0.076618179678916931152 0.079172119498252868652 0.051078785210847854614 0.038309089839458465576 0.035755150020122528076 0.033201210200786590576 0.015323635190725326538 0.010215756483376026154 0.007661817595362663269 0.0025539391208440065384 0 0 0 0 0 0 0 0 0.0025539391208440065384 0.015323635190725326538 0.033201210200786590576 0.010215756483376026154 0 0.0025539391208440065384 0.007661817595362663269 0.017877575010061264038 0.033201210200786590576 0.010215756483376026154 0 0 0 0 0 0 0 0 0 0 0 0 0 0 0 0 0 0 0 0 0 0 0 0 0 0 0 0 0 0 0 0 0 0 0 0 0 0 0 0 0 0 0 0 0 0 0 0 0 0 0 0 0 0 0 0 0 0 0 0 0 0 0 0 0 0 0 0 0 0 0 0 0 0 0 0 0 0 0 0 0 0 0 0 0 0 0 0 0 0 0 0 0 0 0 0 0 0 0 0 0 0 0 0 0 0 0 0 0 0 0 0 0 0 0 0 0 0 0 0 0 0 0 0 0 0 0 0 0 0 0 0 0 0 0 0 0 0 0 0 0 0 0 0 0 0 0 0.081726051867008209229 0.54143506288528442383 1.7494482994079589844 2.8936131000518798828 3.7338588237762451172 2.7301609516143798828 0.71254903078079223633 0.030647270381450653076 0 0 0 0 0 0 0 0 0 0 0 0.010215756483376026154 0.040863025933504104614 0.048524845391511917114 0.035755150020122528076 0.007661817595362663269 0 0 0 0 0 0 0 0.020431512966752052307 0.061294540762901306152 0.020431512966752052307 0 0 0 0 0 0 0.0051078782416880130768 0.045970901846885681152 0.21708482503890991211 0.65891629457473754883 1.2437683343887329102 1.5247015953063964844 1.3459259271621704102 0.59251385927200317383 0.1200351417064666748 0.007661817595362663269 0 0 0 0 0 0 0 0 0 0 0 0 0 0 0 0 0 0 0 0 0 0 0 0 0 0 0 0 0 0 0 0 0 0 0 0 0 0 0 0 0 0 0 0 0 0 0 0 0 0 0 0 0 0 0 0 0 0 0 0 0 0 0 0 0 0 0 0 0 0 0 0 0 0 0 0 0 0 0 0 0 0 0 0 0 0 0 0 0 0 0 0 0 0 0 0 0 0 0 0 0 0 0 0 0 0 0 0 0 0 0 0 0 0 0 0 0 0 0 0 0 0 0 0 0 0 0 0 0 0 0 0 0 0 0 0 0 0 0 0 0 0 0 0 0 0 0 0 0 
0 0 0 0 0 0 0 0 0.0025539391208440065384 0.012769696302711963654 0.035755150020122528076 0.051078785210847854614 0.076618179678916931152 0.068956352770328521729 0.058740600943565368652 0.025539392605423927307 0.0051078782416880130768 0.010215756483376026154 0.030647270381450653076 0.010215756483376026154 0 0 0 0 0.0025539391208440065384 0.007661817595362663269 0.010215756483376026154 0.010215756483376026154 0.010215756483376026154 0.010215756483376026154 0.010215756483376026154 0.007661817595362663269 0.0025539391208440065384 0 0 0 0 0.007661817595362663269 0.051078785210847854614 0.13791270554065704346 0.10215757042169570923 0.058740600943565368652 0.051078785210847854614 0.051078785210847854614 0.051078785210847854614 0.053632721304893493652 0.053632721304893493652 0.035755150020122528076 0.030647270381450653076 0.030647270381450653076 0.030647270381450653076 0.030647270381450653076 0.030647270381450653076 0.028093332424759864807 0.020431512966752052307 0.010215756483376026154 0.0025539391208440065384 0 0 0 0 0 0 0 0 0 0 0 0 0.0025539391208440065384 0.010215756483376026154 0.022985450923442840576 0.043416965752840042114 0.043416965752840042114 0.043416965752840042114 0.043416965752840042114 0.025539392605423927307 0.020431512966752052307 0.025539392605423927307 0.043416965752840042114 0.043416965752840042114 0.040863025933504104614 0.040863025933504104614 0.040863025933504104614 0.040863025933504104614 0.040863025933504104614 0.040863025933504104614 0.040863025933504104614 0.043416965752840042114 0.048524845391511917114 0.051078785210847854614 0.058740600943565368652 0.076618179678916931152 0.063848480582237243652 0.068956352770328521729 0.048524845391511917114 0.045970901846885681152 0.056186664849519729614 0.051078785210847854614 0.020431512966752052307 0.010215756483376026154 0.010215756483376026154 0.007661817595362663269 0.0025539391208440065384 0 0 0 0 0 0 0 0 0 0 0.0025539391208440065384 0.012769696302711963654 0.035755150020122528076 0.033201210200786590576 0.007661817595362663269 0.0025539391208440065384 0.012769696302711963654 0.033201210200786590576 0.035755150020122528076 0.030647270381450653076 0.007661817595362663269 0 0 0 0 0 0 0 0 0 0 0 0 0 0 0 0 0 0 0 0 0 0 0 0 0 0 0 0 0 0 0 0 0 0 0 0 0 0 0 0 0 0 0 0 0 0 0 0 0 0 0 0 0 0 0 0 0 0 0 0 0 0 0 0 0 0 0 0 0 0 0 0 0 0 0 0 0 0 0 0 0 0 0 0 0 0 0 0 0 0 0 0 0 0 0 0 0 0 0 0 0 0 0 0 0 0 0 0 0 0 0 0 0 0 0 0 0 0 0 0 0 0 0 0 0 0 0 0 0 0 0 0 0 0 0 0 0 0 0 0 0 0 0 0 0 0 0 0.29114907979965209961 1.4710688591003417969 2.5564930438995361328 2.5054144859313964844 2.5896942615509033203 1.9767488241195678711 0.50823384523391723633 0.012769696302711963654 0 0 0 0 0 0 0 0 0 0 0 0.007661817595362663269 0.035755150020122528076 0.048524845391511917114 0.040863025933504104614 0.010215756483376026154 0 0 0 0 0 0 0 0.020431512966752052307 0.061294540762901306152 0.020431512966752052307 0 0 0 0 0 0 0 0.015323635190725326538 0.1225890815258026123 0.40863028168678283691 0.86067748069763183594 1.2616459131240844727 1.5885500907897949219 1.1697040796279907227 0.41118422150611877441 0.066402420401573181152 0 0 0 0 0 0 0 0 0 0 0 0 0 0 0 0 0 0 0 0 0 0 0 0 0 0 0 0 0 0 0 0 0 0 0 0 0 0 0 0 0 0 0 0 0 0 0 0 0 0 0 0 0 0 0 0 0 0 0 0 0 0 0 0 0 0 0 0 0 0 0 0 0 0 0 0 0 0 0 0 0 0 0 0 0 0 0 0 0 0 0 0 0 0 0 0 0 0 0 0 0 0 0 0 0 0 0 0 0 0 0 0 0 0 0 0 0 0 0 0 0 0 0 0 0 0 0 0 0 0 0 0 0 0 0 0 0 0 0 0 0 0 0 0 0 0 0 0 0 
0 0 0 0 0 0.0025539391208440065384 0.007661817595362663269 0.010215756483376026154 0.015323635190725326538 0.040863025933504104614 0.056186664849519729614 0.066402420401573181152 0.079172119498252868652 0.058740600943565368652 0.043416965752840042114 0.017877575010061264038 0.010215756483376026154 0.017877575010061264038 0.033201210200786590576 0.010215756483376026154 0 0 0 0 0 0 0 0 0 0 0 0 0 0 0.0025539391208440065384 0.007661817595362663269 0.015323635190725326538 0.043416965752840042114 0.1225890815258026123 0.13791270554065704346 0.045970901846885681152 0.012769696302711963654 0.010215756483376026154 0.010215756483376026154 0.010215756483376026154 0.010215756483376026154 0.007661817595362663269 0.0025539391208440065384 0 0 0 0 0 0 0 0 0 0 0 0 0 0 0 0 0 0 0.0025539391208440065384 0.007661817595362663269 0.010215756483376026154 0.017877575010061264038 0.045970901846885681152 0.068956352770328521729 0.066402420401573181152 0.045970901846885681152 0.040863025933504104614 0.038309089839458465576 0.033201210200786590576 0.030647270381450653076 0.033201210200786590576 0.038309089839458465576 0.040863025933504104614 0.040863025933504104614 0.040863025933504104614 0.040863025933504104614 0.040863025933504104614 0.040863025933504104614 0.040863025933504104614 0.040863025933504104614 0.048524845391511917114 0.071510300040245056152 0.074064239859580993652 0.074064239859580993652 0.074064239859580993652 0.058740600943565368652 0.051078785210847854614 0.028093332424759864807 0.025539392605423927307 0.043416965752840042114 0.035755150020122528076 0.007661817595362663269 0 0 0 0 0 0 0 0 0 0 0 0 0 0 0.007661817595362663269 0.033201210200786590576 0.035755150020122528076 0.015323635190725326538 0.010215756483376026154 0.015323635190725326538 0.035755150020122528076 0.035755150020122528076 0.015323635190725326538 0.007661817595362663269 0.0025539391208440065384 0 0 0 0 0 0 0 0 0 0 0 0 0 0 0 0 0 0 0 0 0 0 0 0 0 0 0 0 0 0 0 0 0 0 0 0 0 0 0 0 0 0 0 0 0 0 0 0 0 0 0 0 0 0 0 0 0 0 0 0 0 0 0 0 0 0 0 0 0 0 0 0 0 0 0 0 0 0 0 0 0 0 0 0 0 0 0 0 0 0 0 0 0 0 0 0 0 0 0 0 0 0 0 0 0 0 0 0 0 0 0 0 0 0 0 0 0 0 0 0 0 0 0 0 0 0 0 0 0 0 0 0 0 0 0 0 0 0 0 0 0 0 0 0 0 0 0 0.48014056682586669922 1.9895186424255371094 2.3215308189392089844 1.8899149894714355469 2.0176119804382324219 1.6651681661605834961 0.42650783061981201172 0.007661817595362663269 0 0 0 0 0 0 0 0 0 0 0 0.0025539391208440065384 0.015323635190725326538 0.043416965752840042114 0.040863025933504104614 0.010215756483376026154 0 0 0 0 0 0 0 0.020431512966752052307 0.063848480582237243652 0.028093332424759864807 0.007661817595362663269 0.0025539391208440065384 0 0 0 0 0 0.0051078782416880130768 0.051078785210847854614 0.25283998250961303711 0.61039149761199951172 0.99348229169845581055 1.4353138208389282227 1.5783343315124511719 0.94751137495040893555 0.24007026851177215576 0.025539390742778778076 0 0 0 0 0 0 0 0 0 0 0 0 0 0 0 0 0 0 0 0 0 0 0 0 0 0 0 0 0 0 0 0 0 0 0 0 0 0 0 0 0 0 0 0 0 0 0 0 0 0 0 0 0 0 0 0 0 0 0 0 0 0 0 0 0 0 0 0 0 0 0 0 0 0 0 0 0 0 0 0 0 0 0 0 0 0 0 0 0 0 0 0 0 0 0 0 0 0 0 0 0 0 0 0 0 0 0 0 0 0 0 0 0 0 0 0 0 0 0 0 0 0 0 0 0 0 0 0 0 0 0 0 0 0 0 0 0 0 0 0 0 0 0 0 0 0 0 0 
0 0 0.0025539391208440065384 0.007661817595362663269 0.010215756483376026154 0.015323635190725326538 0.035755150020122528076 0.043416965752840042114 0.051078785210847854614 0.063848480582237243652 0.081726051867008209229 0.074064239859580993652 0.053632721304893493652 0.048524845391511917114 0.040863025933504104614 0.033201210200786590576 0.030647270381450653076 0.033201210200786590576 0.030647270381450653076 0.007661817595362663269 0 0 0 0 0.0025539391208440065384 0.007661817595362663269 0.010215756483376026154 0.010215756483376026154 0.010215756483376026154 0.010215756483376026154 0.010215756483376026154 0.010215756483376026154 0.010215756483376026154 0.010215756483376026154 0.015323635190725326538 0.033201210200786590576 0.048524845391511917114 0.1072654426097869873 0.13791270554065704346 0.071510300040245056152 0.015323635190725326538 0 0 0 0 0 0 0 0 0 0 0 0 0 0 0 0 0 0 0 0 0 0.0025539391208440065384 0.007661817595362663269 0.010215756483376026154 0.010215756483376026154 0.015323635190725326538 0.033201210200786590576 0.035755150020122528076 0.045970901846885681152 0.068956352770328521729 0.051078785210847854614 0.022985450923442840576 0.012769696302711963654 0.010215756483376026154 0.010215756483376026154 0.010215756483376026154 0.010215756483376026154 0.010215756483376026154 0.010215756483376026154 0.010215756483376026154 0.010215756483376026154 0.010215756483376026154 0.010215756483376026154 0.010215756483376026154 0.010215756483376026154 0.010215756483376026154 0.010215756483376026154 0.020431512966752052307 0.043416965752840042114 0.028093332424759864807 0.022985450923442840576 0.030647270381450653076 0.045970901846885681152 0.040863025933504104614 0.033201210200786590576 0.033201210200786590576 0.033201210200786590576 0.012769696302711963654 0.0025539391208440065384 0 0 0 0 0 0 0 0 0 0 0 0 0 0 0.010215756483376026154 0.033201210200786590576 0.017877575010061264038 0.015323635190725326538 0.033201210200786590576 0.035755150020122528076 0.033201210200786590576 0.012769696302711963654 0.0025539391208440065384 0 0 0 0 0 0 0 0 0 0 0 0 0 0 0 0 0 0 0 0 0 0 0 0 0 0 0 0 0 0 0 0 0 0 0 0 0 0 0 0 0 0 0 0 0 0 0 0 0 0 0 0 0 0 0 0 0 0 0 0 0 0 0 0 0 0 0 0 0 0 0 0 0 0 0 0 0 0 0 0 0 0 0 0 0 0 0 0 0 0 0 0 0 0 0 0 0 0 0 0 0 0 0 0 0 0 0 0 0 0 0 0 0 0 0 0 0 0 0 0 0 0 0 0 0 0 0 0 0 0 0 0 0 0 0 0 0 0 0 0 0 0 0 0 0 0 0 0 0 0.60528355836868286133 2.2755596637725830078 2.4032566547393798828 2.0354895591735839844 2.0635828971862792969 1.4123283624649047852 0.31668844819068908691 0.0025539391208440065384 0 0 0 0 0 0 0 0 0 0 0 0 0.010215756483376026154 0.040863025933504104614 0.043416965752840042114 0.017877575010061264038 0.007661817595362663269 0.0025539391208440065384 0 0 0 0 0 0.017877575010061264038 0.061294540762901306152 0.045970901846885681152 0.030647270381450653076 0.007661817595362663269 0 0 0 0 0 0 0.020431512966752052307 0.13791270554065704346 0.38053691387176513672 0.70744115114212036133 1.0981937646865844727 1.4072204828262329102 1.3025088310241699219 0.61805325746536254883 0.1302509009838104248 0.010215756483376026154 0 0 0 0 0 0 0 0 0 0 0 0 0 0 0 0 0 0 0 0 0 0 0 0 0 0 0 0 0 0 0 0 0 0 0 0 0 0 0 0 0 0 0 0 0 0 0 0 0 0 0 0 0 0 0 0 0 0 0 0 0 0 0 0 0 0 0 0 0 0 0 0 0 0 0 0 0 0 0 0 0 0 0 0 0 0 0 0 0 0 0 0 0 0 0 0 0 0 0 0 0 0 0 0 0 0 0 0 0 0 0 0 0 0 0 0 0 0 0 0 0 0 0 0 0 0 0 0 0 0 0 0 0 0 0 0 0 0 0 0 0 0 0 0 0 0 0 
0.0025539391208440065384 0.007661817595362663269 0.015323635190725326538 0.033201210200786590576 0.035755150020122528076 0.043416965752840042114 0.056186664849519729614 0.063848480582237243652 0.076618179678916931152 0.076618179678916931152 0.068956352770328521729 0.028093332424759864807 0.020431512966752052307 0.035755150020122528076 0.017877575010061264038 0.010215756483376026154 0.010215756483376026154 0.010215756483376026154 0.007661817595362663269 0.0025539391208440065384 0 0.0025539391208440065384 0.007661817595362663269 0.010215756483376026154 0.015323635190725326538 0.033201210200786590576 0.033201210200786590576 0.030647270381450653076 0.030647270381450653076 0.030647270381450653076 0.030647270381450653076 0.030647270381450653076 0.030647270381450653076 0.030647270381450653076 0.033201210200786590576 0.038309089839458465576 0.048524845391511917114 0.097049690783023834229 0.074064239859580993652 0.022985450923442840576 0.0025539391208440065384 0 0 0 0 0 0 0 0 0 0 0 0 0 0 0 0 0 0 0 0 0.0051078782416880130768 0.020431512966752052307 0.043416965752840042114 0.043416965752840042114 0.040863025933504104614 0.043416965752840042114 0.043416965752840042114 0.030647270381450653076 0.045970901846885681152 0.043416965752840042114 0.015323635190725326538 0.0025539391208440065384 0 0 0 0.0025539391208440065384 0.007661817595362663269 0.010215756483376026154 0.010215756483376026154 0.010215756483376026154 0.010215756483376026154 0.010215756483376026154 0.010215756483376026154 0.010215756483376026154 0.010215756483376026154 0.010215756483376026154 0.010215756483376026154 0.017877575010061264038 0.033201210200786590576 0.012769696302711963654 0.012769696302711963654 0.035755150020122528076 0.035755150020122528076 0.015323635190725326538 0.010215756483376026154 0.010215756483376026154 0.007661817595362663269 0.0025539391208440065384 0 0 0 0 0 0 0 0 0 0 0 0 0 0 0 0.010215756483376026154 0.033201210200786590576 0.022985450923442840576 0.035755150020122528076 0.035755150020122528076 0.015323635190725326538 0.007661817595362663269 0.0025539391208440065384 0 0 0 0 0 0 0 0 0 0 0 0 0 0 0 0 0 0 0 0 0 0 0 0 0 0 0 0 0 0 0 0 0 0 0 0 0 0 0 0 0 0 0 0 0 0 0 0 0 0 0 0 0 0 0 0 0 0 0 0 0 0 0 0 0 0 0 0 0 0 0 0 0 0 0 0 0 0 0 0 0 0 0 0 0 0 0 0 0 0 0 0 0 0 0 0 0 0 0 0 0 0 0 0 0 0 0 0 0 0 0 0 0 0 0 0 0 0 0 0 0 0 0 0 0 0 0 0 0 0 0 0 0 0 0 0 0 0 0 0 0 0 0 0 0 0 0 0 0 0 0.74575018882751464844 2.8195488452911376953 2.8757355213165283203 2.1555244922637939453 1.6217514276504516602 0.84279990196228027344 0.17622180283069610596 0 0 0 0 0 0 0 0 0 0 0 0 0 0.010215756483376026154 0.038309089839458465576 0.040863025933504104614 0.035755150020122528076 0.030647270381450653076 0.007661817595362663269 0 0 0 0 0 0.012769696302711963654 0.040863025933504104614 0.033201210200786590576 0.038309089839458465576 0.017877575010061264038 0.007661817595362663269 0.0025539391208440065384 0 0 0 0 0.0051078782416880130768 0.043416965752840042114 0.18643756210803985596 0.47247871756553649902 0.89898657798767089844 1.2029054164886474609 1.3663574457168579102 1.0496690273284912109 0.40096846222877502441 0.076618179678916931152 0.007661817595362663269 0 0 0 0 0 0 0 0 0 0 0 0 0 0 0 0 0 0 0 0 0 0 0 0 0 0 0 0 0 0 0 0 0 0 0 0 0 0 0 0 0 0 0 0 0 0 0 0 0 0 0 0 0 0 0 0 0 0 0 0 0 0 0 0 0 0 0 0 0 0 0 0 0 0 0 0 0 0 0 0 0 0 0 0 0 0 0 0 0 0 0 0 0 0 0 0 0 0 0 0 0 0 0 0 0 0 0 0 0 0 0 0 0 0 0 0 0 0 0 0 0 0 0 0 0 0 0 0 0 0 0 0 0 0 0 0 0 0 0 0 0 0 0 0 0 0 
0.010215756483376026154 0.038309089839458465576 0.045970901846885681152 0.043416965752840042114 0.033201210200786590576 0.056186664849519729614 0.076618179678916931152 0.071510300040245056152 0.048524845391511917114 0.025539392605423927307 0.015323635190725326538 0.0051078782416880130768 0.010215756483376026154 0.030647270381450653076 0.010215756483376026154 0 0 0 0 0 0.0025539391208440065384 0.012769696302711963654 0.033201210200786590576 0.033201210200786590576 0.033201210200786590576 0.033201210200786590576 0.015323635190725326538 0.010215756483376026154 0.010215756483376026154 0.010215756483376026154 0.010215756483376026154 0.010215756483376026154 0.010215756483376026154 0.010215756483376026154 0.015323635190725326538 0.035755150020122528076 0.086833931505680084229 0.10215757042169570923 0.048524845391511917114 0.007661817595362663269 0 0 0 0 0 0 0 0 0 0 0 0 0 0 0 0 0 0 0.0025539391208440065384 0.010215756483376026154 0.020431512966752052307 0.038309089839458465576 0.079172119498252868652 0.079172119498252868652 0.056186664849519729614 0.051078785210847854614 0.051078785210847854614 0.048524845391511917114 0.045970901846885681152 0.043416965752840042114 0.022985450923442840576 0.012769696302711963654 0.010215756483376026154 0.007661817595362663269 0.0051078782416880130768 0.007661817595362663269 0.015323635190725326538 0.033201210200786590576 0.033201210200786590576 0.030647270381450653076 0.030647270381450653076 0.030647270381450653076 0.030647270381450653076 0.030647270381450653076 0.030647270381450653076 0.030647270381450653076 0.030647270381450653076 0.030647270381450653076 0.033201210200786590576 0.030647270381450653076 0.015323635190725326538 0.033201210200786590576 0.035755150020122528076 0.012769696302711963654 0.0025539391208440065384 0 0 0 0 0 0 0 0 0 0 0 0 0 0 0 0 0 0 0 0.010215756483376026154 0.038309089839458465576 0.043416965752840042114 0.035755150020122528076 0.012769696302711963654 0.0025539391208440065384 0 0 0 0 0 0 0 0 0 0 0 0 0 0 0 0 0 0 0 0 0 0 0 0 0 0 0 0 0 0 0 0 0 0 0 0 0 0 0 0 0 0 0 0 0 0 0 0 0 0 0 0 0 0 0 0 0 0 0 0 0 0 0 0 0 0 0 0 0 0 0 0 0 0 0 0 0 0 0 0 0 0 0 0 0 0 0 0 0 0 0 0 0 0 0 0 0 0 0 0 0 0 0 0 0 0 0 0 0 0 0 0 0 0 0 0 0 0 0 0 0 0 0 0 0 0 0 0 0 0 0 0 0 0 0 0 0 0 0 0 0 0 0 0 0 0 0 0 0 0 0 0 0.85046172142028808594 3.1694383621215820312 2.9651231765747070312 1.8235125541687011719 0.98326653242111206055 0.41118422150611877441 0.074064232409000396729 0 0 0 0 0 0 0 0 0 0 0 0 0 0.010215756483376026154 0.033201210200786590576 0.017877575010061264038 0.017877575010061264038 0.033201210200786590576 0.010215756483376026154 0 0 0 0 0 0.007661817595362663269 0.033201210200786590576 0.040863025933504104614 0.038309089839458465576 0.035755150020122528076 0.030647270381450653076 0.007661817595362663269 0 0 0 0 0 0.007661817595362663269 0.058740600943565368652 0.29114904999732971191 0.73298054933547973633 1.0496690273284912109 1.2769695520401000977 1.3970047235488891602 0.86833930015563964844 0.31158059835433959961 0.061294540762901306152 0.0025539391208440065384 0 0 0 0 0 0 0 0 0 0 0 0 0 0 0 0 0 0 0 0 0 0 0 0 0 0 0 0 0 0 0 0 0 0 0 0 0 0 0 0 0 0 0 0 0 0 0 0 0 0 0 0 0 0 0 0 0 0 0 0 0 0 0 0 0 0 0 0 0 0 0 0 0 0 0 0 0 0 0 0 0 0 0 0 0 0 0 0 0 0 0 0 0 0 0 0 0 0 0 0 0 0 0 0 0 0 0 0 0 0 0 0 0 0 0 0 0 0 0 0 0 0 0 0 0 0 0 0 0 0 0 0 0 0 0 0 0 0 0 0 0 0 0 0 0 
0.017877575010061264038 0.063848480582237243652 0.051078785210847854614 0.040863025933504104614 0.048524845391511917114 0.068956352770328521729 0.051078785210847854614 0.022985450923442840576 0.010215756483376026154 0.0025539391208440065384 0 0.0025539391208440065384 0.015323635190725326538 0.033201210200786590576 0.010215756483376026154 0 0 0 0 0 0.007661817595362663269 0.033201210200786590576 0.035755150020122528076 0.015323635190725326538 0.010215756483376026154 0.007661817595362663269 0.0025539391208440065384 0 0 0 0 0.0025539391208440065384 0.007661817595362663269 0.012769696302711963654 0.030647270381450653076 0.084279991686344146729 0.10726545006036758423 0.061294540762901306152 0.017877575010061264038 0.0025539391208440065384 0 0 0 0 0 0 0 0 0 0 0 0 0 0.0025539391208440065384 0.007661817595362663269 0.012769696302711963654 0.020431512966752052307 0.028093332424759864807 0.035755150020122528076 0.058740600943565368652 0.081726051867008209229 0.10215757042169570923 0.099603630602359771729 0.058740600943565368652 0.043416965752840042114 0.040863025933504104614 0.040863025933504104614 0.040863025933504104614 0.040863025933504104614 0.038309089839458465576 0.033201210200786590576 0.030647270381450653076 0.033201210200786590576 0.033201210200786590576 0.020431512966752052307 0.033201210200786590576 0.035755150020122528076 0.033201210200786590576 0.015323635190725326538 0.010215756483376026154 0.010215756483376026154 0.010215756483376026154 0.010215756483376026154 0.010215756483376026154 0.010215756483376026154 0.010215756483376026154 0.010215756483376026154 0.010215756483376026154 0.010215756483376026154 0.007661817595362663269 0.012769696302711963654 0.033201210200786590576 0.015323635190725326538 0.0025539391208440065384 0 0 0 0 0 0 0 0 0 0 0 0 0 0 0 0 0 0 0 0 0.010215756483376026154 0.040863025933504104614 0.043416965752840042114 0.015323635190725326538 0.0025539391208440065384 0 0 0 0 0 0 0 0 0 0 0 0 0 0 0 0 0 0 0 0 0 0 0 0 0 0 0 0 0 0 0 0 0 0 0 0 0 0 0 0 0 0 0 0 0 0 0 0 0 0 0 0 0 0 0 0 0 0 0 0 0 0 0 0 0 0 0 0 0 0 0 0 0 0 0 0 0 0 0 0 0 0 0 0 0 0 0 0 0 0 0 0 0 0 0 0 0 0 0 0 0 0 0 0 0 0 0 0 0 0 0 0 0 0 0 0 0 0 0 0 0 0 0 0 0 0 0 0 0 0 0 0 0 0 0 0 0 0 0 0 0 0 0 0 0 0 0 0 0 0 0 0 0 0.87089323997497558594 3.2358407974243164062 2.9114906787872314453 1.3816810846328735352 0.46737083792686462402 0.13791270554065704346 0.025539392605423927307 0 0 0 0 0 0 0 0 0 0 0 0 0 0.010215756483376026154 0.030647270381450653076 0.010215756483376026154 0.010215756483376026154 0.030647270381450653076 0.010215756483376026154 0 0 0 0 0 0.0025539391208440065384 0.015323635190725326538 0.038309089839458465576 0.025539392605423927307 0.028093332424759864807 0.040863025933504104614 0.012769696302711963654 0 0 0 0 0 0 0.015323635190725326538 0.14557452499866485596 0.50823384523391723633 0.86067748069763183594 1.1033016443252563477 1.4302059412002563477 1.3025089502334594727 0.80193692445755004883 0.24773210287094116211 0.030647268518805503845 0 0 0 0 0 0 0 0 0 0 0 0 0 0 0 0 0 0 0 0 0 0 0 0 0 0 0 0 0 0 0 0 0 0 0 0 0 0 0 0 0 0 0 0 0 0 0 0 0 0 0 0 0 0 0 0 0 0 0 0 0 0 0 0 0 0 0 0 0 0 0 0 0 0 0 0 0 0 0 0 0 0 0 0 0 0 0 0 0 0 0 0 0 0 0 0 0 0 0 0 0 0 0 0 0 0 0 0 0 0 0 0 0 0 0 0 0 0 0 0 0 0 0 0 0 0 0 0 0 0 0 0 0 0 0 0 0 0 0 0 0 0 0 0 0 
0.022985454648733139038 0.071510300040245056152 0.038309089839458465576 0.025539392605423927307 0.045970901846885681152 0.043416965752840042114 0.015323635190725326538 0.0025539391208440065384 0 0 0 0.007661817595362663269 0.033201210200786590576 0.033201210200786590576 0.007661817595362663269 0 0 0 0 0.0025539391208440065384 0.015323635190725326538 0.035755150020122528076 0.015323635190725326538 0.0025539391208440065384 0 0 0 0 0 0 0 0.007661817595362663269 0.030647270381450653076 0.043416965752840042114 0.079172119498252868652 0.1047115027904510498 0.061294540762901306152 0.017877575010061264038 0.0025539391208440065384 0 0 0 0 0 0 0.0025539391208440065384 0.007661817595362663269 0.010215756483376026154 0.010215756483376026154 0.012769696302711963654 0.020431512966752052307 0.028093332424759864807 0.030647270381450653076 0.038309089839458465576 0.061294540762901306152 0.068956352770328521729 0.089387871325016021729 0.10726545006036758423 0.10726545006036758423 0.10726545006036758423 0.091941818594932556152 0.068956352770328521729 0.038309089839458465576 0.017877575010061264038 0.010215756483376026154 0.010215756483376026154 0.010215756483376026154 0.010215756483376026154 0.010215756483376026154 0.010215756483376026154 0.010215756483376026154 0.010215756483376026154 0.015323635190725326538 0.033201210200786590576 0.035755150020122528076 0.033201210200786590576 0.015323635190725326538 0.007661817595362663269 0.0025539391208440065384 0 0 0 0 0 0.0025539391208440065384 0.007661817595362663269 0.010215756483376026154 0.010215756483376026154 0.010215756483376026154 0.010215756483376026154 0.017877575010061264038 0.033201210200786590576 0.010215756483376026154 0 0 0 0 0 0 0 0 0 0 0 0 0 0 0 0 0 0 0 0 0 0.010215756483376026154 0.040863025933504104614 0.040863025933504104614 0.010215756483376026154 0 0 0 0 0 0 0 0 0 0 0 0 0 0 0 0 0 0 0 0 0 0 0 0 0 0 0 0 0 0 0 0 0 0 0 0 0 0 0 0 0 0 0 0 0 0 0 0 0 0 0 0 0 0 0 0 0 0 0 0 0 0 0 0 0 0 0 0 0 0 0 0 0 0 0 0 0 0 0 0 0 0 0 0 0 0 0 0 0 0 0 0 0 0 0 0 0 0 0 0 0 0 0 0 0 0 0 0 0 0 0 0 0 0 0 0 0 0 0 0 0 0 0 0 0 0 0 0 0 0 0 0 0 0 0 0 0 0 0 0 0 0 0 0 0 0 0 0 0 0 0 0 0 0 0.83003026247024536133 3.2077474594116210938 3.1183595657348632812 1.2156749963760375977 0.24262422323226928711 0.051078785210847854614 0.007661817595362663269 0 0 0 0 0 0 0 0 0 0 0 0 0 0.010215756483376026154 0.033201210200786590576 0.015323635190725326538 0.012769696302711963654 0.030647270381450653076 0.010215756483376026154 0 0 0 0 0 0 0.007661817595362663269 0.030647270381450653076 0.033201210200786590576 0.043416965752840042114 0.063848480582237243652 0.025539392605423927307 0.010215756483376026154 0.007661817595362663269 0.0025539391208440065384 0 0 0 0.0025539391208440065384 0.05874059721827507019 0.28859511017799377441 0.58229809999465942383 0.83769202232360839844 1.1901357173919677734 1.3382641077041625977 1.3229404687881469727 0.64359265565872192383 0.12003513425588607788 0 0 0 0 0 0 0 0 0 0 0 0 0 0 0 0 0 0 0 0 0 0 0 0 0 0 0 0 0 0 0 0 0 0 0 0 0 0 0 0 0 0 0 0 0 0 0 0 0 0 0 0 0 0 0 0 0 0 0 0 0 0 0 0 0 0 0 0 0 0 0 0 0 0 0 0 0 0 0 0 0 0 0 0 0 0 0 0 0 0 0 0 0 0 0 0 0 0 0 0 0 0 0 0 0 0 0 0 0 0 0 0 0 0 0 0 0 0 0 0 0 0 0 0 0 0 0 0 0 0 0 0 0 0 0 0 0 0 0 0 0 0 0 0 0 
0.028093332424759864807 0.091941818594932556152 0.053632721304893493652 0.033201210200786590576 0.033201210200786590576 0.012769696302711963654 0.0025539391208440065384 0 0 0 0.0025539391208440065384 0.015323635190725326538 0.035755150020122528076 0.015323635190725326538 0.0025539391208440065384 0 0.0025539391208440065384 0.007661817595362663269 0.010215756483376026154 0.015323635190725326538 0.035755150020122528076 0.033201210200786590576 0.007661817595362663269 0 0 0 0 0 0 0 0 0.010215756483376026154 0.035755150020122528076 0.040863025933504104614 0.079172119498252868652 0.058740600943565368652 0.017877575010061264038 0.0025539391208440065384 0 0 0 0 0 0 0.0025539391208440065384 0.012769696302711963654 0.033201210200786590576 0.035755150020122528076 0.040863025933504104614 0.053632721304893493652 0.079172119498252868652 0.097049690783023834229 0.094495750963687896729 0.10215757042169570923 0.1251430213451385498 0.11237332969903945923 0.10726545006036758423 0.089387871325016021729 0.066402420401573181152 0.058740600943565368652 0.051078785210847854614 0.043416965752840042114 0.035755150020122528076 0.015323635190725326538 0.007661817595362663269 0.0025539391208440065384 0 0 0 0 0 0 0.0025539391208440065384 0.007661817595362663269 0.010215756483376026154 0.007661817595362663269 0.0025539391208440065384 0 0 0 0 0 0 0.0025539391208440065384 0.012769696302711963654 0.033201210200786590576 0.033201210200786590576 0.030647270381450653076 0.030647270381450653076 0.030647270381450653076 0.033201210200786590576 0.030647270381450653076 0.007661817595362663269 0 0 0 0 0 0 0 0 0 0 0 0 0 0 0 0 0 0 0 0 0 0.010215756483376026154 0.040863025933504104614 0.040863025933504104614 0.010215756483376026154 0 0 0 0 0 0 0 0 0 0 0 0 0 0 0 0 0 0 0 0 0 0 0 0 0 0 0 0 0 0 0 0 0 0 0 0 0 0 0 0 0 0 0 0 0 0 0 0 0 0 0 0 0 0 0 0 0 0 0 0 0 0 0 0 0 0 0 0 0 0 0 0 0 0 0 0 0 0 0 0 0 0 0 0 0 0 0 0 0 0 0 0 0 0 0 0 0 0 0 0 0 0 0 0 0 0 0 0 0 0 0 0 0 0 0 0 0 0 0 0 0 0 0 0 0 0 0 0 0 0 0 0 0 0 0 0 0 0 0 0 0 0 0 0 0 0 0 0 0 0 0 0 0 0 0.76107382774353027344 3.0494031906127929688 3.2256250381469726562 1.1569343805313110352 0.16345210373401641846 0.017877575010061264038 0.0025539391208440065384 0 0 0 0 0 0 0 0 0 0 0 0 0 0.007661817595362663269 0.033201210200786590576 0.033201210200786590576 0.017877575010061264038 0.030647270381450653076 0.010215756483376026154 0 0 0 0 0 0 0.0025539391208440065384 0.007661817595362663269 0.010215756483376026154 0.025539392605423927307 0.063848480582237243652 0.043416965752840042114 0.033201210200786590576 0.030647270381450653076 0.007661817595362663269 0 0 0 0 0.020431512966752052307 0.1251430213451385498 0.34733572602272033691 0.60783749818801879883 0.93729561567306518555 1.1288410425186157227 1.4787306785583496094 1.1492725610733032227 0.31668844819068908691 0.028093330562114715576 0 0 0 0 0 0 0 0 0 0 0 0 0 0 0 0 0 0 0 0 0 0 0 0 0 0 0 0 0 0 0 0 0 0 0 0 0 0 0 0 0 0 0 0 0 0 0 0 0 0 0 0 0 0 0 0 0 0 0 0 0 0 0 0 0 0 0 0 0 0 0 0 0 0 0 0 0 0 0 0 0 0 0 0 0 0 0 0 0 0 0 0 0 0 0 0 0 0 0 0 0 0 0 0 0 0 0 0 0 0 0 0 0 0 0 0 0 0 0 0 0 0 0 0 0 0 0 0 0 0 0 0 0 0 0 0 0 0 0 0 0 0 0 0 
0.030647270381450653076 0.094495750963687896729 0.038309089839458465576 0.010215756483376026154 0.010215756483376026154 0.010215756483376026154 0.010215756483376026154 0.010215756483376026154 0.010215756483376026154 0.010215756483376026154 0.015323635190725326538 0.035755150020122528076 0.033201210200786590576 0.007661817595362663269 0 0 0.007661817595362663269 0.030647270381450653076 0.033201210200786590576 0.033201210200786590576 0.033201210200786590576 0.012769696302711963654 0.0025539391208440065384 0 0 0 0 0 0 0 0 0.012769696302711963654 0.048524845391511917114 0.068956352770328521729 0.079172119498252868652 0.033201210200786590576 0.012769696302711963654 0.015323635190725326538 0.025539392605423927307 0.030647270381450653076 0.030647270381450653076 0.030647270381450653076 0.030647270381450653076 0.030647270381450653076 0.035755150020122528076 0.056186664849519729614 0.056186664849519729614 0.043416965752840042114 0.066402420401573181152 0.089387871325016021729 0.089387871325016021729 0.068956352770328521729 0.045970909297466278076 0.048524845391511917114 0.063848480582237243652 0.040863025933504104614 0.028093332424759864807 0.020431512966752052307 0.012769696302711963654 0.010215756483376026154 0.010215756483376026154 0.015323635190725326538 0.033201210200786590576 0.035755150020122528076 0.033201210200786590576 0.015323635190725326538 0.010215756483376026154 0.010215756483376026154 0.010215756483376026154 0.010215756483376026154 0.010215756483376026154 0.010215756483376026154 0.010215756483376026154 0.010215756483376026154 0.010215756483376026154 0.010215756483376026154 0.010215756483376026154 0.010215756483376026154 0.010215756483376026154 0.010215756483376026154 0.010215756483376026154 0.010215756483376026154 0.010215756483376026154 0.015323635190725326538 0.035755150020122528076 0.035755150020122528076 0.015323635190725326538 0.010215756483376026154 0.010215756483376026154 0.010215756483376026154 0.010215756483376026154 0.007661817595362663269 0.0025539391208440065384 0 0 0 0 0 0 0 0 0 0 0 0 0 0 0 0 0 0 0 0.0025539391208440065384 0.007661817595362663269 0.020431512966752052307 0.048524845391511917114 0.043416965752840042114 0.010215756483376026154 0 0 0 0 0 0 0 0 0 0 0 0 0 0 0 0 0 0 0 0 0 0 0 0 0 0 0 0 0 0 0 0 0 0 0 0 0 0 0 0 0 0 0 0 0 0 0 0 0 0 0 0 0 0 0 0 0 0 0 0 0 0 0 0 0 0 0 0 0 0 0 0 0 0 0 0 0 0 0 0 0 0 0 0 0 0 0 0 0 0 0 0 0 0 0 0 0 0 0 0 0 0 0 0 0 0 0 0 0 0 0 0 0 0 0 0 0 0 0 0 0 0 0 0 0 0 0 0 0 0 0 0 0 0 0 0 0 0 0 0 0 0 0 0 0 0 0 0 0 0 0 0 0 0 0.73042660951614379883 2.9983243942260742188 3.3379983901977539062 1.1416107416152954102 0.12003513425588607788 0.007661817595362663269 0 0 0 0 0 0 0 0 0 0 0 0 0 0 0.0025539391208440065384 0.015323635190725326538 0.033201210200786590576 0.020431512966752052307 0.030647270381450653076 0.010215756483376026154 0 0 0 0 0 0 0 0 0 0.012769696302711963654 0.040863025933504104614 0.025539392605423927307 0.020431512966752052307 0.035755150020122528076 0.015323635190725326538 0.0025539391208440065384 0 0 0 0.007661817595362663269 0.063848480582237243652 0.18388360738754272461 0.38053694367408752441 0.65891629457473754883 0.92452597618103027344 1.3995586633682250977 1.5553488731384277344 0.73298054933547973633 0.14046664535999298096 0.010215756483376026154 0 0 0 0 0 0 0 0 0 0 0 0 0 0 0 0 0 0 0 0 0 0 0 0 0 0 0 0 0 0 0 0 0 0 0 0 0 0 0 0 0 0 0 0 0 0 0 0 0 0 0 0 0 0 0 0 0 0 0 0 0 0 0 0 0 0 0 0 0 0 0 0 0 0 0 0 0 0 0 0 0 0 0 0 0 0 0 0 0 0 0 0 0 0 0 0 0 0 0 0 0 0 0 0 0 0 0 0 0 0 0 0 0 0 0 0 0 0 0 0 0 0 0 0 0 0 0 0 0 0 0 0 0 0 0 0 0 0 0 0 0 0 0 
0.030647270381450653076 0.091941818594932556152 0.030647270381450653076 0 0.007661817595362663269 0.030647270381450653076 0.033201210200786590576 0.030647270381450653076 0.030647270381450653076 0.030647270381450653076 0.033201210200786590576 0.033201210200786590576 0.012769696302711963654 0.0051078782416880130768 0.007661817595362663269 0.010215756483376026154 0.017877575010061264038 0.035755150020122528076 0.017877575010061264038 0.010215756483376026154 0.007661817595362663269 0.0025539391208440065384 0.0025539391208440065384 0.007661817595362663269 0.010215756483376026154 0.010215756483376026154 0.010215756483376026154 0.010215756483376026154 0.010215756483376026154 0.010215756483376026154 0.012769696302711963654 0.038309089839458465576 0.1047115027904510498 0.1328048408031463623 0.099603630602359771729 0.061294540762901306152 0.051078785210847854614 0.061294540762901306152 0.097049690783023834229 0.097049690783023834229 0.091941818594932556152 0.091941818594932556152 0.091941818594932556152 0.091941818594932556152 0.094495750963687896729 0.094495750963687896729 0.074064239859580993652 0.074064239859580993652 0.097049690783023834229 0.081726051867008209229 0.053632721304893493652 0.040863025933504104614 0.033201210200786590576 0.033201210200786590576 0.030647270381450653076 0.007661817595362663269 0 0 0 0 0 0.0025539391208440065384 0.007661817595362663269 0.015323635190725326538 0.033201210200786590576 0.033201210200786590576 0.030647270381450653076 0.030647270381450653076 0.030647270381450653076 0.030647270381450653076 0.030647270381450653076 0.030647270381450653076 0.030647270381450653076 0.030647270381450653076 0.030647270381450653076 0.030647270381450653076 0.030647270381450653076 0.030647270381450653076 0.030647270381450653076 0.030647270381450653076 0.030647270381450653076 0.030647270381450653076 0.030647270381450653076 0.033201210200786590576 0.033201210200786590576 0.012769696302711963654 0.0025539391208440065384 0 0 0 0 0 0 0 0 0 0 0 0 0 0 0 0 0 0 0 0 0 0 0 0 0.0051078782416880130768 0.020431512966752052307 0.043416965752840042114 0.051078785210847854614 0.066402420401573181152 0.040863025933504104614 0.007661817595362663269 0 0 0 0 0 0 0 0 0 0 0 0 0 0 0 0 0 0 0 0 0 0 0 0 0 0 0 0 0 0 0 0 0 0 0 0 0 0 0 0 0 0 0 0 0 0 0 0 0 0 0 0 0 0 0 0 0 0 0 0 0 0 0 0 0 0 0 0 0 0 0 0 0 0 0 0 0 0 0 0 0 0 0 0 0 0 0 0 0 0 0 0 0 0 0 0 0 0 0 0 0 0 0 0 0 0 0 0 0 0 0 0 0 0 0 0 0 0 0 0 0 0 0 0 0 0 0 0 0 0 0 0 0 0 0 0 0 0 0 0 0 0 0 0 0 0 0 0 0 0 0 0 0 0 0.79427510499954223633 3.2000856399536132812 3.3992929458618164062 1.0011441707611083984 0.061294540762901306152 0.0025539391208440065384 0 0 0 0 0 0 0 0 0 0 0 0 0 0 0 0.010215756483376026154 0.030647270381450653076 0.020431512966752052307 0.030647270381450653076 0.010215756483376026154 0 0 0 0 0 0 0 0 0 0.007661817595362663269 0.033201210200786590576 0.033201210200786590576 0.015323635190725326538 0.033201210200786590576 0.033201210200786590576 0.007661817595362663269 0 0 0 0.0025539391208440065384 0.022985454648733139038 0.10215757042169570923 0.22474664449691772461 0.39075267314910888672 0.63082295656204223633 1.1135174036026000977 1.6140894889831542969 1.2029052972793579102 0.44438540935516357422 0.094495743513107299805 0.010215756483376026154 0 0 0 0 0 0 0 0 0 0 0 0 0 0 0 0 0 0 0 0 0 0 0 0 0 0 0 0 0 0 0 0 0 0 0 0 0 0 0 0 0 0 0 0 0 0 0 0 0 0 0 0 0 0 0 0 0 0 0 0 0 0 0 0 0 0 0 0 0 0 0 0 0 0 0 0 0 0 0 0 0 0 0 0 0 0 0 0 0 0 0 0 0 0 0 0 0 0 0 0 0 0 0 0 0 0 0 0 0 0 0 0 0 0 0 0 0 0 0 0 0 0 0 0 0 0 0 0 0 0 0 0 0 0 0 0 0 0 0 0 0 0 
0.033201210200786590576 0.099603630602359771729 0.040863025933504104614 0.010215756483376026154 0.017877575010061264038 0.035755150020122528076 0.017877575010061264038 0.010215756483376026154 0.010215756483376026154 0.010215756483376026154 0.010215756483376026154 0.007661817595362663269 0.0025539391208440065384 0.007661817595362663269 0.030647270381450653076 0.033201210200786590576 0.033201210200786590576 0.030647270381450653076 0.010215756483376026154 0.007661817595362663269 0.010215756483376026154 0.010215756483376026154 0.015323635190725326538 0.033201210200786590576 0.033201210200786590576 0.030647270381450653076 0.030647270381450653076 0.030647270381450653076 0.033201210200786590576 0.038309089839458465576 0.053632721304893493652 0.1098193824291229248 0.18388360738754272461 0.1583442389965057373 0.094495750963687896729 0.074064239859580993652 0.071510300040245056152 0.076618179678916931152 0.076618179678916931152 0.040863025933504104614 0.030647270381450653076 0.030647270381450653076 0.030647270381450653076 0.030647270381450653076 0.030647270381450653076 0.028093332424759864807 0.022985454648733139038 0.030647270381450653076 0.051078785210847854614 0.028093332424759864807 0.012769696302711963654 0.010215756483376026154 0.010215756483376026154 0.010215756483376026154 0.007661817595362663269 0.0025539391208440065384 0 0 0 0 0 0 0 0.0025539391208440065384 0.007661817595362663269 0.010215756483376026154 0.010215756483376026154 0.010215756483376026154 0.010215756483376026154 0.010215756483376026154 0.010215756483376026154 0.010215756483376026154 0.010215756483376026154 0.010215756483376026154 0.010215756483376026154 0.010215756483376026154 0.010215756483376026154 0.010215756483376026154 0.010215756483376026154 0.010215756483376026154 0.010215756483376026154 0.010215756483376026154 0.010215756483376026154 0.010215756483376026154 0.007661817595362663269 0.0025539391208440065384 0 0 0 0 0 0 0 0 0 0 0 0 0 0 0 0 0 0 0 0 0 0 0 0 0 0.015323635190725326538 0.063848480582237243652 0.068956352770328521729 0.048524845391511917114 0.040863025933504104614 0.015323635190725326538 0.0025539391208440065384 0 0 0 0 0 0 0 0 0 0 0 0 0 0 0 0 0 0 0 0 0 0 0 0 0 0 0 0 0 0 0 0 0 0 0 0 0 0 0 0 0 0 0 0 0 0 0 0 0 0 0 0 0 0 0 0 0 0 0 0 0 0 0 0 0 0 0 0 0 0 0 0 0 0 0 0 0 0 0 0 0 0 0 0 0 0 0 0 0 0 0 0 0 0 0 0 0 0 0 0 0 0 0 0 0 0 0 0 0 0 0 0 0 0 0 0 0 0 0 0 0 0 0 0 0 0 0 0 0 0 0 0 0 0 0 0 0 0 0 0 0 0 0 0 0 0 0 0 0 0 0 0 0 0 0.96538901329040527344 3.6546871662139892578 3.3788614273071289062 0.87089323997497558594 0.028093332424759864807 0 0 0 0 0 0 0 0 0 0 0 0 0 0 0 0 0.010215756483376026154 0.033201210200786590576 0.028093332424759864807 0.038309089839458465576 0.012769696302711963654 0 0 0 0 0 0 0 0 0 0.0025539391208440065384 0.015323635190725326538 0.033201210200786590576 0.012769696302711963654 0.015323635190725326538 0.035755150020122528076 0.015323635190725326538 0.0025539391208440065384 0 0 0 0.0051078782416880130768 0.040863025933504104614 0.13791270554065704346 0.22474664449691772461 0.40096843242645263672 0.76107382774353027344 1.3918968439102172852 1.4812846183776855469 0.96283501386642456055 0.35499754548072814941 0.081726051867008209229 0.017877573147416114807 0.0025539391208440065384 0 0 0 0 0 0 0 0 0 0 0 0 0 0 0 0 0 0 0 0 0 0 0 0 0 0 0 0 0 0 0 0 0 0 0 0 0 0 0 0 0 0 0 0 0 0 0 0 0 0 0 0 0 0 0 0 0 0 0 0 0 0 0 0 0 0 0 0 0 0 0 0 0 0 0 0 0 0 0 0 0 0 0 0 0 0 0 0 0 0 0 0 0 0 0 0 0 0 0 0 0 0 0 0 0 0 0 0 0 0 0 0 0 0 0 0 0 0 0 0 0 0 0 0 0 0 0 0 0 0 0 0 0 0 0 0 0 0 0 0 
0.038309089839458465576 0.1225890815258026123 0.063848480582237243652 0.030647270381450653076 0.033201210200786590576 0.030647270381450653076 0.007661817595362663269 0 0.0025539391208440065384 0.007661817595362663269 0.010215756483376026154 0.010215756483376026154 0.012769696302711963654 0.025539392605423927307 0.045970901846885681152 0.028093332424759864807 0.020431512966752052307 0.017877575010061264038 0.017877575010061264038 0.033201210200786590576 0.033201210200786590576 0.030647270381450653076 0.033201210200786590576 0.033201210200786590576 0.015323635190725326538 0.010215756483376026154 0.010215756483376026154 0.010215756483376026154 0.017877575010061264038 0.043416965752840042114 0.076618179678916931152 0.1583442389965057373 0.16345210373401641846 0.081726051867008209229 0.030647270381450653076 0.020431512966752052307 0.020431512966752052307 0.020431512966752052307 0.015323635190725326538 0.0051078782416880130768 0 0 0 0 0 0 0 0.010215756483376026154 0.030647270381450653076 0.010215756483376026154 0 0 0 0 0 0 0 0 0 0 0 0 0 0 0 0 0 0 0 0 0 0 0 0 0 0 0 0 0 0 0 0 0 0 0 0 0 0 0 0 0 0 0 0 0 0 0 0 0 0 0 0 0 0 0 0 0 0 0 0 0 0.020431512966752052307 0.066402420401573181152 0.033201210200786590576 0.012769696302711963654 0.007661817595362663269 0.0025539391208440065384 0 0 0 0 0 0 0 0 0 0 0 0 0 0 0 0 0 0 0 0 0 0 0 0 0 0 0 0 0 0 0 0 0 0 0 0 0 0 0 0 0 0 0 0 0 0 0 0 0 0 0 0 0 0 0 0 0 0 0 0 0 0 0 0 0 0 0 0 0 0 0 0 0 0 0 0 0 0 0 0 0 0 0 0 0 0 0 0 0 0 0 0 0 0 0 0 0 0 0 0 0 0 0 0 0 0 0 0 0 0 0 0 0 0 0 0 0 0 0 0 0 0 0 0 0 0 0 0 0 0 0 0 0 0 0 0 0 0 0 0 0 0 0 0 0 0 0 0 0 0 0 0 0 0 0.007661817595362663269 1.2054592370986938477 4.2242155075073242188 3.0902662277221679688 0.66147023439407348633 0.015323635190725326538 0 0 0 0 0 0 0 0 0 0 0 0 0 0 0 0 0.007661817595362663269 0.030647270381450653076 0.045970901846885681152 0.066402420401573181152 0.028093332424759864807 0.0051078782416880130768 0 0 0 0 0 0 0 0 0 0.010215756483376026154 0.033201210200786590576 0.017877575010061264038 0.015323635190725326538 0.035755150020122528076 0.033201210200786590576 0.007661817595362663269 0 0 0 0 0.020431512966752052307 0.089387871325016021729 0.17366786301136016846 0.31158059835433959961 0.52866542339324951172 1.0343453884124755859 1.3331562280654907227 1.2974010705947875977 0.73808836936950683594 0.30391874909400939941 0.091941803693771362305 0.012769696302711963654 0 0 0 0 0 0 0 0 0 0 0 0 0 0 0 0 0 0 0 0 0 0 0 0 0 0 0 0 0 0 0 0 0 0 0 0 0 0 0 0 0 0 0 0 0 0 0 0 0 0 0 0 0 0 0 0 0 0 0 0 0 0 0 0 0 0 0 0 0 0 0 0 0 0 0 0 0 0 0 0 0 0 0 0 0 0 0 0 0 0 0 0 0 0 0 0 0 0 0 0 0 0 0 0 0 0 0 0 0 0 0 0 0 0 0 0 0 0 0 0 0 0 0 0 0 0 0 0 0 0 0 0 0 0 0 0 0 0 0 0 
0.043416965752840042114 0.1328048408031463623 0.058740600943565368652 0.022985450923442840576 0.028093332424759864807 0.028093332424759864807 0.022985450923442840576 0.022985454648733139038 0.033201210200786590576 0.053632721304893493652 0.053632721304893493652 0.051078785210847854614 0.056186664849519729614 0.076618179678916931152 0.074064239859580993652 0.048524845391511917114 0.040863025933504104614 0.040863025933504104614 0.043416965752840042114 0.043416965752840042114 0.022985450923442840576 0.012769696302711963654 0.010215756483376026154 0.010215756483376026154 0.010215756483376026154 0.010215756483376026154 0.010215756483376026154 0.010215756483376026154 0.022985454648733139038 0.061294540762901306152 0.099603630602359771729 0.1506824195384979248 0.081726051867008209229 0.020431512966752052307 0.0025539391208440065384 0 0 0 0 0 0 0 0 0 0.0025539391208440065384 0.007661817595362663269 0.010215756483376026154 0.017877575010061264038 0.033201210200786590576 0.010215756483376026154 0 0 0 0 0 0 0 0 0 0 0 0 0 0 0 0 0 0 0 0 0 0 0 0 0 0 0 0 0 0 0 0 0 0 0 0 0 0 0 0 0 0 0 0 0 0 0 0 0 0 0 0 0 0 0 0 0 0 0 0 0.0025539391208440065384 0.025539392605423927307 0.063848480582237243652 0.020431512966752052307 0 0 0 0 0 0 0 0 0 0 0 0 0 0 0 0 0 0 0 0 0 0 0 0 0 0 0 0 0 0 0 0 0 0 0 0 0 0 0 0 0 0 0 0 0 0 0 0 0 0 0 0 0 0 0 0 0 0 0 0 0 0 0 0 0 0 0 0 0 0 0 0 0 0 0 0 0 0 0 0 0 0 0 0 0 0 0 0 0 0 0 0 0 0 0 0 0 0 0 0 0 0 0 0 0 0 0 0 0 0 0 0 0 0 0 0 0 0 0 0 0 0 0 0 0 0 0 0 0 0 0 0 0 0 0 0 0 0 0 0 0 0 0 0 0 0 0 0 0 0 0 0 0 0 0 0 0 0.045970909297466278076 1.4940543174743652344 4.5792131423950195312 2.5590469837188720703 0.42650783061981201172 0.007661817595362663269 0 0 0 0 0 0 0 0 0 0 0 0 0 0 0 0 0.0025539391208440065384 0.007661817595362663269 0.022985450923442840576 0.068956352770328521729 0.071510300040245056152 0.025539392605423927307 0.0051078782416880130768 0 0 0 0 0 0 0 0 0.007661817595362663269 0.030647270381450653076 0.035755150020122528076 0.033201210200786590576 0.022985450923442840576 0.035755150020122528076 0.015323635190725326538 0.0025539391208440065384 0 0 0 0.012769696302711963654 0.056186664849519729614 0.1251430213451385498 0.23496238887310028076 0.39330664277076721191 0.77128964662551879883 1.1543805599212646484 1.4148823022842407227 1.0649926662445068359 0.62826907634735107422 0.24517816305160522461 0.048524845391511917114 0.007661817595362663269 0.0025539391208440065384 0 0 0 0 0 0 0 0 0 0 0 0 0 0 0 0 0 0 0 0 0 0 0 0 0 0 0 0 0 0 0 0 0 0 0 0 0 0 0 0 0 0 0 0 0 0 0 0 0 0 0 0 0 0 0 0 0 0 0 0 0 0 0 0 0 0 0 0 0 0 0 0 0 0 0 0 0 0 0 0 0 0 0 0 0 0 0 0 0 0 0 0 0 0 0 0 0 0 0 0 0 0 0 0 0 0 0 0 0 0 0 0 0 0 0 0 0 0 0 0 0 0 0 0 0 0 0 0 0 0 0 0 0 0 0 0 0 0 
0.051078785210847854614 0.16345210373401641846 0.091941803693771362305 0.056186664849519729614 0.074064239859580993652 0.074064239859580993652 0.071510300040245056152 0.076618179678916931152 0.097049690783023834229 0.097049690783023834229 0.076618179678916931152 0.071510300040245056152 0.074064239859580993652 0.074064239859580993652 0.053632721304893493652 0.045970901846885681152 0.048524845391511917114 0.051078785210847854614 0.051078785210847854614 0.051078785210847854614 0.045970901846885681152 0.028093332424759864807 0.028093332424759864807 0.035755150020122528076 0.053632721304893493652 0.053632721304893493652 0.051078785210847854614 0.051078785210847854614 0.063848480582237243652 0.11492726951837539673 0.1455745398998260498 0.11237332969903945923 0.030647270381450653076 0.0025539391208440065384 0 0 0 0 0 0 0 0 0 0 0.007661817595362663269 0.030647270381450653076 0.033201210200786590576 0.033201210200786590576 0.030647270381450653076 0.007661817595362663269 0 0 0 0 0 0 0 0 0 0 0 0 0 0 0 0 0 0 0 0 0 0 0 0 0 0 0 0 0 0 0 0 0 0 0 0 0 0 0 0 0 0 0 0 0 0 0 0 0 0 0 0 0 0 0 0 0 0 0 0 0.007661817595362663269 0.043416965752840042114 0.063848480582237243652 0.017877575010061264038 0 0 0 0 0 0 0 0 0 0 0 0 0 0 0 0 0 0 0 0 0 0 0 0 0 0 0 0 0 0 0 0 0 0 0 0 0 0 0 0 0 0 0 0 0 0 0 0 0 0 0 0 0 0 0 0 0 0 0 0 0 0 0 0 0 0 0 0 0 0 0 0 0 0 0 0 0 0 0 0 0 0 0 0 0 0 0 0 0 0 0 0 0 0 0 0 0 0 0 0 0 0 0 0 0 0 0 0 0 0 0 0 0 0 0 0 0 0 0 0 0 0 0 0 0 0 0 0 0 0 0 0 0 0 0 0 0 0 0 0 0 0 0 0 0 0 0 0 0 0 0 0 0 0 0 0 0 0.34222781658172607422 2.2678978443145751953 4.9699654579162597656 2.0967841148376464844 0.21963876485824584961 0.0025539391208440065384 0 0 0 0 0 0 0 0 0 0 0 0 0 0 0 0 0 0 0.0051078782416880130768 0.025539392605423927307 0.071510300040245056152 0.066402420401573181152 0.015323635190725326538 0 0 0 0 0 0 0 0 0.0025539391208440065384 0.007661817595362663269 0.017877575010061264038 0.033201210200786590576 0.017877575010061264038 0.033201210200786590576 0.033201210200786590576 0.007661817595362663269 0 0 0 0.010215756483376026154 0.043416965752840042114 0.076618179678916931152 0.1583442389965057373 0.27582541108131408691 0.46226298809051513672 0.84535384178161621094 1.2539842128753662109 1.2667539119720458984 1.0164678096771240234 0.54909688234329223633 0.17111392319202423096 0.051078785210847854614 0.010215756483376026154 0 0 0 0 0 0 0 0 0 0 0 0 0 0 0 0 0 0 0 0 0 0 0 0 0 0 0 0 0 0 0 0 0 0 0 0 0 0 0 0 0 0 0 0 0 0 0 0 0 0 0 0 0 0 0 0 0 0 0 0 0 0 0 0 0 0 0 0 0 0 0 0 0 0 0 0 0 0 0 0 0 0 0 0 0 0 0 0 0 0 0 0 0 0 0 0 0 0 0 0 0 0 0 0 0 0 0 0 0 0 0 0 0 0 0 0 0 0 0 0 0 0 0 0 0 0 0 0 0 0 0 0 0 0 0 0 0 0 
0.061294540762901306152 0.19920726120471954346 0.1251430213451385498 0.076618179678916931152 0.074064239859580993652 0.056186664849519729614 0.051078785210847854614 0.053632721304893493652 0.053632721304893493652 0.033201210200786590576 0.022985454648733139038 0.020431512966752052307 0.020431512966752052307 0.017877575010061264038 0.012769696302711963654 0.017877575010061264038 0.040863025933504104614 0.043416965752840042114 0.040863025933504104614 0.045970901846885681152 0.063848480582237243652 0.071510300040245056152 0.091941818594932556152 0.097049690783023834229 0.094495750963687896729 0.076618179678916931152 0.071510300040245056152 0.071510300040245056152 0.081726051867008209229 0.1047115027904510498 0.10215757042169570923 0.040863025933504104614 0.007661817595362663269 0 0 0 0 0 0 0 0 0 0 0.0025539391208440065384 0.015323635190725326538 0.035755150020122528076 0.017877575010061264038 0.010215756483376026154 0.007661817595362663269 0.0025539391208440065384 0 0 0 0 0 0 0 0 0 0 0 0 0 0 0 0 0 0 0 0 0 0 0 0 0 0 0 0 0 0 0 0 0 0 0 0 0 0 0 0 0 0 0 0 0 0 0 0 0 0 0 0 0 0 0 0 0 0 0 0 0.010215756483376026154 0.043416965752840042114 0.045970901846885681152 0.012769696302711963654 0 0 0 0 0 0 0 0 0 0 0 0 0 0 0 0 0 0 0 0 0 0 0 0 0 0 0 0 0 0 0 0 0 0 0 0 0 0 0 0 0 0 0 0 0 0 0 0 0 0 0 0 0 0 0 0 0 0 0 0 0 0 0 0 0 0 0 0 0 0 0 0 0 0 0 0 0 0 0 0 0 0 0 0 0 0 0 0 0 0 0 0 0 0 0 0 0 0 0 0 0 0 0 0 0 0 0 0 0 0 0 0 0 0 0 0 0 0 0 0 0 0 0 0 0 0 0 0 0 0 0 0 0 0 0 0 0 0 0 0 0 0 0 0 0 0 0 0 0 0 0 0 0 0 0.030647270381450653076 0.1328048408031463623 0.46737083792686462402 1.6345210075378417969 4.5715508460998535156 5.0006127357482910156 1.4787306785583496094 0.086833931505680084229 0 0 0 0 0 0 0 0 0 0 0 0 0 0 0 0 0 0 0 0 0.0051078782416880130768 0.030647270381450653076 0.071510300040245056152 0.030647270381450653076 0.0051078782416880130768 0 0 0 0 0 0 0 0 0 0.010215756483376026154 0.030647270381450653076 0.012769696302711963654 0.015323635190725326538 0.033201210200786590576 0.010215756483376026154 0 0 0 0.010215756483376026154 0.040863025933504104614 0.053632721304893493652 0.094495743513107299805 0.20431512594223022461 0.27582541108131408691 0.57719022035598754883 0.92963385581970214844 1.1365028619766235352 1.2335525751113891602 0.96538895368576049805 0.45204722881317138672 0.17366786301136016846 0.053632721304893493652 0.010215756483376026154 0 0 0 0 0 0 0 0 0 0 0 0 0 0 0 0 0 0 0 0 0 0 0 0 0 0 0 0 0 0 0 0 0 0 0 0 0 0 0 0 0 0 0 0 0 0 0 0 0 0 0 0 0 0 0 0 0 0 0 0 0 0 0 0 0 0 0 0 0 0 0 0 0 0 0 0 0 0 0 0 0 0 0 0 0 0 0 0 0 0 0 0 0 0 0 0 0 0 0 0 0 0 0 0 0 0 0 0 0 0 0 0 0 0 0 0 0 0 0 0 0 0 0 0 0 0 0 0 0 0 0 0 0 0 0 0 0 
0.068956352770328521729 0.21963876485824584961 0.1047115027904510498 0.025539392605423927307 0.017877575010061264038 0.012769696302711963654 0.010215756483376026154 0.010215756483376026154 0.007661817595362663269 0.0025539391208440065384 0 0 0 0 0 0.010215756483376026154 0.033201210200786590576 0.017877575010061264038 0.010215756483376026154 0.012769696302711963654 0.017877575010061264038 0.030647270381450653076 0.053632721304893493652 0.038309089839458465576 0.028093332424759864807 0.022985454648733139038 0.020431512966752052307 0.025539392605423927307 0.045970901846885681152 0.086833931505680084229 0.071510300040245056152 0.015323635190725326538 0 0 0 0 0 0 0 0 0 0.0025539391208440065384 0.007661817595362663269 0.015323635190725326538 0.035755150020122528076 0.033201210200786590576 0.007661817595362663269 0 0 0 0 0 0 0 0 0 0 0 0 0 0 0 0 0 0 0 0 0 0 0 0 0 0 0 0 0 0 0 0 0 0 0 0 0 0 0 0 0 0 0 0 0 0 0 0 0 0 0 0 0 0 0 0 0 0 0 0 0 0 0 0.010215756483376026154 0.040863025933504104614 0.040863025933504104614 0.010215756483376026154 0 0 0 0 0 0 0 0 0 0 0 0 0 0 0 0 0 0 0 0 0 0 0 0 0 0 0 0 0 0 0 0 0 0 0 0 0 0 0 0 0 0 0 0 0 0 0 0 0 0 0 0 0 0 0 0 0 0 0 0 0 0 0 0 0 0 0 0 0 0 0 0 0 0 0 0 0 0 0 0 0 0 0 0 0 0 0 0 0 0 0 0 0 0 0 0 0 0 0 0 0 0 0 0 0 0 0 0 0 0 0 0 0 0 0 0 0 0 0 0 0 0 0 0 0 0 0 0 0 0 0 0 0 0 0 0 0 0 0 0 0 0 0 0 0 0 0 0 0 0 0 0 0 0 0.13791270554065704346 0.70744115114212036133 1.9563174247741699219 4.4872713088989257812 5.4756455421447753906 2.9293682575225830078 0.65380841493606567383 0.017877573147416114807 0 0 0 0 0 0 0 0 0 0 0 0 0 0 0 0 0 0 0 0 0 0.015323635190725326538 0.066402420401573181152 0.066402420401573181152 0.015323635190725326538 0 0 0 0 0 0 0 0 0 0.010215756483376026154 0.030647270381450653076 0.010215756483376026154 0.010215756483376026154 0.030647270381450653076 0.010215756483376026154 0 0 0 0.010215756483376026154 0.043416965752840042114 0.048524845391511917114 0.053632721304893493652 0.1506824195384979248 0.21708482503890991211 0.37798300385475158691 0.65636235475540161133 0.83769202232360839844 1.0522229671478271484 1.1518265008926391602 0.84024596214294433594 0.48269450664520263672 0.24517816305160522461 0.066402420401573181152 0.007661817595362663269 0 0 0 0 0 0 0 0 0 0 0 0 0 0 0 0 0 0 0 0 0 0 0 0 0 0 0 0 0 0 0 0 0 0 0 0 0 0 0 0 0 0 0 0 0 0 0 0 0 0 0 0 0 0 0 0 0 0 0 0 0 0 0 0 0 0 0 0 0 0 0 0 0 0 0 0 0 0 0 0 0 0 0 0 0 0 0 0 0 0 0 0 0 0 0 0 0 0 0 0 0 0 0 0 0 0 0 0 0 0 0 0 0 0 0 0 0 0 0 0 0 0 0 0 0 0 0 0 0 0 0 0 0 0 0 0 
0.053632721304893493652 0.18132968246936798096 0.05874059721827507019 0.0025539391208440065384 0 0 0 0 0 0 0 0 0 0 0.0025539391208440065384 0.015323635190725326538 0.033201210200786590576 0.010215756483376026154 0 0 0.0051078782416880130768 0.022985450923442840576 0.043416965752840042114 0.020431512966752052307 0.012769696302711963654 0.017877575010061264038 0.020431512966752052307 0.030647270381450653076 0.071510300040245056152 0.071510300040245056152 0.025539392605423927307 0.0051078782416880130768 0 0 0 0 0 0 0 0 0 0.007661817595362663269 0.030647270381450653076 0.035755150020122528076 0.033201210200786590576 0.012769696302711963654 0.0025539391208440065384 0 0 0 0 0 0 0 0 0 0 0 0 0 0 0 0 0 0 0 0 0 0 0 0 0 0 0 0 0 0 0 0 0 0 0 0 0 0 0 0 0 0 0 0 0 0 0 0 0 0 0 0 0 0 0 0 0 0 0 0 0 0.0025539391208440065384 0.007661817595362663269 0.020431512966752052307 0.048524845391511917114 0.043416965752840042114 0.010215756483376026154 0 0 0 0 0 0 0 0 0 0 0 0 0 0 0 0 0 0 0 0 0 0 0 0 0 0 0 0 0 0 0 0 0 0 0 0 0 0 0 0 0 0 0 0 0 0 0 0 0 0 0 0 0 0 0 0 0 0 0 0 0 0 0 0 0 0 0 0 0 0 0 0 0 0 0 0 0 0 0 0 0 0 0 0 0 0 0 0 0 0 0 0 0 0 0 0 0 0 0 0 0 0 0 0 0 0 0 0 0 0 0 0 0 0 0 0 0 0 0 0 0 0 0 0 0 0 0 0 0 0 0 0 0 0 0 0 0 0 0 0 0 0 0 0 0 0 0 0 0 0 0 0 0 0 0.26050180196762084961 1.4480835199356079102 3.3150131702423095703 4.8346066474914550781 2.9089367389678955078 0.85812354087829589844 0.1251430213451385498 0 0 0 0 0 0 0 0 0 0 0 0 0 0 0 0 0 0 0 0 0 0 0.0051078782416880130768 0.030647270381450653076 0.066402420401573181152 0.020431512966752052307 0 0 0 0 0 0 0 0 0 0.010215756483376026154 0.030647270381450653076 0.012769696302711963654 0.015323635190725326538 0.033201210200786590576 0.010215756483376026154 0 0 0 0.007661817595362663269 0.043416965752840042114 0.066402420401573181152 0.043416965752840042114 0.091941803693771362305 0.17111392319202423096 0.26816362142562866211 0.50057208538055419922 0.69211751222610473633 0.82747626304626464844 1.0368993282318115234 1.0496690273284912109 0.86578536033630371094 0.56952840089797973633 0.22474664449691772461 0.043416965752840042114 0.0051078782416880130768 0 0 0 0 0 0 0 0 0 0 0 0 0 0 0 0 0 0 0 0 0 0 0 0 0 0 0 0 0 0 0 0 0 0 0 0 0 0 0 0 0 0 0 0 0 0 0 0 0 0 0 0 0 0 0 0 0 0 0 0 0 0 0 0 0 0 0 0 0 0 0 0 0 0 0 0 0 0 0 0 0 0 0 0 0 0 0 0 0 0 0 0 0 0 0 0 0 0 0 0 0 0 0 0 0 0 0 0 0 0 0 0 0 0 0 0 0 0 0 0 0 0 0 0 0 0 0 0 0 0 0 0 0 0 0 
0.017877573147416114807 0.035755146294832229614 0.017877573147416114807 0 0 0 0 0 0 0 0.0025539391208440065384 0.007661817595362663269 0.010215756483376026154 0.010215756483376026154 0.015323635190725326538 0.035755150020122528076 0.035755150020122528076 0.015323635190725326538 0.010215756483376026154 0.012769696302711963654 0.028093332424759864807 0.071510300040245056152 0.074064239859580993652 0.048524845391511917114 0.045970901846885681152 0.063848480582237243652 0.063848480582237243652 0.066402420401573181152 0.066402420401573181152 0.025539392605423927307 0.0051078782416880130768 0 0 0 0 0 0 0 0.0025539391208440065384 0.007661817595362663269 0.010215756483376026154 0.017877575010061264038 0.035755150020122528076 0.017877575010061264038 0.007661817595362663269 0.0025539391208440065384 0 0 0 0 0 0 0 0 0 0 0 0 0 0 0 0 0 0 0 0 0 0 0 0 0 0 0 0 0 0 0 0 0 0 0 0 0 0 0 0 0 0 0 0 0 0 0 0 0 0 0 0 0 0 0 0 0 0 0 0 0 0 0.007661817595362663269 0.033201210200786590576 0.048524845391511917114 0.066402420401573181152 0.040863025933504104614 0.007661817595362663269 0 0 0 0 0 0 0 0 0 0 0 0 0 0 0 0 0 0 0 0 0 0 0 0 0 0 0 0 0 0 0 0 0 0 0 0 0 0 0 0 0 0 0 0 0 0 0 0 0 0 0 0 0 0 0 0 0 0 0 0 0 0 0 0 0 0 0 0 0 0 0 0 0 0 0 0 0 0 0 0 0 0 0 0 0 0 0 0 0 0 0 0 0 0 0 0 0 0 0 0 0 0 0 0 0 0 0 0 0 0 0 0 0 0 0 0 0 0 0 0 0 0 0 0 0 0 0 0 0 0 0 0 0 0 0 0 0 0 0 0 0 0 0 0 0 0 0 0 0 0 0 0 0 0 0.27327147126197814941 1.7188010215759277344 3.7415206432342529297 3.5142202377319335938 1.0777622461318969727 0.1047115027904510498 0 0 0 0 0 0 0 0 0 0 0 0 0 0 0 0 0 0 0 0 0 0 0 0 0.020431512966752052307 0.061294540762901306152 0.020431512966752052307 0 0 0 0 0 0 0 0 0 0.010215756483376026154 0.030647270381450653076 0.017877575010061264038 0.033201210200786590576 0.033201210200786590576 0.007661817595362663269 0 0 0 0.0025539391208440065384 0.022985450923442840576 0.066402420401573181152 0.058740600943565368652 0.10215757042169570923 0.18899148702621459961 0.20686908066272735596 0.32690420746803283691 0.53121936321258544922 0.63593077659606933594 0.80449086427688598633 0.94751137495040893555 0.98582047224044799805 0.88621687889099121094 0.45970904827117919922 0.14557452499866485596 0.022985450923442840576 0 0 0 0 0 0 0 0 0 0 0 0 0 0 0 0 0 0 0 0 0 0 0 0 0 0 0 0 0 0 0 0 0 0 0 0 0 0 0 0 0 0 0 0 0 0 0 0 0 0 0 0 0 0 0 0 0 0 0 0 0 0 0 0 0 0 0 0 0 0 0 0 0 0 0 0 0 0 0 0 0 0 0 0 0 0 0 0 0 0 0 0 0 0 0 0 0 0 0 0 0 0 0 0 0 0 0 0 0 0 0 0 0 0 0 0 0 0 0 0 0 0 0 0 0 0 0 0 0 0 0 0 0 0 0 
0 0 0.0025539391208440065384 0.007661817595362663269 0.012769696302711963654 0.017877575010061264038 0.020431512966752052307 0.020431512966752052307 0.020431512966752052307 0.020431512966752052307 0.025539392605423927307 0.043416965752840042114 0.043416965752840042114 0.040863025933504104614 0.045970901846885681152 0.051078785210847854614 0.038309089839458465576 0.045970901846885681152 0.043416965752840042114 0.048524845391511917114 0.076618179678916931152 0.084279991686344146729 0.061294540762901306152 0.045970901846885681152 0.043416965752840042114 0.043416965752840042114 0.025539392605423927307 0.020431512966752052307 0.015323635190725326538 0.0051078782416880130768 0 0 0 0 0 0 0 0.0025539391208440065384 0.012769696302711963654 0.033201210200786590576 0.033201210200786590576 0.033201210200786590576 0.030647270381450653076 0.007661817595362663269 0 0 0 0 0 0 0 0 0 0 0 0 0 0 0 0 0 0 0 0 0 0 0 0 0 0 0 0 0 0 0 0 0 0 0 0 0 0 0 0 0 0 0 0 0 0 0 0 0 0 0 0 0 0 0 0 0 0 0 0 0 0 0 0 0.012769696302711963654 0.045970901846885681152 0.053632721304893493652 0.043416965752840042114 0.015323635190725326538 0.0025539391208440065384 0 0 0 0 0 0 0 0 0 0 0 0 0 0 0 0 0 0 0 0 0 0 0 0 0 0 0 0 0 0 0 0 0 0 0 0 0 0 0 0 0 0 0 0 0 0 0 0 0 0 0 0 0 0 0 0 0 0 0 0 0 0 0 0 0 0 0 0 0 0 0 0 0 0 0 0 0 0 0 0 0 0 0 0 0 0 0 0 0 0 0 0 0 0 0 0 0 0 0 0 0 0 0 0 0 0 0 0 0 0 0 0 0 0 0 0 0 0 0 0 0 0 0 0 0 0 0 0 0 0 0 0 0 0 0 0 0 0 0 0 0 0 0 0 0 0 0 0 0 0 0 0 0 0 0.17622180283069610596 1.5476870536804199219 3.8896491527557373047 2.7889015674591064453 0.60783749818801879883 0 0 0 0 0 0 0 0 0 0 0 0 0 0 0 0 0 0 0 0 0 0 0 0 0 0.020431512966752052307 0.061294540762901306152 0.020431512966752052307 0 0 0 0 0 0 0 0 0 0.010215756483376026154 0.030647270381450653076 0.020431512966752052307 0.033201210200786590576 0.015323635190725326538 0.0025539391208440065384 0 0 0 0 0.010215756483376026154 0.038309089839458465576 0.048524845391511917114 0.084279991686344146729 0.17622180283069610596 0.20176120102405548096 0.23240846395492553711 0.40096843242645263672 0.50567996501922607422 0.55420476198196411133 0.69722539186477661133 0.85301566123962402344 1.0905319452285766602 0.72787266969680786133 0.29370298981666564941 0.051078781485557556152 0 0 0 0 0 0 0 0 0 0 0 0 0 0 0 0 0 0 0 0 0 0 0 0 0 0 0 0 0 0 0 0 0 0 0 0 0 0 0 0 0 0 0 0 0 0 0 0 0 0 0 0 0 0 0 0 0 0 0 0 0 0 0 0 0 0 0 0 0 0 0 0 0 0 0 0 0 0 0 0 0 0 0 0 0 0 0 0 0 0 0 0 0 0 0 0 0 0 0 0 0 0 0 0 0 0 0 0 0 0 0 0 0 0 0 0 0 0 0 0 0 0 0 0 0 0 0 0 0 0 0 0 0 0 0 
0 0 0.007661817595362663269 0.033201210200786590576 0.048524845391511917114 0.074064239859580993652 0.081726051867008209229 0.081726051867008209229 0.081726051867008209229 0.081726051867008209229 0.084279991686344146729 0.084279991686344146729 0.066402420401573181152 0.061294540762901306152 0.066402420401573181152 0.081726051867008209229 0.079172119498252868652 0.074064239859580993652 0.056186664849519729614 0.058740600943565368652 0.076618179678916931152 0.056186664849519729614 0.038309089839458465576 0.015323635190725326538 0.010215756483376026154 0.007661817595362663269 0.0025539391208440065384 0 0 0 0 0 0 0 0 0 0.0025539391208440065384 0.012769696302711963654 0.035755150020122528076 0.035755150020122528076 0.015323635190725326538 0.010215756483376026154 0.007661817595362663269 0.0025539391208440065384 0 0 0 0 0 0 0 0 0 0 0 0 0 0 0 0 0 0 0 0 0 0 0 0 0 0 0 0 0 0 0 0 0 0 0 0 0 0 0 0 0 0 0 0 0 0 0 0 0 0 0 0 0 0 0 0 0 0 0 0 0 0 0 0.0025539391208440065384 0.022985450923442840576 0.066402420401573181152 0.045970901846885681152 0.012769696302711963654 0.0025539391208440065384 0 0 0 0 0 0 0 0 0 0 0 0 0 0 0 0 0 0 0 0 0 0 0 0 0 0 0 0 0 0 0 0 0 0 0 0 0 0 0 0 0 0 0 0 0 0 0 0 0 0 0 0 0 0 0 0 0 0 0 0 0 0 0 0 0 0 0 0 0 0 0 0 0 0 0 0 0 0 0 0 0 0 0 0 0 0 0 0 0 0 0 0 0 0 0 0 0 0 0 0 0 0 0 0 0 0 0 0 0 0 0 0 0 0 0 0 0 0 0 0 0 0 0 0 0 0 0 0 0 0 0 0 0 0 0 0 0 0 0 0 0 0 0 0 0 0 0 0 0 0 0 0 0 0 0 0.074064232409000396729 1.3229403495788574219 3.9432818889617919922 2.7020676136016845703 0.52866542339324951172 0 0 0 0 0 0 0 0 0 0 0 0 0 0 0 0 0 0 0 0 0 0 0 0 0 0.020431512966752052307 0.061294540762901306152 0.020431512966752052307 0 0 0 0 0 0 0 0 0 0.010215756483376026154 0.033201210200786590576 0.025539392605423927307 0.033201210200786590576 0.010215756483376026154 0 0 0 0 0 0.0025539391208440065384 0.007661817595362663269 0.017877575010061264038 0.066402420401573181152 0.1532363593578338623 0.21708482503890991211 0.21963876485824584961 0.26816362142562866211 0.37032115459442138672 0.42650783061981201172 0.52355754375457763672 0.63848477602005004883 0.98071259260177612305 0.93729561567306518555 0.49291023612022399902 0.1098193824291229248 0.0025539391208440065384 0 0 0 0 0 0 0 0 0 0 0 0 0 0 0 0 0 0 0 0 0 0 0 0 0 0 0 0 0 0 0 0 0 0 0 0 0 0 0 0 0 0 0 0 0 0 0 0 0 0 0 0 0 0 0 0 0 0 0 0 0 0 0 0 0 0 0 0 0 0 0 0 0 0 0 0 0 0 0 0 0 0 0 0 0 0 0 0 0 0 0 0 0 0 0 0 0 0 0 0 0 0 0 0 0 0 0 0 0 0 0 0 0 0 0 0 0 0 0 0 0 0 0 0 0 0 0 0 0 0 0 0 0 0 
0.0051078782416880130768 0.017877575010061264038 0.035755150020122528076 0.061294540762901306152 0.071510300040245056152 0.091941803693771362305 0.091941803693771362305 0.084279991686344146729 0.081726051867008209229 0.081726051867008209229 0.081726051867008209229 0.079172119498252868652 0.074064239859580993652 0.071510300040245056152 0.074064239859580993652 0.074064239859580993652 0.056186664849519729614 0.048524845391511917114 0.043416965752840042114 0.043416965752840042114 0.040863025933504104614 0.017877575010061264038 0.007661817595362663269 0.0025539391208440065384 0 0 0 0 0 0 0 0 0 0 0.0025539391208440065384 0.007661817595362663269 0.015323635190725326538 0.035755150020122528076 0.035755150020122528076 0.012769696302711963654 0.0025539391208440065384 0 0 0 0 0 0 0 0 0 0 0 0 0 0 0 0 0 0 0 0 0 0 0 0 0 0 0 0 0 0 0 0 0 0 0 0 0 0 0 0 0 0 0 0 0 0 0 0 0 0 0 0 0 0 0 0 0 0 0 0 0 0 0 0 0 0 0.007661817595362663269 0.043416965752840042114 0.066402420401573181152 0.022985450923442840576 0.0025539391208440065384 0 0 0 0 0 0 0 0 0 0 0 0 0 0 0 0 0 0 0 0 0 0 0 0 0 0 0 0 0 0 0 0 0 0 0 0 0 0 0 0 0 0 0 0 0 0 0 0 0 0 0 0 0 0 0 0 0 0 0 0 0 0 0 0 0 0 0 0 0 0 0 0 0 0 0 0 0 0 0 0 0 0 0 0 0 0 0 0 0 0 0 0 0 0 0 0 0 0 0 0 0 0 0 0 0 0 0 0 0 0 0 0 0 0 0 0 0 0 0 0 0 0 0 0 0 0 0 0 0 0 0 0 0 0 0 0 0 0 0 0 0 0 0 0 0 0 0 0 0 0 0 0 0 0 0 0 0.025539390742778778076 1.3408179283142089844 4.2855100631713867188 2.7403767108917236328 0.47503268718719482422 0 0 0 0 0 0 0 0 0 0 0 0 0 0 0 0 0 0 0 0 0 0 0 0 0 0.020431512966752052307 0.061294540762901306152 0.020431512966752052307 0 0 0 0 0 0 0 0 0 0.010215756483376026154 0.038309089839458465576 0.043416965752840042114 0.033201210200786590576 0.007661817595362663269 0 0 0 0 0 0 0 0.007661817595362663269 0.053632721304893493652 0.13535876572132110596 0.20431514084339141846 0.24262420833110809326 0.24262422323226928711 0.34733572602272033691 0.40352240204811096191 0.45204722881317138672 0.61805325746536254883 0.92963385581970214844 1.0956398248672485352 0.85046172142028808594 0.26816362142562866211 0.033201210200786590576 0 0 0 0 0 0 0 0 0 0 0 0 0 0 0 0 0 0 0 0 0 0 0 0 0 0 0 0 0 0 0 0 0 0 0 0 0 0 0 0 0 0 0 0 0 0 0 0 0 0 0 0 0 0 0 0 0 0 0 0 0 0 0 0 0 0 0 0 0 0 0 0 0 0 0 0 0 0 0 0 0 0 0 0 0 0 0 0 0 0 0 0 0 0 0 0 0 0 0 0 0 0 0 0 0 0 0 0 0 0 0 0 0 0 0 0 0 0 0 0 0 0 0 0 0 0 0 0 0 0 0 0 0 0 
0.020431512966752052307 0.081726051867008209229 0.11237332969903945923 0.10726545006036758423 0.089387871325016021729 0.081726051867008209229 0.053632721304893493652 0.025539392605423927307 0.020431512966752052307 0.020431512966752052307 0.020431512966752052307 0.020431512966752052307 0.020431512966752052307 0.020431512966752052307 0.020431512966752052307 0.017877575010061264038 0.012769696302711963654 0.010215756483376026154 0.010215756483376026154 0.010215756483376026154 0.007661817595362663269 0.0025539391208440065384 0 0.0025539391208440065384 0.007661817595362663269 0.010215756483376026154 0.010215756483376026154 0.010215756483376026154 0.010215756483376026154 0.010215756483376026154 0.010215756483376026154 0.010215756483376026154 0.010215756483376026154 0.010215756483376026154 0.015323635190725326538 0.033201210200786590576 0.035755150020122528076 0.033201210200786590576 0.012769696302711963654 0.0025539391208440065384 0 0 0 0 0 0 0 0 0 0 0 0 0 0 0 0 0 0 0 0 0 0 0 0 0 0 0 0 0 0 0 0 0 0 0 0 0 0 0 0 0 0 0 0 0 0 0 0 0 0 0 0 0 0 0 0 0 0 0 0 0 0 0 0 0 0 0.0025539391208440065384 0.017877575010061264038 0.051078785210847854614 0.048524845391511917114 0.012769696302711963654 0 0 0 0 0 0 0 0 0 0 0 0 0 0 0 0 0 0 0 0 0 0 0 0 0 0 0 0 0 0 0 0 0 0 0 0 0 0 0 0 0 0 0 0 0 0 0 0 0 0 0 0 0 0 0 0 0 0 0 0 0 0 0 0 0 0 0 0 0 0 0 0 0 0 0 0 0 0 0 0 0 0 0 0 0 0 0 0 0 0 0 0 0 0 0 0 0 0 0 0 0 0 0 0 0 0 0 0 0 0 0 0 0 0 0 0 0 0 0 0 0 0 0 0 0 0 0 0 0 0 0 0 0 0 0 0 0 0 0 0 0 0 0 0 0 0 0 0 0 0 0 0 0 0 0 0 0 0.40863025188446044922 2.2806675434112548828 5.1283092498779296875 2.4339039325714111328 0.32179632782936096191 0 0 0 0 0 0 0 0 0 0 0 0 0 0 0 0 0 0 0 0 0 0 0 0 0 0.020431512966752052307 0.061294540762901306152 0.020431512966752052307 0 0 0 0 0 0 0 0 0 0.010215756483376026154 0.043416965752840042114 0.048524845391511917114 0.017877575010061264038 0.0025539391208440065384 0 0 0 0 0 0 0 0.0025539391208440065384 0.025539392605423927307 0.091941818594932556152 0.1583442389965057373 0.26305574178695678711 0.30136480927467346191 0.29881086945533752441 0.36010542511940002441 0.42139995098114013672 0.59251385927200317383 0.89132475852966308594 1.1160713434219360352 1.1339489221572875977 0.60783749818801879883 0.1200351417064666748 0 0 0 0 0 0 0 0 0 0 0 0 0 0 0 0 0 0 0 0 0 0 0 0 0 0 0 0 0 0 0 0 0 0 0 0 0 0 0 0 0 0 0 0 0 0 0 0 0 0 0 0 0 0 0 0 0 0 0 0 0 0 0 0 0 0 0 0 0 0 0 0 0 0 0 0 0 0 0 0 0 0 0 0 0 0 0 0 0 0 0 0 0 0 0 0 0 0 0 0 0 0 0 0 0 0 0 0 0 0 0 0 0 0 0 0 0 0 0 0 0 0 0 0 0 0 0 0 0 0 0 0 0 0 
0.025539392605423927307 0.1098193824291229248 0.094495750963687896729 0.063848480582237243652 0.053632721304893493652 0.043416965752840042114 0.015323635190725326538 0.0025539391208440065384 0 0 0 0 0 0 0 0 0 0 0 0 0 0 0 0.007661817595362663269 0.030647270381450653076 0.033201210200786590576 0.030647270381450653076 0.030647270381450653076 0.030647270381450653076 0.030647270381450653076 0.030647270381450653076 0.030647270381450653076 0.030647270381450653076 0.030647270381450653076 0.033201210200786590576 0.033201210200786590576 0.015323635190725326538 0.007661817595362663269 0.0025539391208440065384 0 0 0 0 0 0 0 0 0 0 0 0 0 0 0 0 0 0 0 0 0 0 0 0 0 0 0 0 0 0 0 0 0 0 0 0 0 0 0 0 0 0 0 0 0 0 0 0 0 0 0 0 0 0 0 0 0 0 0 0 0 0 0 0 0 0.0025539391208440065384 0.007661817595362663269 0.015323635190725326538 0.043416965752840042114 0.066402420401573181152 0.040863025933504104614 0.007661817595362663269 0 0 0 0 0 0 0 0 0 0 0 0 0 0 0 0 0 0 0 0 0 0 0 0 0 0 0 0 0 0 0 0 0 0 0 0 0 0 0 0 0 0 0 0 0 0 0 0 0 0 0 0 0 0 0 0 0 0 0 0 0 0 0 0 0 0 0 0 0 0 0 0 0 0 0 0 0 0 0 0 0 0 0 0 0 0 0 0 0 0 0 0 0 0 0 0 0 0 0 0 0 0 0 0 0 0 0 0 0 0 0 0 0 0 0 0 0 0 0 0 0 0 0 0 0 0 0 0 0 0 0 0 0 0 0 0 0 0 0 0 0 0 0 0 0 0 0 0 0 0 0 0 0 0 0 0.043416965752840042114 0.32179632782936096191 1.7111392021179199219 5.3888111114501953125 5.2406826019287109375 1.5170397758483886719 0.1302509009838104248 0 0 0 0 0 0 0 0 0 0 0 0 0 0 0 0 0 0 0 0 0 0 0 0 0 0.020431512966752052307 0.061294540762901306152 0.020431512966752052307 0 0 0 0 0 0 0 0 0 0.007661817595362663269 0.043416965752840042114 0.066402420401573181152 0.025539392605423927307 0.007661817595362663269 0.0025539391208440065384 0 0 0 0 0 0 0 0.012769696302711963654 0.051078785210847854614 0.076618179678916931152 0.13791270554065704346 0.26816362142562866211 0.24517816305160522461 0.25283998250961303711 0.26305574178695678711 0.42395389080047607422 0.71510297060012817383 1.0113599300384521484 1.1926895380020141602 0.96283507347106933594 0.25028604269027709961 0.010215756483376026154 0 0 0 0 0 0 0 0 0 0 0 0 0 0 0 0 0 0 0 0 0 0 0 0 0 0 0 0 0 0 0 0 0 0 0 0 0 0 0 0 0 0 0 0 0 0 0 0 0 0 0 0 0 0 0 0 0 0 0 0 0 0 0 0 0 0 0 0 0 0 0 0 0 0 0 0 0 0 0 0 0 0 0 0 0 0 0 0 0 0 0 0 0 0 0 0 0 0 0 0 0 0 0 0 0 0 0 0 0 0 0 0 0 0 0 0 0 0 0 0 0 0 0 0 0 0 0 0 0 0 0 0 0 
0.010215756483376026154 0.025539392605423927307 0.022985450923442840576 0.012769696302711963654 0.010215756483376026154 0.007661817595362663269 0.0025539391208440065384 0 0 0 0 0 0 0 0 0 0 0 0 0 0 0 0 0.010215756483376026154 0.033201210200786590576 0.017877575010061264038 0.010215756483376026154 0.010215756483376026154 0.010215756483376026154 0.010215756483376026154 0.010215756483376026154 0.010215756483376026154 0.010215756483376026154 0.010215756483376026154 0.010215756483376026154 0.007661817595362663269 0.0025539391208440065384 0 0 0 0 0 0 0 0 0 0 0 0 0 0 0 0 0 0 0 0 0 0 0 0 0 0 0 0 0 0 0 0 0 0 0 0 0 0 0 0 0 0 0 0 0 0 0 0 0 0 0 0 0 0 0 0 0 0 0 0 0 0 0 0 0 0 0 0.007661817595362663269 0.030647270381450653076 0.035755150020122528076 0.043416965752840042114 0.045970901846885681152 0.017877575010061264038 0.0025539391208440065384 0 0 0 0 0 0 0 0 0 0 0 0 0 0 0 0 0 0 0 0 0 0 0 0 0 0 0 0 0 0 0 0 0 0 0 0 0 0 0 0 0 0 0 0 0 0 0 0 0 0 0 0 0 0 0 0 0 0 0 0 0 0 0 0 0 0 0 0 0 0 0 0 0 0 0 0 0 0 0 0 0 0 0 0 0 0 0 0 0 0 0 0 0 0 0 0 0 0 0 0 0 0 0 0 0 0 0 0 0 0 0 0 0 0 0 0 0 0 0 0 0 0 0 0 0 0 0 0 0 0 0 0 0 0 0 0 0 0 0 0 0 0 0 0 0 0 0 0 0 0 0 0 0 0 0 0.19154542684555053711 1.3408180475234985352 4.0582094192504882812 5.4909691810607910156 2.1734020709991455078 0.44183143973350524902 0.022985450923442840576 0 0 0 0 0 0 0 0 0 0 0 0 0 0 0 0 0 0 0 0 0 0 0 0.0025539391208440065384 0.007661817595362663269 0.028093332424759864807 0.063848480582237243652 0.020431512966752052307 0 0 0 0 0 0 0 0 0 0.0025539391208440065384 0.022985450923442840576 0.066402420401573181152 0.051078785210847854614 0.033201210200786590576 0.007661817595362663269 0 0 0 0 0 0 0 0.010215756483376026154 0.040863025933504104614 0.043416965752840042114 0.068956352770328521729 0.19665330648422241211 0.19409938156604766846 0.18388360738754272461 0.19154542684555053711 0.29114904999732971191 0.53121936321258544922 0.79427504539489746094 1.0777622461318969727 1.2131210565567016602 0.46992477774620056152 0.056186661124229431152 0 0 0 0 0 0 0 0 0 0 0 0 0 0 0 0 0 0 0 0 0 0 0 0 0 0 0 0 0 0 0 0 0 0 0 0 0 0 0 0 0 0 0 0 0 0 0 0 0 0 0 0 0 0 0 0 0 0 0 0 0 0 0 0 0 0 0 0 0 0 0 0 0 0 0 0 0 0 0 0 0 0 0 0 0 0 0 0 0 0 0 0 0 0 0 0 0 0 0 0 0 0 0 0 0 0 0 0 0 0 0 0 0 0 0 0 0 0 0 0 0 0 0 0 0 0 0 0 0 0 0 0 0 
0 0 0 0 0 0 0 0 0 0 0 0 0 0 0 0 0 0 0 0 0 0 0 0.010215756483376026154 0.030647270381450653076 0.010215756483376026154 0 0 0 0 0 0 0 0 0 0 0 0 0 0 0 0 0 0 0 0 0 0 0 0 0 0 0 0 0 0 0 0 0 0 0 0 0 0 0 0 0 0 0 0 0 0 0 0 0 0 0 0 0 0 0 0 0 0 0 0 0 0 0 0 0 0 0 0 0 0 0 0 0 0 0 0 0 0.0025539391208440065384 0.015323635190725326538 0.038309089839458465576 0.025539392605423927307 0.025539392605423927307 0.035755150020122528076 0.010215756483376026154 0 0 0 0 0 0 0 0 0 0 0 0 0 0 0 0 0 0 0 0 0 0 0 0 0 0 0 0 0 0 0 0 0 0 0 0 0 0 0 0 0 0 0 0 0 0 0 0 0 0 0 0 0 0 0 0 0 0 0 0 0 0 0 0 0 0 0 0 0 0 0 0 0 0 0 0 0 0 0 0 0 0 0 0 0 0 0 0 0 0 0 0 0 0 0 0 0 0 0 0 0 0 0 0 0 0 0 0 0 0 0 0 0 0 0 0 0 0 0 0 0 0 0 0 0 0 0 0 0 0 0 0 0 0 0 0 0 0 0 0 0 0 0 0 0 0 0 0 0 0 0 0 0 0 0 0 0.25283998250961303711 2.0814604759216308594 4.5894289016723632812 3.3431062698364257812 0.76618170738220214844 0 0 0 0 0 0 0 0 0 0 0 0 0 0 0 0 0 0 0 0 0 0 0 0 0.0025539391208440065384 0.012769696302711963654 0.033201210200786590576 0.045970901846885681152 0.061294540762901306152 0.017877575010061264038 0 0 0 0 0 0 0 0 0 0 0.010215756483376026154 0.040863025933504104614 0.051078785210847854614 0.043416965752840042114 0.015323635190725326538 0.0025539391208440065384 0 0 0 0 0 0 0.010215756483376026154 0.043416965752840042114 0.045970901846885681152 0.051078785210847854614 0.1532363593578338623 0.17877574265003204346 0.1302509009838104248 0.1072654426097869873 0.19409938156604766846 0.39586058259010314941 0.63082301616668701172 1.0164676904678344727 1.4225441217422485352 0.80704474449157714844 0.15579028427600860596 0 0 0 0 0 0 0 0 0 0 0 0 0 0 0 0 0 0 0 0 0 0 0 0 0 0 0 0 0 0 0 0 0 0 0 0 0 0 0 0 0 0 0 0 0 0 0 0 0 0 0 0 0 0 0 0 0 0 0 0 0 0 0 0 0 0 0 0 0 0 0 0 0 0 0 0 0 0 0 0 0 0 0 0 0 0 0 0 0 0 0 0 0 0 0 0 0 0 0 0 0 0 0 0 0 0 0 0 0 0 0 0 0 0 0 0 0 0 0 0 0 0 0 0 0 0 0 0 0 0 0 0 0 
0 0 0 0 0 0 0 0 0 0 0 0 0 0 0 0 0 0 0 0 0 0 0.0025539391208440065384 0.015323635190725326538 0.033201210200786590576 0.010215756483376026154 0 0 0 0 0 0 0 0 0 0 0 0 0 0 0 0 0 0 0 0 0 0 0 0 0 0 0 0 0 0 0 0 0 0 0 0 0 0 0 0 0 0 0 0 0 0 0 0 0 0 0 0 0 0 0 0 0 0 0 0 0 0 0 0 0 0 0 0 0 0 0 0 0 0 0 0 0 0.007661817595362663269 0.033201210200786590576 0.040863025933504104614 0.038309089839458465576 0.035755150020122528076 0.030647270381450653076 0.007661817595362663269 0 0 0 0 0 0 0 0 0 0 0 0 0 0 0 0 0 0 0 0 0 0 0 0 0 0 0 0 0 0 0 0 0 0 0 0 0 0 0 0 0 0 0 0 0 0 0 0 0 0 0 0 0 0 0 0 0 0 0 0 0 0 0 0 0 0 0 0 0 0 0 0 0 0 0 0 0 0 0 0 0 0 0 0 0 0 0 0 0 0 0 0 0 0 0 0 0 0 0 0 0 0 0 0 0 0 0 0 0 0 0 0 0 0 0 0 0 0 0 0 0 0 0 0 0 0 0 0 0 0 0 0 0 0 0 0 0 0 0 0 0 0 0 0 0 0 0 0 0 0 0 0 0 0 0 0 0.1047115027904510498 1.1109634637832641602 3.3277828693389892578 1.5553488731384277344 0.24517816305160522461 0 0 0 0 0 0 0 0 0 0 0 0 0 0 0 0 0 0 0 0 0 0 0 0 0.007661817595362663269 0.033201210200786590576 0.035755150020122528076 0.025539392605423927307 0.038309089839458465576 0.012769696302711963654 0 0 0 0 0 0 0 0 0 0 0.0025539391208440065384 0.015323635190725326538 0.043416965752840042114 0.051078785210847854614 0.040863025933504104614 0.010215756483376026154 0 0 0 0 0 0 0.007661817595362663269 0.043416965752840042114 0.066402420401573181152 0.048524845391511917114 0.1047115027904510498 0.1455745398998260498 0.1302509009838104248 0.089387871325016021729 0.13791270554065704346 0.26560968160629272461 0.42906177043914794922 0.79938298463821411133 1.3765732049942016602 1.2105671167373657227 0.32690420746803283691 0.017877573147416114807 0 0 0 0 0 0 0 0 0 0 0 0 0 0 0 0 0 0 0 0 0 0 0 0 0 0 0 0 0 0 0 0 0 0 0 0 0 0 0 0 0 0 0 0 0 0 0 0 0 0 0 0 0 0 0 0 0 0 0 0 0 0 0 0 0 0 0 0 0 0 0 0 0 0 0 0 0 0 0 0 0 0 0 0 0 0 0 0 0 0 0 0 0 0 0 0 0 0 0 0 0 0 0 0 0 0 0 0 0 0 0 0 0 0 0 0 0 0 0 0 0 0 0 0 0 0 0 0 0 0 0 0 
0 0 0 0 0 0 0 0 0 0 0 0 0 0 0 0 0 0 0 0 0 0 0.007661817595362663269 0.033201210200786590576 0.033201210200786590576 0.007661817595362663269 0 0 0 0 0 0 0 0 0 0 0 0 0 0 0 0 0 0 0 0 0 0 0 0 0 0 0 0 0 0 0 0 0 0 0 0 0 0 0 0 0 0 0 0 0 0 0 0 0 0 0 0 0 0 0 0 0 0 0 0 0 0 0 0 0 0 0 0 0 0 0 0 0 0 0 0 0 0.010215756483376026154 0.033201210200786590576 0.025539392605423927307 0.035755150020122528076 0.017877575010061264038 0.007661817595362663269 0.0025539391208440065384 0 0 0 0 0 0 0 0 0 0 0 0 0 0 0 0 0 0 0 0 0 0 0 0 0 0 0 0 0 0 0 0 0 0 0 0 0 0 0 0 0 0 0 0 0 0 0 0 0 0 0 0 0 0 0 0 0 0 0 0 0 0 0 0 0 0 0 0 0 0 0 0 0 0 0 0 0 0 0 0 0 0 0 0 0 0 0 0 0 0 0 0 0 0 0 0 0 0 0 0 0 0 0 0 0 0 0 0 0 0 0 0 0 0 0 0 0 0 0 0 0 0 0 0 0 0 0 0 0 0 0 0 0 0 0 0 0 0 0 0 0 0 0 0 0 0 0 0 0 0 0 0 0 0 0 0 0 0.29370298981666564941 0.62826901674270629883 0.37542903423309326172 0.040863025933504104614 0 0 0 0 0 0 0 0 0 0 0 0 0 0 0 0 0 0 0 0 0 0 0 0 0.010215756483376026154 0.033201210200786590576 0.017877575010061264038 0.017877575010061264038 0.033201210200786590576 0.010215756483376026154 0 0 0 0 0 0 0 0 0 0 0 0.007661817595362663269 0.033201210200786590576 0.051078785210847854614 0.063848480582237243652 0.017877575010061264038 0 0 0 0 0 0 0.0025539391208440065384 0.022985450923442840576 0.068956352770328521729 0.068956352770328521729 0.091941818594932556152 0.10981938987970352173 0.1225890815258026123 0.1072654426097869873 0.13535876572132110596 0.17366786301136016846 0.28859511017799377441 0.61294543743133544922 1.1926896572113037109 1.5502409934997558594 0.67168599367141723633 0.10215757042169570923 0 0 0 0 0 0 0 0 0 0 0 0 0 0 0 0 0 0 0 0 0 0 0 0 0 0 0 0 0 0 0 0 0 0 0 0 0 0 0 0 0 0 0 0 0 0 0 0 0 0 0 0 0 0 0 0 0 0 0 0 0 0 0 0 0 0 0 0 0 0 0 0 0 0 0 0 0 0 0 0 0 0 0 0 0 0 0 0 0 0 0 0 0 0 0 0 0 0 0 0 0 0 0 0 0 0 0 0 0 0 0 0 0 0 0 0 0 0 0 0 0 0 0 0 0 0 0 0 0 0 0 0 
0 0 0 0 0 0 0 0 0 0 0 0 0 0 0 0 0 0 0 0 0 0 0.010215756483376026154 0.033201210200786590576 0.015323635190725326538 0.0025539391208440065384 0 0 0 0 0 0 0 0 0 0 0 0 0 0 0 0 0 0 0 0 0 0 0 0 0 0 0 0 0 0 0 0 0 0 0 0 0 0 0 0 0 0 0 0 0 0 0 0 0 0 0 0 0 0 0 0 0 0 0 0 0 0 0 0 0 0 0 0 0 0 0 0 0 0 0 0 0 0.010215756483376026154 0.030647270381450653076 0.020431512966752052307 0.030647270381450653076 0.010215756483376026154 0 0 0 0 0 0 0 0 0 0 0 0 0 0 0 0 0 0 0 0 0 0 0 0 0 0 0 0 0 0 0 0 0 0 0 0 0 0 0 0 0 0 0 0 0 0 0 0 0 0 0 0 0 0 0 0 0 0 0 0 0 0 0 0 0 0 0 0 0 0 0 0 0 0 0 0 0 0 0 0 0 0 0 0 0 0 0 0 0 0 0 0 0 0 0 0 0 0 0 0 0 0 0 0 0 0 0 0 0 0 0 0 0 0 0 0 0 0 0 0 0 0 0 0 0 0 0 0 0 0 0 0 0 0 0 0 0 0 0 0 0 0 0 0 0 0 0 0 0 0 0 0 0 0 0 0 0 0 0 0 0 0 0 0 0 0 0 0 0 0 0 0 0 0 0 0 0 0 0 0 0 0 0 0 0 0 0 0.010215756483376026154 0.030647270381450653076 0.017877575010061264038 0.033201210200786590576 0.033201210200786590576 0.007661817595362663269 0 0 0 0 0 0 0 0 0 0 0 0.0025539391208440065384 0.007661817595362663269 0.028093332424759864807 0.063848480582237243652 0.020431512966752052307 0 0 0 0 0 0 0 0.010215756483376026154 0.048524845391511917114 0.089387871325016021729 0.097049690783023834229 0.084279991686344146729 0.097049690783023834229 0.089387871325016021729 0.1225890815258026123 0.1200351417064666748 0.16600604355335235596 0.36776727437973022461 0.86578536033630371094 1.6115356683731079102 1.1722580194473266602 0.26305574178695678711 0.0051078782416880130768 0 0 0 0 0 0 0 0 0 0 0 0 0 0 0 0 0 0 0 0 0 0 0 0 0 0 0 0 0 0 0 0 0 0 0 0 0 0 0 0 0 0 0 0 0 0 0 0 0 0 0 0 0 0 0 0 0 0 0 0 0 0 0 0 0 0 0 0 0 0 0 0 0 0 0 0 0 0 0 0 0 0 0 0 0 0 0 0 0 0 0 0 0 0 0 0 0 0 0 0 0 0 0 0 0 0 0 0 0 0 0 0 0 0 0 0 0 0 0 0 0 0 0 0 0 0 0 0 0 0 0 
0 0 0 0 0 0 0 0 0 0 0 0 0 0 0 0 0 0 0 0 0 0 0.010215756483376026154 0.030647270381450653076 0.010215756483376026154 0 0 0 0 0 0 0 0 0 0 0 0 0 0 0 0 0 0 0 0 0 0 0 0 0 0 0 0 0 0 0 0 0 0 0 0 0 0 0 0 0 0 0 0 0 0 0 0 0 0 0 0 0 0 0 0 0 0 0 0 0 0 0 0 0 0 0 0 0 0 0 0 0 0 0 0.0025539391208440065384 0.007661817595362663269 0.010215756483376026154 0.017877575010061264038 0.033201210200786590576 0.020431512966752052307 0.030647270381450653076 0.010215756483376026154 0 0 0 0 0 0 0 0 0 0 0 0 0 0 0 0 0 0 0 0 0 0 0 0 0 0 0 0 0 0 0 0 0 0 0 0 0 0 0 0 0 0 0 0 0 0 0 0 0 0 0 0 0 0 0 0 0 0 0 0 0 0 0 0 0 0 0 0 0 0 0 0 0 0 0 0 0 0 0 0 0 0 0 0 0 0 0 0 0 0 0 0 0 0 0 0 0 0 0 0 0 0 0 0 0 0 0 0 0 0 0 0 0 0 0 0 0 0 0 0 0 0 0 0 0 0 0 0 0 0 0 0 0 0 0 0 0 0 0 0 0 0 0 0 0 0 0 0 0 0 0 0 0 0 0 0 0 0 0 0 0 0 0 0 0 0 0 0 0 0 0 0 0 0 0 0 0 0 0 0 0 0 0 0 0 0 0.0025539391208440065384 0.015323635190725326538 0.035755150020122528076 0.025539392605423927307 0.035755150020122528076 0.015323635190725326538 0.0025539391208440065384 0 0 0 0 0 0 0 0 0 0 0 0 0 0.020431512966752052307 0.063848480582237243652 0.025539392605423927307 0.0025539391208440065384 0 0 0 0 0 0 0.0025539391208440065384 0.022985450923442840576 0.086833931505680084229 0.11492726951837539673 0.086833931505680084229 0.10726545006036758423 0.081726051867008209229 0.097049690783023834229 0.097049690783023834229 0.099603630602359771729 0.21197694540023803711 0.55420476198196411133 1.3433719873428344727 1.5042700767517089844 0.46992477774620056152 0.033201210200786590576 0 0 0 0 0 0 0 0 0 0 0 0 0 0 0 0 0 0 0 0 0 0 0 0 0 0 0 0 0 0 0 0 0 0 0 0 0 0 0 0 0 0 0 0 0 0 0 0 0 0 0 0 0 0 0 0 0 0 0 0 0 0 0 0 0 0 0 0 0 0 0 0 0 0 0 0 0 0 0 0 0 0 0 0 0 0 0 0 0 0 0 0 0 0 0 0 0 0 0 0 0 0 0 0 0 0 0 0 0 0 0 0 0 0 0 0 0 0 0 0 0 0 0 0 0 0 0 0 0 0 0 
0 0 0 0 0 0 0 0 0 0 0 0 0 0 0 0 0 0 0 0 0 0.0025539391208440065384 0.015323635190725326538 0.033201210200786590576 0.010215756483376026154 0 0 0 0 0 0 0 0 0 0 0 0 0 0 0 0 0 0 0 0 0 0 0 0 0 0 0 0 0 0 0 0 0 0 0 0 0 0 0 0 0 0 0 0 0 0 0 0 0 0 0 0 0 0 0 0 0 0 0 0 0 0 0 0 0 0 0 0 0 0 0 0 0 0.0025539391208440065384 0.007661817595362663269 0.015323635190725326538 0.033201210200786590576 0.033201210200786590576 0.033201210200786590576 0.030647270381450653076 0.017877575010061264038 0.030647270381450653076 0.010215756483376026154 0 0 0 0 0 0 0 0 0 0 0 0 0 0 0 0 0 0 0 0 0 0 0 0 0 0 0 0 0 0 0 0 0 0 0 0 0 0 0 0 0 0 0 0 0 0 0 0 0 0 0 0 0 0 0 0 0 0 0 0 0 0 0 0 0 0 0 0 0 0 0 0 0 0 0 0 0 0 0 0 0 0 0 0 0 0 0 0 0 0 0 0 0 0 0 0 0 0 0 0 0 0 0 0 0 0 0 0 0 0 0 0 0 0 0 0 0 0 0 0 0 0 0 0 0 0 0 0 0 0 0 0 0 0 0 0 0 0 0 0 0 0 0 0 0 0 0 0 0 0 0 0 0 0 0 0 0 0 0 0 0 0 0 0 0 0 0 0 0 0 0 0 0 0 0 0 0 0 0 0 0 0 0 0 0 0.0025539391208440065384 0.015323635190725326538 0.043416965752840042114 0.048524845391511917114 0.043416965752840042114 0.033201210200786590576 0.007661817595362663269 0 0 0 0 0 0 0 0 0 0 0 0 0 0 0.017877575010061264038 0.063848480582237243652 0.045970901846885681152 0.012769696302711963654 0.0025539391208440065384 0 0 0 0 0 0 0.012769696302711963654 0.063848480582237243652 0.11237332969903945923 0.094495750963687896729 0.1174812018871307373 0.086833931505680084229 0.094495750963687896729 0.089387871325016021729 0.076618179678916931152 0.1302509009838104248 0.29370298981666564941 0.98582047224044799805 1.5885500907897949219 0.72021085023880004883 0.099603623151779174805 0 0 0 0 0 0 0 0 0 0 0 0 0 0 0 0 0 0 0 0 0 0 0 0 0 0 0 0 0 0 0 0 0 0 0 0 0 0 0 0 0 0 0 0 0 0 0 0 0 0 0 0 0 0 0 0 0 0 0 0 0 0 0 0 0 0 0 0 0 0 0 0 0 0 0 0 0 0 0 0 0 0 0 0 0 0 0 0 0 0 0 0 0 0 0 0 0 0 0 0 0 0 0 0 0 0 0 0 0 0 0 0 0 0 0 0 0 0 0 0 0 0 0 0 0 0 0 0 0 0 0 
0 0 0 0 0 0 0 0 0 0 0 0 0 0 0 0 0 0 0 0 0 0.007661817595362663269 0.033201210200786590576 0.033201210200786590576 0.007661817595362663269 0 0 0 0 0 0 0 0 0 0 0 0 0 0 0 0 0 0 0 0 0 0 0 0 0 0 0 0 0 0 0 0 0 0 0 0 0 0 0 0 0 0 0 0 0 0 0 0 0 0 0 0 0 0 0 0 0 0 0 0 0 0 0 0 0 0 0 0 0.0025539391208440065384 0.007661817595362663269 0.010215756483376026154 0.010215756483376026154 0.010215756483376026154 0.015323635190725326538 0.033201210200786590576 0.035755150020122528076 0.033201210200786590576 0.015323635190725326538 0.010215756483376026154 0.007661817595362663269 0.012769696302711963654 0.030647270381450653076 0.010215756483376026154 0 0 0 0 0 0 0 0 0 0 0 0 0 0 0 0 0 0 0 0 0 0 0 0 0 0 0 0 0 0 0 0 0 0 0 0 0 0 0 0 0 0 0 0 0 0 0 0 0 0 0 0 0 0 0 0 0 0 0 0 0 0 0 0 0 0 0 0 0 0 0 0 0 0 0 0 0 0 0 0 0 0 0 0 0 0 0 0 0 0 0 0 0 0 0 0 0 0 0 0 0 0 0 0 0 0 0 0 0 0 0 0 0 0 0 0 0 0 0 0 0 0 0 0 0 0 0 0 0 0 0 0 0 0 0 0 0 0 0 0 0 0 0 0 0 0 0 0 0 0 0 0 0 0 0 0 0 0 0 0 0 0 0 0 0 0 0 0 0 0 0 0 0 0 0 0 0 0 0 0 0 0 0 0 0.0025539391208440065384 0.015323635190725326538 0.048524845391511917114 0.068956352770328521729 0.048524845391511917114 0.035755150020122528076 0.012769696302711963654 0.0025539391208440065384 0 0 0 0 0 0 0 0 0 0 0 0 0 0 0.012769696302711963654 0.045970901846885681152 0.051078785210847854614 0.038309089839458465576 0.012769696302711963654 0.0025539391208440065384 0 0 0 0 0 0.010215756483376026154 0.051078785210847854614 0.089387871325016021729 0.1047115027904510498 0.1251430213451385498 0.10981938987970352173 0.10215757042169570923 0.084279991686344146729 0.048524845391511917114 0.084279991686344146729 0.17622180283069610596 0.74830412864685058594 1.5349173545837402344 1.0036979913711547852 0.20176118612289428711 0 0 0 0 0 0 0 0 0 0 0 0 0 0 0 0 0 0 0 0 0 0 0 0 0 0 0 0 0 0 0 0 0 0 0 0 0 0 0 0 0 0 0 0 0 0 0 0 0 0 0 0 0 0 0 0 0 0 0 0 0 0 0 0 0 0 0 0 0 0 0 0 0 0 0 0 0 0 0 0 0 0 0 0 0 0 0 0 0 0 0 0 0 0 0 0 0 0 0 0 0 0 0 0 0 0 0 0 0 0 0 0 0 0 0 0 0 0 0 0 0 0 0 0 0 0 0 0 0 0 0 
0 0 0 0 0 0 0 0 0 0 0 0 0 0 0 0 0 0 0 0 0 0.010215756483376026154 0.033201210200786590576 0.015323635190725326538 0.0025539391208440065384 0 0 0 0 0 0 0 0 0 0 0 0 0 0 0 0 0 0 0 0 0 0 0 0 0 0 0 0 0 0 0 0 0 0 0 0 0 0 0 0 0 0 0 0 0 0 0 0 0 0 0 0 0 0 0 0 0 0 0 0 0 0 0 0 0 0 0 0 0.007661817595362663269 0.030647270381450653076 0.033201210200786590576 0.030647270381450653076 0.030647270381450653076 0.033201210200786590576 0.033201210200786590576 0.015323635190725326538 0.007661817595362663269 0.0025539391208440065384 0 0.0025539391208440065384 0.015323635190725326538 0.033201210200786590576 0.010215756483376026154 0 0 0 0 0 0 0 0 0 0 0 0 0 0 0 0 0 0 0 0 0 0 0 0 0 0 0 0 0 0 0 0 0 0 0 0 0 0 0 0 0 0 0 0 0 0 0 0 0 0 0 0 0 0 0 0 0 0 0 0 0 0 0 0 0 0 0 0 0 0 0 0 0 0 0 0 0 0 0 0 0 0 0 0 0 0 0 0 0 0 0 0 0 0 0 0 0 0 0 0 0 0 0 0 0 0 0 0 0 0 0 0 0 0 0 0 0 0 0 0 0 0 0 0 0 0 0 0 0 0 0 0 0 0 0 0 0 0 0 0 0 0 0 0 0 0 0 0 0 0 0 0 0 0 0 0 0 0 0 0 0 0 0 0 0 0 0 0 0 0 0 0 0 0 0 0 0 0 0 0 0 0 0 0 0.007661817595362663269 0.040863025933504104614 0.068956352770328521729 0.048524845391511917114 0.017877575010061264038 0.007661817595362663269 0.0025539391208440065384 0 0 0 0 0 0 0 0 0 0 0 0 0 0 0 0.007661817595362663269 0.035755150020122528076 0.045970901846885681152 0.043416965752840042114 0.033201210200786590576 0.007661817595362663269 0 0 0 0 0 0.010215756483376026154 0.045970901846885681152 0.071510300040245056152 0.097049690783023834229 0.10981938987970352173 0.1276969611644744873 0.1098193824291229248 0.081726051867008209229 0.038309089839458465576 0.071510300040245056152 0.14302058517932891846 0.58485203981399536133 1.4276520013809204102 1.3178325891494750977 0.35244360566139221191 0.017877573147416114807 0 0 0 0 0 0 0 0 0 0 0 0 0 0 0 0 0 0 0 0 0 0 0 0 0 0 0 0 0 0 0 0 0 0 0 0 0 0 0 0 0 0 0 0 0 0 0 0 0 0 0 0 0 0 0 0 0 0 0 0 0 0 0 0 0 0 0 0 0 0 0 0 0 0 0 0 0 0 0 0 0 0 0 0 0 0 0 0 0 0 0 0 0 0 0 0 0 0 0 0 0 0 0 0 0 0 0 0 0 0 0 0 0 0 0 0 0 0 0 0 0 0 0 0 0 0 0 0 0 0 
0 0 0 0 0 0 0 0 0 0 0 0 0 0 0 0 0 0 0 0 0 0.010215756483376026154 0.030647270381450653076 0.010215756483376026154 0 0 0 0 0 0 0 0 0 0 0 0 0 0 0 0 0 0 0 0 0 0 0 0 0 0 0 0 0 0 0 0 0 0 0 0 0 0 0 0 0 0 0 0 0 0 0 0 0 0 0 0 0 0 0 0 0 0 0 0 0 0 0 0 0 0 0 0 0 0.010215756483376026154 0.033201210200786590576 0.017877575010061264038 0.010215756483376026154 0.010215756483376026154 0.012769696302711963654 0.015323635190725326538 0.012769696302711963654 0.010215756483376026154 0.010215756483376026154 0.010215756483376026154 0.015323635190725326538 0.035755150020122528076 0.033201210200786590576 0.007661817595362663269 0 0 0 0 0 0 0 0 0 0 0 0 0 0 0 0 0 0 0 0 0 0 0 0 0 0 0 0 0 0 0 0 0 0 0 0 0 0 0 0 0 0 0 0 0 0 0 0 0 0 0 0 0 0 0 0 0 0 0 0 0 0 0 0 0 0 0 0 0 0 0 0 0 0 0 0 0 0 0 0 0 0 0 0 0 0 0 0 0 0 0 0 0 0 0 0 0 0 0 0 0 0 0 0 0 0 0 0 0 0 0 0 0 0 0 0 0 0 0 0 0 0 0 0 0 0 0 0 0 0 0 0 0 0 0 0 0 0 0 0 0 0 0 0 0 0 0 0 0 0 0 0 0 0 0 0 0 0 0 0 0 0 0 0 0 0 0 0 0 0 0 0 0 0 0 0 0 0 0 0 0 0 0 0 0.012769696302711963654 0.048524845391511917114 0.051078785210847854614 0.017877575010061264038 0.0025539391208440065384 0 0 0 0 0 0 0 0 0 0 0 0 0 0 0 0 0 0.0025539391208440065384 0.015323635190725326538 0.035755150020122528076 0.025539392605423927307 0.033201210200786590576 0.010215756483376026154 0 0 0 0 0 0.007661817595362663269 0.043416965752840042114 0.086833931505680084229 0.097049690783023834229 0.091941818594932556152 0.1302509009838104248 0.11492726951837539673 0.081726051867008209229 0.033201210200786590576 0.048524845391511917114 0.091941818594932556152 0.37542906403541564941 1.1594884395599365234 1.5144858360290527344 0.60017567873001098633 0.068956352770328521729 0 0 0 0 0 0 0 0 0 0 0 0 0 0 0 0 0 0 0 0 0 0 0 0 0 0 0 0 0 0 0 0 0 0 0 0 0 0 0 0 0 0 0 0 0 0 0 0 0 0 0 0 0 0 0 0 0 0 0 0 0 0 0 0 0 0 0 0 0 0 0 0 0 0 0 0 0 0 0 0 0 0 0 0 0 0 0 0 0 0 0 0 0 0 0 0 0 0 0 0 0 0 0 0 0 0 0 0 0 0 0 0 0 0 0 0 0 0 0 0 0 0 0 0 0 0 0 0 0 0 
0 0 0 0 0 0 0 0 0 0 0 0 0 0 0 0 0 0 0 0 0 0.010215756483376026154 0.030647270381450653076 0.010215756483376026154 0 0 0 0 0 0 0 0 0 0 0 0 0 0 0 0 0 0 0 0 0 0 0 0 0 0 0 0 0 0 0 0 0 0 0 0 0 0 0 0 0 0 0 0 0 0 0 0 0 0 0 0 0 0 0 0 0 0 0 0 0 0 0 0 0 0 0 0.0025539391208440065384 0.007661817595362663269 0.020431512966752052307 0.040863025933504104614 0.020431512966752052307 0.010215756483376026154 0.010215756483376026154 0.015323635190725326538 0.033201210200786590576 0.033201210200786590576 0.030647270381450653076 0.030647270381450653076 0.030647270381450653076 0.033201210200786590576 0.033201210200786590576 0.012769696302711963654 0.0025539391208440065384 0 0 0 0 0 0 0 0 0 0 0 0 0 0 0 0 0 0 0 0 0 0 0 0 0 0 0 0 0 0 0 0 0 0 0 0 0 0 0 0 0 0 0 0 0 0 0 0 0 0 0 0 0 0 0 0 0 0 0 0 0 0 0 0 0 0 0 0 0 0 0 0 0 0 0 0 0 0 0 0 0 0 0 0 0 0 0 0 0 0 0 0 0 0 0 0 0 0 0 0 0 0 0 0 0 0 0 0 0 0 0 0 0 0 0 0 0 0 0 0 0 0 0 0 0 0 0 0 0 0 0 0 0 0 0 0 0 0 0 0 0 0 0 0 0 0 0 0 0 0 0 0 0 0 0 0 0 0 0 0 0 0 0 0 0 0 0 0 0 0 0 0 0 0 0 0 0 0 0 0 0 0 0 0.0025539391208440065384 0.022985450923442840576 0.066402420401573181152 0.043416965752840042114 0.007661817595362663269 0 0 0 0 0 0 0 0 0 0 0 0 0 0 0 0 0 0 0 0.010215756483376026154 0.030647270381450653076 0.020431512966752052307 0.030647270381450653076 0.010215756483376026154 0 0 0 0 0 0.0025539391208440065384 0.022985450923442840576 0.089387871325016021729 0.1225890815258026123 0.1072654426097869873 0.16089816391468048096 0.1328048408031463623 0.086833931505680084229 0.030647270381450653076 0.038309089839458465576 0.063848480582237243652 0.26050180196762084961 0.91686415672302246094 1.5144858360290527344 0.82236844301223754883 0.1430206000804901123 0 0 0 0 0 0 0 0 0 0 0 0 0 0 0 0 0 0 0 0 0 0 0 0 0 0 0 0 0 0 0 0 0 0 0 0 0 0 0 0 0 0 0 0 0 0 0 0 0 0 0 0 0 0 0 0 0 0 0 0 0 0 0 0 0 0 0 0 0 0 0 0 0 0 0 0 0 0 0 0 0 0 0 0 0 0 0 0 0 0 0 0 0 0 0 0 0 0 0 0 0 0 0 0 0 0 0 0 0 0 0 0 0 0 0 0 0 0 0 0 0 0 0 0 0 0 0 0 0 0 
0 0 0 0 0 0 0 0 0 0 0 0 0 0 0 0 0 0 0 0 0 0.010215756483376026154 0.030647270381450653076 0.010215756483376026154 0 0 0 0 0 0 0 0 0 0 0 0 0 0 0 0 0 0 0 0 0 0 0 0 0 0 0 0 0 0 0 0 0 0 0 0 0 0 0 0 0 0 0 0 0 0 0 0 0 0 0 0 0 0 0 0 0 0 0 0 0 0 0 0 0 0 0 0.007661817595362663269 0.030647270381450653076 0.043416965752840042114 0.061294540762901306152 0.040863025933504104614 0.030647270381450653076 0.030647270381450653076 0.033201210200786590576 0.033201210200786590576 0.015323635190725326538 0.010215756483376026154 0.010215756483376026154 0.010215756483376026154 0.010215756483376026154 0.007661817595362663269 0.0025539391208440065384 0 0 0 0 0 0 0 0 0 0 0 0 0 0 0 0 0 0 0 0 0 0 0 0 0 0 0 0 0 0 0 0 0 0 0 0 0 0 0 0 0 0 0 0 0 0 0 0 0 0 0 0 0 0 0 0 0 0 0 0 0 0 0 0 0 0 0 0 0 0 0 0 0 0 0 0 0 0 0 0 0 0 0 0 0 0 0 0 0 0 0 0 0 0 0 0 0 0 0 0 0 0 0 0 0 0 0 0 0 0 0 0 0 0 0 0 0 0 0 0 0 0 0 0 0 0 0 0 0 0 0 0 0 0 0 0 0 0 0 0 0 0 0 0 0 0 0 0 0 0 0 0 0 0 0 0 0 0 0 0 0 0 0 0 0 0 0 0 0 0 0 0 0 0 0 0 0 0 0 0 0 0 0 0.0025539391208440065384 0.012769696302711963654 0.045970901846885681152 0.066402420401573181152 0.022985450923442840576 0.0025539391208440065384 0 0 0 0 0 0 0 0 0 0 0 0 0 0 0 0 0 0 0 0.010215756483376026154 0.030647270381450653076 0.020431512966752052307 0.030647270381450653076 0.010215756483376026154 0 0 0 0 0 0 0.010215756483376026154 0.063848480582237243652 0.13791270554065704346 0.14046664535999298096 0.20431514084339141846 0.19409938156604766846 0.11492726951837539673 0.043416965752840042114 0.040863025933504104614 0.035755150020122528076 0.17366786301136016846 0.74575018882751464844 1.4863924980163574219 1.0547769069671630859 0.22219271957874298096 0 0 0 0 0 0 0 0 0 0 0 0 0 0 0 0 0 0 0 0 0 0 0 0 0 0 0 0 0 0 0 0 0 0 0 0 0 0 0 0 0 0 0 0 0 0 0 0 0 0 0 0 0 0 0 0 0 0 0 0 0 0 0 0 0 0 0 0 0 0 0 0 0 0 0 0 0 0 0 0 0 0 0 0 0 0 0 0 0 0 0 0 0 0 0 0 0 0 0 0 0 0 0 0 0 0 0 0 0 0 0 0 0 0 0 0 0 0 0 0 0 0 0 0 0 0 0 0 0 0 
0 0 0 0 0 0 0 0 0 0 0 0 0 0 0 0 0 0 0 0 0 0.010215756483376026154 0.030647270381450653076 0.010215756483376026154 0 0 0 0 0 0 0 0 0 0 0 0 0 0 0 0 0 0 0 0 0 0 0 0 0 0 0 0 0 0 0 0 0 0 0 0 0 0 0 0 0 0 0 0 0 0 0 0 0 0 0 0 0 0 0 0 0 0 0 0 0 0 0 0 0 0 0 0.010215756483376026154 0.033201210200786590576 0.028093332424759864807 0.040863025933504104614 0.020431512966752052307 0.010215756483376026154 0.010215756483376026154 0.010215756483376026154 0.007661817595362663269 0.0025539391208440065384 0 0 0 0 0 0 0 0 0 0 0 0 0 0 0 0 0 0 0 0 0 0 0 0 0 0 0 0 0 0 0 0 0 0 0 0 0 0 0 0 0 0 0 0 0 0 0 0 0 0 0 0 0 0 0 0 0 0 0 0 0 0 0 0 0 0 0 0 0 0 0 0 0 0 0 0 0 0 0 0 0 0 0 0 0 0 0 0 0 0 0 0 0 0 0 0 0 0 0 0 0 0 0 0 0 0 0 0 0 0 0 0 0 0 0 0 0 0 0 0 0 0 0 0 0 0 0 0 0 0 0 0 0 0 0 0 0 0 0 0 0 0 0 0 0 0 0 0 0 0 0 0 0 0 0 0 0 0 0 0 0 0 0 0 0 0 0 0 0 0 0 0 0 0 0 0 0 0 0 0 0 0 0 0 0 0 0 0 0 0.007661817595362663269 0.035755150020122528076 0.051078785210847854614 0.045970901846885681152 0.012769696302711963654 0 0 0 0 0 0 0 0 0 0 0 0 0 0 0 0 0 0 0 0 0.010215756483376026154 0.030647270381450653076 0.020431512966752052307 0.030647270381450653076 0.010215756483376026154 0 0 0 0 0 0 0.0025539391208440065384 0.025539392605423927307 0.089387871325016021729 0.1455745398998260498 0.21197694540023803711 0.26050180196762084961 0.18388360738754272461 0.084279991686344146729 0.071510300040245056152 0.030647270381450653076 0.086833931505680084229 0.53121936321258544922 1.2999550104141235352 1.1748119592666625977 0.28604117035865783691 0 0 0 0 0 0 0 0 0 0 0 0 0 0 0 0 0 0 0 0 0 0 0 0 0 0 0 0 0 0 0 0 0 0 0 0 0 0 0 0 0 0 0 0 0 0 0 0 0 0 0 0 0 0 0 0 0 0 0 0 0 0 0 0 0 0 0 0 0 0 0 0 0 0 0 0 0 0 0 0 0 0 0 0 0 0 0 0 0 0 0 0 0 0 0 0 0 0 0 0 0 0 0 0 0 0 0 0 0 0 0 0 0 0 0 0 0 0 0 0 0 0 0 0 0 0 0 0 0 0 
0 0 0 0 0 0 0 0 0 0 0 0 0 0 0 0 0 0 0 0 0 0.010215756483376026154 0.030647270381450653076 0.010215756483376026154 0 0 0 0 0 0 0 0 0 0 0 0 0 0 0 0 0 0 0 0 0 0 0 0 0 0 0 0 0 0 0 0 0 0 0 0 0 0 0 0 0 0 0 0 0 0 0 0 0 0 0 0 0 0 0 0 0 0 0 0 0 0 0 0 0 0.0025539391208440065384 0.007661817595362663269 0.017877575010061264038 0.033201210200786590576 0.020431512966752052307 0.030647270381450653076 0.010215756483376026154 0 0 0 0 0 0 0 0 0 0 0 0 0 0 0 0 0 0 0 0 0 0 0 0 0 0 0 0 0 0 0 0 0 0 0 0 0 0 0 0 0 0 0 0 0 0 0 0 0 0 0 0 0 0 0 0 0 0 0 0 0 0 0 0 0 0 0 0 0 0 0 0 0 0 0 0 0 0 0 0 0 0 0 0 0 0 0 0 0 0 0 0 0 0 0 0 0 0 0 0 0 0 0 0 0 0 0 0 0 0 0 0 0 0 0 0 0 0 0 0 0 0 0 0 0 0 0 0 0 0 0 0 0 0 0 0 0 0 0 0 0 0 0 0 0 0 0 0 0 0 0 0 0 0 0 0 0 0 0 0 0 0 0 0 0 0 0 0 0 0 0 0 0 0 0 0 0 0 0 0 0 0 0 0 0 0 0 0 0 0 0 0 0 0.0025539391208440065384 0.017877575010061264038 0.048524845391511917114 0.051078785210847854614 0.035755150020122528076 0.007661817595362663269 0 0 0 0 0 0 0 0 0 0 0 0 0 0 0 0 0 0 0 0 0.010215756483376026154 0.030647270381450653076 0.020431512966752052307 0.033201210200786590576 0.015323635190725326538 0.0025539391208440065384 0 0 0 0 0 0 0.0051078782416880130768 0.028093332424759864807 0.094495750963687896729 0.18899150192737579346 0.27837935090065002441 0.21963876485824584961 0.1123733222484588623 0.11237332969903945923 0.056186664849519729614 0.06129453703761100769 0.41373816132545471191 1.1441646814346313477 1.2412145137786865234 0.32435026764869689941 0 0 0 0 0 0 0 0 0 0 0 0 0 0 0 0 0 0 0 0 0 0 0 0 0 0 0 0 0 0 0 0 0 0 0 0 0 0 0 0 0 0 0 0 0 0 0 0 0 0 0 0 0 0 0 0 0 0 0 0 0 0 0 0 0 0 0 0 0 0 0 0 0 0 0 0 0 0 0 0 0 0 0 0 0 0 0 0 0 0 0 0 0 0 0 0 0 0 0 0 0 0 0 0 0 0 0 0 0 0 0 0 0 0 0 0 0 0 0 0 0 0 0 0 0 0 0 0 0 0 
0 0 0 0 0 0 0 0 0 0 0 0 0 0 0 0 0 0 0 0 0 0.010215756483376026154 0.030647270381450653076 0.010215756483376026154 0 0 0 0 0 0 0 0 0 0 0 0 0 0 0 0 0 0 0 0 0 0 0 0 0 0 0 0 0 0 0 0 0 0 0 0 0 0 0 0 0 0 0 0 0 0 0 0 0 0 0 0 0 0 0 0 0 0 0 0 0 0 0 0 0.0025539391208440065384 0.012769696302711963654 0.033201210200786590576 0.035755150020122528076 0.033201210200786590576 0.022985450923442840576 0.033201210200786590576 0.010215756483376026154 0 0 0 0 0 0 0 0 0 0 0 0 0 0 0 0 0 0 0 0 0 0 0 0 0 0 0 0 0 0 0 0 0 0 0 0 0 0 0 0 0 0 0 0 0 0 0 0 0 0 0 0 0 0 0 0 0 0 0 0 0 0 0 0 0 0 0 0 0 0 0 0 0 0 0 0 0 0 0 0 0 0 0 0 0 0 0 0 0 0 0 0 0 0 0 0 0 0 0 0 0 0 0 0 0 0 0 0 0 0 0 0 0 0 0 0 0 0 0 0 0 0 0 0 0 0 0 0 0 0 0 0 0 0 0 0 0 0 0 0 0 0 0 0 0 0 0 0 0 0 0 0 0 0 0 0 0 0 0 0 0 0 0 0 0 0 0 0 0 0 0 0 0 0 0 0 0 0 0 0 0 0 0 0 0 0 0 0 0 0 0 0 0.0025539391208440065384 0.015323635190725326538 0.048524845391511917114 0.068956352770328521729 0.043416965752840042114 0.012769696302711963654 0.0025539391208440065384 0 0 0 0 0 0 0 0 0 0 0 0 0 0 0 0 0 0 0 0 0.010215756483376026154 0.033201210200786590576 0.025539392605423927307 0.040863025933504104614 0.035755150020122528076 0.007661817595362663269 0 0 0 0 0 0 0 0.0051078782416880130768 0.028093332424759864807 0.1072654426097869873 0.22219270467758178711 0.19409936666488647461 0.1302509009838104248 0.1481284797191619873 0.079172119498252868652 0.068956352770328521729 0.38053691387176513672 1.0394532680511474609 1.2335526943206787109 0.33711996674537658691 0 0 0 0 0 0 0 0 0 0 0 0 0 0 0 0 0 0 0 0 0 0 0 0 0 0 0 0 0 0 0 0 0 0 0 0 0 0 0 0 0 0 0 0 0 0 0 0 0 0 0 0 0 0 0 0 0 0 0 0 0 0 0 0 0 0 0 0 0 0 0 0 0 0 0 0 0 0 0 0 0 0 0 0 0 0 0 0 0 0 0 0 0 0 0 0 0 0 0 0 0 0 0 0 0 0 0 0 0 0 0 0 0 0 0 0 0 0 0 0 0 0 0 0 0 0 0 0 0 0 
0 0 0 0 0 0 0 0 0 0 0 0 0 0 0 0 0 0 0 0 0 0.010215756483376026154 0.030647270381450653076 0.010215756483376026154 0 0 0 0 0 0 0 0 0 0 0 0 0 0 0 0 0 0 0 0 0 0 0 0 0 0 0 0 0 0 0 0 0 0 0 0 0 0 0 0 0 0 0 0 0 0 0 0 0 0 0 0 0 0 0 0 0 0 0 0 0 0 0 0 0.010215756483376026154 0.040863025933504104614 0.045970901846885681152 0.025539392605423927307 0.022985450923442840576 0.038309089839458465576 0.033201210200786590576 0.007661817595362663269 0 0 0 0 0 0 0 0 0 0 0 0 0 0 0 0 0 0 0 0 0 0 0 0 0 0 0 0 0 0 0 0 0 0 0 0 0 0 0 0 0 0 0 0 0 0 0 0 0 0 0 0 0 0 0 0 0 0 0 0 0 0 0 0 0 0 0 0 0 0 0 0 0 0 0 0 0 0 0 0 0 0 0 0 0 0 0 0 0 0 0 0 0 0 0 0 0 0 0 0 0 0 0 0 0 0 0 0 0 0 0 0 0 0 0 0 0 0 0 0 0 0 0 0 0 0 0 0 0 0 0 0 0 0 0 0 0 0 0 0 0 0 0 0 0 0 0 0 0 0 0 0 0 0 0 0 0 0 0 0 0 0 0 0 0 0 0 0 0 0 0 0 0 0 0 0 0 0 0 0 0 0 0 0 0 0 0 0 0 0 0 0.0025539391208440065384 0.015323635190725326538 0.048524845391511917114 0.071510300040245056152 0.048524845391511917114 0.015323635190725326538 0.0025539391208440065384 0 0 0 0 0 0 0 0 0 0 0 0 0 0 0 0 0 0 0 0 0 0.007661817595362663269 0.030647270381450653076 0.038309089839458465576 0.045970901846885681152 0.040863025933504104614 0.010215756483376026154 0 0 0 0 0 0 0 0 0.010215756483376026154 0.081726051867008209229 0.19665330648422241211 0.16089816391468048096 0.1047115027904510498 0.1506824195384979248 0.1174812018871307373 0.084279991686344146729 0.39586058259010314941 1.0496690273284912109 1.2284448146820068359 0.35244360566139221191 0.010215756483376026154 0 0 0 0 0 0 0 0 0 0 0 0 0 0 0 0 0 0 0 0 0 0 0 0 0 0 0 0 0 0 0 0 0 0 0 0 0 0 0 0 0 0 0 0 0 0 0 0 0 0 0 0 0 0 0 0 0 0 0 0 0 0 0 0 0 0 0 0 0 0 0 0 0 0 0 0 0 0 0 0 0 0 0 0 0 0 0 0 0 0 0 0 0 0 0 0 0 0 0 0 0 0 0 0 0 0 0 0 0 0 0 0 0 0 0 0 0 0 0 0 0 0 0 0 0 0 0 0 0 
0 0 0 0 0 0 0 0 0 0 0 0 0 0 0 0 0 0 0 0 0 0.010215756483376026154 0.030647270381450653076 0.010215756483376026154 0 0 0 0 0 0 0 0 0 0 0 0 0 0 0 0 0 0 0 0 0 0 0 0 0 0 0 0 0 0 0 0 0 0 0 0 0 0 0 0 0 0 0 0 0 0 0 0 0 0 0 0 0 0 0 0 0 0 0 0 0 0 0 0.0025539391208440065384 0.022985450923442840576 0.066402420401573181152 0.048524845391511917114 0.033201210200786590576 0.033201210200786590576 0.033201210200786590576 0.012769696302711963654 0.0025539391208440065384 0 0 0 0 0 0 0 0 0 0 0 0 0 0 0 0 0 0 0 0 0 0 0 0 0 0 0 0 0 0 0 0 0 0 0 0 0 0 0 0 0 0 0 0 0 0 0 0 0 0 0 0 0 0 0 0 0 0 0 0 0 0 0 0 0 0 0 0 0 0 0 0 0 0 0 0 0 0 0 0 0 0 0 0 0 0 0 0 0 0 0 0 0 0 0 0 0 0 0 0 0 0 0 0 0 0 0 0 0 0 0 0 0 0 0 0 0 0 0 0 0 0 0 0 0 0 0 0 0 0 0 0 0 0 0 0 0 0 0 0 0 0 0 0 0 0 0 0 0 0 0 0 0 0 0 0 0 0 0 0 0 0 0 0 0 0 0 0 0 0 0 0 0 0 0 0 0 0 0 0 0 0 0 0 0 0 0 0 0 0 0 0.007661817595362663269 0.040863025933504104614 0.068956352770328521729 0.048524845391511917114 0.015323635190725326538 0.0025539391208440065384 0 0 0 0 0 0 0 0 0 0 0 0 0 0 0 0 0 0 0 0 0 0 0.0025539391208440065384 0.007661817595362663269 0.017877575010061264038 0.043416965752840042114 0.040863025933504104614 0.010215756483376026154 0 0 0 0 0 0 0 0 0.007661817595362663269 0.074064232409000396729 0.18899148702621459961 0.16345210373401641846 0.1123733222484588623 0.14046664535999298096 0.13791270554065704346 0.1047115027904510498 0.40863028168678283691 1.0266835689544677734 1.1926895380020141602 0.41629210114479064941 0.030647270381450653076 0 0 0 0 0 0 0 0 0 0 0 0 0 0 0 0 0 0 0 0 0 0 0 0 0 0 0 0 0 0 0 0 0 0 0 0 0 0 0 0 0 0 0 0 0 0 0 0 0 0 0 0 0 0 0 0 0 0 0 0 0 0 0 0 0 0 0 0 0 0 0 0 0 0 0 0 0 0 0 0 0 0 0 0 0 0 0 0 0 0 0 0 0 0 0 0 0 0 0 0 0 0 0 0 0 0 0 0 0 0 0 0 0 0 0 0 0 0 0 0 0 0 0 0 0 0 0 0 0 
0 0 0 0 0 0 0 0 0 0 0 0 0 0 0 0 0 0 0 0 0 0.010215756483376026154 0.030647270381450653076 0.010215756483376026154 0 0 0 0 0 0 0 0 0 0 0 0 0 0 0 0 0 0 0 0 0 0 0 0 0 0 0 0 0 0 0 0 0 0 0 0 0 0 0 0 0 0 0 0 0 0 0 0 0 0 0 0 0 0 0 0 0 0 0 0 0 0.0051078782416880130768 0.015323635190725326538 0.025539392605423927307 0.053632721304893493652 0.068956352770328521729 0.025539392605423927307 0.010215756483376026154 0.010215756483376026154 0.007661817595362663269 0.0025539391208440065384 0 0 0 0 0 0 0 0 0 0 0 0 0 0 0 0 0 0 0 0 0 0 0 0 0 0 0 0 0 0 0 0 0 0 0 0 0 0 0 0 0 0 0 0 0 0 0 0 0 0 0 0 0 0 0 0 0 0 0 0 0 0 0 0 0 0 0 0 0 0 0 0 0 0 0 0 0 0 0 0 0 0 0 0 0 0 0 0 0 0 0 0 0 0 0 0 0 0 0 0 0 0 0 0 0 0 0 0 0 0 0 0 0 0 0 0 0 0 0 0 0 0 0 0 0 0 0 0 0 0 0 0 0 0 0 0 0 0 0 0 0 0 0 0 0 0 0 0 0 0 0 0 0 0 0 0 0 0 0 0 0 0 0 0 0 0 0 0 0 0 0 0 0 0 0 0 0 0 0 0 0 0 0 0 0 0 0 0 0 0 0 0 0.010215756483376026154 0.043416965752840042114 0.048524845391511917114 0.017877575010061264038 0.0025539391208440065384 0 0 0 0 0 0 0 0 0 0 0 0 0 0 0 0 0 0 0 0 0 0 0 0 0 0.010215756483376026154 0.040863025933504104614 0.040863025933504104614 0.010215756483376026154 0 0 0 0 0 0 0 0 0.0025539391208440065384 0.045970901846885681152 0.1557902991771697998 0.16855998337268829346 0.16089816391468048096 0.19920724630355834961 0.19154542684555053711 0.14812846481800079346 0.43927752971649169922 1.0113599300384521484 1.1339489221572875977 0.41884601116180419922 0.040863025933504104614 0 0 0 0 0 0 0 0 0 0 0 0 0 0 0 0 0 0 0 0 0 0 0 0 0 0 0 0 0 0 0 0 0 0 0 0 0 0 0 0 0 0 0 0 0 0 0 0 0 0 0 0 0 0 0 0 0 0 0 0 0 0 0 0 0 0 0 0 0 0 0 0 0 0 0 0 0 0 0 0 0 0 0 0 0 0 0 0 0 0 0 0 0 0 0 0 0 0 0 0 0 0 0 0 0 0 0 0 0 0 0 0 0 0 0 0 0 0 0 0 0 0 0 0 0 0 0 0 0 
0 0 0 0 0 0 0 0 0 0 0 0 0 0 0 0 0 0 0 0 0 0.010215756483376026154 0.030647270381450653076 0.010215756483376026154 0 0 0 0 0 0 0 0 0 0 0 0 0 0 0 0 0 0 0 0 0 0 0 0 0 0 0 0 0 0 0 0 0 0 0 0 0 0 0 0 0 0 0 0 0 0 0 0 0 0 0 0 0 0 0 0 0 0 0 0.0025539391208440065384 0.010215756483376026154 0.028093332424759864807 0.066402420401573181152 0.068956352770328521729 0.066402420401573181152 0.043416965752840042114 0.010215756483376026154 0 0 0 0 0 0 0 0 0 0 0 0 0 0 0 0 0 0 0 0 0 0 0 0 0 0 0 0 0 0 0 0 0 0 0 0 0 0 0 0 0 0 0 0 0 0 0 0 0 0 0 0 0 0 0 0 0 0 0 0 0 0 0 0 0 0 0 0 0 0 0 0 0 0 0 0 0 0 0 0 0 0 0 0 0 0 0 0 0 0 0 0 0 0 0 0 0 0 0 0 0 0 0 0 0 0 0 0 0 0 0 0 0 0 0 0 0 0 0 0 0 0 0 0 0 0 0 0 0 0 0 0 0 0 0 0 0 0 0 0 0 0 0 0 0 0 0 0 0 0 0 0 0 0 0 0 0 0 0 0 0 0 0 0 0 0 0 0 0 0 0 0 0 0 0 0 0 0 0 0 0 0 0 0 0 0 0 0 0 0 0 0 0 0 0 0 0.010215756483376026154 0.040863025933504104614 0.040863025933504104614 0.010215756483376026154 0 0 0 0 0 0 0 0 0 0 0 0 0 0 0 0 0 0 0 0 0 0 0 0 0 0 0.010215756483376026154 0.040863025933504104614 0.043416965752840042114 0.015323635190725326538 0.0025539391208440065384 0 0 0 0 0 0 0 0 0.033201210200786590576 0.11492726951837539673 0.099603630602359771729 0.1047115027904510498 0.17366786301136016846 0.21197693049907684326 0.19920726120471954346 0.50057208538055419922 1.0522229671478271484 1.1492725610733032227 0.40863028168678283691 0.038309089839458465576 0 0 0 0 0 0 0 0 0 0 0 0 0 0 0 0 0 0 0 0 0 0 0 0 0 0 0 0 0 0 0 0 0 0 0 0 0 0 0 0 0 0 0 0 0 0 0 0 0 0 0 0 0 0 0 0 0 0 0 0 0 0 0 0 0 0 0 0 0 0 0 0 0 0 0 0 0 0 0 0 0 0 0 0 0 0 0 0 0 0 0 0 0 0 0 0 0 0 0 0 0 0 0 0 0 0 0 0 0 0 0 0 0 0 0 0 0 0 0 0 0 0 0 0 0 0 0 0 0 
0 0 0 0 0 0 0 0 0 0 0 0 0 0 0 0 0 0 0 0 0 0.010215756483376026154 0.030647270381450653076 0.010215756483376026154 0 0 0 0 0 0 0 0 0 0 0 0 0 0 0 0 0 0 0 0 0 0 0 0 0 0 0 0 0 0 0 0 0 0 0 0 0 0 0 0 0 0 0 0 0 0 0 0 0 0 0 0 0 0 0 0 0 0 0 0.007661817595362663269 0.038309089839458465576 0.068956352770328521729 0.068956352770328521729 0.030647270381450653076 0.017877575010061264038 0.010215756483376026154 0.0025539391208440065384 0 0 0 0 0 0 0 0 0 0 0 0 0 0 0 0 0 0 0 0 0 0 0 0 0 0 0 0 0 0 0 0 0 0 0 0 0 0 0 0 0 0 0 0 0 0 0 0 0 0 0 0 0 0 0 0 0 0 0 0 0 0 0 0 0 0 0 0 0 0 0 0 0 0 0 0 0 0 0 0 0 0 0 0 0 0 0 0 0 0 0 0 0 0 0 0 0 0 0 0 0 0 0 0 0 0 0 0 0 0 0 0 0 0 0 0 0 0 0 0 0 0 0 0 0 0 0 0 0 0 0 0 0 0 0 0 0 0 0 0 0 0 0 0 0 0 0 0 0 0 0 0 0 0 0 0 0 0 0 0 0 0 0 0 0 0 0 0 0 0 0 0 0 0 0 0 0 0 0 0 0 0 0 0 0 0 0 0 0 0 0 0 0 0 0 0 0.012769696302711963654 0.045970901846885681152 0.043416965752840042114 0.010215756483376026154 0 0 0 0 0 0 0 0 0 0 0 0 0 0 0 0 0 0 0 0 0 0 0 0 0 0 0.010215756483376026154 0.038309089839458465576 0.043416965752840042114 0.033201210200786590576 0.007661817595362663269 0 0 0 0 0 0 0 0 0.030647270381450653076 0.099603630602359771729 0.071510300040245056152 0.086833931505680084229 0.1481284797191619873 0.20942299067974090576 0.25283998250961303711 0.58740597963333129883 1.2029052972793579102 1.1390568017959594727 0.36776721477508544922 0.033201210200786590576 0 0 0 0 0 0 0 0 0 0 0 0 0 0 0 0 0 0 0 0 0 0 0 0 0 0 0 0 0 0 0 0 0 0 0 0 0 0 0 0 0 0 0 0 0 0 0 0 0 0 0 0 0 0 0 0 0 0 0 0 0 0 0 0 0 0 0 0 0 0 0 0 0 0 0 0 0 0 0 0 0 0 0 0 0 0 0 0 0 0 0 0 0 0 0 0 0 0 0 0 0 0 0 0 0 0 0 0 0 0 0 0 0 0 0 0 0 0 0 0 0 0 0 0 0 0 0 0 0 
0 0 0 0 0 0 0 0 0 0 0 0 0 0 0 0 0 0 0 0 0 0.010215756483376026154 0.030647270381450653076 0.010215756483376026154 0 0 0 0 0 0 0 0 0 0 0 0 0 0 0 0 0 0 0 0 0 0 0 0 0 0 0 0 0 0 0 0 0 0 0 0 0 0 0 0 0 0 0 0 0 0 0 0 0 0 0 0 0 0 0 0 0 0.0025539391208440065384 0.007661817595362663269 0.020431512966752052307 0.051078785210847854614 0.053632721304893493652 0.022985450923442840576 0.0051078782416880130768 0 0 0 0 0 0 0 0 0 0 0 0 0 0 0 0 0 0 0 0 0 0 0 0 0 0 0 0 0 0 0 0 0 0 0 0 0 0 0 0 0 0 0 0 0 0 0 0 0 0 0 0 0 0 0 0 0 0 0 0 0 0 0 0 0 0 0 0 0 0 0 0 0 0 0 0 0 0 0 0 0 0 0 0 0 0 0 0 0 0 0 0 0 0 0 0 0 0 0 0 0 0 0 0 0 0 0 0 0 0 0 0 0 0 0 0 0 0 0 0 0 0 0 0 0 0 0 0 0 0 0 0 0 0 0 0 0 0 0 0 0 0 0 0 0 0 0 0 0 0 0 0 0 0 0 0 0 0 0 0 0 0 0 0 0 0 0 0 0 0 0 0 0 0 0 0 0 0 0 0 0 0 0 0 0 0 0 0 0 0 0 0 0 0 0 0 0 0 0 0.017877575010061264038 0.063848480582237243652 0.043416965752840042114 0.007661817595362663269 0 0 0 0 0 0 0 0 0 0 0 0 0 0 0 0 0 0 0 0 0 0 0 0 0 0 0.010215756483376026154 0.033201210200786590576 0.025539392605423927307 0.035755150020122528076 0.015323635190725326538 0.0025539391208440065384 0 0 0 0 0 0 0 0.030647270381450653076 0.094495750963687896729 0.045970909297466278076 0.053632721304893493652 0.10215757042169570923 0.16345210373401641846 0.28093329071998596191 0.67168599367141723633 1.3152786493301391602 1.0241296291351318359 0.31413453817367553711 0.030647270381450653076 0 0 0 0 0 0 0 0 0 0 0 0 0 0 0 0 0 0 0 0 0 0 0 0 0 0 0 0 0 0 0 0 0 0 0 0 0 0 0 0 0 0 0 0 0 0 0 0 0 0 0 0 0 0 0 0 0 0 0 0 0 0 0 0 0 0 0 0 0 0 0 0 0 0 0 0 0 0 0 0 0 0 0 0 0 0 0 0 0 0 0 0 0 0 0 0 0 0 0 0 0 0 0 0 0 0 0 0 0 0 0 0 0 0 0 0 0 0 0 0 0 0 0 0 0 0 0 0 0 
0 0 0 0 0 0 0 0 0 0 0 0 0 0 0 0 0 0 0 0 0 0.010215756483376026154 0.030647270381450653076 0.010215756483376026154 0 0 0 0 0 0 0 0 0 0 0 0 0 0 0 0 0 0 0 0 0 0 0 0 0 0 0 0 0 0 0 0 0 0 0 0 0 0 0 0 0 0 0 0 0 0 0 0 0 0 0 0 0 0 0 0 0 0.007661817595362663269 0.030647270381450653076 0.043416965752840042114 0.063848480582237243652 0.040863025933504104614 0.007661817595362663269 0 0 0 0 0 0 0 0 0 0 0 0 0 0 0 0 0 0 0 0 0 0 0 0 0 0 0 0 0 0 0 0 0 0 0 0 0 0 0 0 0 0 0 0 0 0 0 0 0 0 0 0 0 0 0 0 0 0 0 0 0 0 0 0 0 0 0 0 0 0 0 0 0 0 0 0 0 0 0 0 0 0 0 0 0 0 0 0 0 0 0 0 0 0 0 0 0 0 0 0 0 0 0 0 0 0 0 0 0 0 0 0 0 0 0 0 0 0 0 0 0 0 0 0 0 0 0 0 0 0 0 0 0 0 0 0 0 0 0 0 0 0 0 0 0 0 0 0 0 0 0 0 0 0 0 0 0 0 0 0 0 0 0 0 0 0 0 0 0 0 0 0 0 0 0 0 0 0 0 0 0 0 0 0 0 0 0 0 0 0 0 0 0 0 0 0 0 0 0 0 0.020431512966752052307 0.063848480582237243652 0.025539392605423927307 0.0025539391208440065384 0 0 0 0 0 0 0 0 0 0 0 0 0 0 0 0 0 0 0 0 0 0 0 0 0 0 0.010215756483376026154 0.033201210200786590576 0.022985450923442840576 0.035755150020122528076 0.033201210200786590576 0.007661817595362663269 0 0 0 0 0 0 0 0.030647270381450653076 0.091941818594932556152 0.033201210200786590576 0.017877575010061264038 0.053632721304893493652 0.1098193824291229248 0.30136483907699584961 0.77895140647888183594 1.4480835199356079102 0.92197203636169433594 0.25794786214828491211 0.030647270381450653076 0 0 0 0 0 0 0 0 0 0 0 0 0 0 0 0 0 0 0 0 0 0 0 0 0 0 0 0 0 0 0 0 0 0 0 0 0 0 0 0 0 0 0 0 0 0 0 0 0 0 0 0 0 0 0 0 0 0 0 0 0 0 0 0 0 0 0 0 0 0 0 0 0 0 0 0 0 0 0 0 0 0 0 0 0 0 0 0 0 0 0 0 0 0 0 0 0 0 0 0 0 0 0 0 0 0 0 0 0 0 0 0 0 0 0 0 0 0 0 0 0 0 0 0 0 0 0 0 0 
0 0 0 0 0 0 0 0 0 0 0 0 0 0 0 0 0 0 0 0 0 0.010215756483376026154 0.030647270381450653076 0.010215756483376026154 0 0 0 0 0 0 0 0 0 0 0 0 0 0 0 0 0 0 0 0 0 0 0 0 0 0 0 0 0 0 0 0 0 0 0 0 0 0 0 0 0 0 0 0 0 0 0 0 0 0 0 0 0 0 0 0 0 0.010215756483376026154 0.035755150020122528076 0.033201210200786590576 0.043416965752840042114 0.017877575010061264038 0.0025539391208440065384 0 0 0 0 0 0 0 0 0 0 0 0 0 0 0 0 0 0 0 0 0 0 0 0 0 0 0 0 0 0 0 0 0 0 0 0 0 0 0 0 0 0 0 0 0 0 0 0 0 0 0 0 0 0 0 0 0 0 0 0 0 0 0 0 0 0 0 0 0 0 0 0 0 0 0 0 0 0 0 0 0 0 0 0 0 0 0 0 0 0 0 0 0 0 0 0 0 0 0 0 0 0 0 0 0 0 0 0 0 0 0 0 0 0 0 0 0 0 0 0 0 0 0 0 0 0 0 0 0 0 0 0 0 0 0 0 0 0 0 0 0 0 0 0 0 0 0 0 0 0 0 0 0 0 0 0 0 0 0 0 0 0 0 0 0 0 0 0 0 0 0 0 0 0 0 0 0 0 0 0 0 0 0 0 0 0 0 0 0 0 0 0 0 0 0 0 0 0 0 0 0.020431512966752052307 0.061294540762901306152 0.020431512966752052307 0 0 0 0 0 0 0 0 0 0 0 0 0 0 0 0 0 0 0 0 0 0 0 0 0 0 0 0.007661817595362663269 0.033201210200786590576 0.035755150020122528076 0.022985450923442840576 0.033201210200786590576 0.010215756483376026154 0 0 0 0 0 0 0 0.030647270381450653076 0.091941818594932556152 0.030647270381450653076 0.007661817595362663269 0.033201210200786590576 0.081726051867008209229 0.28348723053932189941 0.87089323997497558594 1.5349173545837402344 0.80704474449157714844 0.21197694540023803711 0.030647270381450653076 0 0 0 0 0 0 0 0 0 0 0 0 0 0 0 0 0 0 0 0 0 0 0 0 0 0 0 0 0 0 0 0 0 0 0 0 0 0 0 0 0 0 0 0 0 0 0 0 0 0 0 0 0 0 0 0 0 0 0 0 0 0 0 0 0 0 0 0 0 0 0 0 0 0 0 0 0 0 0 0 0 0 0 0 0 0 0 0 0 0 0 0 0 0 0 0 0 0 0 0 0 0 0 0 0 0 0 0 0 0 0 0 0 0 0 0 0 0 0 0 0 0 0 0 0 0 0 0 0 
0 0 0 0 0 0 0 0 0 0 0 0 0 0 0 0 0 0 0 0 0 0.010215756483376026154 0.033201210200786590576 0.015323635190725326538 0.0025539391208440065384 0 0 0 0 0 0 0 0 0 0 0 0 0 0 0 0 0 0 0 0 0 0 0 0 0 0 0 0 0 0 0 0 0 0 0 0 0 0 0 0 0 0 0 0 0 0 0 0 0 0 0 0 0 0 0 0.0025539391208440065384 0.017877575010061264038 0.045970901846885681152 0.045970901846885681152 0.033201210200786590576 0.007661817595362663269 0 0 0 0 0 0 0 0 0 0 0 0 0 0 0 0 0 0 0 0 0 0 0 0 0 0 0 0 0 0 0 0 0 0 0 0 0 0 0 0 0 0 0 0 0 0 0 0 0 0 0 0 0 0 0 0 0 0 0 0 0 0 0 0 0 0 0 0 0 0 0 0 0 0 0 0 0 0 0 0 0 0 0 0 0 0 0 0 0 0 0 0 0 0 0 0 0 0 0 0 0 0 0 0 0 0 0 0 0 0 0 0 0 0 0 0 0 0 0 0 0 0 0 0 0 0 0 0 0 0 0 0 0 0 0 0 0 0 0 0 0 0 0 0 0 0 0 0 0 0 0 0 0 0 0 0 0 0 0 0 0 0 0 0 0 0 0 0 0 0 0 0 0 0 0 0 0 0 0 0 0 0 0 0 0 0 0 0 0 0 0 0 0 0 0 0 0 0 0 0 0 0.020431512966752052307 0.061294540762901306152 0.020431512966752052307 0 0 0 0 0 0 0 0 0 0 0 0 0 0 0 0 0 0 0 0 0 0 0 0 0 0 0 0.0025539391208440065384 0.015323635190725326538 0.035755150020122528076 0.028093332424759864807 0.038309089839458465576 0.012769696302711963654 0 0 0 0 0 0 0 0.030647270381450653076 0.091941818594932556152 0.030647270381450653076 0.0025539391208440065384 0.007661817595362663269 0.038309089839458465576 0.21708482503890991211 0.90154051780700683594 1.7034773826599121094 0.81470662355422973633 0.18643754720687866211 0.030647270381450653076 0 0 0 0 0 0 0 0 0 0 0 0 0 0 0 0 0 0 0 0 0 0 0 0 0 0 0 0 0 0 0 0 0 0 0 0 0 0 0 0 0 0 0 0 0 0 0 0 0 0 0 0 0 0 0 0 0 0 0 0 0 0 0 0 0 0 0 0 0 0 0 0 0 0 0 0 0 0 0 0 0 0 0 0 0 0 0 0 0 0 0 0 0 0 0 0 0 0 0 0 0 0 0 0 0 0 0 0 0 0 0 0 0 0 0 0 0 0 0 0 0 0 0 0 0 0 0 0 0 
0 0 0 0 0 0 0 0 0 0 0 0 0 0 0 0 0 0 0 0 0 0.007661817595362663269 0.033201210200786590576 0.033201210200786590576 0.007661817595362663269 0 0 0 0 0 0 0 0 0 0 0 0 0 0 0 0 0 0 0 0 0 0 0 0 0 0 0 0 0 0 0 0 0 0 0 0 0 0 0 0 0 0 0 0 0 0 0 0 0 0 0 0 0 0 0.0051078782416880130768 0.020431512966752052307 0.051078785210847854614 0.068956352770328521729 0.043416965752840042114 0.012769696302711963654 0.0025539391208440065384 0 0 0 0 0 0 0 0 0 0 0 0 0 0 0 0 0 0 0 0 0 0 0 0 0 0 0 0 0 0 0 0 0 0 0 0 0 0 0 0 0 0 0 0 0 0 0 0 0 0 0 0 0 0 0 0 0 0 0 0 0 0 0 0 0 0 0 0 0 0 0 0 0 0 0 0 0 0 0 0 0 0 0 0 0 0 0 0 0 0 0 0 0 0 0 0 0 0 0 0 0 0 0 0 0 0 0 0 0 0 0 0 0 0 0 0 0 0 0 0 0 0 0 0 0 0 0 0 0 0 0 0 0 0 0 0 0 0 0 0 0 0 0 0 0 0 0 0 0 0 0 0 0 0 0 0 0 0 0 0 0 0 0 0 0 0 0 0 0 0 0 0 0 0 0 0 0 0 0 0 0 0 0 0 0 0 0 0 0 0 0 0 0 0 0 0 0 0 0 0 0 0.020431512966752052307 0.061294540762901306152 0.020431512966752052307 0 0 0 0 0 0 0 0 0 0 0 0 0 0 0 0 0 0 0 0 0 0 0 0 0 0 0 0 0.007661817595362663269 0.030647270381450653076 0.045970901846885681152 0.061294540762901306152 0.017877575010061264038 0 0 0 0 0 0 0 0.030647270381450653076 0.091941818594932556152 0.030647270381450653076 0 0 0.015323635190725326538 0.13535876572132110596 0.84790778160095214844 1.8464980125427246094 0.84535384178161621094 0.18388360738754272461 0.028093332424759864807 0 0 0 0 0 0 0 0 0 0 0 0 0 0 0 0 0 0 0 0 0 0 0 0 0 0 0 0 0 0 0 0 0 0 0 0 0 0 0 0 0 0 0 0 0 0 0 0 0 0 0 0 0 0 0 0 0 0 0 0 0 0 0 0 0 0 0 0 0 0 0 0 0 0 0 0 0 0 0 0 0 0 0 0 0 0 0 0 0 0 0 0 0 0 0 0 0 0 0 0 0 0 0 0 0 0 0 0 0 0 0 0 0 0 0 0 0 0 0 0 0 0 0 0 0 0 0 0 0 
0 0 0 0 0 0 0 0 0 0 0 0 0 0 0 0 0 0 0 0 0 0.0025539391208440065384 0.015323635190725326538 0.033201210200786590576 0.010215756483376026154 0 0 0 0 0 0 0 0 0 0 0 0 0 0 0 0 0 0 0 0 0 0 0 0 0 0 0 0 0 0 0 0 0 0 0 0 0 0 0 0 0 0 0 0 0 0 0 0 0 0 0 0 0 0 0.015323635190725326538 0.063848480582237243652 0.071510300040245056152 0.045970901846885681152 0.015323635190725326538 0.0025539391208440065384 0 0 0 0 0 0 0 0 0 0 0 0 0 0 0 0 0 0 0 0 0 0 0 0 0 0 0 0 0 0 0 0 0 0 0 0 0 0 0 0 0 0 0 0 0 0 0 0 0 0 0 0 0 0 0 0 0 0 0 0 0 0 0 0 0 0 0 0 0 0 0 0 0 0 0 0 0 0 0 0 0 0 0 0 0 0 0 0 0 0 0 0 0 0 0 0 0 0 0 0 0 0 0 0 0 0 0 0 0 0 0 0 0 0 0 0 0 0 0 0 0 0 0 0 0 0 0 0 0 0 0 0 0 0 0 0 0 0 0 0 0 0 0 0 0 0 0 0 0 0 0 0 0 0 0 0 0 0 0 0 0 0 0 0 0 0 0 0 0 0 0 0 0 0 0 0 0 0 0 0 0 0 0 0 0 0 0 0 0 0 0 0 0 0 0 0 0 0 0 0 0 0 0.020431512966752052307 0.061294540762901306152 0.020431512966752052307 0 0 0 0 0 0 0 0 0 0 0 0 0 0 0 0 0 0 0 0 0 0 0 0 0 0 0 0 0.0025539391208440065384 0.007661817595362663269 0.028093332424759864807 0.063848480582237243652 0.020431512966752052307 0 0 0 0 0 0 0 0.030647270381450653076 0.091941818594932556152 0.030647270381450653076 0 0 0.007661817595362663269 0.081726051867008209229 0.75085806846618652344 1.9690870046615600586 1.0777622461318969727 0.23751634359359741211 0.022985454648733139038 0 0 0 0 0 0 0 0 0 0 0 0 0 0 0 0 0 0 0 0 0 0 0 0 0 0 0 0 0 0 0 0 0 0 0 0 0 0 0 0 0 0 0 0 0 0 0 0 0 0 0 0 0 0 0 0 0 0 0 0 0 0 0 0 0 0 0 0 0 0 0 0 0 0 0 0 0 0 0 0 0 0 0 0 0 0 0 0 0 0 0 0 0 0 0 0 0 0 0 0 0 0 0 0 0 0 0 0 0 0 0 0 0 0 0 0 0 0 0 0 0 0 0 0 0 0 0 0 0 
0 0 0 0 0 0 0 0 0 0 0 0 0 0 0 0 0 0 0 0 0 0 0.010215756483376026154 0.030647270381450653076 0.010215756483376026154 0 0 0 0 0 0 0 0 0 0 0 0 0 0 0 0 0 0 0 0 0 0 0 0 0 0 0 0 0 0 0 0 0 0 0 0 0 0 0 0 0 0 0 0 0 0 0 0 0 0 0 0 0 0.0025539391208440065384 0.025539392605423927307 0.068956352770328521729 0.033201210200786590576 0.010215756483376026154 0.0025539391208440065384 0 0 0 0 0 0 0 0 0 0 0 0 0 0 0 0 0 0 0 0 0 0 0 0 0 0 0 0 0 0 0 0 0 0 0 0 0 0 0 0 0 0 0 0 0 0 0 0 0 0 0 0 0 0 0 0 0 0 0 0 0 0 0 0 0 0 0 0 0 0 0 0 0 0 0 0 0 0 0 0 0 0 0 0 0 0 0 0 0 0 0 0 0 0 0 0 0 0 0 0 0 0 0 0 0 0 0 0 0 0 0 0 0 0 0 0 0 0 0 0 0 0 0 0 0 0 0 0 0 0 0 0 0 0 0 0 0 0 0 0 0 0 0 0 0 0 0 0 0 0 0 0 0 0 0 0 0 0 0 0 0 0 0 0 0 0 0 0 0 0 0 0 0 0 0 0 0 0 0 0 0 0 0 0 0 0 0 0 0 0 0 0 0 0 0 0 0 0 0 0 0 0 0.0025539391208440065384 0.025539392605423927307 0.063848480582237243652 0.020431512966752052307 0 0 0 0 0 0 0 0 0 0 0 0 0 0 0 0 0 0 0 0 0 0 0 0 0 0 0 0 0 0 0.020431512966752052307 0.061294540762901306152 0.020431512966752052307 0 0 0 0 0 0 0 0.030647270381450653076 0.091941818594932556152 0.030647270381450653076 0 0 0.0025539391208440065384 0.028093332424759864807 0.55931264162063598633 1.8720374107360839844 1.5017162561416625977 0.38819876313209533691 0.020431512966752052307 0 0 0 0 0 0 0 0 0 0 0 0 0 0 0 0 0 0 0 0 0 0 0 0 0 0 0 0 0 0 0 0 0 0 0 0 0 0 0 0 0 0 0 0 0 0 0 0 0 0 0 0 0 0 0 0 0 0 0 0 0 0 0 0 0 0 0 0 0 0 0 0 0 0 0 0 0 0 0 0 0 0 0 0 0 0 0 0 0 0 0 0 0 0 0 0 0 0 0 0 0 0 0 0 0 0 0 0 0 0 0 0 0 0 0 0 0 0 0 0 0 0 0 0 0 0 0 0 0 
0 0 0 0 0 0 0 0 0 0 0 0 0 0 0 0 0 0 0 0 0 0 0.010215756483376026154 0.030647270381450653076 0.010215756483376026154 0 0 0 0 0 0 0 0 0 0 0 0 0 0 0 0 0 0 0 0 0 0 0 0 0 0 0 0 0 0 0 0 0 0 0 0 0 0 0 0 0 0 0 0 0 0 0 0 0 0 0 0 0.0025539391208440065384 0.012769696302711963654 0.045970901846885681152 0.063848480582237243652 0.017877575010061264038 0 0 0 0 0 0 0 0 0 0 0 0 0 0 0 0 0 0 0 0 0 0 0 0 0 0 0 0 0 0 0 0 0 0 0 0 0 0 0 0 0 0 0 0 0 0 0 0 0 0 0 0 0 0 0 0 0 0 0 0 0 0 0 0 0 0 0 0 0 0 0 0 0 0 0 0 0 0 0 0 0 0 0 0 0 0 0 0 0 0 0 0 0 0 0 0 0 0 0 0 0 0 0 0 0 0 0 0 0 0 0 0 0 0 0 0 0 0 0 0 0 0 0 0 0 0 0 0 0 0 0 0 0 0 0 0 0 0 0 0 0 0 0 0 0 0 0 0 0 0 0 0 0 0 0 0 0 0 0 0 0 0 0 0 0 0 0 0 0 0 0 0 0 0 0 0 0 0 0 0 0 0 0 0 0 0 0 0 0 0 0 0 0 0 0 0 0 0 0 0 0 0 0 0 0.010215756483376026154 0.048524845391511917114 0.066402420401573181152 0.017877575010061264038 0 0 0 0 0 0 0 0 0 0 0 0 0 0 0 0 0 0 0 0 0 0 0 0 0 0 0 0 0 0 0.020431512966752052307 0.061294540762901306152 0.020431512966752052307 0 0 0 0 0 0 0 0.030647270381450653076 0.094495750963687896729 0.035755150020122528076 0.0025539391208440065384 0 0 0.007661817595362663269 0.37798297405242919922 1.5502411127090454102 1.8822531700134277344 0.61805331707000732422 0.058740600943565368652 0 0 0 0 0 0 0 0 0 0 0 0 0 0 0 0 0 0 0 0 0 0 0 0 0 0 0 0 0 0 0 0 0 0 0 0 0 0 0 0 0 0 0 0 0 0 0 0 0 0 0 0 0 0 0 0 0 0 0 0 0 0 0 0 0 0 0 0 0 0 0 0 0 0 0 0 0 0 0 0 0 0 0 0 0 0 0 0 0 0 0 0 0 0 0 0 0 0 0 0 0 0 0 0 0 0 0 0 0 0 0 0 0 0 0 0 0 0 0 0 0 0 0 0 0 0 0 0 0 
0 0 0 0 0 0 0 0 0 0 0 0 0 0 0 0 0 0 0 0 0 0 0.010215756483376026154 0.033201210200786590576 0.015323635190725326538 0.0025539391208440065384 0 0 0 0 0 0 0 0 0 0 0 0 0 0 0 0 0 0 0 0 0 0 0 0 0 0 0 0 0 0 0 0 0 0 0 0 0 0 0 0 0 0 0 0 0 0 0 0 0 0 0 0.007661817595362663269 0.033201210200786590576 0.045970901846885681152 0.043416965752840042114 0.012769696302711963654 0 0 0 0 0 0 0 0 0 0 0 0 0 0 0 0 0 0 0 0 0 0 0 0 0 0 0 0 0 0 0 0 0 0 0 0 0 0 0 0 0 0 0 0 0 0 0 0 0 0 0 0 0 0 0 0 0 0 0 0 0 0 0 0 0 0 0 0 0 0 0 0 0 0 0 0 0 0 0 0 0 0 0 0 0 0 0 0 0 0 0 0 0 0 0 0 0 0 0 0 0 0 0 0 0 0 0 0 0 0 0 0 0 0 0 0 0 0 0 0 0 0 0 0 0 0 0 0 0 0 0 0 0 0 0 0 0 0 0 0 0 0 0 0 0 0 0 0 0 0 0 0 0 0 0 0 0 0 0 0 0 0 0 0 0 0 0 0 0 0 0 0 0 0 0 0 0 0 0 0 0 0 0 0 0 0 0 0 0 0 0 0 0 0 0 0 0 0 0 0 0 0 0 0 0.017877575010061264038 0.066402420401573181152 0.048524845391511917114 0.010215756483376026154 0 0 0 0 0 0 0 0 0 0 0 0 0 0 0 0 0 0 0 0 0 0 0 0 0 0 0 0 0 0 0.020431512966752052307 0.061294540762901306152 0.020431512966752052307 0 0 0 0 0 0 0 0.028093332424759864807 0.094495750963687896729 0.053632721304893493652 0.007661817595362663269 0 0 0.0025539391208440065384 0.20686908066272735596 1.1084095239639282227 2.0125041007995605469 1.0675466060638427734 0.18643754720687866211 0.0025539391208440065384 0 0 0 0 0 0 0 0 0 0 0 0 0 0 0 0 0 0 0 0 0 0 0 0 0 0 0 0 0 0 0 0 0 0 0 0 0 0 0 0 0 0 0 0 0 0 0 0 0 0 0 0 0 0 0 0 0 0 0 0 0 0 0 0 0 0 0 0 0 0 0 0 0 0 0 0 0 0 0 0 0 0 0 0 0 0 0 0 0 0 0 0 0 0 0 0 0 0 0 0 0 0 0 0 0 0 0 0 0 0 0 0 0 0 0 0 0 0 0 0 0 0 0 0 0 0 0 0 
0 0 0 0 0 0 0 0 0 0 0 0 0 0 0 0 0 0 0 0 0 0 0.007661817595362663269 0.033201210200786590576 0.033201210200786590576 0.007661817595362663269 0 0 0 0 0 0 0 0 0 0 0 0 0 0 0 0 0 0 0 0 0 0 0 0 0 0 0 0 0 0 0 0 0 0 0 0 0 0 0 0 0 0 0 0 0 0 0 0 0 0 0 0.010215756483376026154 0.033201210200786590576 0.025539392605423927307 0.033201210200786590576 0.010215756483376026154 0 0 0 0 0 0 0 0 0 0 0 0 0 0 0 0 0 0 0 0 0 0 0 0 0 0 0 0 0 0 0 0 0 0 0 0 0 0 0 0 0 0 0 0 0 0 0 0 0 0 0 0 0 0 0 0 0 0 0 0 0 0 0 0 0 0 0 0 0 0 0 0 0 0 0 0 0 0 0 0 0 0 0 0 0 0 0 0 0 0 0 0 0 0 0 0 0 0 0 0 0 0 0 0 0 0 0 0 0 0 0 0 0 0 0 0 0 0 0 0 0 0 0 0 0 0 0 0 0 0 0 0 0 0 0 0 0 0 0 0 0 0 0 0 0 0 0 0 0 0 0 0 0 0 0 0 0 0 0 0 0 0 0 0 0 0 0 0 0 0 0 0 0 0 0 0 0 0 0 0 0 0 0 0 0 0 0 0 0 0 0 0 0 0 0 0 0 0 0 0 0 0 0 0.0025539391208440065384 0.025539392605423927307 0.066402420401573181152 0.025539392605423927307 0.0025539391208440065384 0 0 0 0 0 0 0 0 0 0 0 0 0 0 0 0 0 0 0 0 0 0 0 0 0 0 0 0 0 0 0.020431512966752052307 0.061294540762901306152 0.020431512966752052307 0 0 0 0 0 0 0 0.022985454648733139038 0.076618179678916931152 0.053632721304893493652 0.010215756483376026154 0 0 0 0.1098193824291229248 0.76618170738220214844 1.7979731559753417969 1.4940543174743652344 0.37542906403541564941 0.012769696302711963654 0 0 0 0 0 0 0 0 0 0 0 0 0 0 0 0 0 0 0 0 0 0 0 0 0 0 0 0 0 0 0 0 0 0 0 0 0 0 0 0 0 0 0 0 0 0 0 0 0 0 0 0 0 0 0 0 0 0 0 0 0 0 0 0 0 0 0 0 0 0 0 0 0 0 0 0 0 0 0 0 0 0 0 0 0 0 0 0 0 0 0 0 0 0 0 0 0 0 0 0 0 0 0 0 0 0 0 0 0 0 0 0 0 0 0 0 0 0 0 0 0 0 0 0 0 0 0 0 
0 0 0 0 0 0 0 0 0 0 0 0 0 0 0 0 0 0 0 0 0 0 0.0025539391208440065384 0.015323635190725326538 0.033201210200786590576 0.010215756483376026154 0 0 0 0 0 0 0 0 0 0 0 0 0 0 0 0 0 0 0 0 0 0 0 0 0 0 0 0 0 0 0 0 0 0 0 0 0 0 0 0 0 0 0 0 0 0 0 0 0 0 0.0025539391208440065384 0.015323635190725326538 0.033201210200786590576 0.020431512966752052307 0.030647270381450653076 0.010215756483376026154 0 0 0 0 0 0 0 0 0 0 0 0 0 0 0 0 0 0 0 0 0 0 0 0 0 0 0 0 0 0 0 0 0 0 0 0 0 0 0 0 0 0 0 0 0 0 0 0 0 0 0 0 0 0 0 0 0 0 0 0 0 0 0 0 0 0 0 0 0 0 0 0 0 0 0 0 0 0 0 0 0 0 0 0 0 0 0 0 0 0 0 0 0 0 0 0 0 0 0 0 0 0 0 0 0 0 0 0 0 0 0 0 0 0 0 0 0 0 0 0 0 0 0 0 0 0 0 0 0 0 0 0 0 0 0 0 0 0 0 0 0 0 0 0 0 0 0 0 0 0 0 0 0 0 0 0 0 0 0 0 0 0 0 0 0 0 0 0 0 0 0 0 0 0 0 0 0 0 0 0 0 0 0 0 0 0 0 0 0 0 0 0 0 0 0 0 0 0 0 0 0 0 0 0.007661817595362663269 0.043416965752840042114 0.063848480582237243652 0.017877575010061264038 0 0 0 0 0 0 0 0 0 0 0 0 0 0 0 0 0 0 0 0 0 0 0 0 0 0 0 0 0 0 0 0.020431512966752052307 0.061294540762901306152 0.020431512966752052307 0 0 0 0 0 0 0 0.020431512966752052307 0.076618179678916931152 0.061294540762901306152 0.015323635190725326538 0 0 0 0.068956352770328521729 0.49801814556121826172 1.4046665430068969727 1.7009234428405761719 0.53888112306594848633 0.028093332424759864807 0 0 0 0 0 0 0 0 0 0 0 0 0 0 0 0 0 0 0 0 0 0 0 0 0 0 0 0 0 0 0 0 0 0 0 0 0 0 0 0 0 0 0 0 0 0 0 0 0 0 0 0 0 0 0 0 0 0 0 0 0 0 0 0 0 0 0 0 0 0 0 0 0 0 0 0 0 0 0 0 0 0 0 0 0 0 0 0 0 0 0 0 0 0 0 0 0 0 0 0 0 0 0 0 0 0 0 0 0 0 0 0 0 0 0 0 0 0 0 0 0 0 0 0 0 0 0 0 
0 0 0 0 0 0 0 0 0 0 0 0 0 0 0 0 0 0 0 0 0 0 0 0.010215756483376026154 0.030647270381450653076 0.010215756483376026154 0 0 0 0 0 0 0 0 0 0 0 0 0 0 0 0 0 0 0 0 0 0 0 0 0 0 0 0 0 0 0 0 0 0 0 0 0 0 0 0 0 0 0 0 0 0 0 0 0 0 0.007661817595362663269 0.033201210200786590576 0.033201210200786590576 0.017877575010061264038 0.030647270381450653076 0.010215756483376026154 0 0 0 0 0 0 0 0 0 0 0 0 0 0 0 0 0 0 0 0 0 0 0 0 0 0 0 0 0 0 0 0 0 0 0 0 0 0 0 0 0 0 0 0 0 0 0 0 0 0 0 0 0 0 0 0 0 0 0 0 0 0 0 0 0 0 0 0 0 0 0 0 0 0 0 0 0 0 0 0 0 0 0 0 0 0 0 0 0 0 0 0 0 0 0 0 0 0 0 0 0 0 0 0 0 0 0 0 0 0 0 0 0 0 0 0 0 0 0 0 0 0 0 0 0 0 0 0 0 0 0 0 0 0 0 0 0 0 0 0 0 0 0 0 0 0 0 0 0 0 0 0 0 0 0 0 0 0 0 0 0 0 0 0 0 0 0 0 0 0 0 0 0 0 0 0 0 0 0 0 0 0 0 0 0 0 0 0 0 0 0 0 0 0 0 0 0 0 0 0 0 0 0.0025539391208440065384 0.015323635190725326538 0.045970901846885681152 0.045970901846885681152 0.012769696302711963654 0 0 0 0 0 0 0 0 0 0 0 0 0 0 0 0 0 0 0 0 0 0 0 0 0 0 0 0 0 0 0 0.020431512966752052307 0.061294540762901306152 0.020431512966752052307 0 0 0 0 0 0 0 0.015323635190725326538 0.076618179678916931152 0.097049690783023834229 0.025539392605423927307 0 0 0 0.053632721304893493652 0.34222784638404846191 1.0905319452285766602 1.7571102380752563477 0.64870053529739379883 0.051078785210847854614 0 0 0 0 0 0 0 0 0 0 0 0 0 0 0 0 0 0 0 0 0 0 0 0 0 0 0 0 0 0 0 0 0 0 0 0 0 0 0 0 0 0 0 0 0 0 0 0 0 0 0 0 0 0 0 0 0 0 0 0 0 0 0 0 0 0 0 0 0 0 0 0 0 0 0 0 0 0 0 0 0 0 0 0 0 0 0 0 0 0 0 0 0 0 0 0 0 0 0 0 0 0 0 0 0 0 0 0 0 0 0 0 0 0 0 0 0 0 0 0 0 0 0 0 0 0 0 0 
0 0 0 0 0 0 0 0 0 0 0 0 0 0 0 0 0 0 0 0 0 0 0 0.010215756483376026154 0.030647270381450653076 0.010215756483376026154 0 0 0 0 0 0 0 0 0 0 0 0 0 0 0 0 0 0 0 0 0 0 0 0 0 0 0 0 0 0 0 0 0 0 0 0 0 0 0 0 0 0 0 0 0 0 0 0 0 0 0.010215756483376026154 0.033201210200786590576 0.015323635190725326538 0.012769696302711963654 0.030647270381450653076 0.010215756483376026154 0 0 0 0 0 0 0 0 0 0 0 0 0 0 0 0 0 0 0 0 0 0 0 0 0 0 0 0 0 0 0 0 0 0 0 0 0 0 0 0 0 0 0 0 0 0 0 0 0 0 0 0 0 0 0 0 0 0 0 0 0 0 0 0 0 0 0 0 0 0 0 0 0 0 0 0 0 0 0 0 0 0 0 0 0 0 0 0 0 0 0 0 0 0 0 0 0 0 0 0 0 0 0 0 0 0 0 0 0 0 0 0 0 0 0 0 0 0 0 0 0 0 0 0 0 0 0 0 0 0 0 0 0 0 0 0 0 0 0 0 0 0 0 0 0 0 0 0 0 0 0 0 0 0 0 0 0 0 0 0 0 0 0 0 0 0 0 0 0 0 0 0 0 0 0 0 0 0 0 0 0 0 0 0 0 0 0 0 0 0 0 0 0 0 0 0 0 0 0 0 0 0.0025539391208440065384 0.012769696302711963654 0.035755150020122528076 0.043416965752840042114 0.038309089839458465576 0.010215756483376026154 0 0 0 0 0 0 0 0 0 0 0 0 0 0 0 0 0 0 0 0 0 0 0 0 0 0 0 0 0 0 0 0.020431512966752052307 0.066402420401573181152 0.033201210200786590576 0.010215756483376026154 0.0025539391208440065384 0 0 0 0 0 0.0051078782416880130768 0.040863025933504104614 0.099603630602359771729 0.035755150020122528076 0.0025539391208440065384 0 0 0.045970901846885681152 0.27327147126197814941 0.95772719383239746094 1.7979731559753417969 0.77895146608352661133 0.079172119498252868652 0 0 0 0 0 0 0 0 0 0 0 0 0 0 0 0 0 0 0 0 0 0 0 0 0 0 0 0 0 0 0 0 0 0 0 0 0 0 0 0 0 0 0 0 0 0 0 0 0 0 0 0 0 0 0 0 0 0 0 0 0 0 0 0 0 0 0 0 0 0 0 0 0 0 0 0 0 0 0 0 0 0 0 0 0 0 0 0 0 0 0 0 0 0 0 0 0 0 0 0 0 0 0 0 0 0 0 0 0 0 0 0 0 0 0 0 0 0 0 0 0 0 0 0 0 0 0 0 
0 0 0 0 0 0 0 0 0 0 0 0 0 0 0 0 0 0 0 0 0 0 0.0025539391208440065384 0.015323635190725326538 0.033201210200786590576 0.010215756483376026154 0 0 0 0 0 0 0 0 0 0 0 0 0 0 0 0 0 0 0 0 0 0 0 0 0 0 0 0 0 0 0 0 0 0 0 0 0 0 0 0 0 0 0 0 0 0 0 0 0 0 0.010215756483376026154 0.030647270381450653076 0.010215756483376026154 0.010215756483376026154 0.030647270381450653076 0.010215756483376026154 0 0 0 0 0 0 0 0 0 0 0 0 0 0 0 0 0 0 0 0 0 0 0 0 0 0 0 0 0 0 0 0 0 0 0 0 0 0 0 0 0 0 0 0 0 0 0 0 0 0 0 0 0 0 0 0 0 0 0 0 0 0 0 0 0 0 0 0 0 0 0 0 0 0 0 0 0 0 0 0 0 0 0 0 0 0 0 0 0 0 0 0 0 0 0 0 0 0 0 0 0 0 0 0 0 0 0 0 0 0 0 0 0 0 0 0 0 0 0 0 0 0 0 0 0 0 0 0 0 0 0 0 0 0 0 0 0 0 0 0 0 0 0 0 0 0 0 0 0 0 0 0 0 0 0 0 0 0 0 0 0 0 0 0 0 0 0 0 0 0 0 0 0 0 0 0 0 0 0 0 0 0 0 0 0 0 0 0 0 0 0 0 0 0 0 0 0 0 0 0 0 0.007661817595362663269 0.033201210200786590576 0.035755150020122528076 0.022985450923442840576 0.033201210200786590576 0.010215756483376026154 0 0 0 0 0 0 0 0 0 0 0 0 0 0 0 0 0 0 0 0 0 0 0 0 0 0 0 0 0 0 0 0.015323635190725326538 0.063848480582237243652 0.068956352770328521729 0.038309089839458465576 0.007661817595362663269 0 0 0 0 0 0 0.028093332424759864807 0.097049690783023834229 0.058740600943565368652 0.010215756483376026154 0 0 0.030647270381450653076 0.19154542684555053711 0.88366293907165527344 1.8235125541687011719 0.83258420228958129883 0.099603630602359771729 0 0 0 0 0 0 0 0 0 0 0 0 0 0 0 0 0 0 0 0 0 0 0 0 0 0 0 0 0 0 0 0 0 0 0 0 0 0 0 0 0 0 0 0 0 0 0 0 0 0 0 0 0 0 0 0 0 0 0 0 0 0 0 0 0 0 0 0 0 0 0 0 0 0 0 0 0 0 0 0 0 0 0 0 0 0 0 0 0 0 0 0 0 0 0 0 0 0 0 0 0 0 0 0 0 0 0 0 0 0 0 0 0 0 0 0 0 0 0 0 0 0 0 0 0 0 0 0 
0 0 0 0 0 0 0 0 0 0 0 0 0 0 0 0 0 0 0 0.0025539391208440065384 0.007661817595362663269 0.010215756483376026154 0.015323635190725326538 0.035755150020122528076 0.033201210200786590576 0.007661817595362663269 0 0 0 0 0 0 0 0 0 0 0 0 0 0 0 0 0 0 0 0 0 0 0 0 0 0 0 0 0 0 0 0 0 0 0 0 0 0 0 0 0 0 0 0 0 0 0 0 0 0 0.010215756483376026154 0.030647270381450653076 0.012769696302711963654 0.015323635190725326538 0.033201210200786590576 0.010215756483376026154 0 0 0 0 0 0 0 0 0 0 0 0 0 0 0 0 0 0 0 0 0 0 0 0 0 0 0 0 0 0 0 0 0 0 0 0 0 0 0 0 0 0 0 0 0 0 0 0 0 0 0 0 0 0 0 0 0 0 0 0 0 0 0 0 0 0 0 0 0 0 0 0 0 0 0 0 0 0 0 0 0 0 0 0 0 0 0 0 0 0 0 0 0 0 0 0 0 0 0 0 0 0 0 0 0 0 0 0 0 0 0 0 0 0 0 0 0 0 0 0 0 0 0 0 0 0 0 0 0 0 0 0 0 0 0 0 0 0 0 0 0 0 0 0 0 0 0 0 0 0 0 0 0 0 0 0 0 0 0 0 0 0 0 0 0 0 0 0 0 0 0 0 0 0 0 0 0 0 0 0 0 0 0 0 0 0 0 0 0 0 0 0 0 0 0 0 0 0 0 0 0 0.010215756483376026154 0.033201210200786590576 0.015323635190725326538 0.012769696302711963654 0.030647270381450653076 0.010215756483376026154 0 0 0 0 0 0 0 0 0 0 0 0 0 0 0 0 0 0 0 0 0 0 0 0 0 0 0 0 0 0 0 0.0051078782416880130768 0.022985450923442840576 0.053632721304893493652 0.051078785210847854614 0.017877575010061264038 0.0025539391208440065384 0 0 0 0 0 0.020431512966752052307 0.079172119498252868652 0.076618179678916931152 0.017877575010061264038 0 0 0.015323635190725326538 0.1047115027904510498 0.74064230918884277344 1.8388361930847167969 0.93729567527770996094 0.1455745398998260498 0.007661817595362663269 0 0 0 0 0 0 0 0 0 0 0 0 0 0 0 0 0 0 0 0 0 0 0 0 0 0 0 0 0 0 0 0 0 0 0 0 0 0 0 0 0 0 0 0 0 0 0 0 0 0 0 0 0 0 0 0 0 0 0 0 0 0 0 0 0 0 0 0 0 0 0 0 0 0 0 0 0 0 0 0 0 0 0 0 0 0 0 0 0 0 0 0 0 0 0 0 0 0 0 0 0 0 0 0 0 0 0 0 0 0 0 0 0 0 0 0 0 0 0 0 0 0 0 0 0 0 0 
0 0 0 0 0 0 0 0 0 0 0 0 0 0 0 0 0.0025539391208440065384 0.007661817595362663269 0.010215756483376026154 0.015323635190725326538 0.033201210200786590576 0.033201210200786590576 0.033201210200786590576 0.033201210200786590576 0.012769696302711963654 0.0025539391208440065384 0 0 0 0 0 0 0 0 0 0 0 0 0 0 0 0 0 0 0 0 0 0 0 0 0 0 0 0 0 0 0 0 0 0 0 0 0 0 0 0 0 0 0 0 0 0 0 0 0 0.0025539391208440065384 0.015323635190725326538 0.033201210200786590576 0.017877575010061264038 0.033201210200786590576 0.033201210200786590576 0.007661817595362663269 0 0 0 0 0 0 0 0 0 0 0 0 0 0 0 0 0 0 0 0 0 0 0 0 0 0 0 0 0 0 0 0 0 0 0 0 0 0 0 0 0 0 0 0 0 0 0 0 0 0 0 0 0 0 0 0 0 0 0 0 0 0 0 0 0 0 0 0 0 0 0 0 0 0 0 0 0 0 0 0 0 0 0 0 0 0 0 0 0 0 0 0 0 0 0 0 0 0 0 0 0 0 0 0 0 0 0 0 0 0 0 0 0 0 0 0 0 0 0 0 0 0 0 0 0 0 0 0 0 0 0 0 0 0 0 0 0 0 0 0 0 0 0 0 0 0 0 0 0 0 0 0 0 0 0 0 0 0 0 0 0 0 0 0 0 0 0 0 0 0 0 0 0 0 0 0 0 0 0 0 0 0 0 0 0 0 0 0 0 0 0 0 0 0 0 0 0 0 0 0 0 0.010215756483376026154 0.030647270381450653076 0.010215756483376026154 0.010215756483376026154 0.030647270381450653076 0.010215756483376026154 0 0 0 0 0 0 0 0 0 0 0 0 0 0 0 0 0 0 0 0 0 0 0 0 0 0 0 0 0 0 0 0 0.007661817595362663269 0.040863025933504104614 0.066402420401573181152 0.040863025933504104614 0.007661817595362663269 0 0 0 0 0 0.012769696302711963654 0.056186664849519729614 0.074064239859580993652 0.020431512966752052307 0 0 0.010215756483376026154 0.071510292589664459229 0.66913205385208129883 1.8413901329040527344 1.1186252832412719727 0.26816362142562866211 0.025539392605423927307 0 0 0 0 0 0 0 0 0 0 0 0 0 0 0 0 0 0 0 0 0 0 0 0 0 0 0 0 0 0 0 0 0 0 0 0 0 0 0 0 0 0 0 0 0 0 0 0 0 0 0 0 0 0 0 0 0 0 0 0 0 0 0 0 0 0 0 0 0 0 0 0 0 0 0 0 0 0 0 0 0 0 0 0 0 0 0 0 0 0 0 0 0 0 0 0 0 0 0 0 0 0 0 0 0 0 0 0 0 0 0 0 0 0 0 0 0 0 0 0 0 0 0 0 0 0 0 
0 0 0 0 0 0 0 0 0 0 0 0 0 0 0 0.0025539391208440065384 0.012769696302711963654 0.033201210200786590576 0.033201210200786590576 0.033201210200786590576 0.033201210200786590576 0.015323635190725326538 0.010215756483376026154 0.007661817595362663269 0.0025539391208440065384 0 0 0 0 0 0 0 0 0 0 0 0 0 0 0 0 0 0 0 0 0 0 0 0 0 0 0 0 0 0 0 0 0 0 0 0 0 0 0 0 0 0 0 0 0 0 0 0 0 0.0025539391208440065384 0.012769696302711963654 0.035755150020122528076 0.033201210200786590576 0.017877575010061264038 0.033201210200786590576 0.015323635190725326538 0.0025539391208440065384 0 0 0 0 0 0 0 0 0 0 0 0 0 0 0 0 0 0 0 0 0 0 0 0 0 0 0 0 0 0 0 0 0 0 0 0 0 0 0 0 0 0 0 0 0 0 0 0 0 0 0 0 0 0 0 0 0 0 0 0 0 0 0 0 0 0 0 0 0 0 0 0 0 0 0 0 0 0 0 0 0 0 0 0 0 0 0 0 0 0 0 0 0 0 0 0 0 0 0 0 0 0 0 0 0 0 0 0 0 0 0 0 0 0 0 0 0 0 0 0 0 0 0 0 0 0 0 0 0 0 0 0 0 0 0 0 0 0 0 0 0 0 0 0 0 0 0 0 0 0 0 0 0 0 0 0 0 0 0 0 0 0 0 0 0 0 0 0 0 0 0 0 0 0 0 0 0 0 0 0 0 0 0 0 0 0 0 0 0 0 0 0 0 0 0 0 0 0 0 0 0 0.010215756483376026154 0.030647270381450653076 0.010215756483376026154 0.010215756483376026154 0.030647270381450653076 0.010215756483376026154 0 0 0 0 0 0 0 0 0 0 0 0 0 0 0 0 0 0 0 0 0 0 0 0 0 0 0 0 0 0 0 0 0.0025539391208440065384 0.017877575010061264038 0.051078785210847854614 0.048524845391511917114 0.012769696302711963654 0 0 0 0 0 0.010215756483376026154 0.051078785210847854614 0.071510300040245056152 0.020431512966752052307 0 0 0.007661817595362663269 0.051078785210847854614 0.58229809999465942383 1.7979731559753417969 1.3382641077041625977 0.39330664277076721191 0.038309089839458465576 0 0 0 0 0 0 0 0 0 0 0 0 0 0 0 0 0 0 0 0 0 0 0 0 0 0 0 0 0 0 0 0 0 0 0 0 0 0 0 0 0 0 0 0 0 0 0 0 0 0 0 0 0 0 0 0 0 0 0 0 0 0 0 0 0 0 0 0 0 0 0 0 0 0 0 0 0 0 0 0 0 0 0 0 0 0 0 0 0 0 0 0 0 0 0 0 0 0 0 0 0 0 0 0 0 0 0 0 0 0 0 0 0 0 0 0 0 0 0 0 0 0 0 0 0 0 0 
0 0 0 0 0 0 0 0 0 0 0 0 0 0 0 0.007661817595362663269 0.033201210200786590576 0.035755150020122528076 0.015323635190725326538 0.010215756483376026154 0.007661817595362663269 0.0025539391208440065384 0 0 0 0 0 0 0 0 0 0 0 0 0 0 0 0 0 0 0 0 0 0 0 0 0 0 0 0 0 0 0 0 0 0 0 0 0 0 0 0 0 0 0 0 0 0 0 0 0 0 0 0 0.007661817595362663269 0.033201210200786590576 0.035755150020122528076 0.012769696302711963654 0.012769696302711963654 0.030647270381450653076 0.010215756483376026154 0 0 0 0 0 0 0 0 0 0 0 0 0 0 0 0 0 0 0 0 0 0 0 0 0 0 0 0 0 0 0 0 0 0 0 0 0 0 0 0 0 0 0 0 0 0 0 0 0 0 0 0 0 0 0 0 0 0 0 0 0 0 0 0 0 0 0 0 0 0 0 0 0 0 0 0 0 0 0 0 0 0 0 0 0 0 0 0 0 0 0 0 0 0 0 0 0 0 0 0 0 0 0 0 0 0 0 0 0 0 0 0 0 0 0 0 0 0 0 0 0 0 0 0 0 0 0 0 0 0 0 0 0 0 0 0 0 0 0 0 0 0 0 0 0 0 0 0 0 0 0 0 0 0 0 0 0 0 0 0 0 0 0 0 0 0 0 0 0 0 0 0 0 0 0 0 0 0 0 0 0 0 0 0 0 0 0 0 0 0 0 0 0 0 0 0 0 0 0 0 0 0 0.012769696302711963654 0.038309089839458465576 0.020431512966752052307 0.017877575010061264038 0.033201210200786590576 0.010215756483376026154 0 0 0 0 0 0 0 0 0 0 0 0 0 0 0 0 0 0 0 0 0 0 0 0 0 0 0 0 0 0 0 0 0 0.007661817595362663269 0.043416965752840042114 0.063848480582237243652 0.017877575010061264038 0 0 0 0 0 0.010215756483376026154 0.051078785210847854614 0.071510300040245056152 0.020431512966752052307 0 0 0.0025539391208440065384 0.012769696302711963654 0.41118422150611877441 1.6064276695251464844 1.6498446464538574219 0.52611148357391357422 0.040863025933504104614 0 0 0 0 0 0 0 0 0 0 0 0 0 0 0 0 0 0 0 0 0 0 0 0 0 0 0 0 0 0 0 0 0 0 0 0 0 0 0 0 0 0 0 0 0 0 0 0 0 0 0 0 0 0 0 0 0 0 0 0 0 0 0 0 0 0 0 0 0 0 0 0 0 0 0 0 0 0 0 0 0 0 0 0 0 0 0 0 0 0 0 0 0 0 0 0 0 0 0 0 0 0 0 0 0 0 0 0 0 0 0 0 0 0 0 0 0 0 0 0 0 0 0 0 0 0 0 
0 0 0 0 0 0 0 0 0 0 0 0 0 0 0 0.010215756483376026154 0.033201210200786590576 0.015323635190725326538 0.0025539391208440065384 0 0 0 0 0 0 0 0 0 0 0 0 0 0 0 0 0 0 0 0 0 0 0 0 0 0 0 0 0 0 0 0 0 0 0 0 0 0 0 0 0 0 0 0 0 0 0 0 0 0 0 0 0 0 0 0.010215756483376026154 0.033201210200786590576 0.015323635190725326538 0.0025539391208440065384 0.010215756483376026154 0.030647270381450653076 0.010215756483376026154 0 0 0 0 0 0 0 0 0 0 0 0 0 0 0 0 0 0 0 0 0 0 0 0 0 0 0 0 0 0 0 0 0 0 0 0 0 0 0 0 0 0 0 0 0 0 0 0 0 0 0 0 0 0 0 0 0 0 0 0 0 0 0 0 0 0 0 0 0 0 0 0 0 0 0 0 0 0 0 0 0 0 0 0 0 0 0 0 0 0 0 0 0 0 0 0 0 0 0 0 0 0 0 0 0 0 0 0 0 0 0 0 0 0 0 0 0 0 0 0 0 0 0 0 0 0 0 0 0 0 0 0 0 0 0 0 0 0 0 0 0 0 0 0 0 0 0 0 0 0 0 0 0 0 0 0 0 0 0 0 0 0 0 0 0 0 0 0 0 0 0 0 0 0 0 0 0 0 0 0 0 0 0 0 0 0 0 0 0 0 0 0 0 0 0 0 0 0 0 0 0 0 0.017877575010061264038 0.061294540762901306152 0.043416965752840042114 0.033201210200786590576 0.030647270381450653076 0.007661817595362663269 0 0 0 0 0 0 0 0 0 0 0 0 0 0 0 0 0 0 0 0 0 0 0 0 0 0 0 0 0 0 0 0 0 0.0025539391208440065384 0.025539392605423927307 0.063848480582237243652 0.020431512966752052307 0 0 0 0 0.0025539391208440065384 0.015323635190725326538 0.053632721304893493652 0.071510300040245056152 0.020431512966752052307 0 0 0 0 0.25539392232894897461 1.2769695520401000977 1.8771451711654663086 0.63848477602005004883 0.038309089839458465576 0 0 0 0 0 0 0 0 0 0 0 0 0 0 0 0 0 0 0 0 0 0 0 0 0 0 0 0 0 0 0 0 0 0 0 0 0 0 0 0 0 0 0 0 0 0 0 0 0 0 0 0 0 0 0 0 0 0 0 0 0 0 0 0 0 0 0 0 0 0 0 0 0 0 0 0 0 0 0 0 0 0 0 0 0 0 0 0 0 0 0 0 0 0 0 0 0 0 0 0 0 0 0 0 0 0 0 0 0 0 0 0 0 0 0 0 0 0 0 0 0 0 0 0 0 0 0 
0 0 0 0 0 0 0 0 0 0 0 0 0 0 0 0.010215756483376026154 0.030647270381450653076 0.010215756483376026154 0 0 0 0 0 0 0 0 0 0 0 0 0 0 0 0 0 0 0 0 0 0 0 0 0 0 0 0 0 0 0 0 0 0 0 0 0 0 0 0 0 0 0 0 0 0 0 0 0 0 0 0 0 0 0 0 0.010215756483376026154 0.030647270381450653076 0.010215756483376026154 0 0.010215756483376026154 0.030647270381450653076 0.010215756483376026154 0 0 0 0 0 0 0 0 0 0 0 0 0 0 0 0 0 0 0 0 0 0 0 0 0 0 0 0 0 0 0 0 0 0 0 0 0 0 0 0 0 0 0 0 0 0 0 0 0 0 0 0 0 0 0 0 0 0 0 0 0 0 0 0 0 0 0 0 0 0 0 0 0 0 0 0 0 0 0 0 0 0 0 0 0 0 0 0 0 0 0 0 0 0 0 0 0 0 0 0 0 0 0 0 0 0 0 0 0 0 0 0 0 0 0 0 0 0 0 0 0 0 0 0 0 0 0 0 0 0 0 0 0 0 0 0 0 0 0 0 0 0 0 0 0 0 0 0 0 0 0 0 0 0 0 0 0 0 0 0 0 0 0 0 0 0 0 0 0 0 0 0 0 0 0 0 0 0 0 0 0 0 0 0 0 0 0 0 0 0 0 0 0 0 0 0 0 0 0 0 0 0 0.020431512966752052307 0.063848480582237243652 0.028093332424759864807 0.010215756483376026154 0.007661817595362663269 0.0025539391208440065384 0 0 0 0 0 0 0 0 0 0 0 0 0 0 0 0 0 0 0 0 0 0 0 0 0 0 0 0 0 0 0 0 0 0 0.020431512966752052307 0.061294540762901306152 0.020431512966752052307 0 0 0 0 0.007661817595362663269 0.033201210200786590576 0.053632721304893493652 0.071510300040245056152 0.025539392605423927307 0.0025539391208440065384 0 0 0 0.1430206000804901123 0.99603629112243652344 1.9409936666488647461 0.67934781312942504883 0.030647270381450653076 0 0 0 0 0 0 0 0 0 0 0 0 0 0 0 0 0 0 0 0 0 0 0 0 0 0 0 0 0 0 0 0 0 0 0 0 0 0 0 0 0 0 0 0 0 0 0 0 0 0 0 0 0 0 0 0 0 0 0 0 0 0 0 0 0 0 0 0 0 0 0 0 0 0 0 0 0 0 0 0 0 0 0 0 0 0 0 0 0 0 0 0 0 0 0 0 0 0 0 0 0 0 0 0 0 0 0 0 0 0 0 0 0 0 0 0 0 0 0 0 0 0 0 0 0 0 0 
0 0 0 0 0 0 0 0 0 0 0 0 0 0 0.0025539391208440065384 0.015323635190725326538 0.033201210200786590576 0.010215756483376026154 0 0 0 0 0 0 0 0 0 0 0 0 0 0 0 0 0 0 0 0 0 0 0 0 0 0 0 0 0 0 0 0 0 0 0 0 0 0 0 0 0 0 0 0 0 0 0 0 0 0 0 0 0 0 0 0 0.010215756483376026154 0.030647270381450653076 0.010215756483376026154 0 0.010215756483376026154 0.030647270381450653076 0.010215756483376026154 0 0 0 0 0 0 0 0 0 0 0 0 0 0 0 0 0 0 0 0 0 0 0 0 0 0 0 0 0 0 0 0 0 0 0 0 0 0 0 0 0 0 0 0 0 0 0 0 0 0 0 0 0 0 0 0 0 0 0 0 0 0 0 0 0 0 0 0 0 0 0 0 0 0 0 0 0 0 0 0 0 0 0 0 0 0 0 0 0 0 0 0 0 0 0 0 0 0 0 0 0 0 0 0 0 0 0 0 0 0 0 0 0 0 0 0 0 0 0 0 0 0 0 0 0 0 0 0 0 0 0 0 0 0 0 0 0 0 0 0 0 0 0 0 0 0 0 0 0 0 0 0 0 0 0 0 0 0 0 0 0 0 0 0 0 0 0 0 0 0 0 0 0 0 0 0 0 0 0 0 0 0 0 0 0 0 0 0 0 0 0 0 0 0 0 0 0 0 0 0 0 0 0.020431512966752052307 0.061294540762901306152 0.020431512966752052307 0 0 0 0 0 0 0 0 0 0 0 0 0 0 0 0 0 0 0 0 0 0 0 0 0 0 0 0 0 0 0 0 0 0 0 0 0 0.020431512966752052307 0.061294540762901306152 0.020431512966752052307 0 0 0 0 0.010215756483376026154 0.033201210200786590576 0.033201210200786590576 0.066402420401573181152 0.043416965752840042114 0.007661817595362663269 0 0 0 0.089387871325016021729 0.88110899925231933594 1.9716409444808959961 0.67679387331008911133 0.017877575010061264038 0 0 0 0 0 0 0 0 0 0 0 0 0 0 0 0 0 0 0 0 0 0 0 0 0 0 0 0 0 0 0 0 0 0 0 0 0 0 0 0 0 0 0 0 0 0 0 0 0 0 0 0 0 0 0 0 0 0 0 0 0 0 0 0 0 0 0 0 0 0 0 0 0 0 0 0 0 0 0 0 0 0 0 0 0 0 0 0 0 0 0 0 0 0 0 0 0 0 0 0 0 0 0 0 0 0 0 0 0 0 0 0 0 0 0 0 0 0 0 0 0 0 0 0 0 0 0 
0 0 0 0 0 0 0 0 0 0 0 0 0 0 0.007661817595362663269 0.033201210200786590576 0.033201210200786590576 0.007661817595362663269 0 0 0 0 0 0 0 0 0 0 0 0 0 0 0 0 0 0 0 0 0 0 0 0 0 0 0 0 0 0 0 0 0 0 0 0 0 0 0 0 0 0 0 0 0 0 0 0 0 0 0 0 0 0 0 0 0.010215756483376026154 0.030647270381450653076 0.012769696302711963654 0.007661817595362663269 0.017877575010061264038 0.033201210200786590576 0.010215756483376026154 0 0 0 0 0 0 0 0 0 0 0 0 0 0 0 0 0 0 0 0 0 0 0 0 0 0 0 0 0 0 0 0 0 0 0 0 0 0 0 0 0 0 0 0 0 0 0 0 0 0 0 0 0 0 0 0 0 0 0 0 0 0 0 0 0 0 0 0 0 0 0 0 0 0 0 0 0 0 0 0 0 0 0 0 0 0 0 0 0 0 0 0 0 0 0 0 0 0 0 0 0 0 0 0 0 0 0 0 0 0 0 0 0 0 0 0 0 0 0 0 0 0 0 0 0 0 0 0 0 0 0 0 0 0 0 0 0 0 0 0 0 0 0 0 0 0 0 0 0 0 0 0 0 0 0 0 0 0 0 0 0 0 0 0 0 0 0 0 0 0 0 0 0 0 0 0 0 0 0 0 0 0 0 0 0 0 0 0 0 0 0 0 0 0 0 0 0 0 0 0 0 0 0.020431512966752052307 0.061294540762901306152 0.020431512966752052307 0 0 0 0 0 0 0 0 0 0 0 0 0 0 0 0 0 0 0 0 0 0 0 0 0 0 0 0 0 0 0 0 0 0 0 0 0 0.020431512966752052307 0.061294540762901306152 0.020431512966752052307 0 0 0 0 0.010215756483376026154 0.030647270381450653076 0.022985450923442840576 0.045970901846885681152 0.045970901846885681152 0.015323635190725326538 0.0025539391208440065384 0 0 0.068956352770328521729 0.85301566123962402344 2.0176119804382324219 0.67934781312942504883 0.017877573147416114807 0 0 0 0 0 0 0 0 0 0 0 0 0 0 0 0 0 0 0 0 0 0 0 0 0 0 0 0 0 0 0 0 0 0 0 0 0 0 0 0 0 0 0 0 0 0 0 0 0 0 0 0 0 0 0 0 0 0 0 0 0 0 0 0 0 0 0 0 0 0 0 0 0 0 0 0 0 0 0 0 0 0 0 0 0 0 0 0 0 0 0 0 0 0 0 0 0 0 0 0 0 0 0 0 0 0 0 0 0 0 0 0 0 0 0 0 0 0 0 0 0 0 0 0 0 0 0 
0 0 0 0 0 0 0 0 0 0 0 0 0 0 0.010215756483376026154 0.033201210200786590576 0.015323635190725326538 0.0025539391208440065384 0 0 0 0 0 0 0 0 0 0 0 0 0 0 0 0 0 0 0 0 0 0 0 0 0 0 0 0 0 0 0 0 0 0 0 0 0 0 0 0 0 0 0 0 0 0 0 0 0 0 0 0 0 0 0 0 0.010215756483376026154 0.033201210200786590576 0.022985450923442840576 0.033201210200786590576 0.035755150020122528076 0.030647270381450653076 0.007661817595362663269 0 0 0 0 0 0 0 0 0 0 0 0 0 0 0 0 0 0 0 0 0 0 0 0 0 0 0 0 0 0 0 0 0 0 0 0 0 0 0 0 0 0 0 0 0 0 0 0 0 0 0 0 0 0 0 0 0 0 0 0 0 0 0 0 0 0 0 0 0 0 0 0 0 0 0 0 0 0 0 0 0 0 0 0 0 0 0 0 0 0 0 0 0 0 0 0 0 0 0 0 0 0 0 0 0 0 0 0 0 0 0 0 0 0 0 0 0 0 0 0 0 0 0 0 0 0 0 0 0 0 0 0 0 0 0 0 0 0 0 0 0 0 0 0 0 0 0 0 0 0 0 0 0 0 0 0 0 0 0 0 0 0 0 0 0 0 0 0 0 0 0 0 0 0 0 0 0 0 0 0 0 0 0 0 0 0 0 0 0 0 0 0 0 0 0 0 0 0 0 0 0 0 0.020431512966752052307 0.061294540762901306152 0.020431512966752052307 0 0 0 0 0 0 0 0 0 0 0 0 0 0 0 0 0 0 0 0 0 0 0 0 0 0 0 0 0 0 0 0 0 0 0 0 0 0.020431512966752052307 0.063848480582237243652 0.025539392605423927307 0.0025539391208440065384 0 0 0 0.010215756483376026154 0.030647270381450653076 0.020431512966752052307 0.040863025933504104614 0.048524845391511917114 0.035755150020122528076 0.007661817595362663269 0 0 0.051078781485557556152 0.80193692445755004883 2.0763525962829589844 0.83258420228958129883 0.076618172228336334229 0.012769696302711963654 0.007661817595362663269 0.0025539391208440065384 0 0 0 0 0 0 0 0 0 0 0 0 0 0 0 0 0 0 0 0 0 0 0 0 0 0 0 0 0 0 0 0 0 0 0 0 0 0 0 0 0 0 0 0 0 0 0 0 0 0 0 0 0 0 0 0 0 0 0 0 0 0 0 0 0 0 0 0 0 0 0 0 0 0 0 0 0 0 0 0 0 0 0 0 0 0 0 0 0 0 0 0 0 0 0 0 0 0 0 0 0 0 0 0 0 0 0 0 0 0 0 0 0 0 0 0 0 0 0 0 0 0 0 0 
0 0 0 0 0 0 0 0 0 0 0 0 0 0 0.010215756483376026154 0.030647270381450653076 0.010215756483376026154 0 0 0 0 0 0 0 0 0 0 0 0 0 0 0 0 0 0 0 0 0 0 0 0 0 0 0 0 0 0 0 0 0 0 0 0 0 0 0 0 0 0 0 0 0 0 0 0 0 0 0 0 0 0 0 0 0 0.010215756483376026154 0.038309089839458465576 0.043416965752840042114 0.035755150020122528076 0.015323635190725326538 0.007661817595362663269 0.0025539391208440065384 0 0 0 0 0 0 0 0 0 0 0 0 0 0 0 0 0 0 0 0 0 0 0 0 0 0 0 0 0 0 0 0 0 0 0 0 0 0 0 0 0 0 0 0 0 0 0 0 0 0 0 0 0 0 0 0 0 0 0 0 0 0 0 0 0 0 0 0 0 0 0 0 0 0 0 0 0 0 0 0 0 0 0 0 0 0 0 0 0 0 0 0 0 0 0 0 0 0 0 0 0 0 0 0 0 0 0 0 0 0 0 0 0 0 0 0 0 0 0 0 0 0 0 0 0 0 0 0 0 0 0 0 0 0 0 0 0 0 0 0 0 0 0 0 0 0 0 0 0 0 0 0 0 0 0 0 0 0 0 0 0 0 0 0 0 0 0 0 0 0 0 0 0 0 0 0 0 0 0 0 0 0 0 0 0 0 0 0 0 0 0 0 0 0 0 0 0 0 0 0 0 0 0.020431512966752052307 0.061294540762901306152 0.020431512966752052307 0 0 0 0 0 0 0 0 0 0 0 0 0 0 0 0 0 0 0 0 0 0 0 0 0 0 0 0 0 0 0 0 0 0 0 0 0 0.017877575010061264038 0.063848480582237243652 0.043416965752840042114 0.007661817595362663269 0 0 0 0.010215756483376026154 0.030647270381450653076 0.017877575010061264038 0.035755150020122528076 0.048524845391511917114 0.040863025933504104614 0.010215756483376026154 0 0 0.033201210200786590576 0.70744115114212036133 2.0354895591735839844 1.1084095239639282227 0.24262420833110809326 0.061294540762901306152 0.033201210200786590576 0.007661817595362663269 0 0 0 0 0 0 0 0 0 0 0 0 0 0 0 0 0 0 0 0 0 0 0 0 0 0 0 0 0 0 0 0 0 0 0 0 0 0 0 0 0 0 0 0 0 0 0 0 0 0 0 0 0 0 0 0 0 0 0 0 0 0 0 0 0 0 0 0 0 0 0 0 0 0 0 0 0 0 0 0 0 0 0 0 0 0 0 0 0 0 0 0 0 0 0 0 0 0 0 0 0 0 0 0 0 0 0 0 0 0 0 0 0 0 0 0 0 0 0 0 0 0 0 0 
0 0 0 0 0 0 0 0 0 0 0 0 0 0.0025539391208440065384 0.015323635190725326538 0.033201210200786590576 0.010215756483376026154 0 0 0 0 0 0 0 0 0 0 0 0 0 0 0 0 0 0 0 0 0 0 0 0 0 0 0 0 0 0 0 0 0 0 0 0 0 0 0 0 0 0 0 0 0 0 0 0 0 0 0 0 0 0 0 0 0 0.010215756483376026154 0.040863025933504104614 0.043416965752840042114 0.015323635190725326538 0.0025539391208440065384 0 0 0 0 0 0 0 0 0 0 0 0 0 0 0 0 0 0 0 0 0 0 0 0 0 0 0 0 0 0 0 0 0 0 0 0 0 0 0 0 0 0 0 0 0 0 0 0 0 0 0 0 0 0 0 0 0 0 0 0 0 0 0 0 0 0 0 0 0 0 0 0 0 0 0 0 0 0 0 0 0 0 0 0 0 0 0 0 0 0 0 0 0 0 0 0 0 0 0 0 0 0 0 0 0 0 0 0 0 0 0 0 0 0 0 0 0 0 0 0 0 0 0 0 0 0 0 0 0 0 0 0 0 0 0 0 0 0 0 0 0 0 0 0 0 0 0 0 0 0 0 0 0 0 0 0 0 0 0 0 0 0 0 0 0 0 0 0 0 0 0 0 0 0 0 0 0 0 0 0 0 0 0 0 0 0 0 0 0 0 0 0 0 0 0 0 0 0 0 0 0 0 0 0 0.020431512966752052307 0.061294540762901306152 0.020431512966752052307 0 0 0 0 0 0 0 0 0 0 0 0 0 0 0 0 0 0 0 0 0 0 0 0 0 0 0 0 0 0 0 0 0 0 0 0 0 0.012769696302711963654 0.048524845391511917114 0.048524845391511917114 0.012769696302711963654 0 0 0 0.010215756483376026154 0.030647270381450653076 0.012769696302711963654 0.015323635190725326538 0.043416965752840042114 0.040863025933504104614 0.010215756483376026154 0 0 0.020431512966752052307 0.57974416017532348633 1.8669294118881225586 1.4353138208389282227 0.54143506288528442383 0.1506824195384979248 0.056186664849519729614 0.015323635190725326538 0.0025539391208440065384 0 0 0 0 0 0 0 0 0 0 0 0 0 0 0 0 0 0 0 0 0 0 0 0 0 0 0 0 0 0 0 0 0 0 0 0 0 0 0 0 0 0 0 0 0 0 0 0 0 0 0 0 0 0 0 0 0 0 0 0 0 0 0 0 0 0 0 0 0 0 0 0 0 0 0 0 0 0 0 0 0 0 0 0 0 0 0 0 0 0 0 0 0 0 0 0 0 0 0 0 0 0 0 0 0 0 0 0 0 0 0 0 0 0 0 0 0 0 0 0 0 0 0 
0 0 0 0 0 0 0 0 0 0 0 0 0 0.007661817595362663269 0.033201210200786590576 0.033201210200786590576 0.007661817595362663269 0 0 0 0 0 0 0 0 0 0 0 0 0 0 0 0 0 0 0 0 0 0 0 0 0 0 0 0 0 0 0 0 0 0 0 0 0 0 0 0 0 0 0 0 0 0 0 0 0 0 0 0 0 0 0 0 0.0025539391208440065384 0.017877575010061264038 0.048524845391511917114 0.043416965752840042114 0.010215756483376026154 0 0 0 0 0 0 0 0 0 0 0 0 0 0 0 0 0 0 0 0 0 0 0 0 0 0 0 0 0 0 0 0 0 0 0 0 0 0 0 0 0 0 0 0 0 0 0 0 0 0 0 0 0 0 0 0 0 0 0 0 0 0 0 0 0 0 0 0 0 0 0 0 0 0 0 0 0 0 0 0 0 0 0 0 0 0 0 0 0 0 0 0 0 0 0 0 0 0 0 0 0 0 0 0 0 0 0 0 0 0 0 0 0 0 0 0 0 0 0 0 0 0 0 0 0 0 0 0 0 0 0 0 0 0 0 0 0 0 0 0 0 0 0 0 0 0 0 0 0 0 0 0 0 0 0 0 0 0 0 0 0 0 0 0 0 0 0 0 0 0 0 0 0 0 0 0 0 0 0 0 0 0 0 0 0 0 0 0 0 0 0 0 0 0 0 0 0 0 0 0 0 0 0 0 0 0.020431512966752052307 0.061294540762901306152 0.020431512966752052307 0 0 0 0 0 0 0 0 0 0 0 0 0 0 0 0 0 0 0 0 0 0 0 0 0 0 0 0 0 0 0 0 0 0 0 0 0 0.007661817595362663269 0.043416965752840042114 0.063848480582237243652 0.017877575010061264038 0 0 0 0.010215756483376026154 0.030647270381450653076 0.010215756483376026154 0.010215756483376026154 0.040863025933504104614 0.040863025933504104614 0.010215756483376026154 0 0 0.012769696302711963654 0.41118422150611877441 1.5221476554870605469 1.6881536245346069336 0.93729561567306518555 0.37032118439674377441 0.1098193824291229248 0.038309089839458465576 0.007661817595362663269 0 0 0 0 0 0 0 0 0 0 0 0 0 0 0 0 0 0 0 0 0 0 0 0 0 0 0 0 0 0 0 0 0 0 0 0 0 0 0 0 0 0 0 0 0 0 0 0 0 0 0 0 0 0 0 0 0 0 0 0 0 0 0 0 0 0 0 0 0 0 0 0 0 0 0 0 0 0 0 0 0 0 0 0 0 0 0 0 0 0 0 0 0 0 0 0 0 0 0 0 0 0 0 0 0 0 0 0 0 0 0 0 0 0 0 0 0 0 0 0 0 0 0 
0 0 0 0 0 0 0 0 0 0 0 0 0 0.010215756483376026154 0.033201210200786590576 0.015323635190725326538 0.0025539391208440065384 0 0 0 0 0 0 0 0 0 0 0 0 0 0 0 0 0 0 0 0 0 0 0 0 0 0 0 0 0 0 0 0 0 0 0 0 0 0 0 0 0 0 0 0 0 0 0 0 0 0 0 0 0 0 0 0 0.007661817595362663269 0.040863025933504104614 0.066402420401573181152 0.040863025933504104614 0.007661817595362663269 0 0 0 0 0 0 0 0 0 0 0 0 0 0 0 0 0 0 0 0 0 0 0 0 0 0 0 0 0 0 0 0 0 0 0 0 0 0 0 0 0 0 0 0 0 0 0 0 0 0 0 0 0 0 0 0 0 0 0 0 0 0 0 0 0 0 0 0 0 0 0 0 0 0 0 0 0 0 0 0 0 0 0 0 0 0 0 0 0 0 0 0 0 0 0 0 0 0 0 0 0 0 0 0 0 0 0 0 0 0 0 0 0 0 0 0 0 0 0 0 0 0 0 0 0 0 0 0 0 0 0 0 0 0 0 0 0 0 0 0 0 0 0 0 0 0 0 0 0 0 0 0 0 0 0 0 0 0 0 0 0 0 0 0 0 0 0 0 0 0 0 0 0 0 0 0 0 0 0 0 0 0 0 0 0 0 0 0 0 0 0 0 0 0 0 0 0 0 0 0 0 0 0 0 0 0.020431512966752052307 0.061294540762901306152 0.020431512966752052307 0 0 0 0 0 0 0 0 0 0 0 0 0 0 0 0 0 0 0 0 0 0 0 0 0 0 0 0 0 0 0 0 0 0 0 0 0 0.0025539391208440065384 0.025539392605423927307 0.063848480582237243652 0.020431512966752052307 0 0 0 0.010215756483376026154 0.030647270381450653076 0.010215756483376026154 0.010215756483376026154 0.040863025933504104614 0.040863025933504104614 0.010215756483376026154 0 0 0.010215756483376026154 0.25028601288795471191 1.0139137506484985352 1.5859961509704589844 1.2182290554046630859 0.67934781312942504883 0.24262422323226928711 0.079172119498252868652 0.017877575010061264038 0 0 0 0 0 0 0 0 0 0 0 0 0 0 0 0 0 0 0 0 0 0 0 0 0 0 0 0 0 0 0 0 0 0 0 0 0 0 0 0 0 0 0 0 0 0 0 0 0 0 0 0 0 0 0 0 0 0 0 0 0 0 0 0 0 0 0 0 0 0 0 0 0 0 0 0 0 0 0 0 0 0 0 0 0 0 0 0 0 0 0 0 0 0 0 0 0 0 0 0 0 0 0 0 0 0 0 0 0 0 0 0 0 0 0 0 0 0 0 0 0 0 0 
0 0 0 0 0 0 0 0 0 0 0 0 0.0025539391208440065384 0.015323635190725326538 0.033201210200786590576 0.010215756483376026154 0 0 0 0 0 0 0 0 0 0 0 0 0 0 0 0 0 0 0 0 0 0 0 0 0 0 0 0 0 0 0 0 0 0 0 0 0 0 0 0 0 0 0 0 0 0 0 0 0 0 0 0 0 0 0 0 0.0025539391208440065384 0.017877575010061264038 0.051078785210847854614 0.051078785210847854614 0.017877575010061264038 0.0025539391208440065384 0 0 0 0 0 0 0 0 0 0 0 0 0 0 0 0 0 0 0 0 0 0 0 0 0 0 0 0 0 0 0 0 0 0 0 0 0 0 0 0 0 0 0 0 0 0 0 0 0 0 0 0 0 0 0 0 0 0 0 0 0 0 0 0 0 0 0 0 0 0 0 0 0 0 0 0 0 0 0 0 0 0 0 0 0 0 0 0 0 0 0 0 0 0 0 0 0 0 0 0 0 0 0 0 0 0 0 0 0 0 0 0 0 0 0 0 0 0 0 0 0 0 0 0 0 0 0 0 0 0 0 0 0 0 0 0 0 0 0 0 0 0 0 0 0 0 0 0 0 0 0 0 0 0 0 0 0 0 0 0 0 0 0 0 0 0 0 0 0 0 0 0 0 0 0 0 0 0 0 0 0 0 0 0 0 0 0 0 0 0 0 0 0 0 0 0 0 0 0 0 0 0 0 0 0 0.020431512966752052307 0.061294540762901306152 0.020431512966752052307 0 0 0 0 0 0 0 0 0 0 0 0 0 0 0 0 0 0 0 0 0 0 0 0 0 0 0 0 0 0 0 0 0 0 0 0 0 0 0.020431512966752052307 0.061294540762901306152 0.020431512966752052307 0 0 0 0.010215756483376026154 0.030647270381450653076 0.010215756483376026154 0.010215756483376026154 0.040863025933504104614 0.040863025933504104614 0.010215756483376026154 0 0 0.010215756483376026154 0.15068240463733673096 0.64359259605407714844 1.2718615531921386719 1.3433719873428344727 0.96538895368576049805 0.45460116863250732422 0.18132968246936798096 0.035755146294832229614 0 0 0 0 0 0 0 0 0 0 0 0 0 0 0 0 0 0 0 0 0 0 0 0 0 0 0 0 0 0 0 0 0 0 0 0 0 0 0 0 0 0 0 0 0 0 0 0 0 0 0 0 0 0 0 0 0 0 0 0 0 0 0 0 0 0 0 0 0 0 0 0 0 0 0 0 0 0 0 0 0 0 0 0 0 0 0 0 0 0 0 0 0 0 0 0 0 0 0 0 0 0 0 0 0 0 0 0 0 0 0 0 0 0 0 0 0 0 0 0 0 0 0 
0 0 0 0 0 0 0 0 0 0 0 0 0.007661817595362663269 0.033201210200786590576 0.033201210200786590576 0.007661817595362663269 0 0 0 0 0 0 0 0 0 0 0 0 0 0 0 0 0 0 0 0 0 0 0 0 0 0 0 0 0 0 0 0 0 0 0 0 0 0 0 0 0 0 0 0 0 0 0 0 0 0 0 0 0.0025539391208440065384 0.007661817595362663269 0.010215756483376026154 0.012769696302711963654 0.022985450923442840576 0.051078785210847854614 0.068956352770328521729 0.040863025933504104614 0.007661817595362663269 0 0 0 0 0 0 0 0 0 0 0 0 0 0 0 0 0 0 0 0 0 0 0 0 0 0 0 0 0 0 0 0 0 0 0 0 0 0 0 0 0 0 0 0 0 0 0 0 0 0 0 0 0 0 0 0 0 0 0 0 0 0 0 0 0 0 0 0 0 0 0 0 0 0 0 0 0 0 0 0 0 0 0 0 0 0 0 0 0 0 0 0 0 0 0 0 0 0 0 0 0 0 0 0 0 0 0 0 0 0 0 0 0 0 0 0 0 0 0 0 0 0 0 0 0 0 0 0 0 0 0 0 0 0 0 0 0 0 0 0 0 0 0 0 0 0 0 0 0 0 0 0 0 0 0 0 0 0 0 0 0 0 0 0 0 0 0 0 0 0 0 0 0 0 0 0 0 0 0 0 0 0 0 0 0 0 0 0 0 0 0 0 0 0 0 0 0 0 0 0 0 0 0 0 0 0 0.020431512966752052307 0.061294540762901306152 0.020431512966752052307 0 0 0 0 0 0 0 0 0 0 0 0 0 0 0 0 0 0 0 0 0 0 0 0 0 0 0 0 0 0 0 0 0 0 0 0 0 0 0.020431512966752052307 0.061294540762901306152 0.020431512966752052307 0 0 0 0.010215756483376026154 0.030647270381450653076 0.012769696302711963654 0.015323635190725326538 0.043416965752840042114 0.040863025933504104614 0.010215756483376026154 0 0 0.010215756483376026154 0.1098193824291229248 0.45204722881317138672 0.92452597618103027344 1.1901357173919677734 1.0266835689544677734 0.57208234071731567383 0.26560968160629272461 0.068956352770328521729 0.007661817595362663269 0 0 0 0 0 0 0 0 0 0 0 0 0 0 0 0 0 0 0 0 0 0 0 0 0 0 0 0 0 0 0 0 0 0 0 0 0 0 0 0 0 0 0 0 0 0 0 0 0 0 0 0 0 0 0 0 0 0 0 0 0 0 0 0 0 0 0 0 0 0 0 0 0 0 0 0 0 0 0 0 0 0 0 0 0 0 0 0 0 0 0 0 0 0 0 0 0 0 0 0 0 0 0 0 0 0 0 0 0 0 0 0 0 0 0 0 0 0 0 0 0 0 
0 0 0 0 0 0 0 0 0 0 0 0 0.010215756483376026154 0.033201210200786590576 0.015323635190725326538 0.0025539391208440065384 0 0 0 0 0 0 0 0 0 0 0 0 0 0 0 0 0 0 0 0 0 0 0 0 0 0 0 0 0 0 0 0 0 0 0 0 0 0 0 0 0 0 0 0 0 0 0 0 0 0 0 0.0051078782416880130768 0.020431512966752052307 0.043416965752840042114 0.043416965752840042114 0.045970901846885681152 0.066402420401573181152 0.068956352770328521729 0.045970901846885681152 0.015323635190725326538 0.0025539391208440065384 0 0 0 0 0 0 0 0 0 0 0 0 0 0 0 0 0 0 0 0 0 0 0 0 0 0 0 0 0 0 0 0 0 0 0 0 0 0 0 0 0 0 0 0 0 0 0 0 0 0 0 0 0 0 0 0 0 0 0 0 0 0 0 0 0 0 0 0 0 0 0 0 0 0 0 0 0 0 0 0 0 0 0 0 0 0 0 0 0 0 0 0 0 0 0 0 0 0 0 0 0 0 0 0 0 0 0 0 0 0 0 0 0 0 0 0 0 0 0 0 0 0 0 0 0 0 0 0 0 0 0 0 0 0 0 0 0 0 0 0 0 0 0 0 0 0 0 0 0 0 0 0 0 0 0 0 0 0 0 0 0 0 0 0 0 0 0 0 0 0 0 0 0 0 0 0 0 0 0 0 0 0 0 0 0 0 0 0 0 0 0 0 0 0 0 0 0 0 0 0 0 0 0 0 0 0 0.020431512966752052307 0.061294540762901306152 0.020431512966752052307 0 0 0 0 0 0 0 0 0 0 0 0 0 0 0 0 0 0 0 0 0 0 0 0 0 0 0 0 0 0 0 0 0 0 0 0 0 0 0.020431512966752052307 0.061294540762901306152 0.020431512966752052307 0 0 0 0.010215756483376026154 0.030647270381450653076 0.017877575010061264038 0.033201210200786590576 0.043416965752840042114 0.038309089839458465576 0.010215756483376026154 0 0 0.010215756483376026154 0.086833931505680084229 0.31924235820770263672 0.73042660951614379883 1.1058557033538818359 1.1109634637832641602 0.69211751222610473633 0.35244360566139221191 0.1506824195384979248 0.028093330562114715576 0 0 0 0 0 0 0 0 0 0 0 0 0 0 0 0 0 0 0 0 0 0 0 0 0 0 0 0 0 0 0 0 0 0 0 0 0 0 0 0 0 0 0 0 0 0 0 0 0 0 0 0 0 0 0 0 0 0 0 0 0 0 0 0 0 0 0 0 0 0 0 0 0 0 0 0 0 0 0 0 0 0 0 0 0 0 0 0 0 0 0 0 0 0 0 0 0 0 0 0 0 0 0 0 0 0 0 0 0 0 0 0 0 0 0 0 0 0 0 0 0 0 
0 0 0 0 0 0 0 0 0 0 0 0 0.010215756483376026154 0.030647270381450653076 0.010215756483376026154 0 0 0 0 0 0 0 0 0 0 0 0 0 0 0 0 0 0 0 0 0 0 0 0 0 0 0 0 0 0 0 0 0 0 0 0 0 0 0 0 0 0 0 0 0 0 0 0 0 0 0.0025539391208440065384 0.007661817595362663269 0.022985450923442840576 0.066402420401573181152 0.068956352770328521729 0.045970901846885681152 0.043416965752840042114 0.043416965752840042114 0.022985450923442840576 0.010215756483376026154 0.0025539391208440065384 0 0 0 0 0 0 0 0 0 0 0 0 0 0 0 0 0 0 0 0 0 0 0 0 0 0 0 0 0 0 0 0 0 0 0 0 0 0 0 0 0 0 0 0 0 0 0 0 0 0 0 0 0 0 0 0 0 0 0 0 0 0 0 0 0 0 0 0 0 0 0 0 0 0 0 0 0 0 0 0 0 0 0 0 0 0 0 0 0 0 0 0 0 0 0 0 0 0 0 0 0 0 0 0 0 0 0 0 0 0 0 0 0 0 0 0 0 0 0 0 0 0 0 0 0 0 0 0 0 0 0 0 0 0 0 0 0 0 0 0 0 0 0 0 0 0 0 0 0 0 0 0 0 0 0 0 0 0 0 0 0 0 0 0 0 0 0 0 0 0 0 0 0 0 0 0 0 0 0 0 0 0 0 0 0 0 0 0 0 0 0 0 0 0 0 0 0 0 0 0 0 0 0 0 0 0 0 0.020431512966752052307 0.061294540762901306152 0.020431512966752052307 0 0 0 0 0 0 0 0 0 0 0 0 0 0 0 0 0 0 0 0 0 0 0 0 0 0 0 0 0 0 0 0 0 0 0 0 0 0 0.020431512966752052307 0.061294540762901306152 0.020431512966752052307 0 0 0 0.010215756483376026154 0.033201210200786590576 0.025539392605423927307 0.035755150020122528076 0.025539392605423927307 0.033201210200786590576 0.010215756483376026154 0 0 0.010215756483376026154 0.071510292589664459229 0.23240846395492553711 0.58485203981399536133 1.0701005458831787109 1.1594884395599365234 0.76362776756286621094 0.38053691387176513672 0.21708482503890991211 0.06129453703761100769 0.0051078782416880130768 0 0 0 0 0 0 0 0 0 0 0 0 0 0 0 0 0 0 0 0 0 0 0 0 0 0 0 0 0 0 0 0 0 0 0 0 0 0 0 0 0 0 0 0 0 0 0 0 0 0 0 0 0 0 0 0 0 0 0 0 0 0 0 0 0 0 0 0 0 0 0 0 0 0 0 0 0 0 0 0 0 0 0 0 0 0 0 0 0 0 0 0 0 0 0 0 0 0 0 0 0 0 0 0 0 0 0 0 0 0 0 0 0 0 0 0 0 0 0 0 0 
0 0 0 0 0 0 0 0 0 0 0 0 0.010215756483376026154 0.030647270381450653076 0.010215756483376026154 0 0 0 0 0 0 0 0 0 0 0 0 0 0 0 0 0 0 0 0 0 0 0 0 0 0 0 0 0 0 0 0 0 0 0 0 0 0 0 0 0 0 0 0 0 0 0 0 0.0025539391208440065384 0.010215756483376026154 0.022985450923442840576 0.043416965752840042114 0.053632721304893493652 0.068956352770328521729 0.030647270381450653076 0.012769696302711963654 0.010215756483376026154 0.007661817595362663269 0.0025539391208440065384 0 0 0 0 0 0 0 0 0 0 0 0 0 0 0 0 0 0 0 0 0 0 0 0 0 0 0 0 0 0 0 0 0 0 0 0 0 0 0 0 0 0 0 0 0 0 0 0 0 0 0 0 0 0 0 0 0 0 0 0 0 0 0 0 0 0 0 0 0 0 0 0 0 0 0 0 0 0 0 0 0 0 0 0 0 0 0 0 0 0 0 0 0 0 0 0 0 0 0 0 0 0 0 0 0 0 0 0 0 0 0 0 0 0 0 0 0 0 0 0 0 0 0 0 0 0 0 0 0 0 0 0 0 0 0 0 0 0 0 0 0 0 0 0 0 0 0 0 0 0 0 0 0 0 0 0 0 0 0 0 0 0 0 0 0 0 0 0 0 0 0 0 0 0 0 0 0 0 0 0 0 0 0 0 0 0 0 0 0 0 0 0 0 0 0 0 0 0 0 0 0 0 0 0 0 0 0 0 0 0.020431512966752052307 0.061294540762901306152 0.020431512966752052307 0 0 0 0 0 0 0 0 0 0 0 0 0 0 0 0 0 0 0 0 0 0 0 0 0 0 0 0 0 0 0 0 0 0 0 0 0 0 0.020431512966752052307 0.061294540762901306152 0.020431512966752052307 0 0 0 0.010215756483376026154 0.038309089839458465576 0.043416965752840042114 0.035755150020122528076 0.022985450923442840576 0.033201210200786590576 0.010215756483376026154 0 0 0.010215756483376026154 0.061294540762901306152 0.1532363593578338623 0.36776721477508544922 0.92963385581970214844 1.1977975368499755859 0.87344717979431152344 0.39075270295143127441 0.26560968160629272461 0.1276969611644744873 0.033201210200786590576 0.010215756483376026154 0.0025539391208440065384 0 0 0 0 0 0 0 0 0 0 0 0 0 0 0 0 0 0 0 0 0 0 0 0 0 0 0 0 0 0 0 0 0 0 0 0 0 0 0 0 0 0 0 0 0 0 0 0 0 0 0 0 0 0 0 0 0 0 0 0 0 0 0 0 0 0 0 0 0 0 0 0 0 0 0 0 0 0 0 0 0 0 0 0 0 0 0 0 0 0 0 0 0 0 0 0 0 0 0 0 0 0 0 0 0 0 0 0 0 0 0 0 0 0 0 0 0 0 0 
0 0 0 0 0 0 0 0 0 0 0 0 0.010215756483376026154 0.030647270381450653076 0.010215756483376026154 0 0 0 0 0 0 0 0 0 0 0 0 0 0 0 0 0 0 0 0 0 0 0 0 0 0 0 0 0 0 0 0 0 0 0 0 0 0 0 0 0 0 0 0 0 0 0.0025539391208440065384 0.007661817595362663269 0.017877575010061264038 0.045970901846885681152 0.068956352770328521729 0.066402420401573181152 0.048524845391511917114 0.038309089839458465576 0.010215756483376026154 0 0 0 0 0 0 0 0 0 0 0 0 0 0 0 0 0 0 0 0 0 0 0 0 0 0 0 0 0 0 0 0 0 0 0 0 0 0 0 0 0 0 0 0 0 0 0 0 0 0 0 0 0 0 0 0 0 0 0 0 0 0 0 0 0 0 0 0 0 0 0 0 0 0 0 0 0 0 0 0 0 0 0 0 0 0 0 0 0 0 0 0 0 0 0 0 0 0 0 0 0 0 0 0 0 0 0 0 0 0 0 0 0 0 0 0 0 0 0 0 0 0 0 0 0 0 0 0 0 0 0 0 0 0 0 0 0 0 0 0 0 0 0 0 0 0 0 0 0 0 0 0 0 0 0 0 0 0 0 0 0 0 0 0 0 0 0 0 0 0 0 0 0 0 0 0 0 0 0 0 0 0 0 0 0 0 0 0 0 0 0 0 0 0 0 0 0 0 0 0 0 0 0 0 0 0 0 0 0 0 0 0 0 0.020431512966752052307 0.061294540762901306152 0.020431512966752052307 0 0 0 0 0 0 0 0 0 0 0 0 0 0 0 0 0 0 0 0 0 0 0 0 0 0 0 0 0 0 0 0 0 0 0 0 0 0 0.020431512966752052307 0.063848480582237243652 0.025539392605423927307 0.0025539391208440065384 0 0 0.010215756483376026154 0.040863025933504104614 0.043416965752840042114 0.022985450923442840576 0.035755150020122528076 0.033201210200786590576 0.007661817595362663269 0 0 0.010215756483376026154 0.051078785210847854614 0.099603630602359771729 0.27071753144264221191 0.76873570680618286133 1.1365028619766235352 0.98837447166442871094 0.47503268718719482422 0.27327147126197814941 0.18643754720687866211 0.094495750963687896729 0.040863025933504104614 0.007661817595362663269 0 0 0 0 0 0 0 0 0 0 0 0 0 0 0 0 0 0 0 0 0 0 0 0 0 0 0 0 0 0 0 0 0 0 0 0 0 0 0 0 0 0 0 0 0 0 0 0 0 0 0 0 0 0 0 0 0 0 0 0 0 0 0 0 0 0 0 0 0 0 0 0 0 0 0 0 0 0 0 0 0 0 0 0 0 0 0 0 0 0 0 0 0 0 0 0 0 0 0 0 0 0 0 0 0 0 0 0 0 0 0 0 0 0 0 0 0 0 0 
0 0 0 0 0 0 0 0 0 0 0 0 0.010215756483376026154 0.030647270381450653076 0.010215756483376026154 0 0 0 0 0 0 0 0 0 0 0 0 0 0 0 0 0 0 0 0 0 0 0 0 0 0 0 0 0 0 0 0 0 0 0 0 0 0 0 0 0 0 0 0 0 0 0.007661817595362663269 0.033201210200786590576 0.048524845391511917114 0.068956352770328521729 0.051078785210847854614 0.022985450923442840576 0.012769696302711963654 0.007661817595362663269 0.0025539391208440065384 0 0 0 0 0 0 0 0 0 0 0 0 0 0 0 0 0 0 0 0 0 0 0 0 0 0 0 0 0 0 0 0 0 0 0 0 0 0 0 0 0 0 0 0 0 0 0 0 0 0 0 0 0 0 0 0 0 0 0 0 0 0 0 0 0 0 0 0 0 0 0 0 0 0 0 0 0 0 0 0 0 0 0 0 0 0 0 0 0 0 0 0 0 0 0 0 0 0 0 0 0 0 0 0 0 0 0 0 0 0 0 0 0 0 0 0 0 0 0 0 0 0 0 0 0 0 0 0 0 0 0 0 0 0 0 0 0 0 0 0 0 0 0 0 0 0 0 0 0 0 0 0 0 0 0 0 0 0 0 0 0 0 0 0 0 0 0 0 0 0 0 0 0 0 0 0 0 0 0 0 0 0 0 0 0 0 0 0 0 0 0 0 0 0 0 0 0 0 0 0 0 0 0 0 0 0 0 0 0 0 0 0 0 0.020431512966752052307 0.061294540762901306152 0.020431512966752052307 0 0 0 0 0 0 0 0 0 0 0 0 0 0 0 0 0 0 0 0 0 0 0 0 0 0 0 0 0 0 0 0 0 0 0 0 0 0 0.017877575010061264038 0.066402420401573181152 0.048524845391511917114 0.010215756483376026154 0 0 0.010215756483376026154 0.040863025933504104614 0.040863025933504104614 0.020431512966752052307 0.033201210200786590576 0.015323635190725326538 0.0025539391208440065384 0 0 0.010215756483376026154 0.043416965752840042114 0.068956352770328521729 0.20942300558090209961 0.62826907634735107422 1.0036981105804443359 0.96794295310974121094 0.58995991945266723633 0.32179632782936096191 0.20176120102405548096 0.11237332969903945923 0.053632721304893493652 0.015323635190725326538 0.0025539391208440065384 0 0 0 0 0 0 0 0 0 0 0 0 0 0 0 0 0 0 0 0 0 0 0 0 0 0 0 0 0 0 0 0 0 0 0 0 0 0 0 0 0 0 0 0 0 0 0 0 0 0 0 0 0 0 0 0 0 0 0 0 0 0 0 0 0 0 0 0 0 0 0 0 0 0 0 0 0 0 0 0 0 0 0 0 0 0 0 0 0 0 0 0 0 0 0 0 0 0 0 0 0 0 0 0 0 0 0 0 0 0 0 0 0 0 0 0 0 0 
0 0 0 0 0 0 0 0 0 0 0 0 0.010215756483376026154 0.030647270381450653076 0.010215756483376026154 0 0 0 0 0 0 0 0 0 0 0 0 0 0 0 0 0 0 0 0 0 0 0 0 0 0 0 0 0 0 0 0 0 0 0 0 0 0 0 0 0 0 0 0 0 0 0.012769696302711963654 0.045970901846885681152 0.053632721304893493652 0.043416965752840042114 0.015323635190725326538 0.0025539391208440065384 0 0 0 0 0 0 0 0 0 0 0 0 0 0 0 0 0 0 0 0 0 0 0 0 0 0 0 0 0 0 0 0 0 0 0 0 0 0 0 0 0 0 0 0 0 0 0 0 0 0 0 0 0 0 0 0 0 0 0 0 0 0 0 0 0 0 0 0 0 0 0 0 0 0 0 0 0 0 0 0 0 0 0 0 0 0 0 0 0 0 0 0 0 0 0 0 0 0 0 0 0 0 0 0 0 0 0 0 0 0 0 0 0 0 0 0 0 0 0 0 0 0 0 0 0 0 0 0 0 0 0 0 0 0 0 0 0 0 0 0 0 0 0 0 0 0 0 0 0 0 0 0 0 0 0 0 0 0 0 0 0 0 0 0 0 0 0 0 0 0 0 0 0 0 0 0 0 0 0 0 0 0 0 0 0 0 0 0 0 0 0 0 0 0 0 0 0 0 0 0 0 0 0 0 0 0 0 0 0 0 0 0 0 0 0 0 0.020431512966752052307 0.061294540762901306152 0.020431512966752052307 0 0 0 0 0 0 0 0 0 0 0 0 0 0 0 0 0 0 0 0 0 0 0 0 0 0 0 0 0 0 0 0 0 0 0 0 0 0 0.010215756483376026154 0.048524845391511917114 0.068956352770328521729 0.022985450923442840576 0.0025539391208440065384 0 0.010215756483376026154 0.040863025933504104614 0.040863025933504104614 0.020431512966752052307 0.030647270381450653076 0.010215756483376026154 0 0 0 0.010215756483376026154 0.040863025933504104614 0.061294540762901306152 0.18388360738754272461 0.55931264162063598633 0.91686415672302246094 0.91431021690368652344 0.63848477602005004883 0.36776721477508544922 0.22219270467758178711 0.1251430213451385498 0.066402420401573181152 0.040863025933504104614 0.010215756483376026154 0 0 0 0 0 0 0 0 0 0 0 0 0 0 0 0 0 0 0 0 0 0 0 0 0 0 0 0 0 0 0 0 0 0 0 0 0 0 0 0 0 0 0 0 0 0 0 0 0 0 0 0 0 0 0 0 0 0 0 0 0 0 0 0 0 0 0 0 0 0 0 0 0 0 0 0 0 0 0 0 0 0 0 0 0 0 0 0 0 0 0 0 0 0 0 0 0 0 0 0 0 0 0 0 0 0 0 0 0 0 0 0 0 0 0 0 0 0 
0 0 0 0 0 0 0 0 0 0 0 0 0.010215756483376026154 0.030647270381450653076 0.010215756483376026154 0 0 0 0 0 0 0 0 0 0 0 0 0 0 0 0 0 0 0 0 0 0 0 0 0 0 0 0 0 0 0 0 0 0 0 0 0 0 0 0 0 0 0 0 0.0025539391208440065384 0.007661817595362663269 0.025539392605423927307 0.066402420401573181152 0.045970901846885681152 0.012769696302711963654 0.0025539391208440065384 0 0 0 0 0 0 0 0 0 0 0 0 0 0 0 0 0 0 0 0 0 0 0 0 0 0 0 0 0 0 0 0 0 0 0 0 0 0 0 0 0 0 0 0 0 0 0 0 0 0 0 0 0 0 0 0 0 0 0 0 0 0 0 0 0 0 0 0 0 0 0 0 0 0 0 0 0 0 0 0 0 0 0 0 0 0 0 0 0 0 0 0 0 0 0 0 0 0 0 0 0 0 0 0 0 0 0 0 0 0 0 0 0 0 0 0 0 0 0 0 0 0 0 0 0 0 0 0 0 0 0 0 0 0 0 0 0 0 0 0 0 0 0 0 0 0 0 0 0 0 0 0 0 0 0 0 0 0 0 0 0 0 0 0 0 0 0 0 0 0 0 0 0 0 0 0 0 0 0 0 0 0 0 0 0 0 0 0 0 0 0 0 0 0 0 0 0 0 0 0 0 0 0 0 0 0 0 0 0 0 0 0 0 0 0 0 0 0.020431512966752052307 0.061294540762901306152 0.020431512966752052307 0 0 0 0 0 0 0 0 0 0 0 0 0 0 0 0 0 0 0 0 0 0 0 0 0 0 0 0 0 0 0 0 0 0 0 0 0 0 0.0025539391208440065384 0.022985450923442840576 0.068956352770328521729 0.048524845391511917114 0.010215756483376026154 0 0.010215756483376026154 0.040863025933504104614 0.040863025933504104614 0.020431512966752052307 0.030647270381450653076 0.010215756483376026154 0 0 0 0.010215756483376026154 0.040863025933504104614 0.061294540762901306152 0.17366786301136016846 0.50823384523391723633 0.82492232322692871094 0.84535384178161621094 0.65891629457473754883 0.43416965007781982422 0.26305574178695678711 0.16855998337268829346 0.084279991686344146729 0.071510300040245056152 0.028093332424759864807 0.0051078782416880130768 0 0 0 0 0 0 0 0 0 0 0 0 0 0 0 0 0 0 0 0 0 0 0 0 0 0 0 0 0 0 0 0 0 0 0 0 0 0 0 0 0 0 0 0 0 0 0 0 0 0 0 0 0 0 0 0 0 0 0 0 0 0 0 0 0 0 0 0 0 0 0 0 0 0 0 0 0 0 0 0 0 0 0 0 0 0 0 0 0 0 0 0 0 0 0 0 0 0 0 0 0 0 0 0 0 0 0 0 0 0 0 0 0 0 0 0 0 
0 0 0 0 0 0 0 0 0 0 0 0 0.010215756483376026154 0.030647270381450653076 0.010215756483376026154 0 0 0 0 0 0 0 0 0 0 0 0 0 0 0 0 0 0 0 0 0 0 0 0 0 0 0 0 0 0 0 0 0 0 0 0 0 0 0 0 0 0 0 0 0.007661817595362663269 0.033201210200786590576 0.051078785210847854614 0.066402420401573181152 0.022985450923442840576 0.0025539391208440065384 0 0 0 0 0 0 0 0 0 0 0 0 0 0 0 0 0 0 0 0 0 0 0 0 0 0 0 0 0 0 0 0 0 0 0 0 0 0 0 0 0 0 0 0 0 0 0 0 0 0 0 0 0 0 0 0 0 0 0 0 0 0 0 0 0 0 0 0 0 0 0 0 0 0 0 0 0 0 0 0 0 0 0 0 0 0 0 0 0 0 0 0 0 0 0 0 0 0 0 0 0 0 0 0 0 0 0 0 0 0 0 0 0 0 0 0 0 0 0 0 0 0 0 0 0 0 0 0 0 0 0 0 0 0 0 0 0 0 0 0 0 0 0 0 0 0 0 0 0 0 0 0 0 0 0 0 0 0 0 0 0 0 0 0 0 0 0 0 0 0 0 0 0 0 0 0 0 0 0 0 0 0 0 0 0 0 0 0 0 0 0 0 0 0 0 0 0 0 0 0 0 0 0 0 0 0 0 0 0 0 0 0 0 0 0 0 0 0 0.020431512966752052307 0.061294540762901306152 0.020431512966752052307 0 0 0 0 0 0 0 0 0 0 0 0 0 0 0 0 0 0 0 0 0 0 0 0 0 0 0 0 0 0 0 0 0 0 0 0 0 0 0 0.010215756483376026154 0.048524845391511917114 0.066402420401573181152 0.020431512966752052307 0.007661817595362663269 0.017877575010061264038 0.043416965752840042114 0.040863025933504104614 0.020431512966752052307 0.030647270381450653076 0.010215756483376026154 0 0 0 0.010215756483376026154 0.043416965752840042114 0.066402420401573181152 0.17111392319202423096 0.46737083792686462402 0.73042660951614379883 0.73042660951614379883 0.56952840089797973633 0.42395389080047607422 0.25539392232894897461 0.17111392319202423096 0.084279991686344146729 0.076618179678916931152 0.066402420401573181152 0.015323635190725326538 0 0 0 0 0 0 0 0 0 0 0 0 0 0 0 0 0 0 0 0 0 0 0 0 0 0 0 0 0 0 0 0 0 0 0 0 0 0 0 0 0 0 0 0 0 0 0 0 0 0 0 0 0 0 0 0 0 0 0 0 0 0 0 0 0 0 0 0 0 0 0 0 0 0 0 0 0 0 0 0 0 0 0 0 0 0 0 0 0 0 0 0 0 0 0 0 0 0 0 0 0 0 0 0 0 0 0 0 0 0 0 0 0 0 0 0 0 
0 0 0 0 0 0 0 0 0 0 0 0 0.010215756483376026154 0.030647270381450653076 0.010215756483376026154 0 0 0 0 0 0 0 0 0 0 0 0 0 0 0 0 0 0 0 0 0 0 0 0 0 0 0 0 0 0 0 0 0 0 0 0 0 0 0 0 0 0 0 0.0025539391208440065384 0.017877575010061264038 0.048524845391511917114 0.053632721304893493652 0.040863025933504104614 0.010215756483376026154 0 0 0 0 0 0 0 0 0 0 0 0 0 0 0 0 0 0 0 0 0 0 0 0 0 0 0 0 0 0 0 0 0 0 0 0 0 0 0 0 0 0 0 0 0 0 0 0 0 0 0 0 0 0 0 0 0 0 0 0 0 0 0 0 0 0 0 0 0 0 0 0 0 0 0 0 0 0 0 0 0 0 0 0 0 0 0 0 0 0 0 0 0 0 0 0 0 0 0 0 0 0 0 0 0 0 0 0 0 0 0 0 0 0 0 0 0 0 0 0 0 0 0 0 0 0 0 0 0 0 0 0 0 0 0 0 0 0 0 0 0 0 0 0 0 0 0 0 0 0 0 0 0 0 0 0 0 0 0 0 0 0 0 0 0 0 0 0 0 0 0 0 0 0 0 0 0 0 0 0 0 0 0 0 0 0 0 0 0 0 0 0 0 0 0 0 0 0 0 0 0 0 0 0 0 0 0 0 0 0 0 0 0 0 0 0 0 0 0 0.020431512966752052307 0.061294540762901306152 0.020431512966752052307 0 0 0 0 0 0 0 0 0 0 0 0 0 0 0 0 0 0 0 0 0 0 0 0 0 0 0 0 0 0 0 0 0 0 0 0 0 0 0 0.0025539391208440065384 0.025539392605423927307 0.063848480582237243652 0.028093332424759864807 0.030647270381450653076 0.038309089839458465576 0.045970901846885681152 0.040863025933504104614 0.020431512966752052307 0.030647270381450653076 0.010215756483376026154 0 0 0 0.007661817595362663269 0.043416965752840042114 0.081726051867008209229 0.17622180283069610596 0.48014053702354431152 0.73042660951614379883 0.74064230918884277344 0.52611148357391357422 0.38053691387176513672 0.23751634359359741211 0.1506824195384979248 0.076618179678916931152 0.048524845391511917114 0.068956352770328521729 0.020431512966752052307 0 0 0 0 0 0 0 0 0 0 0 0 0 0 0 0 0 0 0 0 0 0 0 0 0 0 0 0 0 0 0 0 0 0 0 0 0 0 0 0 0 0 0 0 0 0 0 0 0 0 0 0 0 0 0 0 0 0 0 0 0 0 0 0 0 0 0 0 0 0 0 0 0 0 0 0 0 0 0 0 0 0 0 0 0 0 0 0 0 0 0 0 0 0 0 0 0 0 0 0 0 0 0 0 0 0 0 0 0 0 0 0 0 0 0 0 0 
0 0 0 0 0 0 0 0 0 0 0 0.0025539391208440065384 0.015323635190725326538 0.033201210200786590576 0.010215756483376026154 0 0 0 0 0 0 0 0 0 0 0 0 0 0 0 0 0 0 0 0 0 0 0 0 0 0 0 0 0 0 0 0 0 0 0 0 0 0 0 0 0 0.0025539391208440065384 0.007661817595362663269 0.015323635190725326538 0.043416965752840042114 0.066402420401573181152 0.043416965752840042114 0.012769696302711963654 0.0025539391208440065384 0 0 0 0 0 0 0 0 0 0 0 0 0 0 0 0 0 0 0 0 0 0 0 0 0 0 0 0 0 0 0 0 0 0 0 0 0 0 0 0 0 0 0 0 0 0 0 0 0 0 0 0 0 0 0 0 0 0 0 0 0 0 0 0 0 0 0 0 0 0 0 0 0 0 0 0 0 0 0 0 0 0 0 0 0 0 0 0 0 0 0 0 0 0 0 0 0 0 0 0 0 0 0 0 0 0 0 0 0 0 0 0 0 0 0 0 0 0 0 0 0 0 0 0 0 0 0 0 0 0 0 0 0 0 0 0 0 0 0 0 0 0 0 0 0 0 0 0 0 0 0 0 0 0 0 0 0 0 0 0 0 0 0 0 0 0 0 0 0 0 0 0 0 0 0 0 0 0 0 0 0 0 0 0 0 0 0 0 0 0 0 0 0 0 0 0 0 0 0 0 0 0 0 0 0 0 0 0 0 0 0 0 0 0 0 0 0 0 0 0.020431512966752052307 0.061294540762901306152 0.020431512966752052307 0 0 0 0 0 0 0 0 0 0 0 0 0 0 0 0 0 0 0 0 0 0 0 0 0 0 0 0 0 0 0 0 0 0 0 0 0 0 0 0 0.020431512966752052307 0.063848480582237243652 0.035755150020122528076 0.035755150020122528076 0.025539392605423927307 0.040863025933504104614 0.035755150020122528076 0.017877575010061264038 0.030647270381450653076 0.010215756483376026154 0 0 0 0.0025539391208440065384 0.025539392605423927307 0.074064239859580993652 0.16089816391468048096 0.51589572429656982422 0.80704480409622192383 0.81981450319290161133 0.52611148357391357422 0.33967390656471252441 0.22219270467758178711 0.1532363593578338623 0.1047115027904510498 0.079172119498252868652 0.081726051867008209229 0.028093332424759864807 0.0025539391208440065384 0 0 0 0 0 0 0 0 0 0 0 0 0 0 0 0 0 0 0 0 0 0 0 0 0 0 0 0 0 0 0 0 0 0 0 0 0 0 0 0 0 0 0 0 0 0 0 0 0 0 0 0 0 0 0 0 0 0 0 0 0 0 0 0 0 0 0 0 0 0 0 0 0 0 0 0 0 0 0 0 0 0 0 0 0 0 0 0 0 0 0 0 0 0 0 0 0 0 0 0 0 0 0 0 0 0 0 0 0 0 0 0 0 0 0 0 
0 0 0 0 0 0 0 0 0 0.0025539391208440065384 0.007661817595362663269 0.015323635190725326538 0.035755150020122528076 0.033201210200786590576 0.007661817595362663269 0 0 0 0 0 0 0 0 0 0 0 0 0 0 0 0 0 0 0 0 0 0 0 0 0 0 0 0 0 0 0 0 0 0 0 0 0 0 0 0 0 0.007661817595362663269 0.033201210200786590576 0.043416965752840042114 0.051078785210847854614 0.048524845391511917114 0.017877575010061264038 0.0025539391208440065384 0 0 0 0 0 0 0 0 0 0 0 0 0 0 0 0 0 0 0 0 0 0 0 0 0 0 0 0 0 0 0 0 0 0 0 0 0 0 0 0 0 0 0 0 0 0 0 0 0 0 0 0 0 0 0 0 0 0 0 0 0 0 0 0 0 0 0 0 0 0 0 0 0 0 0 0 0 0 0 0 0 0 0 0 0 0 0 0 0 0 0 0 0 0 0 0 0 0 0 0 0 0 0 0 0 0 0 0 0 0 0 0 0 0 0 0 0 0 0 0 0 0 0 0 0 0 0 0 0 0 0 0 0 0 0 0 0 0 0 0 0 0 0 0 0 0 0 0 0 0 0 0 0 0 0 0 0 0 0 0 0 0 0 0 0 0 0 0 0 0 0 0 0 0 0 0 0 0 0 0 0 0 0 0 0 0 0 0 0 0 0 0 0 0 0 0 0 0 0 0 0 0 0 0 0 0 0 0 0 0 0 0 0 0 0 0 0 0 0 0 0.020431512966752052307 0.061294540762901306152 0.020431512966752052307 0 0 0 0 0 0 0 0 0 0 0 0 0 0 0 0 0 0 0 0 0 0 0 0 0 0 0 0 0 0 0 0 0 0 0 0 0 0 0 0 0.017877575010061264038 0.066402420401573181152 0.058740600943565368652 0.040863025933504104614 0.020431512966752052307 0.033201210200786590576 0.015323635190725326538 0.012769696302711963654 0.030647270381450653076 0.010215756483376026154 0 0 0 0 0.020431512966752052307 0.066402420401573181152 0.13535876572132110596 0.53377330303192138672 0.93729561567306518555 0.90664839744567871094 0.49291026592254638672 0.27327147126197814941 0.19920726120471954346 0.1506824195384979248 0.1328048408031463623 0.1276969611644744873 0.11492726951837539673 0.056186664849519729614 0.010215756483376026154 0 0 0 0 0 0 0 0 0 0 0 0 0 0 0 0 0 0 0 0 0 0 0 0 0 0 0 0 0 0 0 0 0 0 0 0 0 0 0 0 0 0 0 0 0 0 0 0 0 0 0 0 0 0 0 0 0 0 0 0 0 0 0 0 0 0 0 0 0 0 0 0 0 0 0 0 0 0 0 0 0 0 0 0 0 0 0 0 0 0 0 0 0 0 0 0 0 0 0 0 0 0 0 0 0 0 0 0 0 0 0 0 0 0 0 0 
0 0 0 0 0 0 0 0 0 0.007661817595362663269 0.030647270381450653076 0.035755150020122528076 0.033201210200786590576 0.012769696302711963654 0.0025539391208440065384 0 0 0 0 0 0 0 0 0 0 0 0 0 0 0 0 0 0 0 0 0 0 0 0 0 0 0 0 0 0 0 0 0 0 0 0 0 0 0 0 0 0.010215756483376026154 0.040863025933504104614 0.048524845391511917114 0.043416965752840042114 0.033201210200786590576 0.007661817595362663269 0 0 0 0 0 0 0 0 0 0 0 0 0 0 0 0 0 0 0 0 0 0 0 0 0 0 0 0 0 0 0 0 0 0 0 0 0 0 0 0 0 0 0 0 0 0 0 0 0 0 0 0 0 0 0 0 0 0 0 0 0 0 0 0 0 0 0 0 0 0 0 0 0 0 0 0 0 0 0 0 0 0 0 0 0 0 0 0 0 0 0 0 0 0 0 0 0 0 0 0 0 0 0 0 0 0 0 0 0 0 0 0 0 0 0 0 0 0 0 0 0 0 0 0 0 0 0 0 0 0 0 0 0 0 0 0 0 0 0 0 0 0 0 0 0 0 0 0 0 0 0 0 0 0 0 0 0 0 0 0 0 0 0 0 0 0 0 0 0 0 0 0 0 0 0 0 0 0 0 0 0 0 0 0 0 0 0 0 0 0 0 0 0 0 0 0 0 0 0 0 0 0 0 0 0 0 0 0 0 0 0 0 0 0 0 0 0 0 0 0 0 0.020431512966752052307 0.061294540762901306152 0.020431512966752052307 0 0 0 0 0 0 0 0 0 0 0 0 0 0 0 0 0 0 0 0 0 0 0 0 0 0 0 0 0 0 0 0 0 0 0 0 0 0 0 0 0.012769696302711963654 0.053632721304893493652 0.076618179678916931152 0.043416965752840042114 0.017877575010061264038 0.030647270381450653076 0.010215756483376026154 0.010215756483376026154 0.030647270381450653076 0.010215756483376026154 0 0 0 0 0.017877575010061264038 0.061294540762901306152 0.1276969611644744873 0.50312602519989013672 1.0088059902191162109 0.91941809654235839844 0.42139992117881774902 0.21708482503890991211 0.1557902991771697998 0.11492726951837539673 0.11237332969903945923 0.11492726951837539673 0.1047115027904510498 0.076618179678916931152 0.017877575010061264038 0 0 0 0 0 0 0 0 0 0 0 0 0 0 0 0 0 0 0 0 0 0 0 0 0 0 0 0 0 0 0 0 0 0 0 0 0 0 0 0 0 0 0 0 0 0 0 0 0 0 0 0 0 0 0 0 0 0 0 0 0 0 0 0 0 0 0 0 0 0 0 0 0 0 0 0 0 0 0 0 0 0 0 0 0 0 0 0 0 0 0 0 0 0 0 0 0 0 0 0 0 0 0 0 0 0 0 0 0 0 0 0 0 0 0 0 
0 0 0 0 0 0 0 0 0 0.010215756483376026154 0.033201210200786590576 0.017877575010061264038 0.007661817595362663269 0.0025539391208440065384 0 0 0 0 0 0 0 0 0 0 0 0 0 0 0 0 0 0 0 0 0 0 0 0 0 0 0 0 0 0 0 0 0 0 0 0 0 0 0 0 0.0025539391208440065384 0.007661817595362663269 0.017877575010061264038 0.043416965752840042114 0.043416965752840042114 0.017877575010061264038 0.007661817595362663269 0.0025539391208440065384 0 0 0 0 0 0 0 0 0 0 0 0 0 0 0 0 0 0 0 0 0 0 0 0 0 0 0 0 0 0 0 0 0 0 0 0 0 0 0 0 0 0 0 0 0 0 0 0 0 0 0 0 0 0 0 0 0 0 0 0 0 0 0 0 0 0 0 0 0 0 0 0 0 0 0 0 0 0 0 0 0 0 0 0 0 0 0 0 0 0 0 0 0 0 0 0 0 0 0 0 0 0 0 0 0 0 0 0 0 0 0 0 0 0 0 0 0 0 0 0 0 0 0 0 0 0 0 0 0 0 0 0 0 0 0 0 0 0 0 0 0 0 0 0 0 0 0 0 0 0 0 0 0 0 0 0 0 0 0 0 0 0 0 0 0 0 0 0 0 0 0 0 0 0 0 0 0 0 0 0 0 0 0 0 0 0 0 0 0 0 0 0 0 0 0 0 0 0 0 0 0 0 0 0 0 0 0 0 0 0 0 0 0 0 0 0 0 0 0 0 0 0.020431512966752052307 0.061294540762901306152 0.020431512966752052307 0 0 0 0 0 0 0 0 0 0 0 0 0 0 0 0 0 0 0 0 0 0 0 0 0 0 0 0 0 0 0 0 0 0 0 0 0 0 0 0 0.010215756483376026154 0.051078785210847854614 0.076618179678916931152 0.033201210200786590576 0.020431512966752052307 0.033201210200786590576 0.010215756483376026154 0.010215756483376026154 0.030647270381450653076 0.010215756483376026154 0 0 0 0 0.012769696302711963654 0.038309089839458465576 0.091941803693771362305 0.49546420574188232422 1.0803161859512329102 0.95006531476974487305 0.39330661296844482422 0.18643754720687866211 0.11492726951837539673 0.074064239859580993652 0.097049690783023834229 0.1200351417064666748 0.091941818594932556152 0.084279991686344146729 0.030647270381450653076 0.010215756483376026154 0.010215756483376026154 0.010215756483376026154 0.010215756483376026154 0.007661817595362663269 0.0025539391208440065384 0 0 0 0 0 0 0 0 0 0 0 0 0 0 0 0 0 0 0 0 0 0 0 0 0 0 0 0 0 0 0 0 0 0 0 0 0 0 0 0 0 0 0 0 0 0 0 0 0 0 0 0 0 0 0 0 0 0 0 0 0 0 0 0 0 0 0 0 0 0 0 0 0 0 0 0 0 0 0 0 0 0 0 0 0 0 0 0 0 0 0 0 0 0 0 0 0 0 0 0 0 0 0 0 0 0 0 0 0 0 
0 0 0 0 0 0 0 0 0.0025539391208440065384 0.015323635190725326538 0.033201210200786590576 0.010215756483376026154 0 0 0 0 0 0 0 0 0 0 0 0 0 0 0 0 0 0 0 0 0 0 0 0 0 0 0 0 0 0 0 0 0 0 0 0 0 0 0 0 0 0 0.010215756483376026154 0.038309089839458465576 0.045970901846885681152 0.048524845391511917114 0.040863025933504104614 0.010215756483376026154 0 0 0 0 0 0 0 0 0 0 0 0 0 0 0 0 0 0 0 0 0 0 0 0 0 0 0 0 0 0 0 0 0 0 0 0 0 0 0 0 0 0 0 0 0 0 0 0 0 0 0 0 0 0 0 0 0 0 0 0 0 0 0 0 0 0 0 0 0 0 0 0 0 0 0 0 0 0 0 0 0 0 0 0 0 0 0 0 0 0 0 0 0 0 0 0 0 0 0 0 0 0 0 0 0 0 0 0 0 0 0 0 0 0 0 0 0 0 0 0 0 0 0 0 0 0 0 0 0 0 0 0 0 0 0 0 0 0 0 0 0 0 0 0 0 0 0 0 0 0 0 0 0 0 0 0 0 0 0 0 0 0 0 0 0 0 0 0 0 0 0 0 0 0 0 0 0 0 0 0 0 0 0 0 0 0 0 0 0 0 0 0 0 0 0 0 0 0 0 0 0 0 0 0 0 0 0 0 0 0 0 0 0 0 0 0 0 0 0 0 0 0 0 0.020431512966752052307 0.061294540762901306152 0.020431512966752052307 0 0 0 0 0 0 0 0 0 0 0 0 0 0 0 0 0 0 0 0 0 0 0 0 0 0 0 0 0 0 0 0 0 0 0 0 0 0 0 0 0.010215756483376026154 0.051078785210847854614 0.079172119498252868652 0.051078785210847854614 0.035755150020122528076 0.030647270381450653076 0.007661817595362663269 0.010215756483376026154 0.030647270381450653076 0.010215756483376026154 0 0 0 0 0.010215756483376026154 0.030647270381450653076 0.063848480582237243652 0.43927752971649169922 1.1416107416152954102 1.0139138698577880859 0.35755148530006408691 0.16600604355335235596 0.094495750963687896729 0.063848480582237243652 0.076618179678916931152 0.11492726951837539673 0.1047115027904510498 0.1047115027904510498 0.056186664849519729614 0.033201210200786590576 0.030647270381450653076 0.030647270381450653076 0.033201210200786590576 0.033201210200786590576 0.015323635190725326538 0.010215756483376026154 0.007661817595362663269 0.0025539391208440065384 0 0 0 0 0 0 0 0 0 0 0 0 0 0 0 0 0 0 0 0 0 0 0 0 0 0 0 0 0 0 0 0 0 0 0 0 0 0 0 0 0 0 0 0 0 0 0 0 0 0 0 0 0 0 0 0 0 0 0 0 0 0 0 0 0 0 0 0 0 0 0 0 0 0 0 0 0 0 0 0 0 0 0 0 0 0 0 0 0 0 0 0 0 0 0 0 0 0 0 0 0 0 0 0 0 0 0 
0 0 0 0 0 0 0 0 0.007661817595362663269 0.033201210200786590576 0.033201210200786590576 0.007661817595362663269 0 0 0 0 0 0 0 0 0 0 0 0 0 0 0 0 0 0 0 0 0 0 0 0 0 0 0 0 0 0 0 0 0 0 0 0 0 0 0 0 0 0.0025539391208440065384 0.022985450923442840576 0.066402420401573181152 0.051078785210847854614 0.040863025933504104614 0.033201210200786590576 0.007661817595362663269 0 0 0 0 0 0 0 0 0 0 0 0 0 0 0 0 0 0 0 0 0 0 0 0 0 0 0 0 0 0 0 0 0 0 0 0 0 0 0 0 0 0 0 0 0 0 0 0 0 0 0 0 0 0 0 0 0 0 0 0 0 0 0 0 0 0 0 0 0 0 0 0 0 0 0 0 0 0 0 0 0 0 0 0 0 0 0 0 0 0 0 0 0 0 0 0 0 0 0 0 0 0 0 0 0 0 0 0 0 0 0 0 0 0 0 0 0 0 0 0 0 0 0 0 0 0 0 0 0 0 0 0 0 0 0 0 0 0 0 0 0 0 0 0 0 0 0 0 0 0 0 0 0 0 0 0 0 0 0 0 0 0 0 0 0 0 0 0 0 0 0 0 0 0 0 0 0 0 0 0 0 0 0 0 0 0 0 0 0 0 0 0 0 0 0 0 0 0 0 0 0 0 0 0 0 0 0 0 0 0 0 0 0 0 0 0 0 0 0 0 0 0 0 0.020431512966752052307 0.061294540762901306152 0.020431512966752052307 0 0 0 0 0 0 0 0 0 0 0 0 0 0 0 0 0 0 0 0 0 0 0 0 0 0 0 0 0 0 0 0 0 0 0 0 0 0 0 0 0.010215756483376026154 0.051078785210847854614 0.081726051867008209229 0.053632721304893493652 0.017877575010061264038 0.007661817595362663269 0.0025539391208440065384 0.010215756483376026154 0.030647270381450653076 0.010215756483376026154 0 0 0 0 0.010215756483376026154 0.030647270381450653076 0.043416965752840042114 0.37032115459442138672 1.1594883203506469727 1.1748119592666625977 0.39075267314910888672 0.1583442389965057373 0.11492726951837539673 0.086833931505680084229 0.076618179678916931152 0.091941818594932556152 0.079172119498252868652 0.084279991686344146729 0.056186664849519729614 0.025539392605423927307 0.020431512966752052307 0.017877575010061264038 0.017877575010061264038 0.033201210200786590576 0.033201210200786590576 0.033201210200786590576 0.030647270381450653076 0.007661817595362663269 0 0 0 0 0 0 0 0 0 0 0 0 0 0 0 0 0 0 0 0 0 0 0 0 0 0 0 0 0 0 0 0 0 0 0 0 0 0 0 0 0 0 0 0 0 0 0 0 0 0 0 0 0 0 0 0 0 0 0 0 0 0 0 0 0 0 0 0 0 0 0 0 0 0 0 0 0 0 0 0 0 0 0 0 0 0 0 0 0 0 0 0 0 0 0 0 0 0 0 0 0 0 0 0 0 0 0 
0 0 0 0 0 0 0 0 0.010215756483376026154 0.033201210200786590576 0.015323635190725326538 0.0025539391208440065384 0 0 0 0 0 0 0 0 0 0 0 0 0 0 0 0 0 0 0 0 0 0 0 0 0 0 0 0 0 0 0 0 0 0 0 0 0 0 0 0 0.0025539391208440065384 0.015323635190725326538 0.051078785210847854614 0.068956352770328521729 0.025539392605423927307 0.010215756483376026154 0.007661817595362663269 0.0025539391208440065384 0 0 0 0 0 0 0 0 0 0 0 0 0 0 0 0 0 0 0 0 0 0 0 0 0 0 0 0 0 0 0 0 0 0 0 0 0 0 0 0 0 0 0 0 0 0 0 0 0 0 0 0 0 0 0 0 0 0 0 0 0 0 0 0 0 0 0 0 0 0 0 0 0 0 0 0 0 0 0 0 0 0 0 0 0 0 0 0 0 0 0 0 0 0 0 0 0 0 0 0 0 0 0 0 0 0 0 0 0 0 0 0 0 0 0 0 0 0 0 0 0 0 0 0 0 0 0 0 0 0 0 0 0 0 0 0 0 0 0 0 0 0 0 0 0 0 0 0 0 0 0 0 0 0 0 0 0 0 0 0 0 0 0 0 0 0 0 0 0 0 0 0 0 0 0 0 0 0 0 0 0 0 0 0 0 0 0 0 0 0 0 0 0 0 0 0 0 0 0 0 0 0 0 0 0 0 0 0 0 0 0 0 0 0 0 0 0 0 0 0 0 0 0 0.020431512966752052307 0.061294540762901306152 0.020431512966752052307 0 0 0 0 0 0 0 0 0 0 0 0 0 0 0 0 0 0 0 0 0 0 0 0 0 0 0 0 0 0 0 0 0 0 0 0 0 0 0 0 0.010215756483376026154 0.051078785210847854614 0.081726051867008209229 0.051078785210847854614 0.010215756483376026154 0 0 0.010215756483376026154 0.030647270381450653076 0.010215756483376026154 0 0 0 0 0.010215756483376026154 0.033201210200786590576 0.038309089839458465576 0.30136483907699584961 1.0828701257705688477 1.3254944086074829102 0.43927752971649169922 0.1532363593578338623 0.1200351417064666748 0.097049690783023834229 0.086833931505680084229 0.076618179678916931152 0.058740600943565368652 0.053632721304893493652 0.043416965752840042114 0.033201210200786590576 0.033201210200786590576 0.030647270381450653076 0.010215756483376026154 0.007661817595362663269 0.010215756483376026154 0.017877575010061264038 0.033201210200786590576 0.010215756483376026154 0 0 0 0 0 0 0 0 0 0 0 0 0 0 0 0 0 0 0 0 0 0 0 0 0 0 0 0 0 0 0 0 0 0 0 0 0 0 0 0 0 0 0 0 0 0 0 0 0 0 0 0 0 0 0 0 0 0 0 0 0 0 0 0 0 0 0 0 0 0 0 0 0 0 0 0 0 0 0 0 0 0 0 0 0 0 0 0 0 0 0 0 0 0 0 0 0 0 0 0 0 0 0 0 0 0 0 
0 0 0 0 0 0 0 0 0.010215756483376026154 0.030647270381450653076 0.010215756483376026154 0 0 0 0 0 0 0 0 0 0 0 0 0 0 0 0 0 0 0 0 0 0 0 0 0 0 0 0 0 0 0 0 0 0 0 0 0 0 0 0 0 0.007661817595362663269 0.040863025933504104614 0.068956352770328521729 0.045970901846885681152 0.010215756483376026154 0 0 0 0 0 0 0 0 0 0 0 0 0 0 0 0 0 0 0 0 0 0 0 0 0 0 0 0 0 0 0 0 0 0 0 0 0 0 0 0 0 0 0 0 0 0 0 0 0 0 0 0 0 0 0 0 0 0 0 0 0 0 0 0 0 0 0 0 0 0 0 0 0 0 0 0 0 0 0 0 0 0 0 0 0 0 0 0 0 0 0 0 0 0 0 0 0 0 0 0 0 0 0 0 0 0 0 0 0 0 0 0 0 0 0 0 0 0 0 0 0 0 0 0 0 0 0 0 0 0 0 0 0 0 0 0 0 0 0 0 0 0 0 0 0 0 0 0 0 0 0 0 0 0 0 0 0 0 0 0 0 0 0 0 0 0 0 0 0 0 0 0 0 0 0 0 0 0 0 0 0 0 0 0 0 0 0 0 0 0 0 0 0 0 0 0 0 0 0 0 0 0 0 0 0 0 0 0 0 0 0 0 0 0 0 0 0 0 0 0 0 0 0 0 0 0.0051078782416880130768 0.030647270381450653076 0.066402420401573181152 0.020431512966752052307 0 0 0 0 0 0 0 0 0 0 0 0 0 0 0 0 0 0 0 0 0 0 0 0 0 0 0 0 0 0 0 0 0 0 0 0 0 0 0 0 0.010215756483376026154 0.053632721304893493652 0.086833931505680084229 0.053632721304893493652 0.010215756483376026154 0 0 0.010215756483376026154 0.033201210200786590576 0.017877575010061264038 0.010215756483376026154 0.007661817595362663269 0.0025539391208440065384 0 0.007661817595362663269 0.033201210200786590576 0.053632721304893493652 0.24262422323226928711 0.96283507347106933594 1.4761767387390136719 0.53888112306594848633 0.1557902991771697998 0.1251430213451385498 0.10215757042169570923 0.063848480582237243652 0.033201210200786590576 0.045970901846885681152 0.043416965752840042114 0.017877575010061264038 0.010215756483376026154 0.017877575010061264038 0.035755150020122528076 0.017877575010061264038 0.010215756483376026154 0.010215756483376026154 0.017877575010061264038 0.035755150020122528076 0.017877575010061264038 0.007661817595362663269 0.0025539391208440065384 0 0 0 0 0 0 0 0 0 0 0 0 0 0 0 0 0 0 0 0 0 0 0 0 0 0 0 0 0 0 0 0 0 0 0 0 0 0 0 0 0 0 0 0 0 0 0 0 0 0 0 0 0 0 0 0 0 0 0 0 0 0 0 0 0 0 0 0 0 0 0 0 0 0 0 0 0 0 0 0 0 0 0 0 0 0 0 0 0 0 0 0 0 0 0 0 0 0 0 0 0 0 0 0 0 
0 0 0 0 0 0 0 0 0.010215756483376026154 0.030647270381450653076 0.010215756483376026154 0 0 0 0 0 0 0 0 0 0 0 0 0 0 0 0 0 0 0 0 0 0 0 0 0 0 0 0 0 0 0 0 0 0 0 0 0 0 0 0 0 0.010215756483376026154 0.043416965752840042114 0.048524845391511917114 0.017877575010061264038 0.0025539391208440065384 0 0 0 0 0 0 0 0 0 0 0 0 0 0 0 0 0 0 0 0 0 0 0 0 0 0 0 0 0 0 0 0 0 0 0 0 0 0 0 0 0 0 0 0 0 0 0 0 0 0 0 0 0 0 0 0 0 0 0 0 0 0 0 0 0 0 0 0 0 0 0 0 0 0 0 0 0 0 0 0 0 0 0 0 0 0 0 0 0 0 0 0 0 0 0 0 0 0 0 0 0 0 0 0 0 0 0 0 0 0 0 0 0 0 0 0 0 0 0 0 0 0 0 0 0 0 0 0 0 0 0 0 0 0 0 0 0 0 0 0 0 0 0 0 0 0 0 0 0 0 0 0 0 0 0 0 0 0 0 0 0 0 0 0 0 0 0 0 0 0 0 0 0 0 0 0 0 0 0 0 0 0 0 0 0 0 0 0 0 0 0 0 0 0 0 0 0 0 0 0 0 0 0 0 0 0 0 0 0 0 0 0 0 0 0 0 0 0 0 0 0 0 0 0 0.0025539391208440065384 0.020431512966752052307 0.068956352770328521729 0.066402420401573181152 0.015323635190725326538 0 0 0 0 0 0 0 0 0 0 0 0 0 0 0 0 0 0 0 0 0 0 0 0 0 0 0 0 0 0 0 0 0 0 0 0 0 0 0 0 0.007661817595362663269 0.053632721304893493652 0.1047115027904510498 0.058740600943565368652 0.010215756483376026154 0 0 0.007661817595362663269 0.030647270381450653076 0.033201210200786590576 0.033201210200786590576 0.030647270381450653076 0.007661817595362663269 0 0.0025539391208440065384 0.015323635190725326538 0.051078785210847854614 0.18132968246936798096 0.81470662355422973633 1.5604568719863891602 0.69467145204544067383 0.20431514084339141846 0.1430206000804901123 0.11492726951837539673 0.051078785210847854614 0.017877575010061264038 0.040863025933504104614 0.040863025933504104614 0.010215756483376026154 0 0.007661817595362663269 0.030647270381450653076 0.033201210200786590576 0.030647270381450653076 0.033201210200786590576 0.040863025933504104614 0.045970901846885681152 0.043416965752840042114 0.033201210200786590576 0.007661817595362663269 0 0 0 0 0 0 0 0 0 0 0 0 0 0 0 0 0 0 0 0 0 0 0 0 0 0 0 0 0 0 0 0 0 0 0 0 0 0 0 0 0 0 0 0 0 0 0 0 0 0 0 0 0 0 0 0 0 0 0 0 0 0 0 0 0 0 0 0 0 0 0 0 0 0 0 0 0 0 0 0 0 0 0 0 0 0 0 0 0 0 0 0 0 0 0 0 0 0 0 0 0 0 0 0 0 
0 0 0 0 0 0 0 0 0.010215756483376026154 0.030647270381450653076 0.010215756483376026154 0 0 0 0 0 0 0 0 0 0 0 0 0 0 0 0 0 0 0 0 0 0 0 0 0 0 0 0 0 0 0 0 0 0 0 0 0 0 0 0 0.0025539391208440065384 0.017877575010061264038 0.048524845391511917114 0.043416965752840042114 0.010215756483376026154 0 0 0 0 0 0 0 0 0 0 0 0 0 0 0 0 0 0 0 0 0 0 0 0 0 0 0 0 0 0 0 0 0 0 0 0 0 0 0 0 0 0 0 0 0 0 0 0 0 0 0 0 0 0 0 0 0 0 0 0 0 0 0 0 0 0 0 0 0 0 0 0 0 0 0 0 0 0 0 0 0 0 0 0 0 0 0 0 0 0 0 0 0 0 0 0 0 0 0 0 0 0 0 0 0 0 0 0 0 0 0 0 0 0 0 0 0 0 0 0 0 0 0 0 0 0 0 0 0 0 0 0 0 0 0 0 0 0 0 0 0 0 0 0 0 0 0 0 0 0 0 0 0 0 0 0 0 0 0 0 0 0 0 0 0 0 0 0 0 0 0 0 0 0 0 0 0 0 0 0 0 0 0 0 0 0 0 0 0 0 0 0 0 0 0 0 0 0 0 0 0 0 0 0 0 0 0 0 0 0 0 0 0 0 0 0 0 0 0 0 0 0 0 0 0 0.007661817595362663269 0.045970901846885681152 0.074064239859580993652 0.030647270381450653076 0.0051078782416880130768 0 0 0 0 0 0 0 0 0 0 0 0 0 0 0 0 0 0 0 0 0 0 0 0 0 0 0 0 0 0 0 0 0 0 0 0 0 0 0 0 0.0025539391208440065384 0.035755150020122528076 0.10726545006036758423 0.066402420401573181152 0.012769696302711963654 0 0 0.0025539391208440065384 0.007661817595362663269 0.010215756483376026154 0.017877575010061264038 0.033201210200786590576 0.010215756483376026154 0 0 0.010215756483376026154 0.043416965752840042114 0.11492726951837539673 0.65891629457473754883 1.5093779563903808594 0.77895140647888183594 0.22219270467758178711 0.1251430213451385498 0.091941818594932556152 0.028093332424759864807 0.012769696302711963654 0.040863025933504104614 0.040863025933504104614 0.010215756483376026154 0 0.0025539391208440065384 0.007661817595362663269 0.010215756483376026154 0.010215756483376026154 0.015323635190725326538 0.035755150020122528076 0.043416965752840042114 0.048524845391511917114 0.040863025933504104614 0.010215756483376026154 0 0 0 0 0 0 0 0 0 0 0 0 0 0 0 0 0 0 0 0 0 0 0 0 0 0 0 0 0 0 0 0 0 0 0 0 0 0 0 0 0 0 0 0 0 0 0 0 0 0 0 0 0 0 0 0 0 0 0 0 0 0 0 0 0 0 0 0 0 0 0 0 0 0 0 0 0 0 0 0 0 0 0 0 0 0 0 0 0 0 0 0 0 0 0 0 0 0 0 0 0 0 0 0 0 
0 0 0 0 0 0 0 0.0025539391208440065384 0.015323635190725326538 0.033201210200786590576 0.010215756483376026154 0 0 0 0 0 0 0 0 0 0 0 0 0 0 0 0 0 0 0 0 0 0 0 0 0 0 0 0 0 0 0 0 0.0025539391208440065384 0.007661817595362663269 0.010215756483376026154 0.010215756483376026154 0.010215756483376026154 0.010215756483376026154 0.010215756483376026154 0.012769696302711963654 0.022985450923442840576 0.051078785210847854614 0.068956352770328521729 0.040863025933504104614 0.007661817595362663269 0 0 0 0 0 0 0 0 0 0 0 0 0 0 0 0 0 0 0 0 0 0 0 0 0 0 0 0 0 0 0 0 0 0 0 0 0 0 0 0 0 0 0 0 0 0 0 0 0 0 0 0 0 0 0 0 0 0 0 0 0 0 0 0 0 0 0 0 0 0 0 0 0 0 0 0 0 0 0 0 0 0 0 0 0 0 0 0 0 0 0 0 0 0 0 0 0 0 0 0 0 0 0 0 0 0 0 0 0 0 0 0 0 0 0 0 0 0 0 0 0 0 0 0 0 0 0 0 0 0 0 0 0 0 0 0 0 0 0 0 0 0 0 0 0 0 0 0 0 0 0 0 0 0 0 0 0 0 0 0 0 0 0 0 0 0 0 0 0 0 0 0 0 0 0 0 0 0 0 0 0 0 0 0 0 0 0 0 0 0 0 0 0 0 0 0 0 0 0 0 0 0 0 0 0 0 0 0 0 0 0 0 0 0 0 0 0 0 0 0 0 0 0 0 0 0.007661817595362663269 0.045970901846885681152 0.068956352770328521729 0.020431512966752052307 0 0 0 0 0 0 0 0 0 0 0 0 0 0 0 0 0 0 0 0 0 0 0 0 0 0 0 0 0 0 0 0 0 0 0 0 0 0 0 0 0 0 0.028093332424759864807 0.1047115027904510498 0.086833931505680084229 0.022985450923442840576 0.0025539391208440065384 0 0 0 0 0.010215756483376026154 0.033201210200786590576 0.015323635190725326538 0.0025539391208440065384 0 0.010215756483376026154 0.043416965752840042114 0.091941818594932556152 0.57208234071731567383 1.4276520013809204102 0.79938292503356933594 0.25539392232894897461 0.1276969611644744873 0.084279991686344146729 0.020431512966752052307 0.010215756483376026154 0.040863025933504104614 0.043416965752840042114 0.015323635190725326538 0.0025539391208440065384 0 0 0 0 0.0025539391208440065384 0.007661817595362663269 0.017877575010061264038 0.045970901846885681152 0.045970901846885681152 0.012769696302711963654 0 0 0 0 0 0 0 0 0 0 0 0 0 0 0 0 0 0 0 0 0 0 0 0 0 0 0 0 0 0 0 0 0 0 0 0 0 0 0 0 0 0 0 0 0 0 0 0 0 0 0 0 0 0 0 0 0 0 0 0 0 0 0 0 0 0 0 0 0 0 0 0 0 0 0 0 0 0 0 0 0 0 0 0 0 0 0 0 0 0 0 0 0 0 0 0 0 0 0 0 0 0 0 0 0 
0 0 0 0 0 0 0 0.007661817595362663269 0.033201210200786590576 0.033201210200786590576 0.007661817595362663269 0 0 0 0 0 0 0 0 0 0 0 0 0 0 0 0 0 0 0 0 0 0.0025539391208440065384 0.007661817595362663269 0.010215756483376026154 0.010215756483376026154 0.010215756483376026154 0.010215756483376026154 0.010215756483376026154 0.010215756483376026154 0.010215756483376026154 0.010215756483376026154 0.012769696302711963654 0.022985450923442840576 0.043416965752840042114 0.043416965752840042114 0.040863025933504104614 0.040863025933504104614 0.040863025933504104614 0.040863025933504104614 0.045970901846885681152 0.066402420401573181152 0.068956352770328521729 0.045970901846885681152 0.015323635190725326538 0.0025539391208440065384 0 0 0 0 0 0 0 0 0 0 0 0 0 0 0 0 0 0 0 0 0 0 0 0 0 0 0 0 0 0 0 0 0 0 0 0 0 0 0 0 0 0 0 0 0 0 0 0 0 0 0 0 0 0 0 0 0 0 0 0 0 0 0 0 0 0 0 0 0 0 0 0 0 0 0 0 0 0 0 0 0 0 0 0 0 0 0 0 0 0 0 0 0 0 0 0 0 0 0 0 0 0 0 0 0 0 0 0 0 0 0 0 0 0 0 0 0 0 0 0 0 0 0 0 0 0 0 0 0 0 0 0 0 0 0 0 0 0 0 0 0 0 0 0 0 0 0 0 0 0 0 0 0 0 0 0 0 0 0 0 0 0 0 0 0 0 0 0 0 0 0 0 0 0 0 0 0 0 0 0 0 0 0 0 0 0 0 0 0 0 0 0 0 0 0 0 0 0 0 0 0 0 0 0 0 0 0 0 0 0 0 0 0 0 0 0 0 0 0 0 0 0 0 0 0 0.0025539391208440065384 0.025539392605423927307 0.068956352770328521729 0.030647270381450653076 0.0051078782416880130768 0 0 0 0 0 0 0 0 0 0 0 0 0 0 0 0 0 0 0 0 0 0 0 0 0 0 0 0 0 0 0 0 0 0 0 0 0 0 0 0 0 0.022985454648733139038 0.086833931505680084229 0.094495750963687896729 0.051078785210847854614 0.010215756483376026154 0 0 0 0 0.007661817595362663269 0.033201210200786590576 0.033201210200786590576 0.007661817595362663269 0 0.007661817595362663269 0.043416965752840042114 0.1047115027904510498 0.56697446107864379883 1.4302059412002563477 0.82236844301223754883 0.28859511017799377441 0.14046664535999298096 0.074064239859580993652 0.015323635190725326538 0.010215756483376026154 0.038309089839458465576 0.043416965752840042114 0.033201210200786590576 0.007661817595362663269 0 0 0 0 0 0 0.007661817595362663269 0.043416965752840042114 0.063848480582237243652 0.017877575010061264038 0 0 0 0 0 0 0 0 0 0 0 0 0 0 0 0 0 0 0 0 0 0 0 0 0 0 0 0 0 0 0 0 0 0 0 0 0 0 0 0 0 0 0 0 0 0 0 0 0 0 0 0 0 0 0 0 0 0 0 0 0 0 0 0 0 0 0 0 0 0 0 0 0 0 0 0 0 0 0 0 0 0 0 0 0 0 0 0 0 0 0 0 0 0 0 0 0 0 0 0 0 0 0 0 0 
0 0 0 0 0 0 0.0025539391208440065384 0.015323635190725326538 0.035755150020122528076 0.015323635190725326538 0.0025539391208440065384 0 0 0 0 0 0 0 0 0 0 0 0 0 0 0 0 0 0 0 0 0 0.007661817595362663269 0.030647270381450653076 0.033201210200786590576 0.030647270381450653076 0.030647270381450653076 0.030647270381450653076 0.030647270381450653076 0.030647270381450653076 0.030647270381450653076 0.030647270381450653076 0.038309089839458465576 0.063848480582237243652 0.066402420401573181152 0.045970901846885681152 0.040863025933504104614 0.040863025933504104614 0.040863025933504104614 0.040863025933504104614 0.043416965752840042114 0.043416965752840042114 0.022985450923442840576 0.010215756483376026154 0.0025539391208440065384 0 0 0 0 0 0 0 0 0 0 0 0 0 0 0 0 0 0 0 0 0 0 0 0 0 0 0 0 0 0 0 0 0 0 0 0 0 0 0 0 0 0 0 0 0 0 0 0 0 0 0 0 0 0 0 0 0 0 0 0 0 0 0 0 0 0 0 0 0 0 0 0 0 0 0 0 0 0 0 0 0 0 0 0 0 0 0 0 0 0 0 0 0 0 0 0 0 0 0 0 0 0 0 0 0 0 0 0 0 0 0 0 0 0 0 0 0 0 0 0 0 0 0 0 0 0 0 0 0 0 0 0 0 0 0 0 0 0 0 0 0 0 0 0 0 0 0 0 0 0 0 0 0 0 0 0 0 0 0 0 0 0 0 0 0 0 0 0 0 0 0 0 0 0 0 0 0 0 0 0 0 0 0 0 0 0 0 0 0 0 0 0 0 0 0 0 0 0 0 0 0 0 0 0 0 0 0 0 0 0 0 0 0 0 0 0 0 0 0 0 0 0 0 0 0 0 0 0.015323635190725326538 0.066402420401573181152 0.066402420401573181152 0.015323635190725326538 0 0 0 0 0 0 0 0 0 0 0 0 0 0 0 0 0 0 0 0 0 0 0 0 0 0 0 0 0 0 0 0 0 0 0 0 0 0 0 0 0 0.017877575010061264038 0.074064239859580993652 0.091941803693771362305 0.074064239859580993652 0.017877575010061264038 0 0 0 0 0.0025539391208440065384 0.015323635190725326538 0.033201210200786590576 0.010215756483376026154 0 0.0025539391208440065384 0.025539392605423927307 0.1072654426097869873 0.59506779909133911133 1.5093779563903808594 0.87344717979431152344 0.28604117035865783691 0.094495743513107299805 0.025539392605423927307 0.0051078782416880130768 0.010215756483376026154 0.033201210200786590576 0.025539392605423927307 0.035755150020122528076 0.015323635190725326538 0.0025539391208440065384 0 0 0 0 0 0.0025539391208440065384 0.025539392605423927307 0.066402420401573181152 0.025539392605423927307 0.0025539391208440065384 0 0 0 0 0 0 0 0 0 0 0 0 0 0 0 0 0 0 0 0 0 0 0 0 0 0 0 0 0 0 0 0 0 0 0 0 0 0 0 0 0 0 0 0 0 0 0 0 0 0 0 0 0 0 0 0 0 0 0 0 0 0 0 0 0 0 0 0 0 0 0 0 0 0 0 0 0 0 0 0 0 0 0 0 0 0 0 0 0 0 0 0 0 0 0 0 0 0 0 0 0 0 0 0 
0 0 0 0.0025539391208440065384 0.007661817595362663269 0.010215756483376026154 0.015323635190725326538 0.035755150020122528076 0.033201210200786590576 0.007661817595362663269 0 0 0 0 0 0 0 0 0 0 0 0 0 0 0 0 0 0 0 0 0 0.0025539391208440065384 0.015323635190725326538 0.035755150020122528076 0.017877575010061264038 0.010215756483376026154 0.010215756483376026154 0.010215756483376026154 0.010215756483376026154 0.010215756483376026154 0.010215756483376026154 0.010215756483376026154 0.020431512966752052307 0.043416965752840042114 0.025539392605423927307 0.012769696302711963654 0.010215756483376026154 0.010215756483376026154 0.010215756483376026154 0.010215756483376026154 0.010215756483376026154 0.007661817595362663269 0.0025539391208440065384 0 0 0 0 0 0 0 0 0 0 0 0 0 0 0 0 0 0 0 0 0 0 0 0 0 0 0 0 0 0 0 0 0 0 0 0 0 0 0 0 0 0 0 0 0 0 0 0 0 0 0 0 0 0 0 0 0 0 0 0 0 0 0 0 0 0 0 0 0 0 0 0 0 0 0 0 0 0 0 0 0 0 0 0 0 0 0 0 0 0 0 0 0 0 0 0 0 0 0 0 0 0 0 0 0 0 0 0 0 0 0 0 0 0 0 0 0 0 0 0 0 0 0 0 0 0 0 0 0 0 0 0 0 0 0 0 0 0 0 0 0 0 0 0 0 0 0 0 0 0 0 0 0 0 0 0 0 0 0 0 0 0 0 0 0 0 0 0 0 0 0 0 0 0 0 0 0 0 0 0 0 0 0 0 0 0 0 0 0 0 0 0 0 0 0 0 0 0 0 0 0 0 0 0 0 0 0 0 0 0 0 0 0 0 0 0 0 0 0 0 0 0 0 0 0 0 0 0 0 0.0051078782416880130768 0.030647270381450653076 0.066402420401573181152 0.020431512966752052307 0 0 0 0 0 0 0 0 0 0 0 0 0 0 0 0 0 0 0 0 0 0 0 0 0 0 0 0 0 0 0 0 0 0 0 0 0 0 0 0 0 0.012769696302711963654 0.048524845391511917114 0.068956352770328521729 0.074064239859580993652 0.020431512966752052307 0 0 0 0 0 0.010215756483376026154 0.030647270381450653076 0.010215756483376026154 0 0 0.015323635190725326538 0.099603623151779174805 0.64103871583938598633 1.5987659692764282227 0.88621687889099121094 0.26816362142562866211 0.079172119498252868652 0.017877575010061264038 0.010215756483376026154 0.017877575010061264038 0.033201210200786590576 0.017877575010061264038 0.033201210200786590576 0.033201210200786590576 0.007661817595362663269 0 0 0 0 0 0 0.017877575010061264038 0.063848480582237243652 0.043416965752840042114 0.007661817595362663269 0 0 0 0 0 0 0 0 0 0 0 0 0 0 0 0 0 0 0 0 0 0 0 0 0 0 0 0 0 0 0 0 0 0 0 0 0 0 0 0 0 0 0 0 0 0 0 0 0 0 0 0 0 0 0 0 0 0 0 0 0 0 0 0 0 0 0 0 0 0 0 0 0 0 0 0 0 0 0 0 0 0 0 0 0 0 0 0 0 0 0 0 0 0 0 0 0 0 0 0 0 0 0 0 
0 0 0 0.007661817595362663269 0.030647270381450653076 0.033201210200786590576 0.033201210200786590576 0.033201210200786590576 0.012769696302711963654 0.0025539391208440065384 0 0 0 0 0 0 0 0 0 0 0 0 0 0 0 0 0 0 0 0 0 0.007661817595362663269 0.033201210200786590576 0.033201210200786590576 0.007661817595362663269 0 0 0 0 0 0 0 0.010215756483376026154 0.030647270381450653076 0.010215756483376026154 0 0 0 0 0 0 0 0 0 0 0 0 0 0 0 0 0 0 0 0 0 0 0 0 0 0 0 0 0 0 0 0 0 0 0 0 0 0 0 0 0 0 0 0 0 0 0 0 0 0 0 0 0 0 0 0 0 0 0 0 0 0 0 0 0 0 0 0 0 0 0 0 0 0 0 0 0 0 0 0 0 0 0 0 0 0 0 0 0 0 0 0 0 0 0 0 0 0 0 0 0 0 0 0 0 0 0 0 0 0 0 0 0 0 0 0 0 0 0 0 0 0 0 0 0 0 0 0 0 0 0 0 0 0 0 0 0 0 0 0 0 0 0 0 0 0 0 0 0 0 0 0 0 0 0 0 0 0 0 0 0 0 0 0 0 0 0 0 0 0 0 0 0 0 0 0 0 0 0 0 0 0 0 0 0 0 0 0 0 0 0 0 0 0 0 0 0 0 0 0 0 0 0 0 0 0 0 0 0 0 0 0 0 0 0 0 0 0 0 0 0 0 0 0 0 0 0 0 0 0 0 0 0 0 0 0 0 0 0.020431512966752052307 0.061294540762901306152 0.020431512966752052307 0 0 0 0 0 0 0 0 0 0 0 0 0 0 0 0 0 0 0 0 0 0 0 0 0 0 0 0 0 0 0 0 0 0 0 0 0 0 0 0 0 0.010215756483376026154 0.043416965752840042114 0.066402420401573181152 0.074064239859580993652 0.020431512966752052307 0 0 0 0 0 0.010215756483376026154 0.030647270381450653076 0.010215756483376026154 0 0 0.0051078782416880130768 0.071510292589664459229 0.69467145204544067383 1.7366786003112792969 0.93984961509704589844 0.25283995270729064941 0.066402420401573181152 0.033201210200786590576 0.030647270381450653076 0.033201210200786590576 0.030647270381450653076 0.010215756483376026154 0.015323635190725326538 0.035755150020122528076 0.015323635190725326538 0.0025539391208440065384 0 0 0 0 0 0.012769696302711963654 0.045970901846885681152 0.043416965752840042114 0.010215756483376026154 0 0 0 0 0 0 0 0 0 0 0 0 0 0 0 0 0 0 0 0 0 0 0 0 0 0 0 0 0 0 0 0 0 0 0 0 0 0 0 0 0 0 0 0 0 0 0 0 0 0 0 0 0 0 0 0 0 0 0 0 0 0 0 0 0 0 0 0 0 0 0 0 0 0 0 0 0 0 0 0 0 0 0 0 0 0 0 0 0 0 0 0 0 0 0 0 0 0 0 0 0 0 0 0 
0 0 0 0.010215756483376026154 0.033201210200786590576 0.017877575010061264038 0.010215756483376026154 0.007661817595362663269 0.0025539391208440065384 0 0 0 0 0 0 0 0 0 0 0 0 0 0 0 0 0 0 0 0 0 0 0.010215756483376026154 0.033201210200786590576 0.015323635190725326538 0.0025539391208440065384 0 0 0 0 0 0.0025539391208440065384 0.007661817595362663269 0.017877575010061264038 0.033201210200786590576 0.010215756483376026154 0 0 0 0 0 0 0 0 0 0 0 0 0 0 0 0 0 0 0 0 0 0 0 0 0 0 0 0 0 0 0 0 0 0 0 0 0 0 0 0 0 0 0 0 0 0 0 0 0 0 0 0 0 0 0 0 0 0 0 0 0 0 0 0 0 0 0 0 0 0 0 0 0 0 0 0 0 0 0 0 0 0 0 0 0 0 0 0 0 0 0 0 0 0 0 0 0 0 0 0 0 0 0 0 0 0 0 0 0 0 0 0 0 0 0 0 0 0 0 0 0 0 0 0 0 0 0 0 0 0 0 0 0 0 0 0 0 0 0 0 0 0 0 0 0 0 0 0 0 0 0 0 0 0 0 0 0 0 0 0 0 0 0 0 0 0 0 0 0 0 0 0 0 0 0 0 0 0 0 0 0 0 0 0 0 0 0 0 0 0 0 0 0 0 0 0 0 0 0 0 0 0 0 0 0 0 0 0 0 0 0 0 0 0 0 0 0 0 0 0 0 0 0 0 0 0 0 0 0 0 0 0 0 0 0 0 0 0 0.020431512966752052307 0.061294540762901306152 0.020431512966752052307 0 0 0 0 0 0 0 0 0 0 0 0 0 0 0 0 0 0 0 0 0 0 0 0 0 0 0 0 0 0 0 0 0 0 0 0 0 0 0 0 0 0.007661817595362663269 0.043416965752840042114 0.089387871325016021729 0.089387871325016021729 0.025539392605423927307 0 0 0 0 0 0.010215756483376026154 0.030647270381450653076 0.010215756483376026154 0 0 0 0.097049683332443237305 0.82492238283157348633 1.8235125541687011719 0.83769202232360839844 0.1251430213451385498 0.020431512966752052307 0.010215756483376026154 0.010215756483376026154 0.010215756483376026154 0.007661817595362663269 0.0025539391208440065384 0.007661817595362663269 0.033201210200786590576 0.035755150020122528076 0.012769696302711963654 0.0025539391208440065384 0 0 0 0 0.010215756483376026154 0.040863025933504104614 0.040863025933504104614 0.010215756483376026154 0 0 0 0 0 0 0 0 0 0 0 0 0 0 0 0 0 0 0 0 0 0 0 0 0 0 0 0 0 0 0 0 0 0 0 0 0 0 0 0 0 0 0 0 0 0 0 0 0 0 0 0 0 0 0 0 0 0 0 0 0 0 0 0 0 0 0 0 0 0 0 0 0 0 0 0 0 0 0 0 0 0 0 0 0 0 0 0 0 0 0 0 0 0 0 0 0 0 0 0 0 0 0 0 
0 0 0 0.010215756483376026154 0.030647270381450653076 0.010215756483376026154 0 0 0 0 0 0 0 0 0 0 0 0 0 0 0 0 0 0 0 0 0 0 0 0 0.0025539391208440065384 0.015323635190725326538 0.033201210200786590576 0.010215756483376026154 0 0 0 0 0.0025539391208440065384 0.007661817595362663269 0.015323635190725326538 0.033201210200786590576 0.035755150020122528076 0.030647270381450653076 0.007661817595362663269 0 0 0 0 0 0 0 0 0 0 0 0 0 0 0 0 0 0 0 0 0 0 0 0 0 0 0 0 0 0 0 0 0 0 0 0 0 0 0 0 0 0 0 0 0 0 0 0 0 0 0 0 0 0 0 0 0 0 0 0 0 0 0 0 0 0 0 0 0 0 0 0 0 0 0 0 0 0 0 0 0 0 0 0 0 0 0 0 0 0 0 0 0 0 0 0 0 0 0 0 0 0 0 0 0 0 0 0 0 0 0 0 0 0 0 0 0 0 0 0 0 0 0 0 0 0 0 0 0 0 0 0 0 0 0 0 0 0 0 0 0 0 0 0 0 0 0 0 0 0 0 0 0 0 0 0 0 0 0 0 0 0 0 0 0 0 0 0 0 0 0 0 0 0 0 0 0 0 0 0 0 0 0 0 0 0 0 0 0 0 0 0 0 0 0 0 0 0 0 0 0 0 0 0 0 0 0 0 0 0 0 0 0 0 0 0 0 0 0 0 0 0 0 0 0 0 0 0 0 0 0 0 0 0 0 0 0 0 0.020431512966752052307 0.061294540762901306152 0.020431512966752052307 0 0 0 0 0 0 0 0 0 0 0 0 0 0 0 0 0 0 0 0 0 0 0 0 0 0 0 0 0 0 0 0 0 0 0 0 0 0 0 0 0 0.0025539391208440065384 0.020431512966752052307 0.089387871325016021729 0.13535876572132110596 0.051078785210847854614 0.007661817595362663269 0 0 0 0 0.010215756483376026154 0.030647270381450653076 0.010215756483376026154 0 0 0 0.16345210373401641846 1.0036981105804443359 1.8056349754333496094 0.71254903078079223633 0.063848480582237243652 0 0 0 0 0 0 0.0025539391208440065384 0.012769696302711963654 0.035755150020122528076 0.035755150020122528076 0.012769696302711963654 0.0025539391208440065384 0 0 0 0.010215756483376026154 0.043416965752840042114 0.045970901846885681152 0.012769696302711963654 0 0 0 0 0 0 0 0 0 0 0 0 0 0 0 0 0 0 0 0 0 0 0 0 0 0 0 0 0 0 0 0 0 0 0 0 0 0 0 0 0 0 0 0 0 0 0 0 0 0 0 0 0 0 0 0 0 0 0 0 0 0 0 0 0 0 0 0 0 0 0 0 0 0 0 0 0 0 0 0 0 0 0 0 0 0 0 0 0 0 0 0 0 0 0 0 0 0 0 0 0 0 0 0 
0 0 0 0.010215756483376026154 0.030647270381450653076 0.010215756483376026154 0 0 0 0 0 0 0 0 0 0 0 0 0 0 0 0 0 0 0 0 0 0 0 0 0.007661817595362663269 0.033201210200786590576 0.033201210200786590576 0.007661817595362663269 0 0 0 0.0025539391208440065384 0.012769696302711963654 0.033201210200786590576 0.035755150020122528076 0.033201210200786590576 0.015323635190725326538 0.007661817595362663269 0.0025539391208440065384 0 0 0 0 0 0 0 0 0 0 0 0 0 0 0 0 0 0 0 0 0 0 0 0 0 0 0 0 0 0 0 0 0 0 0 0 0 0 0 0 0 0 0 0 0 0 0 0 0 0 0 0 0 0 0 0 0 0 0 0 0 0 0 0 0 0 0 0 0 0 0 0 0 0 0 0 0 0 0 0 0 0 0 0 0 0 0 0 0 0 0 0 0 0 0 0 0 0 0 0 0 0 0 0 0 0 0 0 0 0 0 0 0 0 0 0 0 0 0 0 0 0 0 0 0 0 0 0 0 0 0 0 0 0 0 0 0 0 0 0 0 0 0 0 0 0 0 0 0 0 0 0 0 0 0 0 0 0 0 0 0 0 0 0 0 0 0 0 0 0 0 0 0 0 0 0 0 0 0 0 0 0 0 0 0 0 0 0 0 0 0 0 0 0 0 0 0 0 0 0 0 0 0 0 0 0 0 0 0 0 0 0 0 0 0 0 0 0 0 0 0 0 0 0 0 0 0 0 0 0 0 0 0 0 0 0 0 0 0.020431512966752052307 0.061294540762901306152 0.020431512966752052307 0 0 0 0 0 0 0 0 0 0 0 0 0 0 0 0 0 0 0 0 0 0 0 0 0 0 0 0 0 0 0 0 0 0 0 0 0 0 0 0 0 0 0.0051078782416880130768 0.043416965752840042114 0.13791270554065704346 0.11492726951837539673 0.025539392605423927307 0 0 0 0 0.010215756483376026154 0.033201210200786590576 0.015323635190725326538 0.0025539391208440065384 0 0 0.24517816305160522461 1.2156751155853271484 1.7085852622985839844 0.59762179851531982422 0.043416965752840042114 0 0 0 0 0 0 0 0.0025539391208440065384 0.012769696302711963654 0.035755150020122528076 0.033201210200786590576 0.007661817595362663269 0 0 0 0.007661817595362663269 0.043416965752840042114 0.063848480582237243652 0.017877575010061264038 0 0 0 0 0 0 0 0 0 0 0 0 0 0 0 0 0 0 0 0 0 0 0 0 0 0 0 0 0 0 0 0 0 0 0 0 0 0 0 0 0 0 0 0 0 0 0 0 0 0 0 0 0 0 0 0 0 0 0 0 0 0 0 0 0 0 0 0 0 0 0 0 0 0 0 0 0 0 0 0 0 0 0 0 0 0 0 0 0 0 0 0 0 0 0 0 0 0 0 0 0 0 0 0 
0 0 0.0025539391208440065384 0.015323635190725326538 0.033201210200786590576 0.010215756483376026154 0 0 0 0 0 0 0 0 0 0 0 0 0 0 0 0 0 0 0 0 0 0 0 0 0.010215756483376026154 0.033201210200786590576 0.015323635190725326538 0.0025539391208440065384 0 0.0025539391208440065384 0.007661817595362663269 0.015323635190725326538 0.035755150020122528076 0.035755150020122528076 0.015323635190725326538 0.007661817595362663269 0.0025539391208440065384 0 0 0 0 0 0 0 0 0 0 0 0 0 0 0 0 0 0 0 0 0 0 0 0 0 0 0 0 0 0 0 0 0 0 0 0 0 0 0 0 0 0 0 0 0 0 0 0 0 0 0 0 0 0 0 0 0 0 0 0 0 0 0 0 0 0 0 0 0 0 0 0 0 0 0 0 0 0 0 0 0 0 0 0 0 0 0 0 0 0 0 0 0 0 0 0 0 0 0 0 0 0 0 0 0 0 0 0 0 0 0 0 0 0 0 0 0 0 0 0 0 0 0 0 0 0 0 0 0 0 0 0 0 0 0 0 0 0 0 0 0 0 0 0 0 0 0 0 0 0 0 0 0 0 0 0 0 0 0 0 0 0 0 0 0 0 0 0 0 0 0 0 0 0 0 0 0 0 0 0 0 0 0 0 0 0 0 0 0 0 0 0 0 0 0 0 0 0 0 0 0 0 0 0 0 0 0 0 0 0 0 0 0 0 0 0 0 0 0 0 0 0 0 0 0 0 0 0 0 0 0 0 0 0 0 0 0 0 0 0 0.020431512966752052307 0.061294540762901306152 0.020431512966752052307 0 0 0 0 0 0 0 0 0 0 0 0 0 0 0 0 0 0 0 0 0 0 0 0 0 0 0 0 0 0 0 0 0 0 0 0 0 0 0 0 0 0 0 0.015323635190725326538 0.079172119498252868652 0.13791270554065704346 0.048524845391511917114 0.0051078782416880130768 0 0 0 0.007661817595362663269 0.033201210200786590576 0.035755150020122528076 0.012769696302711963654 0.0025539391208440065384 0 0.31924235820770263672 1.3535877466201782227 1.5349173545837402344 0.49035632610321044922 0.030647270381450653076 0 0 0 0 0 0 0 0 0.0025539391208440065384 0.015323635190725326538 0.035755150020122528076 0.015323635190725326538 0.0025539391208440065384 0 0 0.0025539391208440065384 0.025539392605423927307 0.066402420401573181152 0.025539392605423927307 0.0025539391208440065384 0 0 0 0 0 0 0 0 0 0 0 0 0 0 0 0 0 0 0 0 0 0 0 0 0 0 0 0 0 0 0 0 0 0 0 0 0 0 0 0 0 0 0 0 0 0 0 0 0 0 0 0 0 0 0 0 0 0 0 0 0 0 0 0 0 0 0 0 0 0 0 0 0 0 0 0 0 0 0 0 0 0 0 0 0 0 0 0 0 0 0 0 0 0 0 0 0 0 0 0 0 0 0 
0.0025539391208440065384 0.007661817595362663269 0.015323635190725326538 0.035755150020122528076 0.033201210200786590576 0.007661817595362663269 0 0 0 0 0 0 0 0 0 0 0 0 0 0 0 0 0 0 0 0 0 0 0 0 0.010215756483376026154 0.030647270381450653076 0.010215756483376026154 0 0 0.007661817595362663269 0.030647270381450653076 0.035755150020122528076 0.033201210200786590576 0.012769696302711963654 0.0025539391208440065384 0 0 0 0 0 0 0 0 0 0 0 0 0 0 0 0 0 0 0 0 0 0 0 0 0 0 0 0 0 0 0 0 0 0 0 0 0 0 0 0 0 0 0 0 0 0 0 0 0 0 0 0 0 0 0 0 0 0 0 0 0 0 0 0 0 0 0 0 0 0 0 0 0 0 0 0 0 0 0 0 0 0 0 0 0 0 0 0 0 0 0 0 0 0 0 0 0 0 0 0 0 0 0 0 0 0 0 0 0 0 0 0 0 0 0 0 0 0 0 0 0 0 0 0 0 0 0 0 0 0 0 0 0 0 0 0 0 0 0 0 0 0 0 0 0 0 0 0 0 0 0 0 0 0 0 0 0 0 0 0 0 0 0 0 0 0 0 0 0 0 0 0 0 0 0 0 0 0 0 0 0 0 0 0 0 0 0 0 0 0 0 0 0 0 0 0 0 0 0 0 0 0 0 0 0 0 0 0 0 0 0 0 0 0 0 0 0 0 0 0 0 0 0 0 0 0 0 0 0 0 0 0 0 0 0 0 0 0 0 0 0 0.0025539391208440065384 0.025539392605423927307 0.063848480582237243652 0.020431512966752052307 0 0 0 0 0 0 0 0 0 0 0 0 0 0 0 0 0 0 0 0 0 0 0 0 0 0 0 0 0 0 0 0 0 0 0 0 0 0 0 0 0 0 0 0.0025539391208440065384 0.040863025933504104614 0.13535876572132110596 0.097049690783023834229 0.020431512966752052307 0 0 0 0.0025539391208440065384 0.012769696302711963654 0.035755150020122528076 0.033201210200786590576 0.007661817595362663269 0 0.37032115459442138672 1.4608532190322875977 1.3918968439102172852 0.39330664277076721191 0.020431512966752052307 0 0 0 0 0 0 0 0 0 0.007661817595362663269 0.033201210200786590576 0.033201210200786590576 0.007661817595362663269 0 0 0 0.017877575010061264038 0.063848480582237243652 0.043416965752840042114 0.007661817595362663269 0 0 0 0 0 0 0 0 0 0 0 0 0 0 0 0 0 0 0 0 0 0 0 0 0 0 0 0 0 0 0 0 0 0 0 0 0 0 0 0 0 0 0 0 0 0 0 0 0 0 0 0 0 0 0 0 0 0 0 0 0 0 0 0 0 0 0 0 0 0 0 0 0 0 0 0 0 0 0 0 0 0 0 0 0 0 0 0 0 0 0 0 0 0 0 0 0 0 0 0 0 0 0 
0.007661817595362663269 0.030647270381450653076 0.035755150020122528076 0.033201210200786590576 0.012769696302711963654 0.0025539391208440065384 0 0 0 0 0 0 0 0 0 0 0 0 0 0 0 0 0 0 0 0 0 0 0 0 0.010215756483376026154 0.030647270381450653076 0.010215756483376026154 0.0025539391208440065384 0.007661817595362663269 0.017877575010061264038 0.035755150020122528076 0.017877575010061264038 0.007661817595362663269 0.0025539391208440065384 0 0 0 0 0 0 0 0 0 0 0 0 0 0 0 0 0 0 0 0 0 0 0 0 0 0 0 0 0 0 0 0 0 0 0 0 0 0 0 0 0 0 0 0 0 0 0 0 0 0 0 0 0 0 0 0 0 0 0 0 0 0 0 0 0 0 0 0 0 0 0 0 0 0 0 0 0 0 0 0 0 0 0 0 0 0 0 0 0 0 0 0 0 0 0 0 0 0 0 0 0 0 0 0 0 0 0 0 0 0 0 0 0 0 0 0 0 0 0 0 0 0 0 0 0 0 0 0 0 0 0 0 0 0 0 0 0 0 0 0 0 0 0 0 0 0 0 0 0 0 0 0 0 0 0 0 0 0 0 0 0 0 0 0 0 0 0 0 0 0 0 0 0 0 0 0 0 0 0 0 0 0 0 0 0 0 0 0 0 0 0 0 0 0 0 0 0 0 0 0 0 0 0 0 0 0 0 0 0 0 0 0 0 0 0 0 0 0 0 0 0 0 0 0 0 0 0 0 0 0 0 0 0 0 0 0 0 0 0 0 0 0 0.007661817595362663269 0.043416965752840042114 0.063848480582237243652 0.017877575010061264038 0 0 0 0 0 0 0 0 0 0 0 0 0 0 0 0 0 0 0 0 0 0 0 0 0 0 0 0 0 0 0 0 0 0 0 0 0 0 0 0 0 0 0 0 0.020431512966752052307 0.097049690783023834229 0.13791270554065704346 0.045970901846885681152 0.0051078782416880130768 0 0 0 0.0025539391208440065384 0.015323635190725326538 0.035755150020122528076 0.015323635190725326538 0.0025539391208440065384 0.38819873332977294922 1.4480835199356079102 1.2335526943206787109 0.31924238801002502441 0.012769696302711963654 0 0 0 0 0 0 0 0 0 0.0025539391208440065384 0.015323635190725326538 0.033201210200786590576 0.010215756483376026154 0 0 0 0.012769696302711963654 0.045970901846885681152 0.043416965752840042114 0.010215756483376026154 0 0 0 0 0 0 0 0 0 0 0 0 0 0 0 0 0 0 0 0 0 0 0 0 0 0 0 0 0 0 0 0 0 0 0 0 0 0 0 0 0 0 0 0 0 0 0 0 0 0 0 0 0 0 0 0 0 0 0 0 0 0 0 0 0 0 0 0 0 0 0 0 0 0 0 0 0 0 0 0 0 0 0 0 0 0 0 0 0 0 0 0 0 0 0 0 0 0 0 0 0 0 0 
0.010215756483376026154 0.033201210200786590576 0.017877575010061264038 0.007661817595362663269 0.0025539391208440065384 0 0 0 0 0 0 0 0 0 0 0 0 0 0 0 0 0 0 0 0 0 0 0 0 0 0.010215756483376026154 0.030647270381450653076 0.010215756483376026154 0.007661817595362663269 0.030647270381450653076 0.035755150020122528076 0.030647270381450653076 0.007661817595362663269 0 0 0 0 0 0 0 0 0 0 0 0 0 0 0 0 0 0 0 0 0 0 0 0 0 0 0 0 0 0 0 0 0 0 0 0 0 0 0 0 0 0 0 0 0 0 0 0 0 0 0 0 0 0 0 0 0 0 0 0 0 0 0 0 0 0 0 0 0 0 0 0 0 0 0 0 0 0 0 0 0 0 0 0 0 0 0 0 0 0 0 0 0 0 0 0 0 0 0 0 0 0 0 0 0 0 0 0 0 0 0 0 0 0 0 0 0 0 0 0 0 0 0 0 0 0 0 0 0 0 0 0 0 0 0 0 0 0 0 0 0 0 0 0 0 0 0 0 0 0 0 0 0 0 0 0 0 0 0 0 0 0 0 0 0 0 0 0 0 0 0 0 0 0 0 0 0 0 0 0 0 0 0 0 0 0 0 0 0 0 0 0 0 0 0 0 0 0 0 0 0 0 0 0 0 0 0 0 0 0 0 0 0 0 0 0 0 0 0 0 0 0 0 0 0 0 0 0 0 0 0 0 0 0 0 0 0 0 0 0 0 0 0 0 0.010215756483376026154 0.043416965752840042114 0.045970901846885681152 0.012769696302711963654 0 0 0 0 0 0 0 0 0 0 0 0 0 0 0 0 0 0 0 0 0 0 0 0 0 0 0 0 0 0 0 0 0 0 0 0 0 0 0 0 0 0 0 0 0.0051078782416880130768 0.045970901846885681152 0.13535876572132110596 0.091941818594932556152 0.017877575010061264038 0 0 0 0 0.007661817595362663269 0.033201210200786590576 0.033201210200786590576 0.007661817595362663269 0.38819873332977294922 1.4302059412002563477 1.1952434778213500977 0.29625695943832397461 0.010215756483376026154 0 0 0 0 0 0 0 0 0 0 0.010215756483376026154 0.030647270381450653076 0.010215756483376026154 0 0 0 0.010215756483376026154 0.040863025933504104614 0.040863025933504104614 0.010215756483376026154 0 0 0 0 0 0 0 0 0 0 0 0 0 0 0 0 0 0 0 0 0 0 0 0 0 0 0 0 0 0 0 0 0 0 0 0 0 0 0 0 0 0 0 0 0 0 0 0 0 0 0 0 0 0 0 0 0 0 0 0 0 0 0 0 0 0 0 0 0 0 0 0 0 0 0 0 0 0 0 0 0 0 0 0 0 0 0 0 0 0 0 0 0 0 0 0 0 0 0 0 0 0 0 
0.010215756483376026154 0.030647270381450653076 0.010215756483376026154 0 0 0 0 0 0 0 0 0 0 0 0 0 0 0 0 0 0 0 0 0 0 0 0 0 0 0 0.010215756483376026154 0.033201210200786590576 0.015323635190725326538 0.012769696302711963654 0.033201210200786590576 0.017877575010061264038 0.007661817595362663269 0.0025539391208440065384 0 0 0 0 0 0 0 0 0 0 0 0 0 0 0 0 0 0 0 0 0 0 0 0 0 0 0 0 0 0 0 0 0 0 0 0 0 0 0 0 0 0 0 0 0 0 0 0 0 0 0 0 0 0 0 0 0 0 0 0 0 0 0 0 0 0 0 0 0 0 0 0 0 0 0 0 0 0 0 0 0 0 0 0 0 0 0 0 0 0 0 0 0 0 0 0 0 0 0 0 0 0 0 0 0 0 0 0 0 0 0 0 0 0 0 0 0 0 0 0 0 0 0 0 0 0 0 0 0 0 0 0 0 0 0 0 0 0 0 0 0 0 0 0 0 0 0 0 0 0 0 0 0 0 0 0 0 0 0 0 0 0 0 0 0 0 0 0 0 0 0 0 0 0 0 0 0 0 0 0 0 0 0 0 0 0 0 0 0 0 0 0 0 0 0 0 0 0 0 0 0 0 0 0 0 0 0 0 0 0 0 0 0 0 0 0 0 0 0 0 0 0 0 0 0 0 0 0 0 0 0 0 0 0 0 0 0 0 0 0 0 0 0 0 0.010215756483376026154 0.040863025933504104614 0.040863025933504104614 0.010215756483376026154 0 0 0 0 0 0 0 0 0 0 0 0 0 0 0 0 0 0 0 0 0 0 0 0 0 0 0 0 0 0 0 0 0 0 0 0 0 0 0 0 0 0 0 0 0 0.022985450923442840576 0.094495750963687896729 0.10981938987970352173 0.028093332424759864807 0 0 0 0 0.0025539391208440065384 0.015323635190725326538 0.033201210200786590576 0.010215756483376026154 0.38819873332977294922 1.4302059412002563477 1.1952434778213500977 0.29625695943832397461 0.010215756483376026154 0 0 0 0 0 0 0 0 0 0 0.010215756483376026154 0.030647270381450653076 0.010215756483376026154 0 0 0 0.010215756483376026154 0.043416965752840042114 0.045970901846885681152 0.012769696302711963654 0 0 0 0 0 0 0 0 0 0 0 0 0 0 0 0 0 0 0 0 0 0 0 0 0 0 0 0 0 0 0 0 0 0 0 0 0 0 0 0 0 0 0 0 0 0 0 0 0 0 0 0 0 0 0 0 0 0 0 0 0 0 0 0 0 0 0 0 0 0 0 0 0 0 0 0 0 0 0 0 0 0 0 0 0 0 0 0 0 0 0 0 0 0 0 0 0 0 0 0 0 0 0 
0.010215756483376026154 0.030647270381450653076 0.010215756483376026154 0 0 0 0 0 0 0 0 0 0 0 0 0 0 0 0 0 0 0 0 0 0 0 0 0 0 0 0.007661817595362663269 0.033201210200786590576 0.035755150020122528076 0.022985450923442840576 0.033201210200786590576 0.010215756483376026154 0 0 0 0 0 0 0 0 0 0 0 0 0 0 0 0 0 0 0 0 0 0 0 0 0 0 0 0 0 0 0 0 0 0 0 0 0 0 0 0 0 0 0 0 0 0 0 0 0 0 0 0 0 0 0 0 0 0 0 0 0 0 0 0 0 0 0 0 0 0 0 0 0 0 0 0 0 0 0 0 0 0 0 0 0 0 0 0 0 0 0 0 0 0 0 0 0 0 0 0 0 0 0 0 0 0 0 0 0 0 0 0 0 0 0 0 0 0 0 0 0 0 0 0 0 0 0 0 0 0 0 0 0 0 0 0 0 0 0 0 0 0 0 0 0 0 0 0 0 0 0 0 0 0 0 0 0 0 0 0 0 0 0 0 0 0 0 0 0 0 0 0 0 0 0 0 0 0 0 0 0 0 0 0 0 0 0 0 0 0 0 0 0 0 0 0 0 0 0 0 0 0 0 0 0 0 0 0 0 0 0 0 0 0 0 0 0 0 0 0 0 0 0 0 0 0 0 0 0 0 0 0 0 0 0 0 0 0 0 0 0 0 0 0 0 0 0.010215756483376026154 0.040863025933504104614 0.040863025933504104614 0.010215756483376026154 0 0 0 0 0 0 0 0 0 0 0 0 0 0 0 0 0 0 0 0 0 0 0 0 0 0 0 0 0 0 0 0 0 0 0 0 0 0 0 0 0 0 0 0 0 0.012769696302711963654 0.068956352770328521729 0.11237332969903945923 0.038309089839458465576 0.0025539391208440065384 0 0 0 0 0.010215756483376026154 0.030647270381450653076 0.010215756483376026154 0.39075267314910888672 1.4353138208389282227 1.1977974176406860352 0.29625695943832397461 0.010215756483376026154 0 0 0 0 0 0 0 0 0 0 0.010215756483376026154 0.030647270381450653076 0.010215756483376026154 0 0 0 0.007661817595362663269 0.043416965752840042114 0.063848480582237243652 0.017877575010061264038 0 0 0 0 0 0 0 0 0 0 0 0 0 0 0 0 0 0 0 0 0 0 0 0 0 0 0 0 0 0 0 0 0 0 0 0 0 0 0 0 0 0 0 0 0 0 0 0 0 0 0 0 0 0 0 0 0 0 0 0 0 0 0 0 0 0 0 0 0 0 0 0 0 0 0 0 0 0 0 0 0 0 0 0 0 0 0 0 0 0 0 0 0 0 0 0 0 0 0 0 0 0 0 
0.010215756483376026154 0.030647270381450653076 0.010215756483376026154 0 0 0 0 0 0 0 0 0 0 0 0 0 0 0 0 0 0 0 0 0 0 0 0 0 0 0 0.0025539391208440065384 0.015323635190725326538 0.040863025933504104614 0.043416965752840042114 0.033201210200786590576 0.007661817595362663269 0 0 0 0 0 0 0 0 0 0 0 0 0 0 0 0 0 0 0 0 0 0 0 0 0 0 0 0 0 0 0 0 0 0 0 0 0 0 0 0 0 0 0 0 0 0 0 0 0 0 0 0 0 0 0 0 0 0 0 0 0 0 0 0 0 0 0 0 0 0 0 0 0 0 0 0 0 0 0 0 0 0 0 0 0 0 0 0 0 0 0 0 0 0 0 0 0 0 0 0 0 0 0 0 0 0 0 0 0 0 0 0 0 0 0 0 0 0 0 0 0 0 0 0 0 0 0 0 0 0 0 0 0 0 0 0 0 0 0 0 0 0 0 0 0 0 0 0 0 0 0 0 0 0 0 0 0 0 0 0 0 0 0 0 0 0 0 0 0 0 0 0 0 0 0 0 0 0 0 0 0 0 0 0 0 0 0 0 0 0 0 0 0 0 0 0 0 0 0 0 0 0 0 0 0 0 0 0 0 0 0 0 0 0 0 0 0 0 0 0 0 0 0 0 0 0 0 0 0 0 0 0 0 0 0 0 0 0 0 0 0 0 0 0 0 0 0.010215756483376026154 0.040863025933504104614 0.040863025933504104614 0.010215756483376026154 0 0 0 0 0 0 0 0 0 0 0 0 0 0 0 0 0 0 0 0 0 0 0 0 0 0 0 0 0 0 0 0 0 0 0 0 0 0 0 0 0 0 0 0 0 0.007661817595362663269 0.061294540762901306152 0.1302509009838104248 0.066402420401573181152 0.010215756483376026154 0 0 0 0 0.010215756483376026154 0.030647270381450653076 0.010215756483376026154 0.39586055278778076172 1.4582992792129516602 1.2080131769180297852 0.29881089925765991211 0.010215756483376026154 0 0 0 0 0 0 0 0 0 0 0.010215756483376026154 0.033201210200786590576 0.015323635190725326538 0.0025539391208440065384 0 0 0.0025539391208440065384 0.025539392605423927307 0.063848480582237243652 0.020431512966752052307 0 0 0 0 0 0 0 0 0 0 0 0 0 0 0 0 0 0 0 0 0 0 0 0 0 0 0 0 0 0 0 0 0 0 0 0 0 0 0 0 0 0 0 0 0 0 0 0 0 0 0 0 0 0 0 0 0 0 0 0 0 0 0 0 0 0 0 0 0 0 0 0 0 0 0 0 0 0 0 0 0 0 0 0 0 0 0 0 0 0 0 0 0 0 0 0 0 0 0 0 0 0 0 
0.010215756483376026154 0.030647270381450653076 0.010215756483376026154 0 0 0 0 0 0 0 0 0 0 0 0 0 0 0 0 0 0 0 0 0 0 0 0 0 0 0 0 0.010215756483376026154 0.040863025933504104614 0.043416965752840042114 0.015323635190725326538 0.0025539391208440065384 0 0 0 0 0 0 0 0 0 0 0 0 0 0 0 0 0 0 0 0 0 0 0 0 0 0 0 0 0 0 0 0 0 0 0 0 0 0 0 0 0 0 0 0 0 0 0 0 0 0 0 0 0 0 0 0 0 0 0 0 0 0 0 0 0 0 0 0 0 0 0 0 0 0 0 0 0 0 0 0 0 0 0 0 0 0 0 0 0 0 0 0 0 0 0 0 0 0 0 0 0 0 0 0 0 0 0 0 0 0 0 0 0 0 0 0 0 0 0 0 0 0 0 0 0 0 0 0 0 0 0 0 0 0 0 0 0 0 0 0 0 0 0 0 0 0 0 0 0 0 0 0 0 0 0 0 0 0 0 0 0 0 0 0 0 0 0 0 0 0 0 0 0 0 0 0 0 0 0 0 0 0 0 0 0 0 0 0 0 0 0 0 0 0 0 0 0 0 0 0 0 0 0 0 0 0 0 0 0 0 0 0 0 0 0 0 0 0 0 0 0 0 0 0 0 0 0 0 0 0 0 0 0 0 0 0 0 0 0 0 0 0 0 0 0 0 0.010215756483376026154 0.040863025933504104614 0.043416965752840042114 0.015323635190725326538 0.0025539391208440065384 0 0 0 0 0 0 0 0 0 0 0 0 0 0 0 0 0 0 0 0 0 0 0 0 0 0 0 0 0 0 0 0 0 0 0 0 0 0 0 0 0 0 0 0 0.0025539391208440065384 0.035755150020122528076 0.11237332969903945923 0.086833931505680084229 0.017877575010061264038 0 0 0 0 0.010215756483376026154 0.033201210200786590576 0.020431512966752052307 0.40607631206512451172 1.4812846183776855469 1.2616460323333740234 0.32179632782936096191 0.010215756483376026154 0 0 0 0 0 0 0 0 0 0 0.007661817595362663269 0.033201210200786590576 0.033201210200786590576 0.007661817595362663269 0 0 0 0.020431512966752052307 0.061294540762901306152 0.020431512966752052307 0 0 0 0 0 0 0 0 0 0 0 0 0 0 0 0 0 0 0 0 0 0 0 0 0 0 0 0 0 0 0 0 0 0 0 0 0 0 0 0 0 0 0 0 0 0 0 0 0 0 0 0 0 0 0 0 0 0 0 0 0 0 0 0 0 0 0 0 0 0 0 0 0 0 0 0 0 0 0 0 0 0 0 0 0 0 0 0 0 0 0 0 0 0 0 0 0 0 0 0 0 0 0 
0.010215756483376026154 0.030647270381450653076 0.010215756483376026154 0 0 0 0 0 0 0 0 0 0 0 0 0 0 0 0 0 0 0 0 0 0 0 0 0 0 0 0 0.010215756483376026154 0.040863025933504104614 0.040863025933504104614 0.010215756483376026154 0 0 0 0 0 0 0 0 0 0 0 0 0 0 0 0 0 0 0 0 0 0 0 0 0 0 0 0 0 0 0 0 0 0 0 0 0 0 0 0 0 0 0 0 0 0 0 0 0 0 0 0 0 0 0 0 0 0 0 0 0 0 0 0 0 0 0 0 0 0 0 0 0 0 0 0 0 0 0 0 0 0 0 0 0 0 0 0 0 0 0 0 0 0 0 0 0 0 0 0 0 0 0 0 0 0 0 0 0 0 0 0 0 0 0 0 0 0 0 0 0 0 0 0 0 0 0 0 0 0 0 0 0 0 0 0 0 0 0 0 0 0 0 0 0 0 0 0 0 0 0 0 0 0 0 0 0 0 0 0 0 0 0 0 0 0 0 0 0 0 0 0 0 0 0 0 0 0 0 0 0 0 0 0 0 0 0 0 0 0 0 0 0 0 0 0 0 0 0 0 0 0 0 0 0 0 0 0 0 0 0 0 0 0 0 0 0 0 0 0 0 0 0 0 0 0 0 0 0 0 0 0 0 0 0 0 0 0 0 0 0 0 0 0 0 0 0 0.010215756483376026154 0.038309089839458465576 0.043416965752840042114 0.033201210200786590576 0.007661817595362663269 0 0 0 0 0 0 0 0 0 0 0 0 0 0 0 0 0 0 0 0 0 0 0 0 0 0 0 0 0 0 0 0 0 0 0 0 0 0 0 0 0 0 0 0 0 0.022985454648733139038 0.086833931505680084229 0.084279991686344146729 0.020431512966752052307 0 0 0 0 0.007661817595362663269 0.030647270381450653076 0.043416965752840042114 0.41884598135948181152 1.4659610986709594727 1.4174362421035766602 0.38309085369110107422 0.012769696302711963654 0 0 0 0 0 0 0 0 0 0 0.0025539391208440065384 0.015323635190725326538 0.033201210200786590576 0.010215756483376026154 0 0 0 0.020431512966752052307 0.063848480582237243652 0.025539392605423927307 0.0025539391208440065384 0 0 0 0 0 0 0 0 0 0 0 0 0 0 0 0 0 0 0 0 0 0 0 0 0 0 0 0 0 0 0 0 0 0 0 0 0 0 0 0 0 0 0 0 0 0 0 0 0 0 0 0 0 0 0 0 0 0 0 0 0 0 0 0 0 0 0 0 0 0 0 0 0 0 0 0 0 0 0 0 0 0 0 0 0 0 0 0 0 0 0 0 0 0 0 0 0 0 0 0 0 0 
0.010215756483376026154 0.030647270381450653076 0.010215756483376026154 0 0 0 0 0 0 0 0 0 0 0 0 0 0 0 0 0 0 0 0 0 0 0 0 0 0 0 0 0.010215756483376026154 0.040863025933504104614 0.040863025933504104614 0.010215756483376026154 0 0 0 0 0 0 0 0 0 0 0 0 0 0 0 0 0 0 0 0 0 0 0 0 0 0 0 0 0 0 0 0 0 0 0 0 0 0 0 0 0 0 0 0 0 0 0 0 0 0 0 0 0 0 0 0 0 0 0 0 0 0 0 0 0 0 0 0 0 0 0 0 0 0 0 0 0 0 0 0 0 0 0 0 0 0 0 0 0 0 0 0 0 0 0 0 0 0 0 0 0 0 0 0 0 0 0 0 0 0 0 0 0 0 0 0 0 0 0 0 0 0 0 0 0 0 0 0 0 0 0 0 0 0 0 0 0 0 0 0 0 0 0 0 0 0 0 0 0 0 0 0 0 0 0 0 0 0 0 0 0 0 0 0 0 0 0 0 0 0 0 0 0 0 0 0 0 0 0 0 0 0 0 0 0 0 0 0 0 0 0 0 0 0 0 0 0 0 0 0 0 0 0 0 0 0 0 0 0 0 0 0 0 0 0 0 0 0 0 0 0 0 0 0 0 0 0 0 0 0 0 0 0 0 0 0 0 0 0 0 0 0 0 0 0 0 0 0.010215756483376026154 0.033201210200786590576 0.025539392605423927307 0.033201210200786590576 0.010215756483376026154 0 0 0 0 0 0 0 0 0 0 0 0 0 0 0 0 0 0 0 0 0 0 0 0 0 0 0 0 0 0 0 0 0 0 0 0 0 0 0 0 0 0 0 0 0 0.020431512966752052307 0.081726051867008209229 0.081726051867008209229 0.020431512966752052307 0 0 0 0 0.0025539391208440065384 0.007661817595362663269 0.028093332424759864807 0.36265936493873596191 1.3357101678848266602 1.5834423303604125977 0.48780238628387451172 0.022985450923442840576 0 0 0 0 0 0 0 0 0 0 0 0.010215756483376026154 0.033201210200786590576 0.015323635190725326538 0.0025539391208440065384 0 0 0.017877575010061264038 0.066402420401573181152 0.048524845391511917114 0.010215756483376026154 0 0 0 0 0 0 0 0 0 0 0 0 0 0 0 0 0 0 0 0 0 0 0 0 0 0 0 0 0 0 0 0 0 0 0 0 0 0 0 0 0 0 0 0 0 0 0 0 0 0 0 0 0 0 0 0 0 0 0 0 0 0 0 0 0 0 0 0 0 0 0 0 0 0 0 0 0 0 0 0 0 0 0 0 0 0 0 0 0 0 0 0 0 0 0 0 0 0 0 0 0 0 
0.010215756483376026154 0.030647270381450653076 0.010215756483376026154 0 0 0 0 0 0 0 0 0 0 0 0 0 0 0 0 0 0 0 0 0 0 0 0 0 0 0 0 0.010215756483376026154 0.040863025933504104614 0.040863025933504104614 0.010215756483376026154 0 0 0 0 0 0 0 0 0 0 0 0 0 0 0 0 0 0 0 0 0 0 0 0 0 0 0 0 0 0 0 0 0 0 0 0 0 0 0 0 0 0 0 0 0 0 0 0 0 0 0 0 0 0 0 0 0 0 0 0 0 0 0 0 0 0 0 0 0 0 0 0 0 0 0 0 0 0 0 0 0 0 0 0 0 0 0 0 0 0 0 0 0 0 0 0 0 0 0 0 0 0 0 0 0 0 0 0 0 0 0 0 0 0 0 0 0 0 0 0 0 0 0 0 0 0 0 0 0 0 0 0 0 0 0 0 0 0 0 0 0 0 0 0 0 0 0 0 0 0 0 0 0 0 0 0 0 0 0 0 0 0 0 0 0 0 0 0 0 0 0 0 0 0 0 0 0 0 0 0 0 0 0 0 0 0 0 0 0 0 0 0 0 0 0 0 0 0 0 0 0 0 0 0 0 0 0 0 0 0 0 0 0 0 0 0 0 0 0 0 0 0 0 0 0 0 0 0 0 0 0 0 0 0 0 0 0 0 0 0 0 0 0 0 0 0 0 0.010215756483376026154 0.030647270381450653076 0.020431512966752052307 0.030647270381450653076 0.010215756483376026154 0 0 0 0 0 0 0 0 0 0 0 0 0 0 0 0 0 0 0 0 0 0 0 0 0 0 0 0 0 0 0 0 0 0 0 0 0 0 0 0 0 0 0 0 0 0.020431512966752052307 0.081726051867008209229 0.081726051867008209229 0.020431512966752052307 0 0 0 0 0 0 0.020431512966752052307 0.28348723053932189941 1.1773658990859985352 1.7341246604919433594 0.60017573833465576172 0.035755150020122528076 0 0 0 0 0 0 0 0 0 0 0 0.007661817595362663269 0.033201210200786590576 0.033201210200786590576 0.007661817595362663269 0 0 0.010215756483376026154 0.048524845391511917114 0.071510300040245056152 0.028093332424759864807 0.0051078782416880130768 0 0 0 0 0 0 0 0 0 0 0 0 0 0 0 0 0 0 0 0 0 0 0 0 0 0 0 0 0 0 0 0 0 0 0 0 0 0 0 0 0 0 0 0 0 0 0 0 0 0 0 0 0 0 0 0 0 0 0 0 0 0 0 0 0 0 0 0 0 0 0 0 0 0 0 0 0 0 0 0 0 0 0 0 0 0 0 0 0 0 0 0 0 0 0 0 0 0 0 0 0 
0.010215756483376026154 0.030647270381450653076 0.010215756483376026154 0 0 0 0 0 0 0 0 0 0 0 0 0 0 0 0 0 0 0 0 0 0 0 0 0 0 0 0.0025539391208440065384 0.015323635190725326538 0.043416965752840042114 0.040863025933504104614 0.010215756483376026154 0 0 0 0 0 0 0 0 0 0 0 0 0 0 0 0 0 0 0 0 0 0 0 0 0 0 0 0 0 0 0 0 0 0 0 0 0 0 0 0 0 0 0 0 0 0 0 0 0 0 0 0 0 0 0 0 0 0 0 0 0 0 0 0 0 0 0 0 0 0 0 0 0 0 0 0 0 0 0 0 0 0 0 0 0 0 0 0 0 0 0 0 0 0 0 0 0 0 0 0 0 0 0 0 0 0 0 0 0 0 0 0 0 0 0 0 0 0 0 0 0 0 0 0 0 0 0 0 0 0 0 0 0 0 0 0 0 0 0 0 0 0 0 0 0 0 0 0 0 0 0 0 0 0 0 0 0 0 0 0 0 0 0 0 0 0 0 0 0 0 0 0 0 0 0 0 0 0 0 0 0 0 0 0 0 0 0 0 0 0 0 0 0 0 0 0 0 0 0 0 0 0 0 0 0 0 0 0 0 0 0 0 0 0 0 0 0 0 0 0 0 0 0 0 0 0 0 0 0 0 0 0 0 0 0 0 0 0 0 0 0 0 0 0 0 0 0 0.010215756483376026154 0.030647270381450653076 0.020431512966752052307 0.033201210200786590576 0.017877575010061264038 0.007661817595362663269 0.0025539391208440065384 0 0 0 0 0 0 0 0 0 0 0 0 0 0 0 0 0 0 0 0 0 0 0 0 0 0 0 0 0 0 0 0 0 0 0 0 0 0 0 0 0 0 0 0.020431512966752052307 0.081726051867008209229 0.081726051867008209229 0.020431512966752052307 0 0 0 0 0 0 0.017877575010061264038 0.20686908066272735596 0.99348235130310058594 1.7903113365173339844 0.66402417421340942383 0.045970909297466278076 0 0 0 0 0 0 0 0 0 0 0 0.0025539391208440065384 0.015323635190725326538 0.035755150020122528076 0.017877575010061264038 0.010215756483376026154 0.010215756483376026154 0.012769696302711963654 0.030647270381450653076 0.079172119498252868652 0.079172119498252868652 0.028093332424759864807 0.0051078782416880130768 0 0 0 0 0 0 0 0 0 0 0 0 0 0 0 0 0 0 0 0 0 0 0 0 0 0 0 0 0 0 0 0 0 0 0 0 0 0 0 0 0 0 0 0 0 0 0 0 0 0 0 0 0 0 0 0 0 0 0 0 0 0 0 0 0 0 0 0 0 0 0 0 0 0 0 0 0 0 0 0 0 0 0 0 0 0 0 0 0 0 0 0 0 0 0 0 0 0 0 0 
0.010215756483376026154 0.030647270381450653076 0.010215756483376026154 0 0 0 0 0 0 0 0 0 0 0 0 0 0 0 0 0 0 0 0 0 0 0 0 0 0 0.0025539391208440065384 0.015323635190725326538 0.043416965752840042114 0.051078785210847854614 0.040863025933504104614 0.010215756483376026154 0 0 0 0 0 0 0 0 0 0 0 0 0 0 0 0 0 0 0 0 0 0 0 0 0 0 0 0 0 0 0 0 0 0 0 0 0 0 0 0 0 0 0 0 0 0 0 0 0 0 0 0 0 0 0 0 0 0 0 0 0 0 0 0 0 0 0 0 0 0 0 0 0 0 0 0 0 0 0 0 0 0 0 0 0 0 0 0 0 0 0 0 0 0 0 0 0 0 0 0 0 0 0 0 0 0 0 0 0 0 0 0 0 0 0 0 0 0 0 0 0 0 0 0 0 0 0 0 0 0 0 0 0 0 0 0 0 0 0 0 0 0 0 0 0 0 0 0 0 0 0 0 0 0 0 0 0 0 0 0 0 0 0 0 0 0 0 0 0 0 0 0 0 0 0 0 0 0 0 0 0 0 0 0 0 0 0 0 0 0 0 0 0 0 0 0 0 0 0 0 0 0 0 0 0 0 0 0 0 0 0 0 0 0 0 0 0 0 0 0 0 0 0 0 0 0 0 0 0 0 0 0 0 0 0 0 0 0 0 0 0 0 0 0 0 0 0 0.010215756483376026154 0.033201210200786590576 0.025539392605423927307 0.038309089839458465576 0.038309089839458465576 0.030647270381450653076 0.007661817595362663269 0 0 0 0 0 0 0 0 0 0 0 0 0 0 0 0 0 0 0 0 0 0 0 0 0 0 0 0 0 0 0 0 0 0 0 0 0 0 0 0 0 0 0 0.020431512966752052307 0.081726051867008209229 0.081726051867008209229 0.020431512966752052307 0 0 0 0 0 0 0.012769696302711963654 0.13535876572132110596 0.86833930015563964844 1.9001306295394897461 0.84535384178161621094 0.1098193824291229248 0 0 0 0 0 0 0 0 0 0 0 0 0.007661817595362663269 0.030647270381450653076 0.033201210200786590576 0.030647270381450653076 0.030647270381450653076 0.030647270381450653076 0.035755150020122528076 0.058740600943565368652 0.1047115027904510498 0.086833931505680084229 0.033201210200786590576 0.007661817595362663269 0 0 0 0 0 0 0 0 0 0 0 0 0 0 0 0 0 0 0 0 0 0 0 0 0 0 0 0 0 0 0 0 0 0 0 0 0 0 0 0 0 0 0 0 0 0 0 0 0 0 0 0 0 0 0 0 0 0 0 0 0 0 0 0 0 0 0 0 0 0 0 0 0 0 0 0 0 0 0 0 0 0 0 0 0 0 0 0 0 0 0 0 0 0 0 0 0 0 0 
0.010215756483376026154 0.030647270381450653076 0.010215756483376026154 0 0 0 0 0 0 0 0 0 0 0 0 0 0 0 0 0 0 0 0 0 0 0 0.0025539391208440065384 0.010215756483376026154 0.017877575010061264038 0.025539392605423927307 0.051078785210847854614 0.068956352770328521729 0.048524845391511917114 0.033201210200786590576 0.007661817595362663269 0 0 0 0 0 0 0 0 0 0 0 0 0 0 0 0 0 0 0 0 0 0 0 0 0 0 0 0 0 0 0 0 0 0 0 0 0 0 0 0 0 0 0 0 0 0 0 0 0 0 0 0 0 0 0 0 0 0 0 0 0 0 0 0 0 0 0 0 0 0 0 0 0 0 0 0 0 0 0 0 0 0 0 0 0 0 0 0 0 0 0 0 0 0 0 0 0 0 0 0 0 0 0 0 0 0 0 0 0 0 0 0 0 0 0 0 0 0 0 0 0 0 0 0 0 0 0 0 0 0 0 0 0 0 0 0 0 0 0 0 0 0 0 0 0 0 0 0 0 0 0 0 0 0 0 0 0 0 0 0 0 0 0 0 0 0 0 0 0 0 0 0 0 0 0 0 0 0 0 0 0 0 0 0 0 0 0 0 0 0 0 0 0 0 0 0 0 0 0 0 0 0 0 0 0 0 0 0 0 0 0 0 0 0 0 0 0 0 0 0 0 0 0 0 0 0 0 0 0 0 0 0 0 0 0 0 0 0 0 0 0 0 0 0 0 0 0 0.007661817595362663269 0.030647270381450653076 0.038309089839458465576 0.038309089839458465576 0.025539392605423927307 0.033201210200786590576 0.010215756483376026154 0 0 0 0 0 0 0 0 0 0 0 0 0 0 0 0 0 0 0 0 0 0 0 0 0 0 0 0 0 0 0 0 0 0 0 0 0 0 0 0 0 0 0 0.020431512966752052307 0.081726051867008209229 0.081726051867008209229 0.020431512966752052307 0 0 0 0 0 0 0.007661817595362663269 0.086833931505680084229 0.74319624900817871094 2.0252737998962402344 1.3740192651748657227 0.27837935090065002441 0 0 0 0 0 0 0 0 0 0 0 0 0.0025539391208440065384 0.007661817595362663269 0.010215756483376026154 0.010215756483376026154 0.010215756483376026154 0.010215756483376026154 0.010215756483376026154 0.020431512966752052307 0.058740600943565368652 0.10726545006036758423 0.097049690783023834229 0.022985454648733139038 0 0 0 0 0 0 0 0 0 0 0 0 0 0 0 0 0 0 0 0 0 0 0 0 0 0 0 0 0 0 0 0 0 0 0 0 0 0 0 0 0 0 0 0 0 0 0 0 0 0 0 0 0 0 0 0 0 0 0 0 0 0 0 0 0 0 0 0 0 0 0 0 0 0 0 0 0 0 0 0 0 0 0 0 0 0 0 0 0 0 0 0 0 0 0 0 0 0 0 
0.010215756483376026154 0.030647270381450653076 0.010215756483376026154 0 0 0 0 0 0 0 0 0 0 0 0 0 0 0 0 0 0 0 0 0 0 0 0.010215756483376026154 0.043416965752840042114 0.066402420401573181152 0.066402420401573181152 0.066402420401573181152 0.045970901846885681152 0.017877575010061264038 0.007661817595362663269 0.0025539391208440065384 0 0 0 0 0 0 0 0 0 0 0 0 0 0 0 0 0 0 0 0 0 0 0 0 0 0 0 0 0 0 0 0 0 0 0 0 0 0 0 0 0 0 0 0 0 0 0 0 0 0 0 0 0 0 0 0 0 0 0 0 0 0 0 0 0 0 0 0 0 0 0 0 0 0 0 0 0 0 0 0 0 0 0 0 0 0 0 0 0 0 0 0 0 0 0 0 0 0 0 0 0 0 0 0 0 0 0 0 0 0 0 0 0 0 0 0 0 0 0 0 0 0 0 0 0 0 0 0 0 0 0 0 0 0 0 0 0 0 0 0 0 0 0 0 0 0 0 0 0 0 0 0 0 0 0 0 0 0 0 0 0 0 0 0 0 0 0 0 0 0 0 0 0 0 0 0 0 0 0 0 0 0 0 0 0 0 0 0 0 0 0 0 0 0 0 0 0 0 0 0 0 0 0 0 0 0 0 0 0 0 0 0 0 0 0 0 0 0 0 0 0 0 0 0 0 0 0 0 0 0 0 0 0 0 0 0 0 0 0 0 0 0 0 0 0 0 0 0.0025539391208440065384 0.007661817595362663269 0.017877575010061264038 0.033201210200786590576 0.020431512966752052307 0.030647270381450653076 0.010215756483376026154 0 0 0 0 0 0 0 0 0 0 0 0 0 0 0 0 0 0 0 0 0 0 0 0 0 0 0 0 0 0 0 0 0 0 0 0 0 0 0 0 0 0 0 0.020431512966752052307 0.081726051867008209229 0.081726051867008209229 0.020431512966752052307 0 0 0 0 0 0 0.0025539391208440065384 0.028093330562114715576 0.45204722881317138672 1.6907076835632324219 1.9256701469421386719 0.61549937725067138672 0.066402420401573181152 0 0 0 0 0 0 0 0 0 0 0 0 0 0 0 0 0 0 0.0025539391208440065384 0.012769696302711963654 0.048524845391511917114 0.1047115027904510498 0.040863025933504104614 0.0051078782416880130768 0 0 0 0 0 0 0 0 0 0 0 0 0 0 0 0 0 0 0 0 0 0 0 0 0 0 0 0 0 0 0 0 0 0 0 0 0 0 0 0 0 0 0 0 0 0 0 0 0 0 0 0 0 0 0 0 0 0 0 0 0 0 0 0 0 0 0 0 0 0 0 0 0 0 0 0 0 0 0 0 0 0 0 0 0 0 0 0 0 0 0 0 0 0 0 0 0 0 
0.010215756483376026154 0.030647270381450653076 0.010215756483376026154 0 0 0 0 0 0 0 0 0 0 0 0 0 0 0 0 0 0 0.0025539391208440065384 0.007661817595362663269 0.010215756483376026154 0.010215756483376026154 0.010215756483376026154 0.025539392605423927307 0.068956352770328521729 0.053632721304893493652 0.025539392605423927307 0.017877575010061264038 0.010215756483376026154 0.0025539391208440065384 0 0 0 0 0 0 0 0 0 0 0 0 0 0 0 0 0 0 0 0 0 0 0 0 0 0 0 0 0 0 0 0 0 0 0 0 0 0 0 0 0 0 0 0 0 0 0 0 0 0 0 0 0 0 0 0 0 0 0 0 0 0 0 0 0 0 0 0 0 0 0 0 0 0 0 0 0 0 0 0 0 0 0 0 0 0 0 0 0 0 0 0 0 0 0 0 0 0 0 0 0 0 0 0 0 0 0 0 0 0 0 0 0 0 0 0 0 0 0 0 0 0 0 0 0 0 0 0 0 0 0 0 0 0 0 0 0 0 0 0 0 0 0 0 0 0 0 0 0 0 0 0 0 0 0 0 0 0 0 0 0 0 0 0 0 0 0 0 0 0 0 0 0 0 0 0 0 0 0 0 0 0 0 0 0 0 0 0 0 0 0 0 0 0 0 0 0 0 0 0 0 0 0 0 0 0 0 0 0 0 0 0 0 0 0 0 0 0 0 0 0 0 0 0 0 0 0 0 0 0 0 0 0 0 0 0 0 0 0 0 0 0 0 0 0 0 0 0 0 0 0 0.010215756483376026154 0.033201210200786590576 0.025539392605423927307 0.033201210200786590576 0.010215756483376026154 0 0 0 0 0 0 0 0 0 0 0 0 0 0 0 0 0 0 0 0 0 0 0 0 0 0 0 0 0 0 0 0 0 0 0 0 0 0 0 0 0 0.0025539391208440065384 0.010215756483376026154 0.038309089839458465576 0.097049690783023834229 0.086833931505680084229 0.020431512966752052307 0 0 0 0 0 0 0 0.0025539391208440065384 0.19665330648422241211 1.1135174036026000977 2.2168190479278564453 1.3535877466201782227 0.27837935090065002441 0.007661817595362663269 0 0 0 0 0 0 0 0 0 0 0 0 0 0 0 0 0 0 0 0.025539392605423927307 0.099603630602359771729 0.084279991686344146729 0.022985454648733139038 0.0025539391208440065384 0 0 0 0 0 0 0 0 0 0 0 0 0 0 0 0 0 0 0 0 0 0 0 0 0 0 0 0 0 0 0 0 0 0 0 0 0 0 0 0 0 0 0 0 0 0 0 0 0 0 0 0 0 0 0 0 0 0 0 0 0 0 0 0 0 0 0 0 0 0 0 0 0 0 0 0 0 0 0 0 0 0 0 0 0 0 0 0 0 0 0 0 0 0 0 0 0 
0.010215756483376026154 0.030647270381450653076 0.010215756483376026154 0 0 0 0 0 0 0 0 0 0 0 0 0 0 0 0 0 0 0.007661817595362663269 0.030647270381450653076 0.033201210200786590576 0.030647270381450653076 0.030647270381450653076 0.043416965752840042114 0.063848480582237243652 0.022985450923442840576 0.0025539391208440065384 0 0 0 0 0 0 0 0 0 0 0 0 0 0 0 0 0 0 0 0 0 0 0 0 0 0 0 0 0 0 0 0 0 0 0 0 0 0 0 0 0 0 0 0 0 0 0 0 0 0 0 0 0 0 0 0 0 0 0 0 0 0 0 0 0 0 0 0 0 0 0 0 0 0 0 0 0 0 0 0 0 0 0 0 0 0 0 0 0 0 0 0 0 0 0 0 0 0 0 0 0 0 0 0 0 0 0 0 0 0 0 0 0 0 0 0 0 0 0 0 0 0 0 0 0 0 0 0 0 0 0 0 0 0 0 0 0 0 0 0 0 0 0 0 0 0 0 0 0 0 0 0 0 0 0 0 0 0 0 0 0 0 0 0 0 0 0 0 0 0 0 0 0 0 0 0 0 0 0 0 0 0 0 0 0 0 0 0 0 0 0 0 0 0 0 0 0 0 0 0 0 0 0 0 0 0 0 0 0 0 0 0 0 0 0 0 0 0 0 0 0 0 0 0 0 0 0 0 0 0 0 0 0 0 0 0 0 0 0 0 0 0 0 0 0 0 0 0 0 0 0 0 0 0 0.007661817595362663269 0.033201210200786590576 0.045970901846885681152 0.043416965752840042114 0.012769696302711963654 0 0 0 0 0 0 0 0 0 0 0 0 0 0 0 0 0 0 0 0 0 0 0 0 0 0 0 0 0 0 0 0 0 0 0 0 0 0 0 0 0 0.007661817595362663269 0.038309089839458465576 0.084279991686344146729 0.1302509009838104248 0.081726051867008209229 0.015323635190725326538 0 0 0 0 0 0 0 0 0.053632721304893493652 0.53377330303192138672 1.7443404197692871094 1.9358859062194824219 0.63848477602005004883 0.068956352770328521729 0 0 0 0 0 0 0 0 0 0 0 0 0 0 0 0 0 0 0 0.012769696302711963654 0.061294540762901306152 0.10726545006036758423 0.061294540762901306152 0.012769696302711963654 0 0 0 0 0 0 0 0 0 0 0 0 0 0 0 0 0 0 0 0 0 0 0 0 0 0 0 0 0 0 0 0 0 0 0 0 0 0 0 0 0 0 0 0 0 0 0 0 0 0 0 0 0 0 0 0 0 0 0 0 0 0 0 0 0 0 0 0 0 0 0 0 0 0 0 0 0 0 0 0 0 0 0 0 0 0 0 0 0 0 0 0 0 0 0 0 0 
0.010215756483376026154 0.030647270381450653076 0.010215756483376026154 0 0 0 0 0 0 0 0 0 0 0 0 0.0025539391208440065384 0.007661817595362663269 0.010215756483376026154 0.010215756483376026154 0.010215756483376026154 0.010215756483376026154 0.017877575010061264038 0.035755150020122528076 0.017877575010061264038 0.010215756483376026154 0.010215756483376026154 0.020431512966752052307 0.038309089839458465576 0.012769696302711963654 0 0 0 0 0 0 0 0 0 0 0 0 0 0 0 0 0 0 0 0 0 0 0 0 0 0 0 0 0 0 0 0 0 0 0 0 0 0 0 0 0 0 0 0 0 0 0 0 0 0 0 0 0 0 0 0 0 0 0 0 0 0 0 0 0 0 0 0 0 0 0 0 0 0 0 0 0 0 0 0 0 0 0 0 0 0 0 0 0 0 0 0 0 0 0 0 0 0 0 0 0 0 0 0 0 0 0 0 0 0 0 0 0 0 0 0 0 0 0 0 0 0 0 0 0 0 0 0 0 0 0 0 0 0 0 0 0 0 0 0 0 0 0 0 0 0 0 0 0 0 0 0 0 0 0 0 0 0 0 0 0 0 0 0 0 0 0 0 0 0 0 0 0 0 0 0 0 0 0 0 0 0 0 0 0 0 0 0 0 0 0 0 0 0 0 0 0 0 0 0 0 0 0 0 0 0 0 0 0 0 0 0 0 0 0 0 0 0 0 0 0 0 0 0 0 0 0 0 0 0 0 0 0 0 0 0 0 0 0 0 0 0 0 0 0 0 0 0 0 0 0 0 0 0 0 0.0025539391208440065384 0.012769696302711963654 0.045970901846885681152 0.063848480582237243652 0.017877575010061264038 0 0 0 0 0 0 0 0 0 0 0 0 0 0 0 0 0 0 0 0 0 0 0 0 0 0 0 0 0 0 0 0 0 0 0 0 0 0 0 0 0 0.010215756483376026154 0.043416965752840042114 0.071510300040245056152 0.089387871325016021729 0.035755150020122528076 0.0051078782416880130768 0 0 0 0 0 0 0 0 0.0051078782416880130768 0.20686906576156616211 1.0752084255218505859 2.0482592582702636719 1.2437684535980224609 0.31413453817367553711 0.040863025933504104614 0 0 0 0 0 0 0 0 0 0 0 0 0 0 0 0 0 0 0.0025539391208440065384 0.022985454648733139038 0.084279991686344146729 0.10726545006036758423 0.043416965752840042114 0.012769696302711963654 0.0025539391208440065384 0 0 0 0 0 0 0 0 0 0 0 0 0 0 0 0 0 0 0 0 0 0 0 0 0 0 0 0 0 0 0 0 0 0 0 0 0 0 0 0 0 0 0 0 0 0 0 0 0 0 0 0 0 0 0 0 0 0 0 0 0 0 0 0 0 0 0 0 0 0 0 0 0 0 0 0 0 0 0 0 0 0 0 0 0 0 0 0 0 0 0 0 0 0 0 
0.010215756483376026154 0.030647270381450653076 0.010215756483376026154 0 0 0 0 0 0 0 0 0 0 0.0025539391208440065384 0.007661817595362663269 0.015323635190725326538 0.033201210200786590576 0.033201210200786590576 0.030647270381450653076 0.030647270381450653076 0.030647270381450653076 0.033201210200786590576 0.030647270381450653076 0.007661817595362663269 0.0025539391208440065384 0.007661817595362663269 0.017877575010061264038 0.033201210200786590576 0.010215756483376026154 0 0 0 0 0 0 0 0 0 0 0 0 0 0 0 0 0 0 0 0 0 0 0 0 0 0 0 0 0 0 0 0 0 0 0 0 0 0 0 0 0 0 0 0 0 0 0 0 0 0 0 0 0 0 0 0 0 0 0 0 0 0 0 0 0 0 0 0 0 0 0 0 0 0 0 0 0 0 0 0 0 0 0 0 0 0 0 0 0 0 0 0 0 0 0 0 0 0 0 0 0 0 0 0 0 0 0 0 0 0 0 0 0 0 0 0 0 0 0 0 0 0 0 0 0 0 0 0 0 0 0 0 0 0 0 0 0 0 0 0 0 0 0 0 0 0 0 0 0 0 0 0 0 0 0 0 0 0 0 0 0 0 0 0 0 0 0 0 0 0 0 0 0 0 0 0 0 0 0 0 0 0 0 0 0 0 0 0 0 0 0 0 0 0 0 0 0 0 0 0 0 0 0 0 0 0 0 0 0 0 0 0 0 0 0 0 0 0 0 0 0 0 0 0 0 0 0 0 0 0 0 0 0 0 0 0 0 0 0 0 0 0 0 0 0 0 0 0 0 0 0 0 0 0 0 0 0.0025539391208440065384 0.025539392605423927307 0.066402420401573181152 0.025539392605423927307 0.0025539391208440065384 0 0 0 0 0 0 0 0 0 0 0 0 0 0 0 0 0 0 0 0 0 0 0 0 0 0 0 0 0 0 0 0 0 0 0 0 0 0 0 0 0.010215756483376026154 0.043416965752840042114 0.068956352770328521729 0.079172119498252868652 0.022985454648733139038 0 0 0 0 0 0 0 0 0 0 0.081726051867008209229 0.64359265565872192383 1.7290167808532714844 1.8822531700134277344 1.0113599300384521484 0.28859513998031616211 0.043416965752840042114 0 0 0 0 0 0 0 0 0 0 0 0 0 0 0 0 0 0 0.0051078782416880130768 0.033201210200786590576 0.10215757042169570923 0.1047115027904510498 0.051078785210847854614 0.010215756483376026154 0 0 0 0 0 0 0 0 0 0 0 0 0 0 0 0 0 0 0 0 0 0 0 0 0 0 0 0 0 0 0 0 0 0 0 0 0 0 0 0 0 0 0 0 0 0 0 0 0 0 0 0 0 0 0 0 0 0 0 0 0 0 0 0 0 0 0 0 0 0 0 0 0 0 0 0 0 0 0 0 0 0 0 0 0 0 0 0 0 0 0 0 0 0 0 
0.010215756483376026154 0.030647270381450653076 0.010215756483376026154 0 0 0 0 0 0 0 0.0025539391208440065384 0.007661817595362663269 0.010215756483376026154 0.015323635190725326538 0.033201210200786590576 0.035755150020122528076 0.033201210200786590576 0.015323635190725326538 0.010215756483376026154 0.010215756483376026154 0.010215756483376026154 0.010215756483376026154 0.007661817595362663269 0.0051078782416880130768 0.012769696302711963654 0.033201210200786590576 0.035755150020122528076 0.030647270381450653076 0.007661817595362663269 0 0 0 0 0 0 0 0 0 0 0 0 0 0 0 0 0 0 0 0 0 0 0 0 0 0 0 0 0 0 0 0 0 0 0 0 0 0 0 0 0 0 0 0 0 0 0 0 0 0 0 0 0 0 0 0 0 0 0 0 0 0 0 0 0 0 0 0 0 0 0 0 0 0 0 0 0 0 0 0 0 0 0 0 0 0 0 0 0 0 0 0 0 0 0 0 0 0 0 0 0 0 0 0 0 0 0 0 0 0 0 0 0 0 0 0 0 0 0 0 0 0 0 0 0 0 0 0 0 0 0 0 0 0 0 0 0 0 0 0 0 0 0 0 0 0 0 0 0 0 0 0 0 0 0 0 0 0 0 0 0 0 0 0 0 0 0 0 0 0 0 0 0 0 0 0 0 0 0 0 0 0 0 0 0 0 0 0 0 0 0 0 0 0 0 0 0 0 0 0 0 0 0 0 0 0 0 0 0 0 0 0 0 0 0 0 0 0 0 0 0 0 0 0 0 0 0 0 0 0 0 0 0 0 0 0 0 0 0 0 0 0 0 0 0 0 0 0 0 0 0 0 0 0 0 0 0 0.017877575010061264038 0.063848480582237243652 0.043416965752840042114 0.007661817595362663269 0 0 0 0 0 0 0 0 0 0 0 0 0 0 0 0 0 0 0 0 0 0 0 0 0 0 0 0 0 0 0 0 0 0 0 0 0 0 0 0 0.007661817595362663269 0.040863025933504104614 0.086833931505680084229 0.10215757042169570923 0.028093332424759864807 0 0 0 0 0 0 0 0 0 0 0.033201210200786590576 0.32179632782936096191 1.0726544857025146484 1.8337283134460449219 1.8362823724746704102 0.97305083274841308594 0.24007026851177215576 0.022985450923442840576 0 0 0 0 0 0 0 0 0 0 0 0 0 0 0 0 0 0 0.007661817595362663269 0.035755150020122528076 0.089387871325016021729 0.086833931505680084229 0.033201210200786590576 0.012769696302711963654 0.007661817595362663269 0.0025539391208440065384 0 0 0 0 0 0 0 0 0 0 0 0 0 0 0 0 0 0 0 0 0 0 0 0 0 0 0 0 0 0 0 0 0 0 0 0 0 0 0 0 0 0 0 0 0 0 0 0 0 0 0 0 0 0 0 0 0 0 0 0 0 0 0 0 0 0 0 0 0 0 0 0 0 0 0 0 0 0 0 0 0 0 0 0 0 0 0 0 0 0 0 0 
0.010215756483376026154 0.030647270381450653076 0.010215756483376026154 0 0 0 0 0 0 0.0025539391208440065384 0.012769696302711963654 0.033201210200786590576 0.033201210200786590576 0.033201210200786590576 0.033201210200786590576 0.015323635190725326538 0.007661817595362663269 0.0025539391208440065384 0 0 0 0 0 0.007661817595362663269 0.033201210200786590576 0.035755150020122528076 0.015323635190725326538 0.007661817595362663269 0.0025539391208440065384 0 0 0 0 0 0 0 0 0 0 0 0 0 0 0 0 0 0 0 0 0 0 0 0 0 0 0 0 0 0 0 0 0 0 0 0 0 0 0 0 0 0 0 0 0 0 0 0 0 0 0 0 0 0 0 0 0 0 0 0 0 0 0 0 0 0 0 0 0 0 0 0 0 0 0 0 0 0 0 0 0 0 0 0 0 0 0 0 0 0 0 0 0 0 0 0 0 0 0 0 0 0 0 0 0 0 0 0 0 0 0 0 0 0 0 0 0 0 0 0 0 0 0 0 0 0 0 0 0 0 0 0 0 0 0 0 0 0 0 0 0 0 0 0 0 0 0 0 0 0 0 0 0 0 0 0 0 0 0 0 0 0 0 0 0 0 0 0 0 0 0 0 0 0 0 0 0 0 0 0 0 0 0 0 0 0 0 0 0 0 0 0 0 0 0 0 0 0 0 0 0 0 0 0 0 0 0 0 0 0 0 0 0 0 0 0 0 0 0 0 0 0 0 0 0 0 0 0 0 0 0 0 0 0 0 0 0 0 0 0 0 0 0 0 0 0 0 0 0 0 0 0 0 0 0 0 0 0.012769696302711963654 0.048524845391511917114 0.048524845391511917114 0.012769696302711963654 0 0 0 0 0 0 0 0 0 0 0 0 0 0 0 0 0 0 0 0 0 0 0 0 0 0 0 0 0 0 0 0 0 0 0 0 0 0 0 0 0.0025539391208440065384 0.017877575010061264038 0.068956352770328521729 0.1047115027904510498 0.030647270381450653076 0 0 0 0 0 0 0 0 0 0 0.007661817595362663269 0.10215757042169570923 0.45460116863250732422 1.0701005458831787109 1.7852034568786621094 1.6702761650085449219 0.68445569276809692383 0.1098193824291229248 0 0 0 0 0 0 0 0 0 0 0 0 0 0 0 0 0 0 0 0.010215756483376026154 0.053632721304893493652 0.099603630602359771729 0.074064239859580993652 0.040863025933504104614 0.030647270381450653076 0.007661817595362663269 0 0 0 0 0 0 0 0 0 0 0 0 0 0 0 0 0 0 0 0 0 0 0 0 0 0 0 0 0 0 0 0 0 0 0 0 0 0 0 0 0 0 0 0 0 0 0 0 0 0 0 0 0 0 0 0 0 0 0 0 0 0 0 0 0 0 0 0 0 0 0 0 0 0 0 0 0 0 0 0 0 0 0 0 0 0 0 0 0 0 0 0 
0.010215756483376026154 0.030647270381450653076 0.010215756483376026154 0 0 0 0 0.0025539391208440065384 0.007661817595362663269 0.015323635190725326538 0.035755150020122528076 0.035755150020122528076 0.015323635190725326538 0.010215756483376026154 0.007661817595362663269 0.0025539391208440065384 0 0 0 0 0.0025539391208440065384 0.007661817595362663269 0.010215756483376026154 0.017877575010061264038 0.035755150020122528076 0.015323635190725326538 0.0025539391208440065384 0 0 0 0 0 0 0 0 0 0 0 0 0 0 0 0 0 0 0 0 0 0 0 0 0 0 0 0 0 0 0 0 0 0 0 0 0 0 0 0 0 0 0 0 0 0 0 0 0 0 0 0 0 0 0 0 0 0 0 0 0 0 0 0 0 0 0 0 0 0 0 0 0 0 0 0 0 0 0 0 0 0 0 0 0 0 0 0 0 0 0 0 0 0 0 0 0 0 0 0 0 0 0 0 0 0 0 0 0 0 0 0 0 0 0 0 0 0 0 0 0 0 0 0 0 0 0 0 0 0 0 0 0 0 0 0 0 0 0 0 0 0 0 0 0 0 0 0 0 0 0 0 0 0 0 0 0 0 0 0 0 0 0 0 0 0 0 0 0 0 0 0 0 0 0 0 0 0 0 0 0 0 0 0 0 0 0 0 0 0 0 0 0 0 0 0 0 0 0 0 0 0 0 0 0 0 0 0 0 0 0 0 0 0 0 0 0 0 0 0 0 0 0 0 0 0 0 0 0 0 0 0 0 0 0 0 0 0 0 0 0 0 0 0 0 0 0 0 0 0 0 0 0 0 0 0 0 0 0 0.007661817595362663269 0.043416965752840042114 0.063848480582237243652 0.017877575010061264038 0 0 0 0 0 0 0 0 0 0 0 0 0 0 0 0 0 0 0 0 0 0 0 0 0 0 0 0 0 0 0 0 0 0 0 0 0 0 0 0 0 0.010215756483376026154 0.061294540762901306152 0.10215757042169570923 0.030647270381450653076 0 0 0 0 0 0 0 0 0 0 0 0.030647270381450653076 0.1557902991771697998 0.46481692790985107422 1.1722580194473266602 1.7852034568786621094 1.1671501398086547852 0.24773210287094116211 0.0025539391208440065384 0 0 0 0 0 0 0 0 0 0 0 0 0 0 0 0 0 0 0.0025539391208440065384 0.020431512966752052307 0.058740600943565368652 0.063848480582237243652 0.043416965752840042114 0.045970901846885681152 0.017877575010061264038 0.0025539391208440065384 0 0 0 0 0 0 0 0 0 0 0 0 0 0 0 0 0 0 0 0 0 0 0 0 0 0 0 0 0 0 0 0 0 0 0 0 0 0 0 0 0 0 0 0 0 0 0 0 0 0 0 0 0 0 0 0 0 0 0 0 0 0 0 0 0 0 0 0 0 0 0 0 0 0 0 0 0 0 0 0 0 0 0 0 0 0 0 0 0 0 0 
0.010215756483376026154 0.030647270381450653076 0.010215756483376026154 0 0 0 0 0.007661817595362663269 0.030647270381450653076 0.035755150020122528076 0.033201210200786590576 0.012769696302711963654 0.0025539391208440065384 0 0 0 0 0 0 0.0025539391208440065384 0.012769696302711963654 0.033201210200786590576 0.033201210200786590576 0.033201210200786590576 0.030647270381450653076 0.007661817595362663269 0 0 0 0 0 0 0 0 0 0 0 0 0 0 0 0 0 0 0 0 0 0 0 0 0 0 0 0 0 0 0 0 0 0 0 0 0 0 0 0 0 0 0 0 0 0 0 0 0 0 0 0 0 0 0 0 0 0 0 0 0 0 0 0 0 0 0 0 0 0 0 0 0 0 0 0 0 0 0 0 0 0 0 0 0 0 0 0 0 0 0 0 0 0 0 0 0 0 0 0 0 0 0 0 0 0 0 0 0 0 0 0 0 0 0 0 0 0 0 0 0 0 0 0 0 0 0 0 0 0 0 0 0 0 0 0 0 0 0 0 0 0 0 0 0 0 0 0 0 0 0 0 0 0 0 0 0 0 0 0 0 0 0 0 0 0 0 0 0 0 0 0 0 0 0 0 0 0 0 0 0 0 0 0 0 0 0 0 0 0 0 0 0 0 0 0 0 0 0 0 0 0 0 0 0 0 0 0 0 0 0 0 0 0 0 0 0 0 0 0 0 0 0 0 0 0 0 0 0 0 0 0 0 0 0 0 0 0 0 0 0 0 0 0 0 0 0 0 0 0 0 0 0 0 0 0 0 0 0 0 0.0025539391208440065384 0.025539392605423927307 0.063848480582237243652 0.020431512966752052307 0 0 0 0 0 0 0 0 0 0 0 0 0 0 0 0 0 0 0 0 0 0 0 0 0 0 0 0 0 0 0 0 0 0 0 0 0 0 0 0 0 0.010215756483376026154 0.061294540762901306152 0.10215757042169570923 0.030647270381450653076 0 0 0 0 0 0 0 0 0 0 0 0.020431512966752052307 0.084279991686344146729 0.20176118612289428711 0.70999509096145629883 1.5425791740417480469 1.4991621971130371094 0.45204722881317138672 0.035755150020122528076 0 0 0 0 0 0 0 0 0 0 0 0 0 0 0 0 0 0 0 0.007661817595362663269 0.038309089839458465576 0.066402420401573181152 0.074064239859580993652 0.071510300040245056152 0.043416965752840042114 0.012769696302711963654 0.0025539391208440065384 0 0 0 0 0 0 0 0 0 0 0 0 0 0 0 0 0 0 0 0 0 0 0 0 0 0 0 0 0 0 0 0 0 0 0 0 0 0 0 0 0 0 0 0 0 0 0 0 0 0 0 0 0 0 0 0 0 0 0 0 0 0 0 0 0 0 0 0 0 0 0 0 0 0 0 0 0 0 0 0 0 0 0 0 0 0 0 0 0 0 
0.010215756483376026154 0.030647270381450653076 0.010215756483376026154 0 0 0 0 0.010215756483376026154 0.033201210200786590576 0.017877575010061264038 0.007661817595362663269 0.0025539391208440065384 0 0 0 0 0 0 0 0.007661817595362663269 0.033201210200786590576 0.035755150020122528076 0.015323635190725326538 0.010215756483376026154 0.007661817595362663269 0.0025539391208440065384 0 0 0 0 0 0 0 0 0 0 0 0 0 0 0 0 0 0 0 0 0 0 0 0 0 0 0 0 0 0 0 0 0 0 0 0 0 0 0 0 0 0 0 0 0 0 0 0 0 0 0 0 0 0 0 0 0 0 0 0 0 0 0 0 0 0 0 0 0 0 0 0 0 0 0 0 0 0 0 0 0 0 0 0 0 0 0 0 0 0 0 0 0 0 0 0 0 0 0 0 0 0 0 0 0 0 0 0 0 0 0 0 0 0 0 0 0 0 0 0 0 0 0 0 0 0 0 0 0 0 0 0 0 0 0 0 0 0 0 0 0 0 0 0 0 0 0 0 0 0 0 0 0 0 0 0 0 0 0 0 0 0 0 0 0 0 0 0 0 0 0 0 0 0 0 0 0 0 0 0 0 0 0 0 0 0 0 0 0 0 0 0 0 0 0 0 0 0 0 0 0 0 0 0 0 0 0 0 0 0 0 0 0 0 0 0 0 0 0 0 0 0 0 0 0 0 0 0 0 0 0 0 0 0 0 0 0 0 0 0 0 0 0 0 0 0 0 0 0 0 0 0 0 0 0 0 0 0 0 0 0 0.020431512966752052307 0.061294540762901306152 0.020431512966752052307 0 0 0 0 0 0 0 0 0 0 0 0 0 0 0 0 0 0 0 0 0 0 0 0 0 0 0 0 0 0 0 0 0 0 0 0 0 0 0 0 0 0.010215756483376026154 0.063848480582237243652 0.10726545006036758423 0.033201210200786590576 0 0 0 0 0 0 0 0 0 0 0 0.020431512966752052307 0.068956352770328521729 0.091941803693771362305 0.42650783061981201172 1.2948471307754516602 1.8056350946426391602 0.86323142051696777344 0.1506824195384979248 0.007661817595362663269 0 0 0 0 0 0 0 0 0 0 0 0 0 0 0 0 0 0 0.0025539391208440065384 0.010215756483376026154 0.025539392605423927307 0.056186664849519729614 0.061294540762901306152 0.048524845391511917114 0.033201210200786590576 0.007661817595362663269 0 0 0 0 0 0 0 0 0 0 0 0 0 0 0 0 0 0 0 0 0 0 0 0 0 0 0 0 0 0 0 0 0 0 0 0 0 0 0 0 0 0 0 0 0 0 0 0 0 0 0 0 0 0 0 0 0 0 0 0 0 0 0 0 0 0 0 0 0 0 0 0 0 0 0 0 0 0 0 0 0 0 0 0 0 0 0 0 0 0 
0.010215756483376026154 0.030647270381450653076 0.010215756483376026154 0 0 0 0 0.010215756483376026154 0.030647270381450653076 0.010215756483376026154 0 0 0 0 0 0 0 0.0025539391208440065384 0.007661817595362663269 0.017877575010061264038 0.035755150020122528076 0.015323635190725326538 0.0025539391208440065384 0 0 0 0 0 0 0 0 0 0 0 0 0 0 0 0 0 0 0 0 0 0 0 0 0 0 0 0 0 0 0 0 0 0 0 0 0 0 0 0 0 0 0 0 0 0 0 0 0 0 0 0 0 0 0 0 0 0 0 0 0 0 0 0 0 0 0 0 0 0 0 0 0 0 0 0 0 0 0 0 0 0 0 0 0 0 0 0 0 0 0 0 0 0 0 0 0 0 0 0 0 0 0 0 0 0 0 0 0 0 0 0 0 0 0 0 0 0 0 0 0 0 0 0 0 0 0 0 0 0 0 0 0 0 0 0 0 0 0 0 0 0 0 0 0 0 0 0 0 0 0 0 0 0 0 0 0 0 0 0 0 0 0 0 0 0 0 0 0 0 0 0 0 0 0 0 0 0 0 0 0 0 0 0 0 0 0 0 0 0 0 0 0 0 0 0 0 0 0 0 0 0 0 0 0 0 0 0 0 0 0 0 0 0 0 0 0 0 0 0 0 0 0 0 0 0 0 0 0 0 0 0 0 0 0 0 0 0 0 0 0 0 0 0 0 0 0 0 0 0 0 0 0 0 0 0 0 0 0 0 0 0 0.0025539391208440065384 0.010215756483376026154 0.033201210200786590576 0.066402420401573181152 0.020431512966752052307 0 0 0 0 0 0 0 0 0 0 0 0 0 0 0 0 0 0 0 0 0 0 0 0 0 0 0 0 0 0 0 0 0 0 0 0 0 0 0 0 0 0.007661817595362663269 0.063848480582237243652 0.1251430213451385498 0.038309089839458465576 0 0 0 0 0 0 0 0 0 0 0 0.017877575010061264038 0.063848480582237243652 0.071510292589664459229 0.23240846395492553711 0.92963391542434692383 1.8720374107360839844 1.4148823022842407227 0.48269450664520263672 0.099603630602359771729 0.015323635190725326538 0 0 0 0 0 0 0 0 0 0 0 0 0 0 0 0 0 0 0 0.007661817595362663269 0.043416965752840042114 0.068956352770328521729 0.040863025933504104614 0.040863025933504104614 0.012769696302711963654 0 0 0 0 0 0 0 0 0 0 0 0 0 0 0 0 0 0 0 0 0 0 0 0 0 0 0 0 0 0 0 0 0 0 0 0 0 0 0 0 0 0 0 0 0 0 0 0 0 0 0 0 0 0 0 0 0 0 0 0 0 0 0 0 0 0 0 0 0 0 0 0 0 0 0 0 0 0 0 0 0 0 0 0 0 0 0 0 0 0 
0.010215756483376026154 0.030647270381450653076 0.010215756483376026154 0 0 0 0 0.010215756483376026154 0.030647270381450653076 0.010215756483376026154 0 0 0 0 0 0.0025539391208440065384 0.007661817595362663269 0.015323635190725326538 0.033201210200786590576 0.035755150020122528076 0.030647270381450653076 0.007661817595362663269 0 0 0 0 0 0 0 0 0 0 0 0 0 0 0 0 0 0 0 0 0 0 0 0 0 0 0 0 0 0 0 0 0 0 0 0 0 0 0 0 0 0 0 0 0 0 0 0 0 0 0 0 0 0 0 0 0 0 0 0 0 0 0 0 0 0 0 0 0 0 0 0 0 0 0 0 0 0 0 0 0 0 0 0 0 0 0 0 0 0 0 0 0 0 0 0 0 0 0 0 0 0 0 0 0 0 0 0 0 0 0 0 0 0 0 0 0 0 0 0 0 0 0 0 0 0 0 0 0 0 0 0 0 0 0 0 0 0 0 0 0 0 0 0 0 0 0 0 0 0 0 0 0 0 0 0 0 0 0 0 0 0 0 0 0 0 0 0 0 0 0 0 0 0 0 0 0 0 0 0 0 0 0 0 0 0 0 0 0 0 0 0 0 0 0 0 0 0 0 0 0 0 0 0 0 0 0 0 0 0 0 0 0 0 0 0 0 0 0 0 0 0 0 0 0 0 0 0 0 0 0 0 0 0 0 0 0 0 0 0 0 0 0 0 0 0 0 0 0 0 0 0 0 0 0 0 0 0 0 0 0 0 0.0025539391208440065384 0.012769696302711963654 0.040863025933504104614 0.068956352770328521729 0.063848480582237243652 0.015323635190725326538 0 0 0 0 0 0 0 0 0 0 0 0 0 0 0 0 0 0 0 0 0 0 0 0 0 0 0 0 0 0 0 0 0 0 0 0 0 0 0 0 0 0.0025539391208440065384 0.045970901846885681152 0.1251430213451385498 0.040863025933504104614 0 0 0 0 0 0 0 0 0 0 0 0.012769696302711963654 0.043416965752840042114 0.053632721304893493652 0.1200351417064666748 0.51334178447723388672 1.5068240165710449219 1.8694834709167480469 1.0956398248672485352 0.39586058259010314941 0.068956352770328521729 0 0 0 0 0 0 0 0 0 0 0 0 0 0 0 0 0 0 0 0.0025539391208440065384 0.022985450923442840576 0.063848480582237243652 0.056186664849519729614 0.066402420401573181152 0.028093332424759864807 0.0051078782416880130768 0 0 0 0 0 0 0 0 0 0 0 0 0 0 0 0 0 0 0 0 0 0 0 0 0 0 0 0 0 0 0 0 0 0 0 0 0 0 0 0 0 0 0 0 0 0 0 0 0 0 0 0 0 0 0 0 0 0 0 0 0 0 0 0 0 0 0 0 0 0 0 0 0 0 0 0 0 0 0 0 0 0 0 0 0 0 0 0 0 
0.010215756483376026154 0.030647270381450653076 0.010215756483376026154 0 0 0 0 0.010215756483376026154 0.030647270381450653076 0.010215756483376026154 0 0 0 0 0 0.007661817595362663269 0.030647270381450653076 0.035755150020122528076 0.033201210200786590576 0.015323635190725326538 0.007661817595362663269 0.0025539391208440065384 0 0 0 0 0 0 0 0 0 0 0 0 0 0 0 0 0 0 0 0 0 0 0 0 0 0 0 0 0 0 0 0 0 0 0 0 0 0 0 0 0 0 0 0 0 0 0 0 0 0 0 0 0 0 0 0 0 0 0 0 0 0 0 0 0 0 0 0 0 0 0 0 0 0 0 0 0 0 0 0 0 0 0 0 0 0 0 0 0 0 0 0 0 0 0 0 0 0 0 0 0 0 0 0 0 0 0 0 0 0 0 0 0 0 0 0 0 0 0 0 0 0 0 0 0 0 0 0 0 0 0 0 0 0 0 0 0 0 0 0 0 0 0 0 0 0 0 0 0 0 0 0 0 0 0 0 0 0 0 0 0 0 0 0 0 0 0 0 0 0 0 0 0 0 0 0 0 0 0 0 0 0 0 0 0 0 0 0 0 0 0 0 0 0 0 0 0 0 0 0 0 0 0 0 0 0 0 0 0 0 0 0 0 0 0 0 0 0 0 0 0 0 0 0 0 0 0 0 0 0 0 0 0 0 0 0 0 0 0 0 0 0 0 0 0 0 0 0 0 0 0 0 0 0 0 0 0 0 0 0 0 0.0025539391208440065384 0.012769696302711963654 0.035755150020122528076 0.045970901846885681152 0.048524845391511917114 0.022985450923442840576 0.0051078782416880130768 0 0 0 0 0 0 0 0 0 0 0 0 0 0 0 0 0 0 0 0 0 0 0 0 0 0 0 0 0 0 0 0 0 0 0 0 0 0 0 0 0 0.0025539391208440065384 0.045970901846885681152 0.1251430213451385498 0.040863025933504104614 0 0 0 0 0 0 0 0 0 0 0 0.010215756483376026154 0.033201210200786590576 0.020431512966752052307 0.035755150020122528076 0.23751634359359741211 0.85556960105895996094 1.6166435480117797852 1.4915003776550292969 0.81215268373489379883 0.18388360738754272461 0.0051078782416880130768 0 0 0 0 0 0 0 0 0 0 0 0 0 0 0 0 0 0 0 0.012769696302711963654 0.038309089839458465576 0.033201210200786590576 0.068956352770328521729 0.066402420401573181152 0.015323635190725326538 0 0 0 0 0 0 0 0 0 0 0 0 0 0 0 0 0 0 0 0 0 0 0 0 0 0 0 0 0 0 0 0 0 0 0 0 0 0 0 0 0 0 0 0 0 0 0 0 0 0 0 0 0 0 0 0 0 0 0 0 0 0 0 0 0 0 0 0 0 0 0 0 0 0 0 0 0 0 0 0 0 0 0 0 0 0 0 0 0 
0.010215756483376026154 0.030647270381450653076 0.010215756483376026154 0 0 0 0 0.010215756483376026154 0.030647270381450653076 0.010215756483376026154 0 0 0 0 0 0.010215756483376026154 0.033201210200786590576 0.017877575010061264038 0.007661817595362663269 0.0025539391208440065384 0 0 0 0 0 0 0 0 0 0 0 0 0 0 0 0 0 0 0 0 0 0 0 0 0 0 0 0 0 0 0 0 0 0 0 0 0 0 0 0 0 0 0 0 0 0 0 0 0 0 0 0 0 0 0 0 0 0 0 0 0 0 0 0 0 0 0 0 0 0 0 0 0 0 0 0 0 0 0 0 0 0 0 0 0 0 0 0 0 0 0 0 0 0 0 0 0 0 0 0 0 0 0 0 0 0 0 0 0 0 0 0 0 0 0 0 0 0 0 0 0 0 0 0 0 0 0 0 0 0 0 0 0 0 0 0 0 0 0 0 0 0 0 0 0 0 0 0 0 0 0 0 0 0 0 0 0 0 0 0 0 0 0 0 0 0 0 0 0 0 0 0 0 0 0 0 0 0 0 0 0 0 0 0 0 0 0 0 0 0 0 0 0 0 0 0 0 0 0 0 0 0 0 0 0 0 0 0 0 0 0 0 0 0 0 0 0 0 0 0 0 0 0 0 0 0 0 0 0 0 0 0 0 0 0 0 0 0 0 0 0 0 0 0 0 0 0 0 0 0 0 0 0 0 0 0 0 0 0 0 0 0 0 0.007661817595362663269 0.038309089839458465576 0.048524845391511917114 0.033201210200786590576 0.035755150020122528076 0.010215756483376026154 0 0 0 0 0 0 0 0 0 0 0 0 0 0 0 0 0 0 0 0 0 0 0 0 0 0 0 0 0 0 0 0 0 0 0 0 0 0 0 0 0 0 0.007661817595362663269 0.063848480582237243652 0.1251430213451385498 0.038309089839458465576 0 0 0 0 0 0 0 0 0 0 0 0.010215756483376026154 0.030647270381450653076 0.010215756483376026154 0.010215756483376026154 0.10215757042169570923 0.45715513825416564941 1.1058555841445922852 1.5221476554870605469 1.2590920925140380859 0.37542903423309326172 0.030647270381450653076 0 0 0 0 0 0 0 0 0 0 0 0 0 0 0 0 0 0 0 0.010215756483376026154 0.030647270381450653076 0.015323635190725326538 0.030647270381450653076 0.068956352770328521729 0.028093332424759864807 0.010215756483376026154 0.007661817595362663269 0.0025539391208440065384 0 0 0 0 0 0 0 0 0 0 0 0 0 0 0 0 0 0 0 0 0 0 0 0 0 0 0 0 0 0 0 0 0 0 0 0 0 0 0 0 0 0 0 0 0 0 0 0 0 0 0 0 0 0 0 0 0 0 0 0 0 0 0 0 0 0 0 0 0 0 0 0 0 0 0 0 0 0 0 0 0 0 0 0 0 0 
0.010215756483376026154 0.030647270381450653076 0.010215756483376026154 0 0 0 0 0.010215756483376026154 0.030647270381450653076 0.010215756483376026154 0 0 0 0 0 0.010215756483376026154 0.030647270381450653076 0.010215756483376026154 0 0 0 0 0 0 0 0 0 0 0 0 0 0 0 0 0 0 0 0 0 0 0 0 0 0 0 0 0 0 0 0 0 0 0 0 0 0 0 0 0 0 0 0 0 0 0 0 0 0 0 0 0 0 0 0 0 0 0 0 0 0 0 0 0 0 0 0 0 0 0 0 0 0 0 0 0 0 0 0 0 0 0 0 0 0 0 0 0 0 0 0 0 0 0 0 0 0 0 0 0 0 0 0 0 0 0 0 0 0 0 0 0 0 0 0 0 0 0 0 0 0 0 0 0 0 0 0 0 0 0 0 0 0 0 0 0 0 0 0 0 0 0 0 0 0 0 0 0 0 0 0 0 0 0 0 0 0 0 0 0 0 0 0 0 0 0 0 0 0 0 0 0 0 0 0 0 0 0 0 0 0 0 0 0 0 0 0 0 0 0 0 0 0 0 0 0 0 0 0 0 0 0 0 0 0 0 0 0 0 0 0 0 0 0 0 0 0 0 0 0 0 0 0 0 0 0 0 0 0 0 0 0 0 0 0 0 0 0 0 0 0 0 0 0 0 0 0 0 0 0 0 0 0 0 0 0 0 0 0 0 0 0 0 0 0.007661817595362663269 0.043416965752840042114 0.068956352770328521729 0.045970901846885681152 0.030647270381450653076 0.007661817595362663269 0 0 0 0 0 0 0 0 0 0 0 0 0 0 0 0 0 0 0 0 0 0 0 0 0 0 0 0 0 0 0 0 0 0 0 0 0 0 0 0 0 0 0.010215756483376026154 0.066402420401573181152 0.11492726951837539673 0.040863025933504104614 0.0025539391208440065384 0 0 0 0 0 0 0 0 0 0 0.010215756483376026154 0.033201210200786590576 0.017877575010061264038 0.010215756483376026154 0.053632721304893493652 0.27582541108131408691 0.68445569276809692383 1.2156749963760375977 1.4429756402969360352 0.63082301616668701172 0.089387871325016021729 0 0 0 0 0 0 0 0 0 0 0 0 0 0 0 0 0 0 0 0.010215756483376026154 0.030647270381450653076 0.010215756483376026154 0.017877575010061264038 0.061294540762901306152 0.043416965752840042114 0.033201210200786590576 0.030647270381450653076 0.007661817595362663269 0 0 0 0 0 0 0 0 0 0 0 0 0 0 0 0 0 0 0 0 0 0 0 0 0 0 0 0 0 0 0 0 0 0 0 0 0 0 0 0 0 0 0 0 0 0 0 0 0 0 0 0 0 0 0 0 0 0 0 0 0 0 0 0 0 0 0 0 0 0 0 0 0 0 0 0 0 0 0 0 0 0 0 0 0 0 
0.010215756483376026154 0.030647270381450653076 0.010215756483376026154 0 0 0 0 0.010215756483376026154 0.030647270381450653076 0.010215756483376026154 0 0 0 0 0 0.010215756483376026154 0.030647270381450653076 0.010215756483376026154 0 0 0 0 0 0 0 0 0 0 0 0 0 0 0 0 0 0 0 0 0 0 0 0 0 0 0 0 0 0 0 0 0 0 0 0 0 0 0 0 0 0 0 0 0 0 0 0 0 0 0 0 0 0 0 0 0 0 0 0 0 0 0 0 0 0 0 0 0 0 0 0 0 0 0 0 0 0 0 0 0 0 0 0 0 0 0 0 0 0 0 0 0 0 0 0 0 0 0 0 0 0 0 0 0 0 0 0 0 0 0 0 0 0 0 0 0 0 0 0 0 0 0 0 0 0 0 0 0 0 0 0 0 0 0 0 0 0 0 0 0 0 0 0 0 0 0 0 0 0 0 0 0 0 0 0 0 0 0 0 0 0 0 0 0 0 0 0 0 0 0 0 0 0 0 0 0 0 0 0 0 0 0 0 0 0 0 0 0 0 0 0 0 0 0 0 0 0 0 0 0 0 0 0 0 0 0 0 0 0 0 0 0 0 0 0 0 0 0 0 0 0 0 0 0 0 0 0 0 0 0 0 0 0 0 0 0 0 0 0 0 0 0 0 0 0 0 0 0 0 0 0 0 0 0 0 0 0 0 0 0 0 0 0 0 0.0025539391208440065384 0.025539392605423927307 0.066402420401573181152 0.028093332424759864807 0.007661817595362663269 0.0025539391208440065384 0 0 0 0 0 0 0 0 0 0 0 0 0 0 0 0 0 0 0 0 0 0 0 0 0 0 0 0 0 0 0 0 0 0 0 0 0 0 0 0 0 0 0.007661817595362663269 0.061294540762901306152 0.1328048408031463623 0.074064239859580993652 0.017877575010061264038 0.0025539391208440065384 0 0 0 0 0 0 0 0 0 0.007661817595362663269 0.030647270381450653076 0.035755150020122528076 0.030647270381450653076 0.043416965752840042114 0.20942300558090209961 0.50567990541458129883 1.0317914485931396484 1.5553488731384277344 0.93218773603439331055 0.20176120102405548096 0.012769695371389389038 0 0 0 0 0 0 0 0 0 0 0 0 0 0 0 0 0 0 0.010215756483376026154 0.030647270381450653076 0.010215756483376026154 0.012769696302711963654 0.038309089839458465576 0.020431512966752052307 0.017877575010061264038 0.035755150020122528076 0.015323635190725326538 0.0025539391208440065384 0 0 0 0 0 0 0 0 0 0 0 0 0 0 0 0 0 0 0 0 0 0 0 0 0 0 0 0 0 0 0 0 0 0 0 0 0 0 0 0 0 0 0 0 0 0 0 0 0 0 0 0 0 0 0 0 0 0 0 0 0 0 0 0 0 0 0 0 0 0 0 0 0 0 0 0 0 0 0 0 0 0 0 0 0 
0.010215756483376026154 0.030647270381450653076 0.010215756483376026154 0 0 0 0 0.010215756483376026154 0.030647270381450653076 0.010215756483376026154 0 0 0 0 0.0025539391208440065384 0.015323635190725326538 0.033201210200786590576 0.010215756483376026154 0 0 0 0 0 0 0 0 0 0 0 0 0 0 0 0 0 0 0 0 0 0 0 0 0 0 0 0 0 0 0 0 0 0 0 0 0 0 0 0 0 0 0 0 0 0 0 0 0 0 0 0 0 0 0 0 0 0 0 0 0 0 0 0 0 0 0 0 0 0 0 0 0 0 0 0 0 0 0 0 0 0 0 0 0 0 0 0 0 0 0 0 0 0 0 0 0 0 0 0 0 0 0 0 0 0 0 0 0 0 0 0 0 0 0 0 0 0 0 0 0 0 0 0 0 0 0 0 0 0 0 0 0 0 0 0 0 0 0 0 0 0 0 0 0 0 0 0 0 0 0 0 0 0 0 0 0 0 0 0 0 0 0 0 0 0 0 0 0 0 0 0 0 0 0 0 0 0 0 0 0 0 0 0 0 0 0 0 0 0 0 0 0 0 0 0 0 0 0 0 0 0 0 0 0 0 0 0 0 0 0 0 0 0 0 0 0 0 0 0 0 0 0 0 0 0 0 0 0 0 0 0 0 0 0 0 0 0 0 0 0 0 0 0 0 0 0 0 0 0 0 0 0 0 0 0 0 0 0 0 0 0 0 0 0 0.0025539391208440065384 0.025539392605423927307 0.063848480582237243652 0.020431512966752052307 0 0 0 0 0 0 0 0 0 0 0 0 0 0 0 0 0 0 0 0 0 0 0 0 0 0 0 0 0 0 0 0 0 0 0 0 0 0 0 0 0 0 0 0 0.0025539391208440065384 0.033201210200786590576 0.11492726951837539673 0.1200351417064666748 0.061294540762901306152 0.022985450923442840576 0.012769696302711963654 0.007661817595362663269 0.0025539391208440065384 0 0 0 0 0 0 0.0025539391208440065384 0.007661817595362663269 0.017877575010061264038 0.035755150020122528076 0.038309089839458465576 0.14557452499866485596 0.36010542511940002441 0.75341200828552246094 1.4736227989196777344 1.2514302730560302734 0.46737083792686462402 0.079172119498252868652 0.0051078782416880130768 0 0 0 0 0 0 0 0 0 0 0 0 0 0 0 0 0 0.010215756483376026154 0.030647270381450653076 0.010215756483376026154 0.010215756483376026154 0.033201210200786590576 0.017877575010061264038 0.017877575010061264038 0.040863025933504104614 0.035755150020122528076 0.007661817595362663269 0 0 0 0 0 0 0 0 0 0 0 0 0 0 0 0 0 0 0 0 0 0 0 0 0 0 0 0 0 0 0 0 0 0 0 0 0 0 0 0 0 0 0 0 0 0 0 0 0 0 0 0 0 0 0 0 0 0 0 0 0 0 0 0 0 0 0 0 0 0 0 0 0 0 0 0 0 0 0 0 0 0 0 0 0 
0.010215756483376026154 0.033201210200786590576 0.017877575010061264038 0.010215756483376026154 0.010215756483376026154 0.010215756483376026154 0.010215756483376026154 0.017877575010061264038 0.033201210200786590576 0.010215756483376026154 0 0 0 0.0025539391208440065384 0.012769696302711963654 0.035755150020122528076 0.033201210200786590576 0.007661817595362663269 0 0 0 0 0 0 0 0 0 0 0 0 0 0 0 0 0 0 0 0 0 0 0 0 0 0 0 0 0 0 0 0 0 0 0 0 0 0 0 0 0 0 0 0 0 0 0 0 0 0 0 0 0 0 0 0 0 0 0 0 0 0 0 0 0 0 0 0 0 0 0 0 0 0 0 0 0 0 0 0 0 0 0 0 0 0 0 0 0 0 0 0 0 0 0 0 0 0 0 0 0 0 0 0 0 0 0 0 0 0 0 0 0 0 0 0 0 0 0 0 0 0 0 0 0 0 0 0 0 0 0 0 0 0 0 0 0 0 0 0 0 0 0 0 0 0 0 0 0 0 0 0 0 0 0 0 0 0 0 0 0 0 0 0 0 0 0 0 0 0 0 0 0 0 0 0 0 0 0 0 0 0 0 0 0 0 0 0 0 0 0 0 0 0 0 0 0 0 0 0 0 0 0 0 0 0 0 0 0 0 0 0 0 0 0 0 0 0 0 0 0 0 0 0 0 0 0 0 0 0 0 0 0 0 0 0 0 0 0 0 0 0 0 0 0 0 0 0 0 0 0 0 0 0 0 0 0 0 0 0 0 0 0 0 0 0.007661817595362663269 0.043416965752840042114 0.063848480582237243652 0.017877575010061264038 0 0 0 0 0 0 0 0 0 0 0 0 0 0 0 0 0 0 0 0 0 0 0 0 0 0 0 0 0 0 0 0 0 0 0 0 0 0 0 0 0 0 0 0 0 0.012769696302711963654 0.063848480582237243652 0.1174812018871307373 0.099603630602359771729 0.074064239859580993652 0.043416965752840042114 0.030647270381450653076 0.007661817595362663269 0 0 0 0 0 0 0 0 0.007661817595362663269 0.033201210200786590576 0.045970901846885681152 0.10215757042169570923 0.26560968160629272461 0.55165082216262817383 1.2309986352920532227 1.4582992792129516602 0.86833930015563964844 0.25539392232894897461 0.033201210200786590576 0 0 0 0 0 0 0 0 0 0 0 0 0 0 0 0 0 0.010215756483376026154 0.030647270381450653076 0.010215756483376026154 0.007661817595362663269 0.030647270381450653076 0.033201210200786590576 0.035755150020122528076 0.048524845391511917114 0.051078785210847854614 0.022985450923442840576 0.0051078782416880130768 0 0 0 0 0 0 0 0 0 0 0 0 0 0 0 0 0 0 0 0 0 0 0 0 0 0 0 0 0 0 0 0 0 0 0 0 0 0 0 0 0 0 0 0 0 0 0 0 0 0 0 0 0 0 0 0 0 0 0 0 0 0 0 0 0 0 0 0 0 0 0 0 0 0 0 0 0 0 0 0 0 0 0 0 
0.012769696302711963654 0.043416965752840042114 0.043416965752840042114 0.033201210200786590576 0.030647270381450653076 0.030647270381450653076 0.030647270381450653076 0.033201210200786590576 0.030647270381450653076 0.007661817595362663269 0 0 0.0025539391208440065384 0.012769696302711963654 0.035755150020122528076 0.035755150020122528076 0.012769696302711963654 0.0025539391208440065384 0 0 0 0 0 0 0 0 0 0 0 0 0 0 0 0 0 0 0 0 0 0 0 0 0 0 0 0 0 0 0 0 0 0 0 0 0 0 0 0 0 0 0 0 0 0 0 0 0 0 0 0 0 0 0 0 0 0 0 0 0 0 0 0 0 0 0 0 0 0 0 0 0 0 0 0 0 0 0 0 0 0 0 0 0 0 0 0 0 0 0 0 0 0 0 0 0 0 0 0 0 0 0 0 0 0 0 0 0 0 0 0 0 0 0 0 0 0 0 0 0 0 0 0 0 0 0 0 0 0 0 0 0 0 0 0 0 0 0 0 0 0 0 0 0 0 0 0 0 0 0 0 0 0 0 0 0 0 0 0 0 0 0 0 0 0 0 0 0 0 0 0 0 0 0 0 0 0 0 0 0 0 0 0 0 0 0 0 0 0 0 0 0 0 0 0 0 0 0 0 0 0 0 0 0 0 0 0 0 0 0 0 0 0 0 0 0 0 0 0 0 0 0 0 0 0 0 0 0 0 0 0 0 0 0 0 0 0 0 0 0 0 0 0 0 0 0 0 0 0 0 0 0 0 0 0 0 0 0 0 0 0 0 0 0 0.010215756483376026154 0.043416965752840042114 0.045970901846885681152 0.012769696302711963654 0 0 0 0 0 0 0 0 0 0 0 0 0 0 0 0 0 0 0 0 0 0 0 0 0 0 0 0 0 0 0 0 0 0 0 0 0 0 0 0 0 0 0 0 0 0.0025539391208440065384 0.022985454648733139038 0.076618179678916931152 0.094495750963687896729 0.081726051867008209229 0.035755150020122528076 0.035755150020122528076 0.015323635190725326538 0.0025539391208440065384 0 0 0 0 0 0 0 0.0025539391208440065384 0.015323635190725326538 0.043416965752840042114 0.084279991686344146729 0.19920726120471954346 0.40863028168678283691 0.86323142051696777344 1.2871853113174438477 1.1543804407119750977 0.54654294252395629883 0.12258907407522201538 0.012769695371389389038 0 0 0 0 0 0 0 0 0 0 0 0 0 0 0 0 0.010215756483376026154 0.030647270381450653076 0.010215756483376026154 0.0025539391208440065384 0.007661817595362663269 0.010215756483376026154 0.015323635190725326538 0.040863025933504104614 0.068956352770328521729 0.063848480582237243652 0.015323635190725326538 0 0 0 0 0 0 0 0 0 0 0 0 0 0 0 0 0 0 0 0 0 0 0 0 0 0 0 0 0 0 0 0 0 0 0 0 0 0 0 0 0 0 0 0 0 0 0 0 0 0 0 0 0 0 0 0 0 0 0 0 0 0 0 0 0 0 0 0 0 0 0 0 0 0 0 0 0 0 0 0 0 0 0 0 
0.017877575010061264038 0.063848480582237243652 0.045970901846885681152 0.015323635190725326538 0.010215756483376026154 0.010215756483376026154 0.010215756483376026154 0.010215756483376026154 0.007661817595362663269 0.0025539391208440065384 0 0.0025539391208440065384 0.012769696302711963654 0.035755150020122528076 0.035755150020122528076 0.012769696302711963654 0.0025539391208440065384 0 0 0 0 0 0 0 0 0 0 0 0 0 0 0 0 0 0 0 0 0 0 0 0 0 0 0 0 0 0 0 0 0 0 0 0 0 0 0 0 0 0 0 0 0 0 0 0 0 0 0 0 0 0 0 0 0 0 0 0 0 0 0 0 0 0 0 0 0 0 0 0 0 0 0 0 0 0 0 0 0 0 0 0 0 0 0 0 0 0 0 0 0 0 0 0 0 0 0 0 0 0 0 0 0 0 0 0 0 0 0 0 0 0 0 0 0 0 0 0 0 0 0 0 0 0 0 0 0 0 0 0 0 0 0 0 0 0 0 0 0 0 0 0 0 0 0 0 0 0 0 0 0 0 0 0 0 0 0 0 0 0 0 0 0 0 0 0 0 0 0 0 0 0 0 0 0 0 0 0 0 0 0 0 0 0 0 0 0 0 0 0 0 0 0 0 0 0 0 0 0 0 0 0 0 0 0 0 0 0 0 0 0 0 0 0 0 0 0 0 0 0 0 0 0 0 0 0 0 0 0 0 0 0 0 0 0 0 0 0 0 0 0 0 0 0 0 0 0 0 0 0 0 0 0 0 0 0 0 0 0 0 0 0 0 0 0.012769696302711963654 0.045970901846885681152 0.043416965752840042114 0.010215756483376026154 0 0 0 0 0 0 0 0 0 0 0 0 0 0 0 0 0 0 0 0 0 0 0 0 0 0 0 0 0 0 0 0 0 0 0 0 0 0 0 0 0 0 0 0 0 0 0.0051078782416880130768 0.025539392605423927307 0.066402420401573181152 0.076618179678916931152 0.028093332424759864807 0.033201210200786590576 0.033201210200786590576 0.007661817595362663269 0 0 0 0 0 0 0 0 0.010215756483376026154 0.043416965752840042114 0.081726051867008209229 0.16345210373401641846 0.31413453817367553711 0.66913205385208129883 1.0598847866058349609 1.2131211757659912109 0.87600111961364746094 0.35755148530006408691 0.063848473131656646729 0 0 0 0 0 0 0 0 0 0 0 0 0 0 0 0 0.010215756483376026154 0.030647270381450653076 0.010215756483376026154 0 0 0 0.0025539391208440065384 0.010215756483376026154 0.033201210200786590576 0.071510300040245056152 0.030647270381450653076 0.0051078782416880130768 0 0 0 0 0 0 0 0 0 0 0 0 0 0 0 0 0 0 0 0 0 0 0 0 0 0 0 0 0 0 0 0 0 0 0 0 0 0 0 0 0 0 0 0 0 0 0 0 0 0 0 0 0 0 0 0 0 0 0 0 0 0 0 0 0 0 0 0 0 0 0 0 0 0 0 0 0 0 0 0 0 0 0 
0.020431512966752052307 0.063848480582237243652 0.025539392605423927307 0.0025539391208440065384 0 0 0 0 0 0 0 0.007661817595362663269 0.033201210200786590576 0.035755150020122528076 0.012769696302711963654 0.0025539391208440065384 0 0 0 0 0 0 0 0 0 0 0 0 0 0 0 0 0 0 0 0 0 0 0 0 0 0 0 0 0 0 0 0 0 0 0 0 0 0 0 0 0 0 0 0 0 0 0 0 0 0 0 0 0 0 0 0 0 0 0 0 0 0 0 0 0 0 0 0 0 0 0 0 0 0 0 0 0 0 0 0 0 0 0 0 0 0 0 0 0 0 0 0 0 0 0 0 0 0 0 0 0 0 0 0 0 0 0 0 0 0 0 0 0 0 0 0 0 0 0 0 0 0 0 0 0 0 0 0 0 0 0 0 0 0 0 0 0 0 0 0 0 0 0 0 0 0 0 0 0 0 0 0 0 0 0 0 0 0 0 0 0 0 0 0 0 0 0 0 0 0 0 0 0 0 0 0 0 0 0 0 0 0 0 0 0 0 0 0 0 0 0 0 0 0 0 0 0 0 0 0 0 0 0 0 0 0 0 0 0 0 0 0 0 0 0 0 0 0 0 0 0 0 0 0 0 0 0 0 0 0 0 0 0 0 0 0 0 0 0 0 0 0 0 0 0 0 0 0 0 0 0 0 0 0 0 0 0 0 0 0 0 0 0 0 0 0 0 0.017877575010061264038 0.063848480582237243652 0.043416965752840042114 0.007661817595362663269 0 0 0 0 0 0 0 0 0 0 0 0 0 0 0 0 0 0 0 0 0 0 0 0 0 0 0 0 0 0 0 0 0 0 0 0 0 0 0 0 0 0 0 0 0 0 0 0.017877575010061264038 0.074064239859580993652 0.074064239859580993652 0.020431512966752052307 0.015323635190725326538 0.033201210200786590576 0.010215756483376026154 0 0 0 0 0 0 0 0 0.007661817595362663269 0.040863025933504104614 0.099603630602359771729 0.17111392319202423096 0.23496238887310028076 0.52100360393524169922 0.95006531476974487305 1.2156751155853271484 1.1339489221572875977 0.69977933168411254883 0.17366786301136016846 0.012769695371389389038 0 0 0 0 0 0 0 0 0 0 0 0 0 0 0 0.010215756483376026154 0.030647270381450653076 0.010215756483376026154 0 0 0 0 0 0.015323635190725326538 0.066402420401573181152 0.068956352770328521729 0.022985450923442840576 0.007661817595362663269 0.0025539391208440065384 0 0 0 0 0 0 0 0 0 0 0 0 0 0 0 0 0 0 0 0 0 0 0 0 0 0 0 0 0 0 0 0 0 0 0 0 0 0 0 0 0 0 0 0 0 0 0 0 0 0 0 0 0 0 0 0 0 0 0 0 0 0 0 0 0 0 0 0 0 0 0 0 0 0 0 0 0 0 0 0 0 
0.020431512966752052307 0.061294540762901306152 0.020431512966752052307 0 0 0 0 0 0 0 0 0.010215756483376026154 0.033201210200786590576 0.015323635190725326538 0.0025539391208440065384 0 0 0 0 0 0 0 0 0 0 0 0 0 0 0 0 0 0 0 0 0 0 0 0 0 0 0 0 0 0 0 0 0 0 0 0 0 0 0 0 0 0 0 0 0 0 0 0 0 0 0 0 0 0 0 0 0 0 0 0 0 0 0 0 0 0 0 0 0 0 0 0 0 0 0 0 0 0 0 0 0 0 0 0 0 0 0 0 0 0 0 0 0 0 0 0 0 0 0 0 0 0 0 0 0 0 0 0 0 0 0 0 0 0 0 0 0 0 0 0 0 0 0 0 0 0 0 0 0 0 0 0 0 0 0 0 0 0 0 0 0 0 0 0 0 0 0 0 0 0 0 0 0 0 0 0 0 0 0 0 0 0 0 0 0 0 0 0 0 0 0 0 0 0 0 0 0 0 0 0 0 0 0 0 0 0 0 0 0 0 0 0 0 0 0 0 0 0 0 0 0 0 0 0 0 0 0 0 0 0 0 0 0 0 0 0 0 0 0 0 0 0 0 0 0 0 0 0 0 0 0 0 0 0 0 0 0 0 0 0 0 0 0 0 0 0 0 0 0 0 0 0 0 0 0 0 0 0 0 0 0 0 0 0 0 0 0 0 0.020431512966752052307 0.063848480582237243652 0.025539392605423927307 0.0025539391208440065384 0 0 0 0 0 0 0 0 0 0 0 0 0 0 0 0 0 0 0 0 0 0 0 0 0 0 0 0 0 0 0 0 0 0 0 0 0 0 0 0 0 0 0 0 0 0 0 0.020431512966752052307 0.074064239859580993652 0.056186664849519729614 0.012769696302711963654 0.010215756483376026154 0.033201210200786590576 0.015323635190725326538 0.0025539391208440065384 0 0 0 0 0 0 0 0.0025539391208440065384 0.015323635190725326538 0.081726051867008209229 0.17622180283069610596 0.16345210373401641846 0.32945814728736877441 0.68956357240676879883 1.0266835689544677734 1.2182290554046630859 1.0649926662445068359 0.51334178447723388672 0.16089816391468048096 0.033201210200786590576 0 0 0 0 0 0 0 0 0 0 0 0 0 0 0.010215756483376026154 0.030647270381450653076 0.010215756483376026154 0 0 0 0 0 0.0051078782416880130768 0.028093332424759864807 0.068956352770328521729 0.053632721304893493652 0.043416965752840042114 0.020431512966752052307 0.0051078782416880130768 0 0 0 0 0 0 0 0 0 0 0 0 0 0 0 0 0 0 0 0 0 0 0 0 0 0 0 0 0 0 0 0 0 0 0 0 0 0 0 0 0 0 0 0 0 0 0 0 0 0 0 0 0 0 0 0 0 0 0 0 0 0 0 0 0 0 0 0 0 0 0 0 0 0 0 0 0 0 0 0 
0.020431512966752052307 0.061294540762901306152 0.020431512966752052307 0 0 0 0 0 0 0 0 0.010215756483376026154 0.030647270381450653076 0.010215756483376026154 0 0 0 0 0 0 0 0 0 0 0 0 0 0 0 0 0 0 0 0 0 0 0 0 0 0 0 0 0 0 0 0 0 0 0 0 0 0 0 0 0 0 0 0 0 0 0 0 0 0 0 0 0 0 0 0 0 0 0 0 0 0 0 0 0 0 0 0 0 0 0 0 0 0 0 0 0 0 0 0 0 0 0 0 0 0 0 0 0 0 0 0 0 0 0 0 0 0 0 0 0 0 0 0 0 0 0 0 0 0 0 0 0 0 0 0 0 0 0 0 0 0 0 0 0 0 0 0 0 0 0 0 0 0 0 0 0 0 0 0 0 0 0 0 0 0 0 0 0 0 0 0 0 0 0 0 0 0 0 0 0 0 0 0 0 0 0 0 0 0 0 0 0 0 0 0 0 0 0 0 0 0 0 0 0 0 0 0 0 0 0 0 0 0 0 0 0 0 0 0 0 0 0 0 0 0 0 0 0 0 0 0 0 0 0 0 0 0 0 0 0 0 0 0 0 0 0 0 0 0 0 0 0 0 0 0 0 0 0 0 0 0 0 0 0 0 0 0 0 0 0 0 0 0 0 0 0 0 0 0 0 0 0 0 0 0 0 0 0 0.020431512966752052307 0.063848480582237243652 0.025539392605423927307 0.0025539391208440065384 0 0 0 0 0 0 0 0 0 0 0 0 0 0 0 0 0 0 0 0 0 0 0 0 0 0 0 0 0 0 0 0 0 0 0 0 0 0 0 0 0 0 0 0 0 0 0 0.020431512966752052307 0.071510300040245056152 0.051078785210847854614 0.010215756483376026154 0.007661817595362663269 0.033201210200786590576 0.033201210200786590576 0.007661817595362663269 0 0 0 0 0 0 0 0 0.0025539391208440065384 0.05618665739893913269 0.16600602865219116211 0.1098193824291229248 0.20431514084339141846 0.46226298809051513672 0.79938298463821411133 1.1620423793792724609 1.3586956262588500977 1.1543804407119750977 0.65636235475540161133 0.1506824195384979248 0 0 0 0 0 0 0 0 0 0 0 0 0 0 0.010215756483376026154 0.030647270381450653076 0.010215756483376026154 0 0 0 0 0 0 0.010215756483376026154 0.038309089839458465576 0.048524845391511917114 0.068956352770328521729 0.068956352770328521729 0.028093332424759864807 0.012769696302711963654 0.007661817595362663269 0.0025539391208440065384 0 0 0 0 0 0 0 0 0 0 0 0 0 0 0 0 0 0 0 0 0 0 0 0 0 0 0 0 0 0 0 0 0 0 0 0 0 0 0 0 0 0 0 0 0 0 0 0 0 0 0 0 0 0 0 0 0 0 0 0 0 0 0 0 0 0 0 0 0 0 0 0 0 0 0 0 0 
0.020431512966752052307 0.061294540762901306152 0.020431512966752052307 0 0 0 0 0 0.0025539391208440065384 0.007661817595362663269 0.010215756483376026154 0.017877575010061264038 0.033201210200786590576 0.010215756483376026154 0 0 0 0 0 0 0 0 0 0 0 0 0 0 0 0 0 0 0 0 0 0 0 0 0 0 0 0 0 0 0 0 0 0 0 0 0 0 0 0 0 0 0 0 0 0 0 0 0 0 0 0 0 0 0 0 0 0 0 0 0 0 0 0 0 0 0 0 0 0 0 0 0 0 0 0 0 0 0 0 0 0 0 0 0 0 0 0 0 0 0 0 0 0 0 0 0 0 0 0 0 0 0 0 0 0 0 0 0 0 0 0 0 0 0 0 0 0 0 0 0 0 0 0 0 0 0 0 0 0 0 0 0 0 0 0 0 0 0 0 0 0 0 0 0 0 0 0 0 0 0 0 0 0 0 0 0 0 0 0 0 0 0 0 0 0 0 0 0 0 0 0 0 0 0 0 0 0 0 0 0 0 0 0 0 0 0 0 0 0 0 0 0 0 0 0 0 0 0 0 0 0 0 0 0 0 0 0 0 0 0 0 0 0 0 0 0 0 0 0 0 0 0 0 0 0 0 0 0 0 0 0 0 0 0 0 0 0 0 0 0 0 0 0 0 0 0 0 0 0 0 0 0 0 0 0 0 0 0 0 0 0 0 0 0 0 0 0 0 0.017877575010061264038 0.063848480582237243652 0.043416965752840042114 0.007661817595362663269 0 0 0 0 0 0 0 0 0 0 0 0 0 0 0 0 0 0 0 0 0 0 0 0 0 0 0 0 0 0 0 0 0 0 0 0 0 0 0 0 0 0 0 0 0 0 0 0.020431512966752052307 0.074064239859580993652 0.056186664849519729614 0.012769696302711963654 0.0025539391208440065384 0.015323635190725326538 0.033201210200786590576 0.010215756483376026154 0 0 0 0 0 0 0 0 0 0.045970901846885681152 0.15323634445667266846 0.1251430213451385498 0.17366786301136016846 0.26305574178695678711 0.51589572429656982422 0.81981450319290161133 1.0879780054092407227 1.3178325891494750977 1.2565381526947021484 0.40607634186744689941 0.045970901846885681152 0 0 0 0 0 0 0 0 0 0 0 0 0 0.010215756483376026154 0.030647270381450653076 0.010215756483376026154 0 0 0 0 0 0 0.0025539391208440065384 0.007661817595362663269 0.012769696302711963654 0.028093332424759864807 0.068956352770328521729 0.066402420401573181152 0.040863025933504104614 0.033201210200786590576 0.015323635190725326538 0.010215756483376026154 0.010215756483376026154 0.007661817595362663269 0.0025539391208440065384 0 0 0 0 0 0 0 0 0 0 0 0 0 0 0 0 0 0 0 0 0 0 0 0 0 0 0 0 0 0 0 0 0 0 0 0 0 0 0 0 0 0 0 0 0 0 0 0 0 0 0 0 0 0 0 0 0 0 0 0 0 0 0 0 0 0 0 0 0 0 0 0 0 
0.020431512966752052307 0.061294540762901306152 0.020431512966752052307 0 0 0 0 0 0.007661817595362663269 0.030647270381450653076 0.033201210200786590576 0.033201210200786590576 0.030647270381450653076 0.007661817595362663269 0 0 0 0 0 0 0 0 0 0 0 0 0 0 0 0 0 0 0 0 0 0 0 0 0 0 0 0 0 0 0 0 0 0 0 0 0 0 0 0 0 0 0 0 0 0 0 0 0 0 0 0 0 0 0 0 0 0 0 0 0 0 0 0 0 0 0 0 0 0 0 0 0 0 0 0 0 0 0 0 0 0 0 0 0 0 0 0 0 0 0 0 0 0 0 0 0 0 0 0 0 0 0 0 0 0 0 0 0 0 0 0 0 0 0 0 0 0 0 0 0 0 0 0 0 0 0 0 0 0 0 0 0 0 0 0 0 0 0 0 0 0 0 0 0 0 0 0 0 0 0 0 0 0 0 0 0 0 0 0 0 0 0 0 0 0 0 0 0 0 0 0 0 0 0 0 0 0 0 0 0 0 0 0 0 0 0 0 0 0 0 0 0 0 0 0 0 0 0 0 0 0 0 0 0 0 0 0 0 0 0 0 0 0 0 0 0 0 0 0 0 0 0 0 0 0 0 0 0 0 0 0 0 0 0 0 0 0 0 0 0 0 0 0 0 0 0 0 0 0 0 0 0 0 0 0 0 0 0 0 0 0 0 0 0 0 0 0 0 0.012769696302711963654 0.045970901846885681152 0.043416965752840042114 0.010215756483376026154 0 0 0 0 0 0 0 0 0 0 0 0 0 0 0 0 0 0 0 0 0 0 0 0 0 0 0 0 0 0 0 0 0 0 0 0 0 0 0 0 0 0 0 0 0 0 0 0.017877575010061264038 0.074064239859580993652 0.074064239859580993652 0.017877575010061264038 0 0.010215756483376026154 0.030647270381450653076 0.010215756483376026154 0 0 0 0 0 0 0 0 0 0.035755146294832229614 0.1072654426097869873 0.081726051867008209229 0.1506824195384979248 0.18899150192737579346 0.28093329071998596191 0.45715510845184326172 0.65380841493606567383 0.97049689292907714844 1.5604567527770996094 0.93729561567306518555 0.18388360738754272461 0 0 0 0 0 0 0 0 0 0 0 0 0 0.010215756483376026154 0.030647270381450653076 0.010215756483376026154 0 0 0 0 0 0 0 0 0 0.0051078782416880130768 0.022985450923442840576 0.045970901846885681152 0.033201210200786590576 0.043416965752840042114 0.043416965752840042114 0.040863025933504104614 0.043416965752840042114 0.043416965752840042114 0.022985450923442840576 0.010215756483376026154 0.0025539391208440065384 0 0 0 0 0 0 0 0 0 0 0 0 0 0 0 0 0 0 0 0 0 0 0 0 0 0 0 0 0 0 0 0 0 0 0 0 0 0 0 0 0 0 0 0 0 0 0 0 0 0 0 0 0 0 0 0 0 0 0 0 0 0 0 0 0 0 0 0 0 0 0 
0.020431512966752052307 0.061294540762901306152 0.020431512966752052307 0 0 0 0 0 0.010215756483376026154 0.033201210200786590576 0.017877575010061264038 0.010215756483376026154 0.007661817595362663269 0.0025539391208440065384 0 0 0 0 0 0 0 0 0 0 0 0 0 0 0 0 0 0 0 0 0 0 0 0 0 0 0 0 0 0 0 0 0 0 0 0 0 0 0 0 0 0 0 0 0 0 0 0 0 0 0 0 0 0 0 0 0 0 0 0 0 0 0 0 0 0 0 0 0 0 0 0 0 0 0 0 0 0 0 0 0 0 0 0 0 0 0 0 0 0 0 0 0 0 0 0 0 0 0 0 0 0 0 0 0 0 0 0 0 0 0 0 0 0 0 0 0 0 0 0 0 0 0 0 0 0 0 0 0 0 0 0 0 0 0 0 0 0 0 0 0 0 0 0 0 0 0 0 0 0 0 0 0 0 0 0 0 0 0 0 0 0 0 0 0 0 0 0 0 0 0 0 0 0 0 0 0 0 0 0 0 0 0 0 0 0 0 0 0 0 0 0 0 0 0 0 0 0 0 0 0 0 0 0 0 0 0 0 0 0 0 0 0 0 0 0 0 0 0 0 0 0 0 0 0 0 0 0 0 0 0 0 0 0 0 0 0 0 0 0 0 0 0 0 0 0 0 0 0 0 0 0 0 0 0 0 0 0 0 0 0 0 0 0 0 0 0 0 0 0.010215756483376026154 0.040863025933504104614 0.040863025933504104614 0.010215756483376026154 0 0 0 0 0 0 0 0 0 0 0 0 0 0 0 0 0 0 0 0 0 0 0 0 0 0 0 0 0 0 0 0 0 0 0 0 0 0 0 0 0 0 0 0 0 0 0 0.012769696302711963654 0.058740600943565368652 0.079172119498252868652 0.022985454648733139038 0 0.010215756483376026154 0.030647270381450653076 0.010215756483376026154 0 0 0 0 0 0 0 0 0 0.030647270381450653076 0.094495750963687896729 0.061294540762901306152 0.1072654426097869873 0.16600604355335235596 0.20686908066272735596 0.33456602692604064941 0.43927752971649169922 0.65125447511672973633 1.3408180475234985352 1.3535877466201782227 0.36521330475807189941 0.017877573147416114807 0 0 0 0 0 0 0 0.0025539391208440065384 0.007661817595362663269 0.010215756483376026154 0.010215756483376026154 0.010215756483376026154 0.017877575010061264038 0.033201210200786590576 0.010215756483376026154 0 0 0 0 0 0 0 0 0 0 0.007661817595362663269 0.030647270381450653076 0.035755150020122528076 0.038309089839458465576 0.040863025933504104614 0.040863025933504104614 0.045970901846885681152 0.066402420401573181152 0.068956352770328521729 0.045970901846885681152 0.015323635190725326538 0.0025539391208440065384 0 0 0 0 0 0 0 0 0 0 0 0 0 0 0 0 0 0 0 0 0 0 0 0 0 0 0 0 0 0 0 0 0 0 0 0 0 0 0 0 0 0 0 0 0 0 0 0 0 0 0 0 0 0 0 0 0 0 0 0 0 0 0 0 0 0 0 0 0 0 
0.020431512966752052307 0.061294540762901306152 0.020431512966752052307 0 0 0 0 0 0.010215756483376026154 0.030647270381450653076 0.010215756483376026154 0 0 0 0 0 0 0 0 0 0 0 0 0 0 0 0 0 0 0 0 0 0 0 0 0 0 0 0 0 0 0 0 0 0 0 0 0 0 0 0 0 0 0 0 0 0 0 0 0 0 0 0 0 0 0 0 0 0 0 0 0 0 0 0 0 0 0 0 0 0 0 0 0 0 0 0 0 0 0 0 0 0 0 0 0 0 0 0 0 0 0 0 0 0 0 0 0 0 0 0 0 0 0 0 0 0 0 0 0 0 0 0 0 0 0 0 0 0 0 0 0 0 0 0 0 0 0 0 0 0 0 0 0 0 0 0 0 0 0 0 0 0 0 0 0 0 0 0 0 0 0 0 0 0 0 0 0 0 0 0 0 0 0 0 0 0 0 0 0 0 0 0 0 0 0 0 0 0 0 0 0 0 0 0 0 0 0 0 0 0 0 0 0 0 0 0 0 0 0 0 0 0 0 0 0 0 0 0 0 0 0 0 0 0 0 0 0 0 0 0 0 0 0 0 0 0 0 0 0 0 0 0 0 0 0 0 0 0 0 0 0 0 0 0 0 0 0 0 0 0 0 0 0 0 0 0 0 0 0 0 0 0 0 0 0 0 0 0 0 0 0 0 0.010215756483376026154 0.040863025933504104614 0.040863025933504104614 0.010215756483376026154 0 0 0 0 0 0 0 0 0 0 0 0 0 0 0 0 0 0 0 0 0 0 0 0 0 0 0 0 0 0 0 0 0 0 0 0 0 0 0 0 0 0 0 0 0 0 0 0.007661817595362663269 0.053632721304893493652 0.094495750963687896729 0.028093332424759864807 0 0.010215756483376026154 0.030647270381450653076 0.010215756483376026154 0 0 0 0 0 0 0 0 0 0.028093332424759864807 0.094495750963687896729 0.074064239859580993652 0.094495750963687896729 0.1098193824291229248 0.1200351417064666748 0.24007026851177215576 0.33967390656471252441 0.46992477774620056152 1.0215756893157958984 1.4353138208389282227 0.59506779909133911133 0.074064232409000396729 0.0025539391208440065384 0 0 0 0 0 0 0.007661817595362663269 0.030647270381450653076 0.033201210200786590576 0.030647270381450653076 0.030647270381450653076 0.033201210200786590576 0.030647270381450653076 0.007661817595362663269 0 0 0 0 0 0 0 0 0 0 0.0025539391208440065384 0.007661817595362663269 0.010215756483376026154 0.010215756483376026154 0.010215756483376026154 0.010215756483376026154 0.012769696302711963654 0.022985450923442840576 0.051078785210847854614 0.071510300040245056152 0.045970901846885681152 0.010215756483376026154 0 0 0 0 0 0 0 0 0 0 0 0 0 0 0 0 0 0 0 0 0 0 0 0 0 0 0 0 0 0 0 0 0 0 0 0 0 0 0 0 0 0 0 0 0 0 0 0 0 0 0 0 0 0 0 0 0 0 0 0 0 0 0 0 0 0 0 0 0 0 
0.020431512966752052307 0.061294540762901306152 0.020431512966752052307 0.0025539391208440065384 0.007661817595362663269 0.010215756483376026154 0.010215756483376026154 0.010215756483376026154 0.017877575010061264038 0.033201210200786590576 0.010215756483376026154 0 0 0 0 0 0 0 0 0 0 0 0 0 0 0 0 0 0 0 0 0 0 0 0 0 0 0 0 0 0 0 0 0 0 0 0 0 0 0 0 0 0 0 0 0 0 0 0 0 0 0 0 0 0 0 0 0 0 0 0 0 0 0 0 0 0 0 0 0 0 0 0 0 0 0 0 0 0 0 0 0 0 0 0 0 0 0 0 0 0 0 0 0 0 0 0 0 0 0 0 0 0 0 0 0 0 0 0 0 0 0 0 0 0 0 0 0 0 0 0 0 0 0 0 0 0 0 0 0 0 0 0 0 0 0 0 0 0 0 0 0 0 0 0 0 0 0 0 0 0 0 0 0 0 0 0 0 0 0 0 0 0 0 0 0 0 0 0 0 0 0 0 0 0 0 0 0 0 0 0 0 0 0 0 0 0 0 0 0 0 0 0 0 0 0 0 0 0 0 0 0 0 0 0 0 0 0 0 0 0 0 0 0 0 0 0 0 0 0 0 0 0 0 0 0 0 0 0 0 0 0 0 0 0 0 0 0 0 0 0 0 0 0 0 0 0 0 0 0 0 0 0 0 0 0 0 0 0 0 0 0 0 0 0 0 0 0 0 0 0 0 0 0.012769696302711963654 0.045970901846885681152 0.043416965752840042114 0.010215756483376026154 0 0 0 0 0 0 0 0 0 0 0 0 0 0 0 0 0 0 0 0 0 0 0 0 0 0 0 0 0 0 0 0 0 0 0 0 0 0 0 0 0 0 0 0 0 0 0 0.0025539391208440065384 0.035755150020122528076 0.097049690783023834229 0.035755150020122528076 0.0025539391208440065384 0.010215756483376026154 0.030647270381450653076 0.010215756483376026154 0 0 0 0 0 0 0 0 0 0.020431512966752052307 0.074064239859580993652 0.079172119498252868652 0.10215757042169570923 0.099603630602359771729 0.081726051867008209229 0.13791270554065704346 0.21453088521957397461 0.32179632782936096191 0.87089323997497558594 1.3970047235488891602 0.79938292503356933594 0.18899148702621459961 0.022985450923442840576 0.0025539391208440065384 0 0.0025539391208440065384 0.007661817595362663269 0.010215756483376026154 0.010215756483376026154 0.017877575010061264038 0.035755150020122528076 0.017877575010061264038 0.010215756483376026154 0.010215756483376026154 0.010215756483376026154 0.007661817595362663269 0.0025539391208440065384 0 0 0 0 0 0 0 0 0 0 0 0 0 0 0 0 0 0.0025539391208440065384 0.015323635190725326538 0.051078785210847854614 0.071510300040245056152 0.033201210200786590576 0.015323635190725326538 0.0051078782416880130768 0 0 0 0 0 0 0 0 0 0 0 0 0 0 0 0 0 0 0 0 0 0 0 0 0 0 0 0 0 0 0 0 0 0 0 0 0 0 0 0 0 0 0 0 0 0 0 0 0 0 0 0 0 0 0 0 0 0 0 0 0 0 0 0 0 0 0 0 
0.020431512966752052307 0.061294540762901306152 0.022985450923442840576 0.012769696302711963654 0.033201210200786590576 0.033201210200786590576 0.030647270381450653076 0.030647270381450653076 0.033201210200786590576 0.030647270381450653076 0.007661817595362663269 0 0 0 0 0 0 0 0 0 0 0 0 0 0 0 0 0 0 0 0 0 0 0 0 0 0 0 0 0 0 0 0 0 0 0 0 0 0 0 0 0 0 0 0 0 0 0 0 0 0 0 0 0 0 0 0 0 0 0 0 0 0 0 0 0 0 0 0 0 0 0 0 0 0 0 0 0 0 0 0 0 0 0 0 0 0 0 0 0 0 0 0 0 0 0 0 0 0 0 0 0 0 0 0 0 0 0 0 0 0 0 0 0 0 0 0 0 0 0 0 0 0 0 0 0 0 0 0 0 0 0 0 0 0 0 0 0 0 0 0 0 0 0 0 0 0 0 0 0 0 0 0 0 0 0 0 0 0 0 0 0 0 0 0 0 0 0 0 0 0 0 0 0 0 0 0 0 0 0 0 0 0 0 0 0 0 0 0 0 0 0 0 0 0 0 0 0 0 0 0 0 0 0 0 0 0 0 0 0 0 0 0 0 0 0 0 0 0 0 0 0 0 0 0 0 0 0 0 0 0 0 0 0 0 0 0 0 0 0 0 0 0 0 0 0 0 0 0 0 0 0 0 0 0 0 0 0 0 0 0 0 0 0 0 0 0 0 0 0 0 0 0 0.017877575010061264038 0.063848480582237243652 0.043416965752840042114 0.007661817595362663269 0 0 0 0 0 0 0 0 0 0 0 0 0 0 0 0 0 0 0 0 0 0 0 0 0 0 0 0 0 0 0 0 0 0 0 0 0 0 0 0 0 0 0 0 0 0 0 0 0.028093332424759864807 0.097049690783023834229 0.058740600943565368652 0.010215756483376026154 0.010215756483376026154 0.033201210200786590576 0.017877575010061264038 0.007661817595362663269 0.0025539391208440065384 0 0 0 0 0 0 0 0.010215756483376026154 0.043416965752840042114 0.081726051867008209229 0.1200351417064666748 0.1174812018871307373 0.074064239859580993652 0.10215757042169570923 0.16345210373401641846 0.27837935090065002441 0.76618176698684692383 1.3408180475234985352 1.0266835689544677734 0.38053691387176513672 0.091941803693771362305 0.017877575010061264038 0.0025539391208440065384 0.007661817595362663269 0.030647270381450653076 0.033201210200786590576 0.030647270381450653076 0.033201210200786590576 0.030647270381450653076 0.007661817595362663269 0 0 0 0 0 0 0 0 0 0 0 0 0 0 0 0 0 0 0 0 0 0 0 0.0025539391208440065384 0.020431512966752052307 0.063848480582237243652 0.071510300040245056152 0.061294540762901306152 0.015323635190725326538 0 0 0 0 0 0 0 0 0 0 0 0 0 0 0 0 0 0 0 0 0 0 0 0 0 0 0 0 0 0 0 0 0 0 0 0 0 0 0 0 0 0 0 0 0 0 0 0 0 0 0 0 0 0 0 0 0 0 0 0 0 0 0 0 0 0 0 0 
0.022985454648733139038 0.068956352770328521729 0.035755150020122528076 0.035755150020122528076 0.035755150020122528076 0.015323635190725326538 0.010215756483376026154 0.010215756483376026154 0.010215756483376026154 0.007661817595362663269 0.0025539391208440065384 0 0 0 0 0 0 0 0 0 0 0 0 0 0 0 0 0 0 0 0 0 0 0 0 0 0 0 0 0 0 0 0 0 0 0 0 0 0 0 0 0 0 0 0 0 0 0 0 0 0 0 0 0 0 0 0 0 0 0 0 0 0 0 0 0 0 0 0 0 0 0 0 0 0 0 0 0 0 0 0 0 0 0 0 0 0 0 0 0 0 0 0 0 0 0 0 0 0 0 0 0 0 0 0 0 0 0 0 0 0 0 0 0 0 0 0 0 0 0 0 0 0 0 0 0 0 0 0 0 0 0 0 0 0 0 0 0 0 0 0 0 0 0 0 0 0 0 0 0 0 0 0 0 0 0 0 0 0 0 0 0 0 0 0 0 0 0 0 0 0 0 0 0 0 0 0 0 0 0 0 0 0 0 0 0 0 0 0 0 0 0 0 0 0 0 0 0 0 0 0 0 0 0 0 0 0 0 0 0 0 0 0 0 0 0 0 0 0 0 0 0 0 0 0 0 0 0 0 0 0 0 0 0 0 0 0 0 0 0 0 0 0 0 0 0 0 0 0 0 0 0 0 0 0 0 0 0 0 0 0 0 0 0 0 0 0 0 0 0 0 0 0 0.020431512966752052307 0.063848480582237243652 0.025539392605423927307 0.0025539391208440065384 0 0 0 0 0 0 0 0 0 0 0 0 0 0 0 0 0 0 0 0 0 0 0 0 0 0 0 0 0 0 0 0 0 0 0 0 0 0 0 0 0 0 0 0 0 0 0 0 0.020431512966752052307 0.079172119498252868652 0.079172119498252868652 0.022985450923442840576 0.010215756483376026154 0.030647270381450653076 0.035755150020122528076 0.030647270381450653076 0.007661817595362663269 0 0 0 0 0 0 0 0.0025539391208440065384 0.010215756483376026154 0.035755150020122528076 0.097049690783023834229 0.1072654426097869873 0.079172119498252868652 0.084279991686344146729 0.11237332969903945923 0.20686908066272735596 0.65891629457473754883 1.1977975368499755859 1.1109634637832641602 0.54909688234329223633 0.17877574265003204346 0.056186664849519729614 0.017877575010061264038 0.017877575010061264038 0.035755150020122528076 0.017877575010061264038 0.010215756483376026154 0.010215756483376026154 0.007661817595362663269 0.0025539391208440065384 0 0 0 0 0 0 0 0 0 0 0 0 0 0 0 0 0 0 0 0 0 0 0 0 0.0051078782416880130768 0.015323635190725326538 0.035755150020122528076 0.071510300040245056152 0.035755150020122528076 0.015323635190725326538 0.0051078782416880130768 0 0 0 0 0 0 0 0 0 0 0 0 0 0 0 0 0 0 0 0 0 0 0 0 0 0 0 0 0 0 0 0 0 0 0 0 0 0 0 0 0 0 0 0 0 0 0 0 0 0 0 0 0 0 0 0 0 0 0 0 0 0 0 0 0 0 
0.028093332424759864807 0.091941818594932556152 0.056186664849519729614 0.033201210200786590576 0.012769696302711963654 0.0025539391208440065384 0 0 0 0 0 0 0 0 0 0 0 0 0 0 0 0 0 0 0 0 0 0 0 0 0 0 0 0 0 0 0 0 0 0 0 0 0 0 0 0 0 0 0 0 0 0 0 0 0 0 0 0 0 0 0 0 0 0 0 0 0 0 0 0 0 0 0 0 0 0 0 0 0 0 0 0 0 0 0 0 0 0 0 0 0 0 0 0 0 0 0 0 0 0 0 0 0 0 0 0 0 0 0 0 0 0 0 0 0 0 0 0 0 0 0 0 0 0 0 0 0 0 0 0 0 0 0 0 0 0 0 0 0 0 0 0 0 0 0 0 0 0 0 0 0 0 0 0 0 0 0 0 0 0 0 0 0 0 0 0 0 0 0 0 0 0 0 0 0 0 0 0 0 0 0 0 0 0 0 0 0 0 0 0 0 0 0 0 0 0 0 0 0 0 0 0 0 0 0 0 0 0 0 0 0 0 0 0 0 0 0 0 0 0 0 0 0 0 0 0 0 0 0 0 0 0 0 0 0 0 0 0 0 0 0 0 0 0 0 0 0 0 0 0 0 0 0 0 0 0 0 0 0 0 0 0 0 0 0 0 0 0 0 0 0 0 0 0 0 0 0 0 0 0 0 0.0025539391208440065384 0.007661817595362663269 0.028093332424759864807 0.063848480582237243652 0.020431512966752052307 0 0 0 0 0 0 0 0 0 0 0 0 0 0 0 0 0 0 0 0 0 0 0 0 0 0 0 0 0 0 0 0 0 0 0 0 0 0 0 0 0 0 0 0 0 0 0 0 0 0.012769696302711963654 0.056186664849519729614 0.084279991686344146729 0.051078785210847854614 0.012769696302711963654 0.007661817595362663269 0.017877575010061264038 0.033201210200786590576 0.010215756483376026154 0 0 0 0 0 0 0 0 0 0.017877575010061264038 0.081726051867008209229 0.11492726951837539673 0.10215757042169570923 0.11492726951837539673 0.094495750963687896729 0.13535876572132110596 0.50312602519989013672 1.0522229671478271484 1.0522229671478271484 0.59762173891067504883 0.20176120102405548096 0.086833931505680084229 0.043416965752840042114 0.033201210200786590576 0.030647270381450653076 0.007661817595362663269 0 0 0 0 0 0 0 0 0 0 0 0 0 0 0 0 0 0 0 0 0 0 0 0 0 0 0 0 0 0 0.015323635190725326538 0.061294540762901306152 0.071510300040245056152 0.061294540762901306152 0.015323635190725326538 0 0 0 0 0 0 0 0 0 0 0 0 0 0 0 0 0 0 0 0 0 0 0 0 0 0 0 0 0 0 0 0 0 0 0 0 0 0 0 0 0 0 0 0 0 0 0 0 0 0 0 0 0 0 0 0 0 0 0 0 0 0 0 0 0 0 
0.030647270381450653076 0.094495750963687896729 0.038309089839458465576 0.007661817595362663269 0.0025539391208440065384 0 0 0 0 0 0 0 0 0 0 0 0 0 0 0 0 0 0 0 0 0 0 0 0 0 0 0 0 0 0 0 0 0 0 0 0 0 0 0 0 0 0 0 0 0 0 0 0 0 0 0 0 0 0 0 0 0 0 0 0 0 0 0 0 0 0 0 0 0 0 0 0 0 0 0 0 0 0 0 0 0 0 0 0 0 0 0 0 0 0 0 0 0 0 0 0 0 0 0 0 0 0 0 0 0 0 0 0 0 0 0 0 0 0 0 0 0 0 0 0 0 0 0 0 0 0 0 0 0 0 0 0 0 0 0 0 0 0 0 0 0 0 0 0 0 0 0 0 0 0 0 0 0 0 0 0 0 0 0 0 0 0 0 0 0 0 0 0 0 0 0 0 0 0 0 0 0 0 0 0 0 0 0 0 0 0 0 0 0 0 0 0 0 0 0 0 0 0 0 0 0 0 0 0 0 0 0 0 0 0 0 0 0 0 0 0 0 0 0 0 0 0 0 0 0 0 0 0 0 0 0 0 0 0 0 0 0 0 0 0 0 0 0 0 0 0 0 0 0 0 0 0 0 0 0 0 0 0 0 0 0 0 0 0 0 0 0 0 0 0 0 0 0 0 0 0 0.007661817595362663269 0.033201210200786590576 0.051078785210847854614 0.063848480582237243652 0.017877575010061264038 0 0 0 0 0 0 0 0 0 0 0 0 0 0 0 0 0 0 0 0 0 0 0 0 0 0 0 0 0 0 0 0 0 0 0 0 0 0 0 0 0 0 0 0 0 0 0 0 0 0.007661817595362663269 0.043416965752840042114 0.081726051867008209229 0.076618179678916931152 0.025539392605423927307 0.007661817595362663269 0.012769696302711963654 0.033201210200786590576 0.015323635190725326538 0.0025539391208440065384 0 0 0 0 0 0 0 0 0.012769696302711963654 0.058740600943565368652 0.091941818594932556152 0.089387871325016021729 0.1174812018871307373 0.076618179678916931152 0.097049690783023834229 0.39075270295143127441 0.98837447166442871094 1.1007477045059204102 0.64870053529739379883 0.22219271957874298096 0.084279991686344146729 0.025539392605423927307 0.010215756483376026154 0.007661817595362663269 0.0025539391208440065384 0 0 0 0 0 0 0 0 0 0 0 0 0 0 0 0 0 0 0 0 0 0 0 0 0 0 0 0 0 0 0.0051078782416880130768 0.015323635190725326538 0.035755150020122528076 0.071510300040245056152 0.030647270381450653076 0.0051078782416880130768 0 0 0 0 0 0 0 0 0 0 0 0 0 0 0 0 0 0 0 0 0 0 0 0 0 0 0 0 0 0 0 0 0 0 0 0 0 0 0 0 0 0 0 0 0 0 0 0 0 0 0 0 0 0 0 0 0 0 0 0 0 0 0 0 0 
0.030647270381450653076 0.091941818594932556152 0.030647270381450653076 0 0 0 0 0 0 0 0 0 0 0 0 0 0 0 0 0 0 0 0 0 0 0 0 0 0 0 0 0 0 0 0 0 0 0 0 0 0 0 0 0 0 0 0 0 0 0 0 0 0 0 0 0 0 0 0 0 0 0 0 0 0 0 0 0 0 0 0 0 0 0 0 0 0 0 0 0 0 0 0 0 0 0 0 0 0 0 0 0 0 0 0 0 0 0 0 0 0 0 0 0 0 0 0 0 0 0 0 0 0 0 0 0 0 0 0 0 0 0 0 0 0 0 0 0 0 0 0 0 0 0 0 0 0 0 0 0 0 0 0 0 0 0 0 0 0 0 0 0 0 0 0 0 0 0 0 0 0 0 0 0 0 0 0 0 0 0 0 0 0 0 0 0 0 0 0 0 0 0 0 0 0 0 0 0 0 0 0 0 0 0 0 0 0 0 0 0 0 0 0 0 0 0 0 0 0 0 0 0 0 0 0 0 0 0 0 0 0 0 0 0 0 0 0 0 0 0 0 0 0 0 0 0 0 0 0 0 0 0 0 0 0 0 0 0 0 0 0 0 0 0 0 0 0 0 0 0 0 0 0 0 0 0 0 0 0 0 0 0 0 0 0 0 0 0 0 0 0 0.012769696302711963654 0.045970901846885681152 0.053632721304893493652 0.040863025933504104614 0.010215756483376026154 0 0 0 0 0 0 0 0 0 0 0 0 0 0 0 0 0 0 0 0 0 0 0 0 0 0 0 0 0 0 0 0 0 0 0 0 0 0 0 0 0 0 0 0 0 0 0 0 0 0.0025539391208440065384 0.017877575010061264038 0.058740600943565368652 0.084279991686344146729 0.063848480582237243652 0.051078785210847854614 0.033201210200786590576 0.045970901846885681152 0.040863025933504104614 0.010215756483376026154 0 0 0 0 0 0 0 0 0.007661817595362663269 0.045970901846885681152 0.081726051867008209229 0.091941803693771362305 0.1251430213451385498 0.076618179678916931152 0.1225890815258026123 0.49291026592254638672 1.1594884395599365234 1.2744157314300537109 0.65380841493606567383 0.18132968246936798096 0.056186664849519729614 0.012769696302711963654 0 0 0 0 0 0 0 0 0 0 0 0 0 0 0 0 0 0 0 0 0 0 0 0 0 0 0 0 0 0 0 0 0 0 0 0.015323635190725326538 0.066402420401573181152 0.068956352770328521729 0.020431512966752052307 0.0025539391208440065384 0 0 0 0 0 0 0 0 0 0 0 0 0 0 0 0 0 0 0 0 0 0 0 0 0 0 0 0 0 0 0 0 0 0 0 0 0 0 0 0 0 0 0 0 0 0 0 0 0 0 0 0 0 0 0 0 0 0 0 0 0 0 0 0 
0.030647270381450653076 0.094495750963687896729 0.035755150020122528076 0.0025539391208440065384 0 0 0 0 0 0 0 0 0 0 0 0 0 0 0 0 0 0 0 0 0 0 0 0 0 0 0 0 0 0 0 0 0 0 0 0 0 0 0 0 0 0 0 0 0 0 0 0 0 0 0 0 0 0 0 0 0 0 0 0 0 0 0 0 0 0 0 0 0 0 0 0 0 0 0 0 0 0 0 0 0 0 0 0 0 0 0 0 0 0 0 0 0 0 0 0 0 0 0 0 0 0 0 0 0 0 0 0 0 0 0 0 0 0 0 0 0 0 0 0 0 0 0 0 0 0 0 0 0 0 0 0 0 0 0 0 0 0 0 0 0 0 0 0 0 0 0 0 0 0 0 0 0 0 0 0 0 0 0 0 0 0 0 0 0 0 0 0 0 0 0 0 0 0 0 0 0 0 0 0 0 0 0 0 0 0 0 0 0 0 0 0 0 0 0 0 0 0 0 0 0 0 0 0 0 0 0 0 0 0 0 0 0 0 0 0 0 0 0 0 0 0 0 0 0 0 0 0 0 0 0 0 0 0 0 0 0 0 0 0 0 0 0 0 0 0 0 0 0 0 0 0 0 0 0 0 0 0 0 0 0 0 0 0 0 0 0 0 0 0 0 0 0 0 0 0 0 0.017877575010061264038 0.063848480582237243652 0.045970901846885681152 0.012769696302711963654 0.0025539391208440065384 0 0 0 0 0 0 0 0 0 0 0 0 0 0 0 0 0 0 0 0 0 0 0 0 0 0 0 0 0 0 0 0 0 0 0 0 0 0 0 0 0 0 0 0 0 0 0 0 0 0 0.007661817595362663269 0.040863025933504104614 0.071510300040245056152 0.081726051867008209229 0.097049690783023834229 0.074064239859580993652 0.056186664849519729614 0.066402420401573181152 0.022985450923442840576 0.0025539391208440065384 0 0 0 0 0 0 0 0.0025539391208440065384 0.022985450923442840576 0.071510300040245056152 0.1098193824291229248 0.16345208883285522461 0.086833931505680084229 0.21197694540023803711 0.82236844301223754883 1.3561416864395141602 1.1211792230606079102 0.43416965007781982422 0.1098193824291229248 0.043416965752840042114 0.010215756483376026154 0 0 0 0 0 0 0 0 0 0 0 0 0 0 0 0 0 0 0 0 0 0 0 0 0 0 0 0 0 0 0 0 0 0 0 0.0051078782416880130768 0.028093332424759864807 0.071510300040245056152 0.053632721304893493652 0.025539392605423927307 0.020431512966752052307 0.020431512966752052307 0.015323635190725326538 0.0051078782416880130768 0 0 0 0 0 0 0 0 0 0 0 0 0 0 0 0 0 0 0 0 0 0 0 0 0 0 0 0 0 0 0 0 0 0 0 0 0 0 0 0 0 0 0 0 0 0 0 0 0 0 0 0 0 0 0 0 0 0 0 0 
0.028093332424759864807 0.097049690783023834229 0.058740600943565368652 0.010215756483376026154 0 0 0 0 0 0 0 0 0 0 0 0 0 0 0 0 0 0 0 0 0 0 0 0 0 0 0 0 0 0 0 0 0 0 0 0 0 0 0 0 0 0 0 0 0 0 0 0 0 0 0 0 0 0 0 0 0 0 0 0 0 0 0 0 0 0 0 0 0 0 0 0 0 0 0 0 0 0 0 0 0 0 0 0 0 0 0 0 0 0 0 0 0 0 0 0 0 0 0 0 0 0 0 0 0 0 0 0 0 0 0 0 0 0 0 0 0 0 0 0 0 0 0 0 0 0 0 0 0 0 0 0 0 0 0 0 0 0 0 0 0 0 0 0 0 0 0 0 0 0 0 0 0 0 0 0 0 0 0 0 0 0 0 0 0 0 0 0 0 0 0 0 0 0 0 0 0 0 0 0 0 0 0 0 0 0 0 0 0 0 0 0 0 0 0 0 0 0 0 0 0 0 0 0 0 0 0 0 0 0 0 0 0 0 0 0 0 0 0 0 0 0 0 0 0 0 0 0 0 0 0 0 0 0 0 0 0 0 0 0 0 0 0 0 0 0 0 0 0 0 0 0 0 0 0 0 0 0 0 0 0 0 0 0 0 0 0 0 0 0 0 0 0 0 0 0 0 0.020431512966752052307 0.063848480582237243652 0.025539392605423927307 0.0025539391208440065384 0 0 0 0 0 0 0 0 0 0 0 0 0 0 0 0 0 0 0 0 0 0 0 0 0 0 0 0 0 0 0 0 0 0 0 0 0 0 0 0 0 0 0 0 0 0 0 0 0 0 0 0.0025539391208440065384 0.010215756483376026154 0.017877575010061264038 0.030647270381450653076 0.061294540762901306152 0.061294540762901306152 0.043416965752840042114 0.071510300040245056152 0.051078785210847854614 0.015323635190725326538 0.0025539391208440065384 0 0 0 0 0 0 0 0.012769696302711963654 0.040863025933504104614 0.074064232409000396729 0.16089814901351928711 0.084279991686344146729 0.31158059835433959961 0.96538901329040527344 1.1645963191986083984 0.85301566123962402344 0.31668847799301147461 0.074064239859580993652 0.038309089839458465576 0.010215756483376026154 0 0 0 0 0 0 0 0 0 0 0 0 0 0 0 0 0 0 0 0 0 0 0 0 0 0 0 0 0 0 0 0 0 0 0 0 0.010215756483376026154 0.043416965752840042114 0.066402420401573181152 0.063848480582237243652 0.061294540762901306152 0.066402420401573181152 0.061294540762901306152 0.015323635190725326538 0 0 0 0 0 0 0 0 0 0 0 0 0 0 0 0 0 0 0 0 0 0 0 0 0 0 0 0 0 0 0 0 0 0 0 0 0 0 0 0 0 0 0 0 0 0 0 0 0 0 0 0 0 0 0 0 0 0 0 0 
0.020431512966752052307 0.079172119498252868652 0.076618179678916931152 0.017877575010061264038 0 0 0 0 0 0 0 0 0 0 0 0 0 0 0 0 0 0 0 0 0 0 0 0 0 0 0 0 0 0 0 0 0 0 0 0 0 0 0 0 0 0 0 0 0 0 0 0 0 0 0 0 0 0 0 0 0 0 0 0 0 0 0 0 0 0 0 0 0 0 0 0 0 0 0 0 0 0 0 0 0 0 0 0 0 0 0 0 0 0 0 0 0 0 0 0 0 0 0 0 0 0 0 0 0 0 0 0 0 0 0 0 0 0 0 0 0 0 0 0 0 0 0 0 0 0 0 0 0 0 0 0 0 0 0 0 0 0 0 0 0 0 0 0 0 0 0 0 0 0 0 0 0 0 0 0 0 0 0 0 0 0 0 0 0 0 0 0 0 0 0 0 0 0 0 0 0 0 0 0 0 0 0 0 0 0 0 0 0 0 0 0 0 0 0 0 0 0 0 0 0 0 0 0 0 0 0 0 0 0 0 0 0 0 0 0 0 0 0 0 0 0 0 0 0 0 0 0 0 0 0 0 0 0 0 0 0 0 0 0 0 0 0 0 0 0 0 0 0 0 0 0 0 0 0 0 0 0 0 0 0 0 0 0 0 0 0 0 0 0 0 0 0 0 0 0 0.0025539391208440065384 0.025539392605423927307 0.063848480582237243652 0.020431512966752052307 0 0 0 0 0 0 0 0 0 0 0 0 0 0 0 0 0 0 0 0 0 0 0 0 0 0 0 0 0 0 0 0 0 0 0 0 0 0 0 0 0 0 0 0 0 0 0 0 0 0 0 0 0 0 0 0.007661817595362663269 0.040863025933504104614 0.068956352770328521729 0.061294540762901306152 0.071510300040245056152 0.086833931505680084229 0.051078785210847854614 0.010215756483376026154 0 0 0 0 0 0 0 0.010215756483376026154 0.030647270381450653076 0.06129453703761100769 0.15834422409534454346 0.1047115027904510498 0.36521333456039428711 0.97305083274841308594 1.0649926662445068359 0.74064230918884277344 0.25283998250961303711 0.045970909297466278076 0.033201210200786590576 0.010215756483376026154 0 0 0 0 0 0 0 0 0 0 0 0 0 0 0 0 0 0 0 0 0 0 0 0 0 0 0 0 0 0 0 0 0 0 0 0 0.0025539391208440065384 0.010215756483376026154 0.017877575010061264038 0.020431512966752052307 0.020431512966752052307 0.035755150020122528076 0.066402420401573181152 0.020431512966752052307 0 0 0 0 0 0 0 0 0 0 0 0 0 0 0 0 0 0 0 0 0 0 0 0 0 0 0 0 0 0 0 0 0 0 0 0 0 0 0 0 0 0 0 0 0 0 0 0 0 0 0 0 0 0 0 0 0 0 0 0 
0.012769696302711963654 0.056186664849519729614 0.074064239859580993652 0.020431512966752052307 0 0 0 0 0 0 0 0 0 0 0 0 0 0 0 0 0 0 0 0 0 0 0 0 0 0 0 0 0 0 0 0 0 0 0 0 0 0 0 0 0 0 0 0 0 0 0 0 0 0 0 0 0 0 0 0 0 0 0 0 0 0 0 0 0 0 0 0 0 0 0 0 0 0 0 0 0 0 0 0 0 0 0 0 0 0 0 0 0 0 0 0 0 0 0 0 0 0 0 0 0 0 0 0 0 0 0 0 0 0 0 0 0 0 0 0 0 0 0 0 0 0 0 0 0 0 0 0 0 0 0 0 0 0 0 0 0 0 0 0 0 0 0 0 0 0 0 0 0 0 0 0 0 0 0 0 0 0 0 0 0 0 0 0 0 0 0 0 0 0 0 0 0 0 0 0 0 0 0 0 0 0 0 0 0 0 0 0 0 0 0 0 0 0 0 0 0 0 0 0 0 0 0 0 0 0 0 0 0 0 0 0 0 0 0 0 0 0 0 0 0 0 0 0 0 0 0 0 0 0 0 0 0 0 0 0 0 0 0 0 0 0 0 0 0 0 0 0 0 0 0 0 0 0 0 0 0 0 0 0 0 0 0 0 0 0 0 0 0 0 0 0 0 0 0 0.0025539391208440065384 0.012769696302711963654 0.045970901846885681152 0.063848480582237243652 0.017877575010061264038 0 0 0 0 0 0 0 0 0 0 0 0 0 0 0 0 0 0 0 0 0 0 0 0 0 0 0 0 0 0 0 0 0 0 0 0 0 0 0 0 0 0 0 0 0 0 0 0 0 0 0 0 0 0 0 0.0025539391208440065384 0.015323635190725326538 0.045970901846885681152 0.068956352770328521729 0.084279991686344146729 0.11237332969903945923 0.081726051867008209229 0.017877575010061264038 0 0 0 0 0 0 0 0.007661817595362663269 0.025539392605423927307 0.053632721304893493652 0.15834422409534454346 0.1532363593578338623 0.41884601116180419922 0.99603629112243652344 1.1237331628799438477 0.66657811403274536133 0.19409938156604766846 0.033201210200786590576 0.030647270381450653076 0.010215756483376026154 0 0 0 0 0 0 0 0 0 0 0 0 0 0 0 0 0 0 0 0 0 0 0 0 0 0 0 0 0 0 0 0 0 0 0 0 0 0 0 0 0 0.020431512966752052307 0.061294540762901306152 0.020431512966752052307 0 0 0 0 0 0 0 0 0 0 0 0 0 0 0 0 0 0 0 0 0 0 0 0 0 0 0 0 0 0 0 0 0 0 0 0 0 0 0 0 0 0 0 0 0 0 0 0 0 0 0 0 0 0 0 0 0 0 0 0 
0.010215756483376026154 0.053632721304893493652 0.076618179678916931152 0.022985454648733139038 0 0 0 0 0 0 0 0 0 0 0 0 0 0 0 0 0 0 0 0 0 0 0 0 0 0 0 0 0 0 0 0 0 0 0 0 0 0 0 0 0 0 0 0 0 0 0 0 0 0 0 0 0 0 0 0 0 0 0 0 0 0 0 0 0 0 0 0 0 0 0 0 0 0 0 0 0 0 0 0 0 0 0 0 0 0 0 0 0 0 0 0 0 0 0 0 0 0 0 0 0 0 0 0 0 0 0 0 0 0 0 0 0 0 0 0 0 0 0 0 0 0 0 0 0 0 0 0 0 0 0 0 0 0 0 0 0 0 0 0 0 0 0 0 0 0 0 0 0 0 0 0 0 0 0 0 0 0 0 0 0 0 0 0 0 0 0 0 0 0 0 0 0 0 0 0 0 0 0 0 0 0 0 0 0 0 0 0 0 0 0 0 0 0 0 0 0 0 0 0 0 0 0 0 0 0 0 0 0 0 0 0 0 0 0 0 0 0 0 0 0 0 0 0 0 0 0 0 0 0 0 0 0 0 0 0 0 0 0 0 0 0 0 0 0 0 0 0 0 0 0 0 0 0 0 0 0 0 0 0 0 0 0 0 0 0 0 0 0 0 0 0 0 0 0 0.010215756483376026154 0.040863025933504104614 0.053632721304893493652 0.045970901846885681152 0.012769696302711963654 0 0 0 0 0 0 0 0 0 0 0 0 0 0 0 0 0 0 0 0 0 0 0 0 0 0 0 0 0 0 0 0 0 0 0 0 0 0 0 0 0 0 0 0 0 0 0 0 0 0 0 0 0 0 0 0 0.0025539391208440065384 0.010215756483376026154 0.017877575010061264038 0.038309089839458465576 0.097049690783023834229 0.094495750963687896729 0.025539392605423927307 0 0 0 0 0 0 0 0.0025539391208440065384 0.0051078782416880130768 0.033201210200786590576 0.1123733222484588623 0.1532363593578338623 0.43416965007781982422 1.0726544857025146484 1.2539842128753662109 0.60528361797332763672 0.1506824195384979248 0.028093332424759864807 0.030647270381450653076 0.010215756483376026154 0 0 0 0 0 0 0 0 0 0 0 0 0 0 0 0 0 0 0 0 0 0 0 0 0 0 0 0 0 0 0 0 0 0 0 0 0 0 0 0 0 0.020431512966752052307 0.061294540762901306152 0.020431512966752052307 0 0 0 0 0 0 0 0 0 0 0 0 0 0 0 0 0 0 0 0 0 0 0 0 0 0 0 0 0 0 0 0 0 0 0 0 0 0 0 0 0 0 0 0 0 0 0 0 0 0 0 0 0 0 0 0 0 0 0 0 
0.007661817595362663269 0.053632721304893493652 0.097049690783023834229 0.033201210200786590576 0.0025539391208440065384 0 0 0 0 0 0 0 0 0 0 0 0 0 0 0 0 0 0 0 0 0 0 0 0 0 0 0 0 0 0 0 0 0 0 0 0 0 0 0 0 0 0 0 0 0 0 0 0 0 0 0 0 0 0 0 0 0 0 0 0 0 0 0 0 0 0 0 0 0 0 0 0 0 0 0 0 0 0 0 0 0 0 0 0 0 0 0 0 0 0 0 0 0 0 0 0 0 0 0 0 0 0 0 0 0 0 0 0 0 0 0 0 0 0 0 0 0 0 0 0 0 0 0 0 0 0 0 0 0 0 0 0 0 0 0 0 0 0 0 0 0 0 0 0 0 0 0 0 0 0 0 0 0 0 0 0 0 0 0 0 0 0 0 0 0 0 0 0 0 0 0 0 0 0 0 0 0 0 0 0 0 0 0 0 0 0 0 0 0 0 0 0 0 0 0 0 0 0 0 0 0 0 0 0 0 0 0 0 0 0 0 0 0 0 0 0 0 0 0 0 0 0 0 0 0 0 0 0 0 0 0 0 0 0 0 0 0 0 0 0 0 0 0 0 0 0 0 0 0 0 0 0 0 0 0 0 0 0 0 0 0 0 0 0 0 0 0 0 0 0 0 0 0 0.0025539391208440065384 0.022985450923442840576 0.066402420401573181152 0.051078785210847854614 0.033201210200786590576 0.007661817595362663269 0 0 0 0 0 0 0 0 0 0 0 0 0 0 0 0 0 0 0 0 0 0 0 0 0 0 0 0 0 0 0 0 0 0 0 0 0 0 0 0 0 0 0 0 0 0 0 0 0 0 0 0 0 0 0 0 0 0 0 0.015323635190725326538 0.086833931505680084229 0.1276969611644744873 0.035755150020122528076 0 0 0 0 0 0 0 0 0 0.015323635190725326538 0.061294540762901306152 0.1302509009838104248 0.39586058259010314941 1.0956398248672485352 1.5119318962097167969 0.65636235475540161133 0.11492726951837539673 0.022985450923442840576 0.030647270381450653076 0.010215756483376026154 0 0 0 0 0 0 0 0 0 0 0 0 0 0 0 0 0 0 0 0 0 0 0 0 0 0 0 0 0 0 0 0 0 0 0 0 0 0 0 0 0 0.020431512966752052307 0.061294540762901306152 0.020431512966752052307 0 0 0 0 0 0 0 0 0 0 0 0 0 0 0 0 0 0 0 0 0 0 0 0 0 0 0 0 0 0 0 0 0 0 0 0 0 0 0 0 0 0 0 0 0 0 0 0 0 0 0 0 0 0 0 0 0 0 0 0 
0.0025539391208440065384 0.033201210200786590576 0.097049690783023834229 0.053632721304893493652 0.007661817595362663269 0 0 0 0 0 0 0 0 0 0 0 0 0 0 0 0 0 0 0 0 0 0 0 0 0 0 0 0 0 0 0 0 0 0 0 0 0 0 0 0 0 0 0 0 0 0 0 0 0 0 0 0 0 0 0 0 0 0 0 0 0 0 0 0 0 0 0 0 0 0 0 0 0 0 0 0 0 0 0 0 0 0 0 0 0 0 0 0 0 0 0 0 0 0 0 0 0 0 0 0 0 0 0 0 0 0 0 0 0 0 0 0 0 0 0 0 0 0 0 0 0 0 0 0 0 0 0 0 0 0 0 0 0 0 0 0 0 0 0 0 0 0 0 0 0 0 0 0 0 0 0 0 0 0 0 0 0 0 0 0 0 0 0 0 0 0 0 0 0 0 0 0 0 0 0 0 0 0 0 0 0 0 0 0 0 0 0 0 0 0 0 0 0 0 0 0 0 0 0 0 0 0 0 0 0 0 0 0 0 0 0 0 0 0 0 0 0 0 0 0 0 0 0 0 0 0 0 0 0 0 0 0 0 0 0 0 0 0 0 0 0 0 0 0 0 0 0 0 0 0 0 0 0 0 0 0 0 0 0 0 0 0 0 0 0 0 0 0 0 0 0 0 0 0.010215756483376026154 0.048524845391511917114 0.068956352770328521729 0.025539392605423927307 0.007661817595362663269 0.0025539391208440065384 0 0 0 0 0 0 0 0 0 0 0 0 0 0 0 0 0 0 0 0 0 0 0 0 0 0 0 0 0 0 0 0 0 0 0 0 0 0 0 0 0 0 0 0 0 0 0 0 0 0 0 0 0 0 0 0 0 0 0 0.0051078782416880130768 0.051078785210847854614 0.1302509009838104248 0.045970901846885681152 0.0025539391208440065384 0 0 0 0 0 0 0 0 0.007661817595362663269 0.045970901846885681152 0.1072654426097869873 0.28093329071998596191 0.97305083274841308594 1.7085852622985839844 0.77895146608352661133 0.14302058517932891846 0.028093332424759864807 0.033201210200786590576 0.010215756483376026154 0 0 0 0 0 0 0 0 0 0 0 0 0 0 0 0 0 0 0 0 0 0 0 0 0 0 0 0 0 0 0 0 0 0 0 0 0 0 0 0 0 0.020431512966752052307 0.061294540762901306152 0.020431512966752052307 0 0 0 0 0 0 0 0 0 0 0 0 0 0 0 0 0 0 0 0 0 0 0 0 0 0 0 0 0 0 0 0 0 0 0 0 0 0 0 0 0 0 0 0 0 0 0 0 0 0 0 0 0 0 0 0 0 0 0 0 
0 0.022985454648733139038 0.076618179678916931152 0.053632721304893493652 0.010215756483376026154 0 0 0 0 0 0 0 0 0 0 0 0 0 0 0 0 0 0 0 0 0 0 0 0 0 0 0 0 0 0 0 0 0 0 0 0 0 0 0 0 0 0 0 0 0 0 0 0 0 0 0 0 0 0 0 0 0 0 0 0 0 0 0 0 0 0 0 0 0 0 0 0 0 0 0 0 0 0 0 0 0 0 0 0 0 0 0 0 0 0 0 0 0 0 0 0 0 0 0 0 0 0 0 0 0 0 0 0 0 0 0 0 0 0 0 0 0 0 0 0 0 0 0 0 0 0 0 0 0 0 0 0 0 0 0 0 0 0 0 0 0 0 0 0 0 0 0 0 0 0 0 0 0 0 0 0 0 0 0 0 0 0 0 0 0 0 0 0 0 0 0 0 0 0 0 0 0 0 0 0 0 0 0 0 0 0 0 0 0 0 0 0 0 0 0 0 0 0 0 0 0 0 0 0 0 0 0 0 0 0 0 0 0 0 0 0 0 0 0 0 0 0 0 0 0 0 0 0 0 0 0 0 0 0 0 0 0 0 0 0 0 0 0 0 0 0 0 0 0 0 0 0 0 0 0 0 0 0 0 0 0 0 0 0 0 0 0 0 0 0 0 0.0025539391208440065384 0.007661817595362663269 0.025539392605423927307 0.068956352770328521729 0.048524845391511917114 0.010215756483376026154 0 0 0 0 0 0 0 0 0 0 0 0 0 0 0 0 0 0 0 0 0 0 0 0 0 0 0 0 0 0 0 0 0 0 0 0 0 0 0 0 0 0 0 0 0 0 0 0 0 0 0 0 0 0 0 0 0 0 0 0 0 0 0.038309089839458465576 0.1251430213451385498 0.063848480582237243652 0.007661817595362663269 0 0 0 0 0 0 0 0 0.0025539391208440065384 0.020431512966752052307 0.079172119498252868652 0.18899148702621459961 0.82492238283157348633 1.8643754720687866211 1.0930858850479125977 0.24517816305160522461 0.045970901846885681152 0.030647270381450653076 0.007661817595362663269 0 0 0 0 0 0 0 0 0 0 0 0 0 0 0 0 0 0 0 0 0 0 0 0 0 0 0 0 0 0 0 0 0 0 0 0 0 0 0 0 0 0.020431512966752052307 0.061294540762901306152 0.020431512966752052307 0 0 0 0 0 0 0 0 0 0 0 0 0 0 0 0 0 0 0 0 0 0 0 0 0 0 0 0 0 0 0 0 0 0 0 0 0 0 0 0 0 0 0 0 0 0 0 0 0 0 0 0 0 0 0 0 0 0 0 0 
0.007661817595362663269 0.038309089839458465576 0.084279991686344146729 0.053632721304893493652 0.010215756483376026154 0 0 0 0 0 0 0 0 0 0 0 0 0 0 0 0 0 0 0 0 0 0 0 0 0 0 0 0 0 0 0 0 0 0 0 0 0 0 0 0 0 0 0 0 0 0 0 0 0 0 0 0 0 0 0 0 0 0 0 0 0 0 0 0 0 0 0 0 0 0 0 0 0 0 0 0 0 0 0 0 0 0 0 0 0 0 0 0 0 0 0 0 0 0 0 0 0 0 0 0 0 0 0 0 0 0 0 0 0 0 0 0 0 0 0 0 0 0 0 0 0 0 0 0 0 0 0 0 0 0 0 0 0 0 0 0 0 0 0 0 0 0 0 0 0 0 0 0 0 0 0 0 0 0 0 0 0 0 0 0 0 0 0 0 0 0 0 0 0 0 0 0 0 0 0 0 0 0 0 0 0 0 0 0 0 0 0 0 0 0 0 0 0 0 0 0 0 0 0 0 0 0 0 0 0 0 0 0 0 0 0 0 0 0 0 0 0 0 0 0 0 0 0 0 0 0 0 0 0 0 0 0 0 0 0 0 0 0 0 0 0 0 0 0 0 0 0 0 0 0 0 0 0 0 0 0 0 0 0 0 0 0 0 0 0 0 0 0 0 0 0 0.007661817595362663269 0.030647270381450653076 0.045970901846885681152 0.063848480582237243652 0.022985450923442840576 0.0025539391208440065384 0 0 0 0 0 0 0 0 0 0 0 0 0 0 0 0 0 0 0 0 0 0 0 0 0 0 0 0 0 0 0 0 0 0 0 0 0 0 0 0 0 0 0 0 0 0 0 0 0 0 0 0 0 0 0 0 0 0 0 0 0 0 0.033201210200786590576 0.10726545006036758423 0.063848480582237243652 0.010215756483376026154 0 0 0 0 0 0 0 0 0 0.0051078782416880130768 0.022985454648733139038 0.079172119498252868652 0.56697446107864379883 1.6907076835632324219 1.3408180475234985352 0.37287509441375732422 0.038309089839458465576 0.007661817595362663269 0.0025539391208440065384 0 0 0 0 0 0 0 0 0 0 0 0 0 0 0 0 0 0 0 0 0 0 0 0 0 0 0 0 0 0 0 0 0 0 0 0 0 0 0 0 0 0.020431512966752052307 0.061294540762901306152 0.020431512966752052307 0 0 0 0 0 0 0 0 0 0 0 0 0 0 0 0 0 0 0 0 0 0 0 0 0 0 0 0 0 0 0 0 0 0 0 0 0 0 0 0 0 0 0 0 0 0 0 0 0 0 0 0 0 0 0 0 0 0 0 0 
0.022985454648733139038 0.097049690783023834229 0.10215757042169570923 0.045970909297466278076 0.007661817595362663269 0 0 0 0 0 0 0 0 0 0 0 0 0 0 0 0 0 0 0 0 0 0 0 0 0 0 0 0 0 0 0 0 0 0 0 0 0 0 0 0 0 0 0 0 0 0 0 0 0 0 0 0 0 0 0 0 0 0 0 0 0 0 0 0 0 0 0 0 0 0 0 0 0 0 0 0 0 0 0 0 0 0 0 0 0 0 0 0 0 0 0 0 0 0 0 0 0 0 0 0 0 0 0 0 0 0 0 0 0 0 0 0 0 0 0 0 0 0 0 0 0 0 0 0 0 0 0 0 0 0 0 0 0 0 0 0 0 0 0 0 0 0 0 0 0 0 0 0 0 0 0 0 0 0 0 0 0 0 0 0 0 0 0 0 0 0 0 0 0 0 0 0 0 0 0 0 0 0 0 0 0 0 0 0 0 0 0 0 0 0 0 0 0 0 0 0 0 0 0 0 0 0 0 0 0 0 0 0 0 0 0 0 0 0 0 0 0 0 0 0 0 0 0 0 0 0 0 0 0 0 0 0 0 0 0 0 0 0 0 0 0 0 0 0 0 0 0 0 0 0 0 0 0 0 0 0 0 0 0 0 0 0 0 0 0 0 0 0 0 0 0 0.010215756483376026154 0.033201210200786590576 0.028093332424759864807 0.038309089839458465576 0.012769696302711963654 0 0 0 0 0 0 0 0 0 0 0 0 0 0 0 0 0 0 0 0 0 0 0 0 0 0 0 0 0 0 0 0 0 0 0 0 0 0 0 0 0 0 0 0 0 0 0 0 0 0 0 0 0 0 0 0 0 0 0 0 0 0 0 0.033201210200786590576 0.10726545006036758423 0.063848480582237243652 0.010215756483376026154 0 0 0 0 0 0 0 0 0 0 0.0025539391208440065384 0.017877575010061264038 0.39330661296844482422 1.4761767387390136719 1.6115355491638183594 0.60017567873001098633 0.076618179678916931152 0 0 0 0 0 0 0 0 0 0 0 0 0 0 0 0 0 0 0 0 0 0 0 0 0 0 0 0 0 0 0 0 0 0 0 0 0 0 0 0 0 0 0 0.020431512966752052307 0.061294540762901306152 0.020431512966752052307 0 0 0 0 0 0 0 0 0 0 0 0 0 0 0 0 0 0 0 0 0 0 0 0 0 0 0 0 0 0 0 0 0 0 0 0 0 0 0 0 0 0 0 0 0 0 0 0 0 0 0 0 0 0 0 0 0 0 0 0 
0.030647270381450653076 0.099603630602359771729 0.048524845391511917114 0.012769696302711963654 0.0025539391208440065384 0 0 0 0 0 0 0 0 0 0 0 0 0 0 0 0 0 0 0 0 0 0 0 0 0 0 0 0 0 0 0 0 0 0 0 0 0 0 0 0 0 0 0 0 0 0 0 0 0 0 0 0 0 0 0 0 0 0 0 0 0 0 0 0 0 0 0 0 0 0 0 0 0 0 0 0 0 0 0 0 0 0 0 0 0 0 0 0 0 0 0 0 0 0 0 0 0 0 0 0 0 0 0 0 0 0 0 0 0 0 0 0 0 0 0 0 0 0 0 0 0 0 0 0 0 0 0 0 0 0 0 0 0 0 0 0 0 0 0 0 0 0 0 0 0 0 0 0 0 0 0 0 0 0 0 0 0 0 0 0 0 0 0 0 0 0 0 0 0 0 0 0 0 0 0 0 0 0 0 0 0 0 0 0 0 0 0 0 0 0 0 0 0 0 0 0 0 0 0 0 0 0 0 0 0 0 0 0 0 0 0 0 0 0 0 0 0 0 0 0 0 0 0 0 0 0 0 0 0 0 0 0 0 0 0 0 0 0 0 0 0 0 0 0 0 0 0 0 0 0 0 0 0 0 0 0 0 0 0 0 0 0 0 0 0 0 0 0 0 0 0 0.010215756483376026154 0.033201210200786590576 0.025539392605423927307 0.033201210200786590576 0.010215756483376026154 0 0 0 0 0 0 0 0 0 0 0 0 0 0 0 0 0 0 0 0 0 0 0 0 0 0 0 0 0 0 0 0 0 0 0 0 0 0 0 0 0 0 0 0 0 0 0 0 0 0 0 0 0 0 0 0 0 0 0 0 0 0 0 0.038309089839458465576 0.1251430213451385498 0.063848480582237243652 0.007661817595362663269 0 0 0 0 0 0 0 0 0 0 0 0.010215756483376026154 0.28093329071998596191 1.1697040796279907227 1.7034773826599121094 0.89898657798767089844 0.1557902991771697998 0 0 0 0 0 0 0 0 0 0 0 0 0 0 0 0 0 0 0 0 0 0 0 0 0 0 0 0 0 0 0 0 0 0 0 0 0 0 0 0 0 0 0 0.020431512966752052307 0.061294540762901306152 0.020431512966752052307 0 0 0 0 0 0 0 0 0 0 0 0 0 0 0 0 0 0 0 0 0 0 0 0 0 0 0 0 0 0 0 0 0 0 0 0 0 0 0 0 0 0 0 0 0 0 0 0 0 0 0 0 0 0 0 0 0 0 0 0 
0.030647270381450653076 0.091941818594932556152 0.030647270381450653076 0 0 0 0 0 0 0 0 0 0 0 0 0 0 0 0 0 0 0 0 0 0 0 0 0 0 0 0 0 0 0 0 0 0 0 0 0 0 0 0 0 0 0 0 0 0 0 0 0 0 0 0 0 0 0 0 0 0 0 0 0 0 0 0 0 0 0 0 0 0 0 0 0 0 0 0 0 0 0 0 0 0 0 0 0 0 0 0 0 0 0 0 0 0 0 0 0 0 0 0 0 0 0 0 0 0 0 0 0 0 0 0 0 0 0 0 0 0 0 0 0 0 0 0 0 0 0 0 0 0 0 0 0 0 0 0 0 0 0 0 0 0 0 0 0 0 0 0 0 0 0 0 0 0 0 0 0 0 0 0 0 0 0 0 0 0 0 0 0 0 0 0 0 0 0 0 0 0 0 0 0 0 0 0 0 0 0 0 0 0 0 0 0 0 0 0 0 0 0 0 0 0 0 0 0 0 0 0 0 0 0 0 0 0 0 0 0 0 0 0 0 0 0 0 0 0 0 0 0 0 0 0 0 0 0 0 0 0 0 0 0 0 0 0 0 0 0 0 0 0 0 0 0 0 0 0 0 0 0 0 0 0 0 0 0 0 0 0 0 0 0 0 0 0.012769696302711963654 0.043416965752840042114 0.045970901846885681152 0.033201210200786590576 0.007661817595362663269 0 0 0 0 0 0 0 0 0 0 0 0 0 0 0 0 0 0 0 0 0 0 0 0 0 0 0 0 0 0 0 0 0 0 0 0 0 0 0 0 0 0 0 0 0 0 0 0 0 0 0 0 0 0 0 0 0 0 0 0 0 0 0 0.040863025933504104614 0.1251430213451385498 0.045970901846885681152 0.0025539391208440065384 0 0 0 0 0 0 0 0 0 0 0 0.007661817595362663269 0.19665332138538360596 0.90154051780700683594 1.5757803916931152344 1.1033016443252563477 0.24007028341293334961 0 0 0 0 0 0 0 0 0 0 0 0 0 0 0 0 0 0 0 0 0 0 0 0 0 0 0 0 0 0 0 0 0 0 0 0 0 0 0 0 0 0 0 0.020431512966752052307 0.061294540762901306152 0.020431512966752052307 0 0 0 0 0 0 0 0 0 0 0 0 0 0 0 0 0 0 0 0 0 0 0 0 0 0 0 0 0 0 0 0 0 0 0 0 0 0 0 0 0 0 0 0 0 0 0 0 0 0 0 0 0 0 0 0 0 0 0 0 
0.030647270381450653076 0.091941818594932556152 0.030647270381450653076 0 0 0 0 0 0 0 0 0 0 0 0 0 0 0 0 0 0 0 0 0 0 0 0 0 0 0 0 0 0 0 0 0 0 0 0 0 0 0 0 0 0 0 0 0 0 0 0 0 0 0 0 0 0 0 0 0 0 0 0 0 0 0 0 0 0 0 0 0 0 0 0 0 0 0 0 0 0 0 0 0 0 0 0 0 0 0 0 0 0 0 0 0 0 0 0 0 0 0 0 0 0 0 0 0 0 0 0 0 0 0 0 0 0 0 0 0 0 0 0 0 0 0 0 0 0 0 0 0 0 0 0 0 0 0 0 0 0 0 0 0 0 0 0 0 0 0 0 0 0 0 0 0 0 0 0 0 0 0 0 0 0 0 0 0 0 0 0 0 0 0 0 0 0 0 0 0 0 0 0 0 0 0 0 0 0 0 0 0 0 0 0 0 0 0 0 0 0 0 0 0 0 0 0 0 0 0 0 0 0 0 0 0 0 0 0 0 0 0 0 0 0 0 0 0 0 0 0 0 0 0 0 0 0 0 0 0 0 0 0 0 0 0 0 0 0 0 0 0 0 0 0 0 0 0 0 0 0 0 0 0 0 0 0 0 0 0 0 0 0 0 0 0 0.017877575010061264038 0.063848480582237243652 0.045970901846885681152 0.012769696302711963654 0.0025539391208440065384 0 0 0 0 0 0 0 0 0 0 0 0 0 0 0 0 0 0 0 0 0 0 0 0 0 0 0 0 0 0 0 0 0 0 0 0 0 0 0 0 0 0 0 0 0 0 0 0 0 0 0 0 0 0 0 0 0 0 0 0 0 0 0.0025539391208440065384 0.045970901846885681152 0.1251430213451385498 0.040863025933504104614 0 0 0 0 0 0 0 0 0 0 0 0 0.0025539391208440065384 0.13535876572132110596 0.71254903078079223633 1.4276520013809204102 1.3076168298721313477 0.35755148530006408691 0.020431512966752052307 0 0 0 0 0 0 0 0 0 0 0 0 0 0 0 0 0 0 0 0 0 0 0 0 0 0 0 0 0 0 0 0 0 0 0 0 0 0 0 0 0 0 0.020431512966752052307 0.063848480582237243652 0.025539392605423927307 0.0025539391208440065384 0 0 0 0 0 0 0 0 0 0 0 0 0 0 0 0 0 0 0 0 0 0 0 0 0 0 0 0 0 0 0 0 0 0 0 0 0 0 0 0 0 0 0 0 0 0 0 0 0 0 0 0 0 0 0 0 0 0 0 
0.030647270381450653076 0.091941818594932556152 0.030647270381450653076 0 0 0 0 0 0 0 0 0 0 0 0 0 0 0 0 0 0 0 0 0 0 0 0 0 0 0 0 0 0 0 0 0 0 0 0 0 0 0 0 0 0 0 0 0 0 0 0 0 0 0 0 0 0 0 0 0 0 0 0 0 0 0 0 0 0 0 0 0 0 0 0 0 0 0 0 0 0 0 0 0 0 0 0 0 0 0 0 0 0 0 0 0 0 0 0 0 0 0 0 0 0 0 0 0 0 0 0 0 0 0 0 0 0 0 0 0 0 0 0 0 0 0 0 0 0 0 0 0 0 0 0 0 0 0 0 0 0 0 0 0 0 0 0 0 0 0 0 0 0 0 0 0 0 0 0 0 0 0 0 0 0 0 0 0 0 0 0 0 0 0 0 0 0 0 0 0 0 0 0 0 0 0 0 0 0 0 0 0 0 0 0 0 0 0 0 0 0 0 0 0 0 0 0 0 0 0 0 0 0 0 0 0 0 0 0 0 0 0 0 0 0 0 0 0 0 0 0 0 0 0 0 0 0 0 0 0 0 0 0 0 0 0 0 0 0 0 0 0 0 0 0 0 0 0 0 0 0 0 0 0 0 0 0 0 0 0 0 0 0 0 0 0 0.020431512966752052307 0.063848480582237243652 0.025539392605423927307 0.0025539391208440065384 0 0 0 0 0 0 0 0 0 0 0 0 0 0 0 0 0 0 0 0 0 0 0 0 0 0 0 0 0 0 0 0 0 0 0 0 0 0 0 0 0 0 0 0 0 0 0 0 0 0 0 0 0 0 0 0 0 0 0 0 0 0 0 0.007661817595362663269 0.063848480582237243652 0.1251430213451385498 0.038309089839458465576 0 0 0 0 0 0 0 0 0 0 0 0 0 0.1072654426097869873 0.59762173891067504883 1.2641999721527099609 1.4174362421035766602 0.56952840089797973633 0.068956352770328521729 0 0 0 0 0 0 0 0 0 0 0 0 0 0 0 0 0 0 0 0 0 0 0 0 0 0 0 0 0 0 0 0 0 0 0 0 0 0 0 0 0 0 0.017877575010061264038 0.066402420401573181152 0.051078785210847854614 0.017877575010061264038 0.007661817595362663269 0.0025539391208440065384 0 0 0 0 0 0 0 0 0 0 0 0 0 0 0 0 0 0 0 0 0 0 0 0 0 0 0 0 0 0 0 0 0 0 0 0 0 0 0 0 0 0 0 0 0 0 0 0 0 0 0 0 0 0 0 0 0 
0.030647270381450653076 0.091941818594932556152 0.030647270381450653076 0 0 0 0 0 0 0 0 0 0 0 0 0 0 0 0 0 0 0 0 0 0 0 0 0 0 0 0 0 0 0 0 0 0 0 0 0 0 0 0 0 0 0 0 0 0 0 0 0 0 0 0 0 0 0 0 0 0 0 0 0 0 0 0 0 0 0 0 0 0 0 0 0 0 0 0 0 0 0 0 0 0 0 0 0 0 0 0 0 0 0 0 0 0 0 0 0 0 0 0 0 0 0 0 0 0 0 0 0 0 0 0 0 0 0 0 0 0 0 0 0 0 0 0 0 0 0 0 0 0 0 0 0 0 0 0 0 0 0 0 0 0 0 0 0 0 0 0 0 0 0 0 0 0 0 0 0 0 0 0 0 0 0 0 0 0 0 0 0 0 0 0 0 0 0 0 0 0 0 0 0 0 0 0 0 0 0 0 0 0 0 0 0 0 0 0 0 0 0 0 0 0 0 0 0 0 0 0 0 0 0 0 0 0 0 0 0 0 0 0 0 0 0 0 0 0 0 0 0 0 0 0 0 0 0 0 0 0 0 0 0 0 0 0 0 0 0 0 0 0 0 0 0 0 0 0 0 0 0 0 0 0 0 0 0 0 0 0 0 0 0 0 0 0.020431512966752052307 0.061294540762901306152 0.020431512966752052307 0 0 0 0 0 0 0 0 0 0 0 0 0 0 0 0 0 0 0 0 0 0 0 0 0 0 0 0 0 0 0 0 0 0 0 0 0 0 0 0 0 0 0 0 0 0 0 0 0 0 0 0 0 0 0 0 0 0 0 0 0 0 0 0 0.010215756483376026154 0.063848480582237243652 0.11237332969903945923 0.043416965752840042114 0.0051078782416880130768 0 0 0 0 0 0 0 0 0 0 0 0 0.086833931505680084229 0.49035632610321044922 1.1186252832412719727 1.3484798669815063477 0.69467145204544067383 0.12258907407522201538 0 0 0 0 0 0 0 0 0 0 0 0 0 0 0 0 0 0 0 0 0 0 0 0 0 0 0 0 0 0 0 0 0 0 0 0 0 0 0 0 0 0 0.010215756483376026154 0.045970901846885681152 0.068956352770328521729 0.048524845391511917114 0.033201210200786590576 0.007661817595362663269 0 0 0 0 0 0 0 0 0 0 0 0 0 0 0 0 0 0 0 0 0 0 0 0 0 0 0 0 0 0 0 0 0 0 0 0 0 0 0 0 0 0 0 0 0 0 0 0 0 0 0 0 0 0 0 0 0 
0.030647270381450653076 0.091941818594932556152 0.030647270381450653076 0 0 0 0 0 0 0 0 0 0 0 0 0 0 0 0 0 0 0 0 0 0 0 0 0 0 0 0 0 0 0 0 0 0 0 0 0 0 0 0 0 0 0 0 0 0 0 0 0 0 0 0 0 0 0 0 0 0 0 0 0 0 0 0 0 0 0 0 0 0 0 0 0 0 0 0 0 0 0 0 0 0 0 0 0 0 0 0 0 0 0 0 0 0 0 0 0 0 0 0 0 0 0 0 0 0 0 0 0 0 0 0 0 0 0 0 0 0 0 0 0 0 0 0 0 0 0 0 0 0 0 0 0 0 0 0 0 0 0 0 0 0 0 0 0 0 0 0 0 0 0 0 0 0 0 0 0 0 0 0 0 0 0 0 0 0 0 0 0 0 0 0 0 0 0 0 0 0 0 0 0 0 0 0 0 0 0 0 0 0 0 0 0 0 0 0 0 0 0 0 0 0 0 0 0 0 0 0 0 0 0 0 0 0 0 0 0 0 0 0 0 0 0 0 0 0 0 0 0 0 0 0 0 0 0 0 0 0 0 0 0 0 0 0 0 0 0 0 0 0 0 0 0 0 0 0 0 0 0 0 0 0 0 0 0 0 0 0 0 0 0 0 0 0.020431512966752052307 0.063848480582237243652 0.025539392605423927307 0.0025539391208440065384 0 0 0 0 0 0 0 0 0 0 0 0 0 0 0 0 0 0 0 0 0 0 0 0 0 0 0 0 0 0 0 0 0 0 0 0 0 0 0 0 0 0 0 0 0 0 0 0 0 0 0 0 0 0 0 0 0 0 0 0 0 0 0 0.010215756483376026154 0.056186664849519729614 0.10981938987970352173 0.084279991686344146729 0.022985454648733139038 0.0025539391208440065384 0 0 0 0 0 0 0 0 0 0 0 0.068956352770328521729 0.42650783061981201172 1.0649926662445068359 1.4072204828262329102 0.87855505943298339844 0.17877574265003204346 0 0 0 0 0 0 0 0 0 0 0 0 0 0 0 0 0 0 0 0 0 0 0 0 0 0 0 0 0 0 0 0 0 0 0 0 0 0 0 0 0 0 0.0025539391208440065384 0.015323635190725326538 0.043416965752840042114 0.051078785210847854614 0.043416965752840042114 0.015323635190725326538 0.0025539391208440065384 0 0 0 0 0 0 0 0 0 0 0 0 0 0 0 0 0 0 0 0 0 0 0 0 0 0 0 0 0 0 0 0 0 0 0 0 0 0 0 0 0 0 0 0 0 0 0 0 0 0 0 0 0 0 0 0 
0.030647270381450653076 0.091941818594932556152 0.030647270381450653076 0 0 0 0 0 0 0 0 0 0 0 0 0 0 0 0 0 0 0 0 0 0 0 0 0 0 0 0 0 0 0 0 0 0 0 0 0 0 0 0 0 0 0 0 0 0 0 0 0 0 0 0 0 0 0 0 0 0 0 0 0 0 0 0 0 0 0 0 0 0 0 0 0 0 0 0 0 0 0 0 0 0 0 0 0 0 0 0 0 0 0 0 0 0 0 0 0 0 0 0 0 0 0 0 0 0 0 0 0 0 0 0 0 0 0 0 0 0 0 0 0 0 0 0 0 0 0 0 0 0 0 0 0 0 0 0 0 0 0 0 0 0 0 0 0 0 0 0 0 0 0 0 0 0 0 0 0 0 0 0 0 0 0 0 0 0 0 0 0 0 0 0 0 0 0 0 0 0 0 0 0 0 0 0 0 0 0 0 0 0 0 0 0 0 0 0 0 0 0 0 0 0 0 0 0 0 0 0 0 0 0 0 0 0 0 0 0 0 0 0 0 0 0 0 0 0 0 0 0 0 0 0 0 0 0 0 0 0 0 0 0 0 0 0 0 0 0 0 0 0 0 0 0 0 0 0 0 0 0 0 0 0 0 0 0 0 0 0 0 0 0 0 0 0.017877575010061264038 0.066402420401573181152 0.048524845391511917114 0.010215756483376026154 0 0 0 0 0 0 0 0 0 0 0 0 0 0 0 0 0 0 0 0 0 0 0 0 0 0 0 0 0 0 0 0 0 0 0 0 0 0 0 0 0 0 0 0 0 0 0 0 0 0 0 0 0 0 0 0 0 0 0 0 0 0 0 0.010215756483376026154 0.045970909297466278076 0.076618179678916931152 0.1047115027904510498 0.053632721304893493652 0.012769696302711963654 0.0025539391208440065384 0 0 0 0 0 0 0 0 0 0 0.051078781485557556152 0.33201205730438232422 0.95517319440841674805 1.4889464378356933594 1.0828701257705688477 0.24773210287094116211 0 0 0 0 0 0 0 0 0 0 0 0 0 0 0 0 0 0 0 0 0 0 0 0 0 0 0 0 0 0 0 0 0 0 0 0 0 0 0 0 0 0 0 0.0025539391208440065384 0.015323635190725326538 0.040863025933504104614 0.043416965752840042114 0.035755150020122528076 0.012769696302711963654 0.0025539391208440065384 0 0 0 0 0 0 0 0 0 0 0 0 0 0 0 0 0 0 0 0 0 0 0 0 0 0 0 0 0 0 0 0 0 0 0 0 0 0 0 0 0 0 0 0 0 0 0 0 0 0 0 0 0 0 0 
0.030647270381450653076 0.091941818594932556152 0.030647270381450653076 0 0 0 0 0 0 0 0 0 0 0 0 0 0 0 0 0 0 0 0 0 0 0 0 0 0 0 0 0 0 0 0 0 0 0 0 0 0 0 0 0 0 0 0 0 0 0 0 0 0 0 0 0 0 0 0 0 0 0 0 0 0 0 0 0 0 0 0 0 0 0 0 0 0 0 0 0 0 0 0 0 0 0 0 0 0 0 0 0 0 0 0 0 0 0 0 0 0 0 0 0 0 0 0 0 0 0 0 0 0 0 0 0 0 0 0 0 0 0 0 0 0 0 0 0 0 0 0 0 0 0 0 0 0 0 0 0 0 0 0 0 0 0 0 0 0 0 0 0 0 0 0 0 0 0 0 0 0 0 0 0 0 0 0 0 0 0 0 0 0 0 0 0 0 0 0 0 0 0 0 0 0 0 0 0 0 0 0 0 0 0 0 0 0 0 0 0 0 0 0 0 0 0 0 0 0 0 0 0 0 0 0 0 0 0 0 0 0 0 0 0 0 0 0 0 0 0 0 0 0 0 0 0 0 0 0 0 0 0 0 0 0 0 0 0 0 0 0 0 0 0 0 0 0 0 0 0 0 0 0 0 0 0 0 0 0 0 0 0 0 0 0 0 0.010215756483376026154 0.048524845391511917114 0.066402420401573181152 0.017877575010061264038 0 0 0 0 0 0 0 0 0 0 0 0 0 0 0 0 0 0 0 0 0 0 0 0 0 0 0 0 0 0 0 0 0 0 0 0 0 0 0 0 0 0 0 0 0 0 0 0 0 0 0 0 0 0 0 0 0 0 0 0 0 0 0 0.007661817595362663269 0.035755150020122528076 0.063848480582237243652 0.091941818594932556152 0.063848480582237243652 0.038309089839458465576 0.015323635190725326538 0.010215756483376026154 0.007661817595362663269 0.0025539391208440065384 0 0 0 0 0 0 0 0.035755146294832229614 0.21453088521957397461 0.69977933168411254883 1.4736227989196777344 1.3459259271621704102 0.35499754548072814941 0.012769695371389389038 0 0 0 0 0 0 0 0 0 0 0 0 0 0 0 0 0 0 0 0 0 0 0 0 0 0 0 0 0 0 0 0 0 0 0 0 0 0 0 0 0 0 0 0.010215756483376026154 0.033201210200786590576 0.022985450923442840576 0.035755150020122528076 0.033201210200786590576 0.007661817595362663269 0 0 0 0 0 0 0 0 0 0 0 0 0 0 0 0 0 0 0 0 0 0 0 0 0 0 0 0 0 0 0 0 0 0 0 0 0 0 0 0 0 0 0 0 0 0 0 0 0 0 0 0 0 0 0 
0.030647270381450653076 0.091941818594932556152 0.030647270381450653076 0 0 0 0 0 0 0 0 0 0 0 0 0 0 0 0 0 0 0 0 0 0 0 0 0 0 0 0 0 0 0 0 0 0 0 0 0 0 0 0 0 0 0 0 0 0 0 0 0 0 0 0 0 0 0 0 0 0 0 0 0 0 0 0 0 0 0 0 0 0 0 0 0 0 0 0 0 0 0 0 0 0 0 0 0 0 0 0 0 0 0 0 0 0 0 0 0 0 0 0 0 0 0 0 0 0 0 0 0 0 0 0 0 0 0 0 0 0 0 0 0 0 0 0 0 0 0 0 0 0 0 0 0 0 0 0 0 0 0 0 0 0 0 0 0 0 0 0 0 0 0 0 0 0 0 0 0 0 0 0 0 0 0 0 0 0 0 0 0 0 0 0 0 0 0 0 0 0 0 0 0 0 0 0 0 0 0 0 0 0 0 0 0 0 0 0 0 0 0 0 0 0 0 0 0 0 0 0 0 0 0 0 0 0 0 0 0 0 0 0 0 0 0 0 0 0 0 0 0 0 0 0 0 0 0 0 0 0 0 0 0 0 0 0 0 0 0 0 0 0 0 0 0 0 0 0 0 0 0 0 0 0 0 0 0 0 0 0 0 0 0 0 0 0.0025539391208440065384 0.025539392605423927307 0.063848480582237243652 0.020431512966752052307 0 0 0 0 0 0 0 0 0 0 0 0 0 0 0 0 0 0 0 0 0 0 0 0 0 0 0 0 0 0 0 0 0 0 0 0 0 0 0 0 0 0 0 0 0 0 0 0 0 0 0 0 0 0 0 0 0 0 0 0 0 0 0 0.0025539391208440065384 0.012769696302711963654 0.053632721304893493652 0.10215757042169570923 0.068956352770328521729 0.043416965752840042114 0.033201210200786590576 0.033201210200786590576 0.033201210200786590576 0.015323635190725326538 0.007661817595362663269 0.0025539391208440065384 0 0 0 0 0 0.030647270381450653076 0.1506824195384979248 0.48269447684288024902 1.3127247095108032227 1.5732264518737792969 0.57974416017532348633 0.05874059721827507019 0 0 0 0 0 0 0 0 0 0 0 0 0 0 0 0 0 0 0 0 0 0 0 0 0 0 0 0 0 0 0 0 0 0 0 0 0 0 0 0 0 0 0 0.010215756483376026154 0.030647270381450653076 0.012769696302711963654 0.015323635190725326538 0.033201210200786590576 0.010215756483376026154 0 0 0 0 0 0 0 0 0 0 0 0 0 0 0 0 0 0 0 0 0 0 0 0 0 0 0 0 0 0 0 0 0 0 0 0 0 0 0 0 0 0 0 0 0 0 0 0 0 0 0 0 0 0 0 
0.030647270381450653076 0.091941818594932556152 0.030647270381450653076 0 0 0 0 0 0 0 0 0 0 0 0 0 0 0 0 0 0 0 0 0 0 0 0 0 0 0 0 0 0 0 0 0 0 0 0 0 0 0 0 0 0 0 0 0 0 0 0 0 0 0 0 0 0 0 0 0 0 0 0 0 0 0 0 0 0 0 0 0 0 0 0 0 0 0 0 0 0 0 0 0 0 0 0 0 0 0 0 0 0 0 0 0 0 0 0 0 0 0 0 0 0 0 0 0 0 0 0 0 0 0 0 0 0 0 0 0 0 0 0 0 0 0 0 0 0 0 0 0 0 0 0 0 0 0 0 0 0 0 0 0 0 0 0 0 0 0 0 0 0 0 0 0 0 0 0 0 0 0 0 0 0 0 0 0 0 0 0 0 0 0 0 0 0 0 0 0 0 0 0 0 0 0 0 0 0 0 0 0 0 0 0 0 0 0 0 0 0 0 0 0 0 0 0 0 0 0 0 0 0 0 0 0 0 0 0 0 0 0 0 0 0 0 0 0 0 0 0 0 0 0 0 0 0 0 0 0 0 0 0 0 0 0 0 0 0 0 0 0 0 0 0 0 0 0 0 0 0 0 0 0 0 0 0 0 0 0 0 0 0 0 0 0 0 0.020431512966752052307 0.063848480582237243652 0.025539392605423927307 0.0025539391208440065384 0 0 0 0 0 0 0 0 0 0 0 0 0 0 0 0 0 0 0 0 0 0 0 0 0 0 0 0 0 0 0 0 0 0 0 0 0 0 0 0 0 0 0 0 0 0 0 0 0 0 0 0 0 0 0 0 0 0 0 0 0 0 0 0.0025539391208440065384 0.025539392605423927307 0.081726051867008209229 0.081726051867008209229 0.030647270381450653076 0.012769696302711963654 0.015323635190725326538 0.033201210200786590576 0.035755150020122528076 0.030647270381450653076 0.007661817595362663269 0 0 0 0 0.0025539391208440065384 0.035755150020122528076 0.1251430213451385498 0.32690420746803283691 1.1160713434219360352 1.7468943595886230469 0.88110899925231933594 0.14812846481800079346 0 0 0 0 0 0 0 0 0 0 0 0 0 0 0 0 0 0 0 0 0 0 0 0 0 0 0 0 0 0 0 0 0 0 0 0 0 0 0 0 0 0 0 0.010215756483376026154 0.030647270381450653076 0.010215756483376026154 0.010215756483376026154 0.033201210200786590576 0.017877575010061264038 0.010215756483376026154 0.007661817595362663269 0.0025539391208440065384 0 0 0 0 0 0 0 0 0 0 0 0 0 0 0 0 0 0 0 0 0 0 0 0 0 0 0 0 0 0 0 0 0 0 0 0 0 0 0 0 0 0 0 0 0 0 0 0 0 0 0 0 
0.030647270381450653076 0.091941818594932556152 0.030647270381450653076 0 0 0 0 0 0 0 0 0 0 0 0 0 0 0 0 0 0 0 0 0 0 0 0 0 0 0 0 0 0 0 0 0 0 0 0 0 0 0 0 0 0 0 0 0 0 0 0 0 0 0 0 0 0 0 0 0 0 0 0 0 0 0 0 0 0 0 0 0 0 0 0 0 0 0 0 0 0 0 0 0 0 0 0 0 0 0 0 0 0 0 0 0 0 0 0 0 0 0 0 0 0 0 0 0 0 0 0 0 0 0 0 0 0 0 0 0 0 0 0 0 0 0 0 0 0 0 0 0 0 0 0 0 0 0 0 0 0 0 0 0 0 0 0 0 0 0 0 0 0 0 0 0 0 0 0 0 0 0 0 0 0 0 0 0 0 0 0 0 0 0 0 0 0 0 0 0 0 0 0 0 0 0 0 0 0 0 0 0 0 0 0 0 0 0 0 0 0 0 0 0 0 0 0 0 0 0 0 0 0 0 0 0 0 0 0 0 0 0 0 0 0 0 0 0 0 0 0 0 0 0 0 0 0 0 0 0 0 0 0 0 0 0 0 0 0 0 0 0 0 0 0 0 0 0 0 0 0 0 0 0 0 0 0 0 0 0 0 0 0 0 0 0 0 0.017877575010061264038 0.063848480582237243652 0.043416965752840042114 0.007661817595362663269 0 0 0 0 0 0 0 0 0 0 0 0 0 0 0 0 0 0 0 0 0 0 0 0 0 0 0 0 0 0 0 0 0 0 0 0 0 0 0 0 0 0 0 0 0 0 0 0 0 0 0 0 0 0 0 0 0 0 0 0 0 0 0 0 0.012769696302711963654 0.053632721304893493652 0.076618179678916931152 0.045970901846885681152 0.012769696302711963654 0.0051078782416880130768 0.007661817595362663269 0.017877575010061264038 0.035755150020122528076 0.017877575010061264038 0.007661817595362663269 0.0025539391208440065384 0.0025539391208440065384 0.007661817595362663269 0.015323635190725326538 0.056186664849519729614 0.10981938987970352173 0.19154542684555053711 0.75596594810485839844 1.5962120294570922852 1.1748119592666625977 0.24773210287094116211 0 0 0 0 0 0 0 0 0 0 0 0 0 0 0 0 0 0 0 0 0 0 0 0 0 0 0 0 0 0 0 0 0 0 0 0 0 0 0 0 0 0 0 0.010215756483376026154 0.033201210200786590576 0.015323635190725326538 0.010215756483376026154 0.030647270381450653076 0.033201210200786590576 0.033201210200786590576 0.030647270381450653076 0.007661817595362663269 0 0 0 0 0 0 0 0 0 0 0 0 0 0 0 0 0 0 0 0 0 0 0 0 0 0 0 0 0 0 0 0 0 0 0 0 0 0 0 0 0 0 0 0 0 0 0 0 0 0 0 0 
0.030647270381450653076 0.091941818594932556152 0.030647270381450653076 0 0 0 0 0 0 0 0 0 0 0 0 0 0 0 0 0 0 0 0 0 0 0 0 0 0 0 0 0 0 0 0 0 0 0 0 0 0 0 0 0 0 0 0 0 0 0 0 0 0 0 0 0 0 0 0 0 0 0 0 0 0 0 0 0 0 0 0 0 0 0 0 0 0 0 0 0 0 0 0 0 0 0 0 0 0 0 0 0 0 0 0 0 0 0 0 0 0 0 0 0 0 0 0 0 0 0 0 0 0 0 0 0 0 0 0 0 0 0 0 0 0 0 0 0 0 0 0 0 0 0 0 0 0 0 0 0 0 0 0 0 0 0 0 0 0 0 0 0 0 0 0 0 0 0 0 0 0 0 0 0 0 0 0 0 0 0 0 0 0 0 0 0 0 0 0 0 0 0 0 0 0 0 0 0 0 0 0 0 0 0 0 0 0 0 0 0 0 0 0 0 0 0 0 0 0 0 0 0 0 0 0 0 0 0 0 0 0 0 0 0 0 0 0 0 0 0 0 0 0 0 0 0 0 0 0 0 0 0 0 0 0 0 0 0 0 0 0 0 0 0 0 0 0 0 0 0 0 0 0 0 0 0 0 0 0 0 0 0 0 0 0 0 0 0.012769696302711963654 0.048524845391511917114 0.048524845391511917114 0.012769696302711963654 0 0 0 0 0 0 0 0 0 0 0 0 0 0 0 0 0 0 0 0 0 0 0 0 0 0 0 0 0 0 0 0 0 0 0 0 0 0 0 0 0 0 0 0 0 0 0 0 0 0 0 0 0 0 0 0 0 0 0 0 0 0 0 0 0.010215756483376026154 0.045970901846885681152 0.061294540762901306152 0.056186664849519729614 0.043416965752840042114 0.017877575010061264038 0.010215756483376026154 0.017877575010061264038 0.038309089839458465576 0.038309089839458465576 0.030647270381450653076 0.007661817595362663269 0.007661817595362663269 0.030647270381450653076 0.035755150020122528076 0.053632721304893493652 0.084279991686344146729 0.13535876572132110596 0.57463628053665161133 1.3229404687881469727 1.2590919733047485352 0.31668844819068908691 0 0 0 0 0 0 0 0 0 0 0 0 0 0 0 0 0 0 0 0 0 0 0 0 0 0 0 0 0 0 0 0 0 0 0 0 0 0 0 0 0 0 0 0.007661817595362663269 0.033201210200786590576 0.035755150020122528076 0.017877575010061264038 0.017877575010061264038 0.020431512966752052307 0.025539392605423927307 0.035755150020122528076 0.010215756483376026154 0 0 0 0 0 0 0 0 0 0 0 0 0 0 0 0 0 0 0 0 0 0 0 0 0 0 0 0 0 0 0 0 0 0 0 0 0 0 0 0 0 0 0 0 0 0 0 0 0 0 0 0 
0.030647270381450653076 0.091941818594932556152 0.030647270381450653076 0 0 0 0 0 0 0 0 0 0 0 0 0 0 0 0 0 0 0 0 0 0 0 0 0 0 0 0 0 0 0 0 0 0 0 0 0 0 0 0 0 0 0 0 0 0 0 0 0 0 0 0 0 0 0 0 0 0 0 0 0 0 0 0 0 0 0 0 0 0 0 0 0 0 0 0 0 0 0 0 0 0 0 0 0 0 0 0 0 0 0 0 0 0 0 0 0 0 0 0 0 0 0 0 0 0 0 0 0 0 0 0 0 0 0 0 0 0 0 0 0 0 0 0 0 0 0 0 0 0 0 0 0 0 0 0 0 0 0 0 0 0 0 0 0 0 0 0 0 0 0 0 0 0 0 0 0 0 0 0 0 0 0 0 0 0 0 0 0 0 0 0 0 0 0 0 0 0 0 0 0 0 0 0 0 0 0 0 0 0 0 0 0 0 0 0 0 0 0 0 0 0 0 0 0 0 0 0 0 0 0 0 0 0 0 0 0 0 0 0 0 0 0 0 0 0 0 0 0 0 0 0 0 0 0 0 0 0 0 0 0 0 0 0 0 0 0 0 0 0 0 0 0 0 0 0 0 0 0 0 0 0 0 0 0 0 0 0 0 0 0 0 0 0 0.007661817595362663269 0.043416965752840042114 0.066402420401573181152 0.022985450923442840576 0.0025539391208440065384 0 0 0 0 0 0 0 0 0 0 0 0 0 0 0 0 0 0 0 0 0 0 0 0 0 0 0 0 0 0 0 0 0 0 0 0 0 0 0 0 0 0 0 0 0 0 0 0 0 0 0 0 0 0 0 0 0 0 0 0 0 0 0 0.007661817595362663269 0.040863025933504104614 0.066402420401573181152 0.056186664849519729614 0.063848480582237243652 0.040863025933504104614 0.030647270381450653076 0.035755150020122528076 0.040863025933504104614 0.030647270381450653076 0.035755150020122528076 0.010215756483376026154 0.010215756483376026154 0.033201210200786590576 0.017877575010061264038 0.028093332424759864807 0.074064239859580993652 0.1174812018871307373 0.48269447684288024902 1.2514301538467407227 1.3714653253555297852 0.36265936493873596191 0 0 0 0 0 0 0 0 0 0 0 0 0 0 0 0 0 0 0 0 0 0 0 0 0 0 0 0 0 0 0 0 0 0 0 0 0 0 0 0 0 0 0 0.0025539391208440065384 0.012769696302711963654 0.033201210200786590576 0.033201210200786590576 0.030647270381450653076 0.033201210200786590576 0.040863025933504104614 0.038309089839458465576 0.010215756483376026154 0 0 0 0 0 0 0 0 0 0 0 0 0 0 0 0 0 0 0 0 0 0 0 0 0 0 0 0 0 0 0 0 0 0 0 0 0 0 0 0 0 0 0 0 0 0 0 0 0 0 0 0 
0.030647270381450653076 0.091941818594932556152 0.030647270381450653076 0 0 0 0 0 0 0 0 0 0 0 0 0 0 0 0 0 0 0 0 0 0 0 0 0 0 0 0 0 0 0 0 0 0 0 0 0 0 0 0 0 0 0 0 0 0 0 0 0 0 0 0 0 0 0 0 0 0 0 0 0 0 0 0 0 0 0 0 0 0 0 0 0 0 0 0 0 0 0 0 0 0 0 0 0 0 0 0 0 0 0 0 0 0 0 0 0 0 0 0 0 0 0 0 0 0 0 0 0 0 0 0 0 0 0 0 0 0 0 0 0 0 0 0 0 0 0 0 0 0 0 0 0 0 0 0 0 0 0 0 0 0 0 0 0 0 0 0 0 0 0 0 0 0 0 0 0 0 0 0 0 0 0 0 0 0 0 0 0 0 0 0 0 0 0 0 0 0 0 0 0 0 0 0 0 0 0 0 0 0 0 0 0 0 0 0 0 0 0 0 0 0 0 0 0 0 0 0 0 0 0 0 0 0 0 0 0 0 0 0 0 0 0 0 0 0 0 0 0 0 0 0 0 0 0 0 0 0 0 0 0 0 0 0 0 0 0 0 0 0 0 0 0 0 0 0 0 0 0 0 0 0 0 0 0 0 0 0 0 0 0 0 0 0 0.0025539391208440065384 0.022985450923442840576 0.068956352770328521729 0.053632721304893493652 0.020431512966752052307 0.0051078782416880130768 0 0 0 0 0 0 0 0 0 0 0 0 0 0 0 0 0 0 0 0 0 0 0 0 0 0 0 0 0 0 0 0 0 0 0 0 0 0 0 0 0 0 0 0 0 0 0 0 0 0 0 0 0 0 0 0 0 0 0 0 0 0 0.0025539391208440065384 0.017877575010061264038 0.043416965752840042114 0.038309089839458465576 0.048524845391511917114 0.022985450923442840576 0.010215756483376026154 0.015323635190725326538 0.035755150020122528076 0.045970901846885681152 0.048524845391511917114 0.025539392605423927307 0.020431512966752052307 0.033201210200786590576 0.015323635190725326538 0.030647270381450653076 0.076618179678916931152 0.099603630602359771729 0.37798297405242919922 1.1109634637832641602 1.3944507837295532227 0.38819873332977294922 0 0 0 0 0 0 0 0 0 0 0 0 0 0 0 0 0 0 0 0 0 0 0 0 0 0 0 0 0 0 0 0 0 0 0 0 0 0 0 0 0 0 0 0 0.0025539391208440065384 0.007661817595362663269 0.010215756483376026154 0.010215756483376026154 0.017877575010061264038 0.043416965752840042114 0.040863025933504104614 0.010215756483376026154 0 0 0 0 0 0 0 0 0 0 0 0 0 0 0 0 0 0 0 0 0 0 0 0 0 0 0 0 0 0 0 0 0 0 0 0 0 0 0 0 0 0 0 0 0 0 0 0 0 0 0 0 
0.030647270381450653076 0.091941818594932556152 0.030647270381450653076 0 0 0 0 0 0 0 0 0 0 0 0 0 0 0 0 0 0 0 0 0 0 0 0 0 0 0 0 0 0 0 0 0 0 0 0 0 0 0 0 0 0 0 0 0 0 0 0 0 0 0 0 0 0 0 0 0 0 0 0 0 0 0 0 0 0 0 0 0 0 0 0 0 0 0 0 0 0 0 0 0 0 0 0 0 0 0 0 0 0 0 0 0 0 0 0 0 0 0 0 0 0 0 0 0 0 0 0 0 0 0 0 0 0 0 0 0 0 0 0 0 0 0 0 0 0 0 0 0 0 0 0 0 0 0 0 0 0 0 0 0 0 0 0 0 0 0 0 0 0 0 0 0 0 0 0 0 0 0 0 0 0 0 0 0 0 0 0 0 0 0 0 0 0 0 0 0 0 0 0 0 0 0 0 0 0 0 0 0 0 0 0 0 0 0 0 0 0 0 0 0 0 0 0 0 0 0 0 0 0 0 0 0 0 0 0 0 0 0 0 0 0 0 0 0 0 0 0 0 0 0 0 0 0 0 0 0 0 0 0 0 0 0 0 0 0 0 0 0 0 0 0 0 0 0 0 0 0 0 0 0 0 0 0 0 0 0 0 0 0 0 0 0 0 0 0.010215756483376026154 0.043416965752840042114 0.071510300040245056152 0.068956352770328521729 0.030647270381450653076 0.015323635190725326538 0.0051078782416880130768 0 0 0 0 0 0 0 0 0 0 0 0 0 0 0 0 0 0 0 0 0 0 0 0 0 0 0 0 0 0 0 0 0 0 0 0 0 0 0 0 0 0 0 0 0 0 0 0 0 0 0 0 0 0 0 0 0 0 0 0 0 0.007661817595362663269 0.030647270381450653076 0.045970901846885681152 0.066402420401573181152 0.033201210200786590576 0.020431512966752052307 0.022985450923442840576 0.030647270381450653076 0.053632721304893493652 0.076618179678916931152 0.076618179678916931152 0.058740600943565368652 0.048524845391511917114 0.033201210200786590576 0.068956352770328521729 0.076618179678916931152 0.089387871325016021729 0.34222784638404846191 1.0573308467864990234 1.4046665430068969727 0.40096843242645263672 0 0 0 0 0 0 0 0 0 0 0 0 0 0 0 0 0 0 0 0 0 0 0 0 0 0 0 0 0 0 0 0 0 0 0 0 0 0 0 0 0 0 0 0 0 0 0 0 0.010215756483376026154 0.040863025933504104614 0.040863025933504104614 0.010215756483376026154 0 0 0 0 0 0 0 0 0 0 0 0 0 0 0 0 0 0 0 0 0 0 0 0 0 0 0 0 0 0 0 0 0 0 0 0 0 0 0 0 0 0 0 0 0 0 0 0 0 0 0 0 
0.030647270381450653076 0.091941818594932556152 0.030647270381450653076 0 0 0 0 0 0 0 0 0 0 0 0 0 0 0 0 0 0 0 0 0 0 0 0 0 0 0 0 0 0 0 0 0 0 0 0 0 0 0 0 0 0 0 0 0 0 0 0 0 0 0 0 0 0 0 0 0 0 0 0 0 0 0 0 0 0 0 0 0 0 0 0 0 0 0 0 0 0 0 0 0 0 0 0 0 0 0 0 0 0 0 0 0 0 0 0 0 0 0 0 0 0 0 0 0 0 0 0 0 0 0 0 0 0 0 0 0 0 0 0 0 0 0 0 0 0 0 0 0 0 0 0 0 0 0 0 0 0 0 0 0 0 0 0 0 0 0 0 0 0 0 0 0 0 0 0 0 0 0 0 0 0 0 0 0 0 0 0 0 0 0 0 0 0 0 0 0 0 0 0 0 0 0 0 0 0 0 0 0 0 0 0 0 0 0 0 0 0 0 0 0 0 0 0 0 0 0 0 0 0 0 0 0 0 0 0 0 0 0 0 0 0 0 0 0 0 0 0 0 0 0 0 0 0 0 0 0 0 0 0 0 0 0 0 0 0 0 0 0 0 0 0 0 0 0 0 0 0 0 0 0 0 0 0 0 0 0 0 0 0 0 0 0 0 0 0.0025539391208440065384 0.010215756483376026154 0.028093332424759864807 0.066402420401573181152 0.071510300040245056152 0.063848480582237243652 0.020431512966752052307 0.0025539391208440065384 0 0 0 0 0 0 0 0 0 0 0 0 0 0 0 0 0 0 0 0 0 0 0 0 0 0 0 0 0 0 0 0 0 0 0 0 0 0 0 0 0 0 0 0 0 0 0 0 0 0 0 0 0 0 0 0 0 0 0 0 0.0025539391208440065384 0.007661817595362663269 0.022985450923442840576 0.063848480582237243652 0.066402420401573181152 0.061294540762901306152 0.063848480582237243652 0.063848480582237243652 0.048524845391511917114 0.056186664849519729614 0.084279991686344146729 0.089387871325016021729 0.076618179678916931152 0.061294540762901306152 0.076618179678916931152 0.048524845391511917114 0.094495743513107299805 0.35499754548072814941 1.0368993282318115234 1.4404217004776000977 0.42395389080047607422 0.0051078782416880130768 0 0 0 0 0 0 0 0 0 0 0 0 0 0 0 0 0 0 0 0 0 0 0 0 0 0 0 0 0 0 0 0 0 0 0 0 0 0 0 0 0 0 0 0 0 0 0 0.010215756483376026154 0.040863025933504104614 0.040863025933504104614 0.010215756483376026154 0 0 0 0 0 0 0 0 0 0 0 0 0 0 0 0 0 0 0 0 0 0 0 0 0 0 0 0 0 0 0 0 0 0 0 0 0 0 0 0 0 0 0 0 0 0 0 0 0 0 0 0 
0.030647270381450653076 0.091941818594932556152 0.030647270381450653076 0 0 0 0 0 0 0 0 0 0 0 0 0 0 0 0 0 0 0 0 0 0 0 0 0 0 0 0 0 0 0 0 0 0 0 0 0 0 0 0 0 0 0 0 0 0 0 0 0 0 0 0 0 0 0 0 0 0 0 0 0 0 0 0 0 0 0 0 0 0 0 0 0 0 0 0 0 0 0 0 0 0 0 0 0 0 0 0 0 0 0 0 0 0 0 0 0 0 0 0 0 0 0 0 0 0 0 0 0 0 0 0 0 0 0 0 0 0 0 0 0 0 0 0 0 0 0 0 0 0 0 0 0 0 0 0 0 0 0 0 0 0 0 0 0 0 0 0 0 0 0 0 0 0 0 0 0 0 0 0 0 0 0 0 0 0 0 0 0 0 0 0 0 0 0 0 0 0 0 0 0 0 0 0 0 0 0 0 0 0 0 0 0 0 0 0 0 0 0 0 0 0 0 0 0 0 0 0 0 0 0 0 0 0 0 0 0 0 0 0 0 0 0 0 0 0 0 0 0 0 0 0 0 0 0 0 0 0 0 0 0 0 0 0 0 0 0 0 0 0 0 0 0 0 0 0 0 0 0 0 0 0 0 0 0 0 0 0 0 0 0 0 0 0 0 0 0 0.0051078782416880130768 0.015323635190725326538 0.033201210200786590576 0.068956352770328521729 0.043416965752840042114 0.007661817595362663269 0 0 0 0 0 0 0 0 0 0 0 0 0 0 0 0 0 0 0 0 0 0 0 0 0 0 0 0 0 0 0 0 0 0 0 0 0 0 0 0 0 0 0 0 0 0 0 0 0 0 0 0 0 0 0 0 0 0 0 0 0 0 0.0051078782416880130768 0.015323635190725326538 0.020431512966752052307 0.020431512966752052307 0.028093332424759864807 0.045970901846885681152 0.025539392605423927307 0.020431512966752052307 0.053632721304893493652 0.086833931505680084229 0.076618179678916931152 0.079172119498252868652 0.091941818594932556152 0.076618179678916931152 0.13791270554065704346 0.38309088349342346191 0.99092841148376464844 1.4378677606582641602 0.46481692790985107422 0.015323635190725326538 0 0 0 0 0 0 0 0 0 0 0 0 0 0 0 0 0 0 0 0 0 0 0 0 0 0 0 0 0 0 0 0 0 0 0 0 0 0 0 0 0 0 0 0 0 0 0 0.010215756483376026154 0.040863025933504104614 0.040863025933504104614 0.010215756483376026154 0 0 0 0 0 0 0 0 0 0 0 0 0 0 0 0 0 0 0 0 0 0 0 0 0 0 0 0 0 0 0 0 0 0 0 0 0 0 0 0 0 0 0 0 0 0 0 0 0 0 0 0 
0.030647270381450653076 0.091941818594932556152 0.030647270381450653076 0 0 0 0 0 0 0 0 0 0 0 0 0 0 0 0 0 0 0 0 0 0 0 0 0 0 0 0 0 0 0 0 0 0 0 0 0 0 0 0 0 0 0 0 0 0 0 0 0 0 0 0 0 0 0 0 0 0 0 0 0 0 0 0 0 0 0 0 0 0 0 0 0 0 0 0 0 0 0 0 0 0 0 0 0 0 0 0 0 0 0 0 0 0 0 0 0 0 0 0 0 0 0 0 0 0 0 0 0 0 0 0 0 0 0 0 0 0 0 0 0 0 0 0 0 0 0 0 0 0 0 0 0 0 0 0 0 0 0 0 0 0 0 0 0 0 0 0 0 0 0 0 0 0 0 0 0 0 0 0 0 0 0 0 0 0 0 0 0 0 0 0 0 0 0 0 0 0 0 0 0 0 0 0 0 0 0 0 0 0 0 0 0 0 0 0 0 0 0 0 0 0 0 0 0 0 0 0 0 0 0 0 0 0 0 0 0 0 0 0 0 0 0 0 0 0 0 0 0 0 0 0 0 0 0 0 0 0 0 0 0 0 0 0 0 0 0 0 0 0 0 0 0 0 0 0 0 0 0 0 0 0 0 0 0 0 0 0 0 0 0 0 0 0 0 0 0 0 0 0.012769696302711963654 0.048524845391511917114 0.051078785210847854614 0.017877575010061264038 0.0025539391208440065384 0 0 0 0 0 0 0 0 0 0 0 0 0 0 0 0 0 0 0 0 0 0 0 0 0 0 0 0 0 0 0 0 0 0 0 0 0 0 0 0 0 0 0 0 0 0 0 0 0 0 0 0 0 0 0 0 0 0 0 0 0 0 0 0 0 0.007661817595362663269 0.033201210200786590576 0.035755150020122528076 0.015323635190725326538 0.025539392605423927307 0.071510300040245056152 0.086833931505680084229 0.1174812018871307373 0.1328048408031463623 0.13791270554065704346 0.22219270467758178711 0.43161571025848388672 0.99859023094177246094 1.3995586633682250977 0.48780235648155212402 0.035755150020122528076 0 0 0 0 0 0 0 0 0 0 0 0 0 0 0 0 0 0 0 0 0 0 0 0 0 0 0 0 0 0 0 0 0 0 0 0 0 0 0 0 0 0 0 0 0 0 0 0.010215756483376026154 0.040863025933504104614 0.040863025933504104614 0.010215756483376026154 0 0 0 0 0 0 0 0 0 0 0 0 0 0 0 0 0 0 0 0 0 0 0 0 0 0 0 0 0 0 0 0 0 0 0 0 0 0 0 0 0 0 0 0 0 0 0 0 0 0 0 0 
0.030647270381450653076 0.091941818594932556152 0.030647270381450653076 0 0 0 0 0 0 0 0 0 0 0 0 0 0 0 0 0 0 0 0 0 0 0 0 0 0 0 0 0 0 0 0 0 0 0 0 0 0 0 0 0 0 0 0 0 0 0 0 0 0 0 0 0 0 0 0 0 0 0 0 0 0 0 0 0 0 0 0 0 0 0 0 0 0 0 0 0 0 0 0 0 0 0 0 0 0 0 0 0 0 0 0 0 0 0 0 0 0 0 0 0 0 0 0 0 0 0 0 0 0 0 0 0 0 0 0 0 0 0 0 0 0 0 0 0 0 0 0 0 0 0 0 0 0 0 0 0 0 0 0 0 0 0 0 0 0 0 0 0 0 0 0 0 0 0 0 0 0 0 0 0 0 0 0 0 0 0 0 0 0 0 0 0 0 0 0 0 0 0 0 0 0 0 0 0 0 0 0 0 0 0 0 0 0 0 0 0 0 0 0 0 0 0 0 0 0 0 0 0 0 0 0 0 0 0 0 0 0 0 0 0 0 0 0 0 0 0 0 0 0 0 0 0 0 0 0 0 0 0 0 0 0 0 0 0 0 0 0 0 0 0 0 0 0 0 0 0 0 0 0 0 0 0 0 0 0 0 0 0 0 0 0 0 0 0 0 0 0 0 0.007661817595362663269 0.040863025933504104614 0.068956352770328521729 0.045970901846885681152 0.010215756483376026154 0 0 0 0 0 0 0 0 0 0 0 0 0 0 0 0 0 0 0 0 0 0 0 0 0 0 0 0 0 0 0 0 0 0 0 0 0 0 0 0 0 0 0 0 0 0 0 0 0 0 0 0 0 0 0 0 0 0 0 0 0 0 0 0 0 0.0025539391208440065384 0.012769696302711963654 0.035755150020122528076 0.035755150020122528076 0.025539392605423927307 0.045970901846885681152 0.051078785210847854614 0.1047115027904510498 0.16600604355335235596 0.24517816305160522461 0.34988966584205627441 0.48014056682586669922 0.92452597618103027344 1.3178325891494750977 0.58485203981399536133 0.071510292589664459229 0 0 0 0 0 0 0 0 0 0 0 0 0 0 0 0 0 0 0 0 0 0 0 0 0 0 0 0 0 0 0 0 0 0 0 0 0 0 0 0 0 0 0 0 0 0 0 0.010215756483376026154 0.040863025933504104614 0.040863025933504104614 0.010215756483376026154 0 0 0 0 0 0 0 0 0 0 0 0 0 0 0 0 0 0 0 0 0 0 0 0 0 0 0 0 0 0 0 0 0 0 0 0 0 0 0 0 0 0 0 0 0 0 0 0 0 0 0 0 
0.030647270381450653076 0.091941818594932556152 0.030647270381450653076 0 0 0 0 0 0 0 0 0 0 0 0 0 0 0 0 0 0 0 0 0 0 0 0 0 0 0 0 0 0 0 0 0 0 0 0 0 0 0 0 0 0 0 0 0 0 0 0 0 0 0 0 0 0 0 0 0 0 0 0 0 0 0 0 0 0 0 0 0 0 0 0 0 0 0 0 0 0 0 0 0 0 0 0 0 0 0 0 0 0 0 0 0 0 0 0 0 0 0 0 0 0 0 0 0 0 0 0 0 0 0 0 0 0 0 0 0 0 0 0 0 0 0 0 0 0 0 0 0 0 0 0 0 0 0 0 0 0 0 0 0 0 0 0 0 0 0 0 0 0 0 0 0 0 0 0 0 0 0 0 0 0 0 0 0 0 0 0 0 0 0 0 0 0 0 0 0 0 0 0 0 0 0 0 0 0 0 0 0 0 0 0 0 0 0 0 0 0 0 0 0 0 0 0 0 0 0 0 0 0 0 0 0 0 0 0 0 0 0 0 0 0 0 0 0 0 0 0 0 0 0 0 0 0 0 0 0 0 0 0 0 0 0 0 0 0 0 0 0 0 0 0 0 0 0 0 0 0 0 0 0 0 0 0 0 0 0 0 0 0 0 0 0 0 0 0 0 0 0 0.0025539391208440065384 0.015323635190725326538 0.051078785210847854614 0.066402420401573181152 0.017877575010061264038 0 0 0 0 0 0 0 0 0 0 0 0 0 0 0 0 0 0 0 0 0 0 0 0 0 0 0 0 0 0 0 0 0 0 0 0 0 0 0 0 0 0 0 0 0 0 0 0 0 0 0 0 0 0 0 0 0 0 0 0 0 0 0 0 0 0 0.0025539391208440065384 0.012769696302711963654 0.035755150020122528076 0.043416965752840042114 0.048524845391511917114 0.066402420401573181152 0.11237332969903945923 0.21197694540023803711 0.40863025188446044922 0.45970904827117919922 0.49291023612022399902 0.77895146608352661133 1.1697040796279907227 0.63337689638137817383 0.11748119443655014038 0.010215756483376026154 0.0025539391208440065384 0 0 0 0 0 0 0 0 0 0 0 0 0 0 0 0 0 0 0 0 0 0 0 0 0 0 0 0 0 0 0 0 0 0 0 0 0 0 0 0 0 0 0 0 0 0.010215756483376026154 0.043416965752840042114 0.045970901846885681152 0.012769696302711963654 0 0 0 0 0 0 0 0 0 0 0 0 0 0 0 0 0 0 0 0 0 0 0 0 0 0 0 0 0 0 0 0 0 0 0 0 0 0 0 0 0 0 0 0 0 0 0 0 0 0 0 0 
0.030647270381450653076 0.091941818594932556152 0.030647270381450653076 0 0 0 0 0 0 0 0 0 0 0 0 0 0 0 0 0 0 0 0 0 0 0 0 0 0 0 0 0 0 0 0 0 0 0 0 0 0 0 0 0 0 0 0 0 0 0 0 0 0 0 0 0 0 0 0 0 0 0 0 0 0 0 0 0 0 0 0 0 0 0 0 0 0 0 0 0 0 0 0 0 0 0 0 0 0 0 0 0 0 0 0 0 0 0 0 0 0 0 0 0 0 0 0 0 0 0 0 0 0 0 0 0 0 0 0 0 0 0 0 0 0 0 0 0 0 0 0 0 0 0 0 0 0 0 0 0 0 0 0 0 0 0 0 0 0 0 0 0 0 0 0 0 0 0 0 0 0 0 0 0 0 0 0 0 0 0 0 0 0 0 0 0 0 0 0 0 0 0 0 0 0 0 0 0 0 0 0 0 0 0 0 0 0 0 0 0 0 0 0 0 0 0 0 0 0 0 0 0 0 0 0 0 0 0 0 0 0 0 0 0 0 0 0 0 0 0 0 0 0 0 0 0 0 0 0 0 0 0 0 0 0 0 0 0 0 0 0 0 0 0 0 0 0 0 0 0 0 0 0 0 0 0 0 0 0 0 0 0 0 0 0 0 0 0 0 0 0 0 0 0.0025539391208440065384 0.025539392605423927307 0.066402420401573181152 0.028093332424759864807 0.007661817595362663269 0.0025539391208440065384 0 0 0 0 0 0 0 0 0 0 0 0 0 0 0 0 0 0 0 0 0 0 0 0 0 0 0 0 0 0 0 0 0 0 0 0 0 0 0 0 0 0 0 0 0 0 0 0 0 0 0 0 0 0 0 0 0 0 0 0 0 0 0 0 0 0.0025539391208440065384 0.012769696302711963654 0.035755150020122528076 0.045970901846885681152 0.084279991686344146729 0.14046664535999298096 0.24517816305160522461 0.51844966411590576172 0.48014053702354431152 0.45204722881317138672 0.67934781312942504883 1.0701005458831787109 0.66402417421340942383 0.17877574265003204346 0.040863025933504104614 0.007661817595362663269 0 0 0 0 0 0 0 0 0 0 0 0 0 0 0 0 0 0 0 0 0 0 0 0 0 0 0 0 0 0 0 0 0 0 0 0 0 0 0 0 0 0 0 0 0 0.007661817595362663269 0.043416965752840042114 0.063848480582237243652 0.017877575010061264038 0 0 0 0 0 0 0 0 0 0 0 0 0 0 0 0 0 0 0 0 0 0 0 0 0 0 0 0 0 0 0 0 0 0 0 0 0 0 0 0 0 0 0 0 0 0 0 0 0 0 0 0 
0.030647270381450653076 0.091941818594932556152 0.030647270381450653076 0 0 0 0 0 0 0 0 0 0 0 0 0 0 0 0 0 0 0 0 0 0 0 0 0 0 0 0 0 0 0 0 0 0 0 0 0 0 0 0 0 0 0 0 0 0 0 0 0 0 0 0 0 0 0 0 0 0 0 0 0 0 0 0 0 0 0 0 0 0 0 0 0 0 0 0 0 0 0 0 0 0 0 0 0 0 0 0 0 0 0 0 0 0 0 0 0 0 0 0 0 0 0 0 0 0 0 0 0 0 0 0 0 0 0 0 0 0 0 0 0 0 0 0 0 0 0 0 0 0 0 0 0 0 0 0 0 0 0 0 0 0 0 0 0 0 0 0 0 0 0 0 0 0 0 0 0 0 0 0 0 0 0 0 0 0 0 0 0 0 0 0 0 0 0 0 0 0 0 0 0 0 0 0 0 0 0 0 0 0 0 0 0 0 0 0 0 0 0 0 0 0 0 0 0 0 0 0 0 0 0 0 0 0 0 0 0 0 0 0 0 0 0 0 0 0 0 0 0 0 0 0 0 0 0 0 0 0 0 0 0 0 0 0 0 0 0 0 0 0 0 0 0 0 0 0 0 0 0 0 0 0 0 0 0 0 0 0 0 0 0 0 0 0 0 0 0 0 0 0 0 0.017877575010061264038 0.061294540762901306152 0.045970901846885681152 0.030647270381450653076 0.007661817595362663269 0 0 0 0 0 0 0 0 0 0 0 0 0 0 0 0 0 0 0 0 0 0 0 0 0 0 0 0 0 0 0 0 0 0 0 0 0 0 0 0 0 0 0 0 0 0 0 0 0 0 0 0 0 0 0 0 0 0 0 0 0 0 0 0 0 0 0.0025539391208440065384 0.007661817595362663269 0.012769696302711963654 0.038309089839458465576 0.097049690783023834229 0.24773210287094116211 0.65380841493606567383 0.65636235475540161133 0.56186658143997192383 0.74319624900817871094 0.93218773603439331055 0.59251385927200317383 0.19409936666488647461 0.061294540762901306152 0.017877575010061264038 0.0025539391208440065384 0 0 0 0 0 0 0 0 0 0 0 0 0 0 0 0 0 0 0 0 0 0 0 0 0 0 0 0 0 0 0 0 0 0 0 0 0 0 0 0 0 0 0 0 0.0025539391208440065384 0.025539392605423927307 0.063848480582237243652 0.020431512966752052307 0 0 0 0 0 0 0 0 0 0 0 0 0 0 0 0 0 0 0 0 0 0 0 0 0 0 0 0 0 0 0 0 0 0 0 0 0 0 0 0 0 0 0 0 0 0 0 0 0 0 0 0 
0.030647270381450653076 0.091941818594932556152 0.030647270381450653076 0 0 0 0 0 0 0 0 0 0 0 0 0 0 0 0 0 0 0 0 0 0 0 0 0 0 0 0 0 0 0 0 0 0 0 0 0 0 0 0 0 0 0 0 0 0 0 0 0 0 0 0 0 0 0 0 0 0 0 0 0 0 0 0 0 0 0 0 0 0 0 0 0 0 0 0 0 0 0 0 0 0 0 0 0 0 0 0 0 0 0 0 0 0 0 0 0 0 0 0 0 0 0 0 0 0 0 0 0 0 0 0 0 0 0 0 0 0 0 0 0 0 0 0 0 0 0 0 0 0 0 0 0 0 0 0 0 0 0 0 0 0 0 0 0 0 0 0 0 0 0 0 0 0 0 0 0 0 0 0 0 0 0 0 0 0 0 0 0 0 0 0 0 0 0 0 0 0 0 0 0 0 0 0 0 0 0 0 0 0 0 0 0 0 0 0 0 0 0 0 0 0 0 0 0 0 0 0 0 0 0 0 0 0 0 0 0 0 0 0 0 0 0 0 0 0 0 0 0 0 0 0 0 0 0 0 0 0 0 0 0 0 0 0 0 0 0 0 0 0 0 0 0 0 0 0 0 0 0 0 0 0 0 0 0 0 0 0 0 0 0 0 0 0 0 0 0 0 0 0 0 0.012769696302711963654 0.040863025933504104614 0.033201210200786590576 0.038309089839458465576 0.017877575010061264038 0.010215756483376026154 0.010215756483376026154 0.007661817595362663269 0.0025539391208440065384 0 0 0 0 0 0 0 0 0 0 0 0 0 0 0 0 0 0 0 0 0 0 0 0 0 0 0 0 0 0 0 0 0 0 0 0 0 0 0 0 0 0 0 0 0 0 0 0 0 0 0 0 0 0 0 0 0 0 0 0 0 0 0 0 0 0.015323635190725326538 0.071510300040245056152 0.32179632782936096191 0.88366293907165527344 0.85301566123962402344 0.65380841493606567383 0.77128958702087402344 0.77639746665954589844 0.49546417593955993652 0.19409936666488647461 0.086833931505680084229 0.045970901846885681152 0.010215756483376026154 0 0 0 0 0 0 0 0 0 0 0 0 0 0 0 0 0 0 0 0 0 0 0 0 0 0 0 0 0 0 0 0 0 0 0 0 0 0 0 0 0 0 0 0 0 0.020431512966752052307 0.061294540762901306152 0.020431512966752052307 0 0 0 0 0 0 0 0 0 0 0 0 0 0 0 0 0 0 0 0 0 0 0 0 0 0 0 0 0 0 0 0 0 0 0 0 0 0 0 0 0 0 0 0 0 0 0 0 0 0 0 0 
0.030647270381450653076 0.091941818594932556152 0.030647270381450653076 0 0 0 0 0 0 0 0 0 0 0 0 0 0 0 0 0 0 0 0 0 0 0 0 0 0 0 0 0 0 0 0 0 0 0 0 0 0 0 0 0 0 0 0 0 0 0 0 0 0 0 0 0 0 0 0 0 0 0 0 0 0 0 0 0 0 0 0 0 0 0 0 0 0 0 0 0 0 0 0 0 0 0 0 0 0 0 0 0 0 0 0 0 0 0 0 0 0 0 0 0 0 0 0 0 0 0 0 0 0 0 0 0 0 0 0 0 0 0 0 0 0 0 0 0 0 0 0 0 0 0 0 0 0 0 0 0 0 0 0 0 0 0 0 0 0 0 0 0 0 0 0 0 0 0 0 0 0 0 0 0 0 0 0 0 0 0 0 0 0 0 0 0 0 0 0 0 0 0 0 0 0 0 0 0 0 0 0 0 0 0 0 0 0 0 0 0 0 0 0 0 0 0 0 0 0 0 0 0 0 0 0 0 0 0 0 0 0 0 0 0 0 0 0 0 0 0 0 0 0 0 0 0 0 0 0 0 0 0 0 0 0 0 0 0 0 0 0 0 0 0 0 0 0 0 0 0 0 0 0 0 0 0 0 0 0 0 0 0 0 0 0 0 0 0 0 0 0 0 0 0 0.007661817595362663269 0.033201210200786590576 0.040863025933504104614 0.038309089839458465576 0.033201210200786590576 0.030647270381450653076 0.033201210200786590576 0.030647270381450653076 0.007661817595362663269 0 0 0 0 0 0 0 0 0 0 0 0 0 0 0 0 0 0 0 0 0 0 0 0 0 0 0 0 0 0 0 0 0 0 0 0 0 0 0 0 0 0 0 0 0 0 0 0 0 0 0 0 0 0 0 0 0 0 0 0 0 0 0 0 0 0.0051078782416880130768 0.025539392605423927307 0.37542903423309326172 1.1824737787246704102 0.99348229169845581055 0.64103865623474121094 0.66402417421340942383 0.59506785869598388672 0.37032115459442138672 0.15068240463733673096 0.071510300040245056152 0.066402420401573181152 0.017877575010061264038 0 0 0 0 0 0 0 0 0 0 0 0 0 0 0 0 0 0 0 0 0 0 0 0 0 0 0 0 0 0 0 0 0 0 0 0 0 0 0 0 0 0 0 0 0 0.020431512966752052307 0.061294540762901306152 0.020431512966752052307 0 0 0 0 0 0 0 0 0 0 0 0 0 0 0 0 0 0 0 0 0 0 0 0 0 0 0 0 0 0 0 0 0 0 0 0 0 0 0 0 0 0 0 0 0 0 0 0 0 0 0 0 
0.030647270381450653076 0.091941818594932556152 0.030647270381450653076 0 0 0 0 0 0 0 0 0 0 0 0 0 0 0 0 0 0 0 0 0 0 0 0 0 0 0 0 0 0 0 0 0 0 0 0 0 0 0 0 0 0 0 0 0 0 0 0 0 0 0 0 0 0 0 0 0 0 0 0 0 0 0 0 0 0 0 0 0 0 0 0 0 0 0 0 0 0 0 0 0 0 0 0 0 0 0 0 0 0 0 0 0 0 0 0 0 0 0 0 0 0 0 0 0 0 0 0 0 0 0 0 0 0 0 0 0 0 0 0 0 0 0 0 0 0 0 0 0 0 0 0 0 0 0 0 0 0 0 0 0 0 0 0 0 0 0 0 0 0 0 0 0 0 0 0 0 0 0 0 0 0 0 0 0 0 0 0 0 0 0 0 0 0 0 0 0 0 0 0 0 0 0 0 0 0 0 0 0 0 0 0 0 0 0 0 0 0 0 0 0 0 0 0 0 0 0 0 0 0 0 0 0 0 0 0 0 0 0 0 0 0 0 0 0 0 0 0 0 0 0 0 0 0 0 0 0 0 0 0 0 0 0 0 0 0 0 0 0 0 0 0 0 0 0 0 0 0 0 0 0 0 0 0 0 0 0 0 0 0 0 0 0 0 0 0 0 0 0 0 0 0.0025539391208440065384 0.015323635190725326538 0.035755150020122528076 0.017877575010061264038 0.010215756483376026154 0.010215756483376026154 0.017877575010061264038 0.035755150020122528076 0.015323635190725326538 0.0025539391208440065384 0 0 0 0 0 0 0 0 0 0 0 0 0 0 0 0 0 0 0 0 0 0 0 0 0 0 0 0 0 0 0 0 0 0 0 0 0 0 0 0 0 0 0 0 0 0 0 0 0 0 0 0 0 0 0 0 0 0 0 0 0 0 0 0 0 0.007661817595362663269 0.44183146953582763672 1.4353138208389282227 0.98837447166442871094 0.57208234071731567383 0.52355754375457763672 0.44183146953582763672 0.26816362142562866211 0.1200351417064666748 0.056186664849519729614 0.068956352770328521729 0.020431512966752052307 0 0 0 0 0 0 0 0 0 0 0 0 0 0 0 0 0 0 0 0 0 0 0 0 0 0 0 0 0 0 0 0 0 0 0 0 0 0 0 0 0 0 0 0 0 0.020431512966752052307 0.061294540762901306152 0.020431512966752052307 0 0 0 0 0 0 0 0 0 0 0 0 0 0 0 0 0 0 0 0 0 0 0 0 0 0 0 0 0 0 0 0 0 0 0 0 0 0 0 0 0 0 0 0 0 0 0 0 0 0 0 0 
0.030647270381450653076 0.091941818594932556152 0.030647270381450653076 0 0 0 0 0 0 0 0 0 0 0 0 0 0 0 0 0 0 0 0 0 0 0 0 0 0 0 0 0 0 0 0 0 0 0 0 0 0 0 0 0 0 0 0 0 0 0 0 0 0 0 0 0 0 0 0 0 0 0 0 0 0 0 0 0 0 0 0 0 0 0 0 0 0 0 0 0 0 0 0 0 0 0 0 0 0 0 0 0 0 0 0 0 0 0 0 0 0 0 0 0 0 0 0 0 0 0 0 0 0 0 0 0 0 0 0 0 0 0 0 0 0 0 0 0 0 0 0 0 0 0 0 0 0 0 0 0 0 0 0 0 0 0 0 0 0 0 0 0 0 0 0 0 0 0 0 0 0 0 0 0 0 0 0 0 0 0 0 0 0 0 0 0 0 0 0 0 0 0 0 0 0 0 0 0 0 0 0 0 0 0 0 0 0 0 0 0 0 0 0 0 0 0 0 0 0 0 0 0 0 0 0 0 0 0 0 0 0 0 0 0 0 0 0 0 0 0 0 0 0 0 0 0 0 0 0 0 0 0 0 0 0 0 0 0 0 0 0 0 0 0 0 0 0 0 0 0 0 0 0 0 0 0 0 0 0 0 0 0 0 0 0 0 0 0 0 0 0 0 0 0 0 0.010215756483376026154 0.033201210200786590576 0.017877575010061264038 0.007661817595362663269 0.0025539391208440065384 0.007661817595362663269 0.033201210200786590576 0.035755150020122528076 0.015323635190725326538 0.007661817595362663269 0.0025539391208440065384 0 0 0 0 0 0 0 0 0 0 0 0 0 0 0 0 0 0 0 0 0 0 0 0 0 0 0 0 0 0 0 0 0 0 0 0 0 0 0 0 0 0 0 0 0 0 0 0 0 0 0 0 0 0 0 0 0 0 0 0 0 0 0 0.0025539391208440065384 0.46737083792686462402 1.5017161369323730469 0.86833930015563964844 0.40863028168678283691 0.38309085369110107422 0.32690420746803283691 0.18132968246936798096 0.099603630602359771729 0.086833931505680084229 0.076618179678916931152 0.020431512966752052307 0 0 0 0 0 0 0 0 0 0 0 0 0 0 0 0 0 0 0 0 0 0 0 0 0 0 0 0 0 0 0 0 0 0 0 0 0 0 0 0 0 0 0 0 0 0.020431512966752052307 0.063848480582237243652 0.025539392605423927307 0.0025539391208440065384 0 0 0 0 0 0 0 0 0 0 0 0 0 0 0 0 0 0 0 0 0 0 0 0 0 0 0 0 0 0 0 0 0 0 0 0 0 0 0 0 0 0 0 0 0 0 0 0 0 0 0 
0.030647270381450653076 0.091941818594932556152 0.030647270381450653076 0 0 0 0 0 0 0 0 0 0 0 0 0 0 0 0 0 0 0 0 0 0 0 0 0 0 0 0 0 0 0 0 0 0 0 0 0 0 0 0 0 0 0 0 0 0 0 0 0 0 0 0 0 0 0 0 0 0 0 0 0 0 0 0 0 0 0 0 0 0 0 0 0 0 0 0 0 0 0 0 0 0 0 0 0 0 0 0 0 0 0 0 0 0 0 0 0 0 0 0 0 0 0 0 0 0 0 0 0 0 0 0 0 0 0 0 0 0 0 0 0 0 0 0 0 0 0 0 0 0 0 0 0 0 0 0 0 0 0 0 0 0 0 0 0 0 0 0 0 0 0 0 0 0 0 0 0 0 0 0 0 0 0 0 0 0 0 0 0 0 0 0 0 0 0 0 0 0 0 0 0 0 0 0 0 0 0 0 0 0 0 0 0 0 0 0 0 0 0 0 0 0 0 0 0 0 0 0 0 0 0 0 0 0 0 0 0 0 0 0 0 0 0 0 0 0 0 0 0 0 0 0 0 0 0 0 0 0 0 0 0 0 0 0 0 0 0 0 0 0 0 0 0 0 0 0 0 0 0 0 0 0 0 0 0 0 0 0 0 0 0 0 0 0 0 0 0 0 0 0 0 0 0.007661817595362663269 0.030647270381450653076 0.035755150020122528076 0.030647270381450653076 0.007661817595362663269 0.0025539391208440065384 0.012769696302711963654 0.033201210200786590576 0.035755150020122528076 0.030647270381450653076 0.007661817595362663269 0 0 0 0 0 0 0 0 0 0 0 0 0 0 0 0 0 0 0 0 0 0 0 0 0 0 0 0 0 0 0 0 0 0 0 0 0 0 0 0 0 0 0 0 0 0 0 0 0 0 0 0 0 0 0 0 0 0 0 0 0 0 0 0 0.48269450664520263672 1.5757805109024047852 0.87600111961364746094 0.37287509441375732422 0.32179632782936096191 0.21453088521957397461 0.1123733222484588623 0.053632721304893493652 0.086833931505680084229 0.081726051867008209229 0.020431512966752052307 0 0 0 0 0 0 0 0 0 0 0 0 0 0 0 0 0 0 0 0 0 0 0 0 0 0 0 0 0 0 0 0 0 0 0 0 0 0 0 0 0 0 0 0 0 0.017877575010061264038 0.066402420401573181152 0.048524845391511917114 0.010215756483376026154 0 0 0 0 0 0 0 0 0 0 0 0 0 0 0 0 0 0 0 0 0 0 0 0 0 0 0 0 0 0 0 0 0 0 0 0 0 0 0 0 0 0 0 0 0 0 0 0 0 0 0 
0.030647270381450653076 0.091941818594932556152 0.030647270381450653076 0 0 0 0 0 0 0 0 0 0 0 0 0 0 0 0 0 0 0 0 0 0 0 0 0 0 0 0 0 0 0 0 0 0 0 0 0 0 0 0 0 0 0 0 0 0 0 0 0 0 0 0 0 0 0 0 0 0 0 0 0 0 0 0 0 0 0 0 0 0 0 0 0 0 0 0 0 0 0 0 0 0 0 0 0 0 0 0 0 0 0 0 0 0 0 0 0 0 0 0 0 0 0 0 0 0 0 0 0 0 0 0 0 0 0 0 0 0 0 0 0 0 0 0 0 0 0 0 0 0 0 0 0 0 0 0 0 0 0 0 0 0 0 0 0 0 0 0 0 0 0 0 0 0 0 0 0 0 0 0 0 0 0 0 0 0 0 0 0 0 0 0 0 0 0 0 0 0 0 0 0 0 0 0 0 0 0 0 0 0 0 0 0 0 0 0 0 0 0 0 0 0 0 0 0 0 0 0 0 0 0 0 0 0 0 0 0 0 0 0 0 0 0 0 0 0 0 0 0 0 0 0 0 0 0 0 0 0 0 0 0 0 0 0 0 0 0 0 0 0 0 0 0 0 0 0 0 0 0 0 0 0 0 0 0 0 0 0 0 0 0 0 0 0 0 0 0 0 0 0 0 0 0.0025539391208440065384 0.007661817595362663269 0.017877575010061264038 0.035755150020122528076 0.015323635190725326538 0.0025539391208440065384 0.0025539391208440065384 0.007661817595362663269 0.017877575010061264038 0.033201210200786590576 0.010215756483376026154 0 0 0 0 0 0 0 0 0 0 0 0 0 0 0 0 0 0 0 0 0 0 0 0 0 0 0 0 0 0 0 0 0 0 0 0 0 0 0 0 0 0 0 0 0 0 0 0 0 0 0 0 0 0 0 0 0 0 0 0 0 0 0 0 0.45715513825416564941 1.6523987054824829102 1.2207829952239990234 0.50567996501922607422 0.23240847885608673096 0.1200351417064666748 0.084279991686344146729 0.045970901846885681152 0.084279991686344146729 0.081726051867008209229 0.020431512966752052307 0 0 0 0 0 0 0 0 0 0 0 0 0 0 0 0 0 0 0 0 0 0 0 0 0 0 0 0 0 0 0 0 0 0 0 0 0 0 0 0 0 0 0 0 0 0.010215756483376026154 0.048524845391511917114 0.066402420401573181152 0.017877575010061264038 0 0 0 0 0 0 0 0 0 0 0 0 0 0 0 0 0 0 0 0 0 0 0 0 0 0 0 0 0 0 0 0 0 0 0 0 0 0 0 0 0 0 0 0 0 0 0 0 0 0 0 
0.030647270381450653076 0.091941818594932556152 0.030647270381450653076 0 0 0 0 0 0 0 0 0 0 0 0 0 0 0 0 0 0 0 0 0 0 0 0 0 0 0 0 0 0 0 0 0 0 0 0 0 0 0 0 0 0 0 0 0 0 0 0 0 0 0 0 0 0 0 0 0 0 0 0 0 0 0 0 0 0 0 0 0 0 0 0 0 0 0 0 0 0 0 0 0 0 0 0 0 0 0 0 0 0 0 0 0 0 0 0 0 0 0 0 0 0 0 0 0 0 0 0 0 0 0 0 0 0 0 0 0 0 0 0 0 0 0 0 0 0 0 0 0 0 0 0 0 0 0 0 0 0 0 0 0 0 0 0 0 0 0 0 0 0 0 0 0 0 0 0 0 0 0 0 0 0 0 0 0 0 0 0 0 0 0 0 0 0 0 0 0 0 0 0 0 0 0 0 0 0 0 0 0 0 0 0 0 0 0 0 0 0 0 0 0 0 0 0 0 0 0 0 0 0 0 0 0 0 0 0 0 0 0 0 0 0 0 0 0 0 0 0 0 0 0 0 0 0 0 0 0 0 0 0 0 0 0 0 0 0 0 0 0 0 0 0 0 0 0 0 0 0 0 0 0 0 0 0 0 0 0 0 0 0 0 0 0 0 0 0 0 0 0 0 0 0 0 0 0.007661817595362663269 0.033201210200786590576 0.033201210200786590576 0.007661817595362663269 0 0 0.010215756483376026154 0.030647270381450653076 0.010215756483376026154 0 0 0 0 0 0 0 0 0 0 0 0 0 0 0 0 0 0 0 0 0 0 0 0 0 0 0 0 0 0 0 0 0 0 0 0 0 0 0 0 0 0 0 0 0 0 0 0 0 0 0 0 0 0 0 0 0 0 0 0 0 0 0 0 0.31158059835433959961 1.4123283624649047852 1.9129004478454589844 1.0445611476898193359 0.37032115459442138672 0.1276969611644744873 0.091941818594932556152 0.074064239859580993652 0.097049690783023834229 0.084279991686344146729 0.020431512966752052307 0 0 0 0 0 0 0 0 0 0 0 0 0 0 0 0 0 0 0 0 0 0 0 0 0 0 0 0 0 0 0 0 0 0 0 0 0 0 0 0 0 0 0 0 0 0.0025539391208440065384 0.025539392605423927307 0.066402420401573181152 0.025539392605423927307 0.0025539391208440065384 0 0 0 0 0 0 0 0 0 0 0 0 0 0 0 0 0 0 0 0 0 0 0 0 0 0 0 0 0 0 0 0 0 0 0 0 0 0 0 0 0 0 0 0 0 0 0 0 0 0 
0.030647270381450653076 0.091941818594932556152 0.030647270381450653076 0 0 0 0 0 0 0 0 0 0 0 0 0 0 0 0 0 0 0 0 0 0 0 0 0 0 0 0 0 0 0 0 0 0 0 0 0 0 0 0 0 0 0 0 0 0 0 0 0 0 0 0 0 0 0 0 0 0 0 0 0 0 0 0 0 0 0 0 0 0 0 0 0 0 0 0 0 0 0 0 0 0 0 0 0 0 0 0 0 0 0 0 0 0 0 0 0 0 0 0 0 0 0 0 0 0 0 0 0 0 0 0 0 0 0 0 0 0 0 0 0 0 0 0 0 0 0 0 0 0 0 0 0 0 0 0 0 0 0 0 0 0 0 0 0 0 0 0 0 0 0 0 0 0 0 0 0 0 0 0 0 0 0 0 0 0 0 0 0 0 0 0 0 0 0 0 0 0 0 0 0 0 0 0 0 0 0 0 0 0 0 0 0 0 0 0 0 0 0 0 0 0 0 0 0 0 0 0 0 0 0 0 0 0 0 0 0 0 0 0 0 0 0 0 0 0 0 0 0 0 0 0 0 0 0 0 0 0 0 0 0 0 0 0 0 0 0 0 0 0 0 0 0 0 0 0 0 0 0 0 0 0 0 0 0 0 0 0 0 0 0 0 0 0 0 0 0 0 0 0 0 0 0 0 0.0025539391208440065384 0.015323635190725326538 0.033201210200786590576 0.010215756483376026154 0 0 0.010215756483376026154 0.033201210200786590576 0.015323635190725326538 0.0025539391208440065384 0 0 0 0 0 0 0 0 0 0 0 0 0 0 0 0 0 0 0 0 0 0 0 0 0 0 0 0 0 0 0 0 0 0 0 0 0 0 0 0 0 0 0 0 0 0 0 0 0 0 0 0 0 0 0 0 0 0 0 0 0 0 0 0.1098193824291229248 0.64359265565872192383 1.8669295310974121094 2.1453089714050292969 0.95261925458908081055 0.29625695943832397461 0.11492726951837539673 0.1072654426097869873 0.1174812018871307373 0.076618179678916931152 0.015323635190725326538 0 0 0 0 0 0 0 0 0 0 0 0 0 0 0 0 0 0 0 0 0 0 0 0 0 0 0 0 0 0 0 0 0 0 0 0 0 0 0 0 0 0 0 0 0 0 0.017877575010061264038 0.063848480582237243652 0.043416965752840042114 0.007661817595362663269 0 0 0 0 0 0 0 0 0 0 0 0 0 0 0 0 0 0 0 0 0 0 0 0 0 0 0 0 0 0 0 0 0 0 0 0 0 0 0 0 0 0 0 0 0 0 0 0 0 0 
0.030647270381450653076 0.091941818594932556152 0.030647270381450653076 0 0 0 0 0 0 0 0 0 0 0 0 0 0 0 0 0 0 0 0 0 0 0 0 0 0 0 0 0 0 0 0 0 0 0 0 0 0 0 0 0 0 0 0 0 0 0 0 0 0 0 0 0 0 0 0 0 0 0 0 0 0 0 0 0 0 0 0 0 0 0 0 0 0 0 0 0 0 0 0 0 0 0 0 0 0 0 0 0 0 0 0 0 0 0 0 0 0 0 0 0 0 0 0 0 0 0 0 0 0 0 0 0 0 0 0 0 0 0 0 0 0 0 0 0 0 0 0 0 0 0 0 0 0 0 0 0 0 0 0 0 0 0 0 0 0 0 0 0 0 0 0 0 0 0 0 0 0 0 0 0 0 0 0 0 0 0 0 0 0 0 0 0 0 0 0 0 0 0 0 0 0 0 0 0 0 0 0 0 0 0 0 0 0 0 0 0 0 0 0 0 0 0 0 0 0 0 0 0 0 0 0 0 0 0 0 0 0 0 0 0 0 0 0 0 0 0 0 0 0 0 0 0 0 0 0 0 0 0 0 0 0 0 0 0 0 0 0 0 0 0 0 0 0 0 0 0 0 0 0 0 0 0 0 0 0 0 0 0 0 0 0 0 0 0 0 0 0 0 0 0 0 0 0 0 0.010215756483376026154 0.030647270381450653076 0.010215756483376026154 0 0 0.007661817595362663269 0.033201210200786590576 0.033201210200786590576 0.007661817595362663269 0 0 0 0 0 0 0 0 0 0 0 0 0 0 0 0 0 0 0 0 0 0 0 0 0 0 0 0 0 0 0 0 0 0 0 0 0 0 0 0 0 0 0 0 0 0 0 0 0 0 0 0 0 0 0 0 0 0 0 0 0 0 0 0.010215756483376026154 0.1481284797191619873 0.73553442955017089844 2.0737986564636230469 1.9256701469421386719 0.60528361797332763672 0.1276969611644744873 0.1174812018871307373 0.086833931505680084229 0.028093332424759864807 0.0051078782416880130768 0 0 0 0 0 0 0 0 0 0 0 0 0 0 0 0 0 0 0 0 0 0 0 0 0 0 0 0 0 0 0 0 0 0 0 0 0 0 0 0 0 0 0 0 0 0 0.012769696302711963654 0.045970901846885681152 0.043416965752840042114 0.010215756483376026154 0 0 0 0 0 0 0 0 0 0 0 0 0 0 0 0 0 0 0 0 0 0 0 0 0 0 0 0 0 0 0 0 0 0 0 0 0 0 0 0 0 0 0 0 0 0 0 0 0 0 
0.022985454648733139038 0.076618179678916931152 0.022985454648733139038 0 0 0 0 0 0 0 0 0 0 0 0 0 0 0 0 0 0 0 0 0 0 0 0 0 0 0 0 0 0 0 0 0 0 0 0 0 0 0 0 0 0 0 0 0 0 0 0 0 0 0 0 0 0 0 0 0 0 0 0 0 0 0 0 0 0 0 0 0 0 0 0 0 0 0 0 0 0 0 0 0 0 0 0 0 0 0 0 0 0 0 0 0 0 0 0 0 0 0 0 0 0 0 0 0 0 0 0 0 0 0 0 0 0 0 0 0 0 0 0 0 0 0 0 0 0 0 0 0 0 0 0 0 0 0 0 0 0 0 0 0 0 0 0 0 0 0 0 0 0 0 0 0 0 0 0 0 0 0 0 0 0 0 0 0 0 0 0 0 0 0 0 0 0 0 0 0 0 0 0 0 0 0 0 0 0 0 0 0 0 0 0 0 0 0 0 0 0 0 0 0 0 0 0 0 0 0 0 0 0 0 0 0 0 0 0 0 0 0 0 0 0 0 0 0 0 0 0 0 0 0 0 0 0 0 0 0 0 0 0 0 0 0 0 0 0 0 0 0 0 0 0 0 0 0 0 0 0 0 0 0 0 0 0 0 0 0 0 0 0 0 0 0 0 0 0 0 0 0 0 0 0 0 0 0 0.010215756483376026154 0.030647270381450653076 0.010215756483376026154 0 0 0.0025539391208440065384 0.015323635190725326538 0.033201210200786590576 0.010215756483376026154 0 0 0 0 0 0 0 0 0 0 0 0 0 0 0 0 0 0 0 0 0 0 0 0 0 0 0 0 0 0 0 0 0 0 0 0 0 0 0 0 0 0 0 0 0 0 0 0 0 0 0 0 0 0 0 0 0 0 0 0 0 0 0 0 0 0.20686908066272735596 1.1671502590179443359 2.3164227008819580078 1.1109634637832641602 0.26560968160629272461 0.076618179678916931152 0.030647270381450653076 0.0051078782416880130768 0 0 0 0 0 0 0 0 0 0 0 0 0 0 0 0 0 0 0 0 0 0 0 0 0 0 0 0 0 0 0 0 0 0 0 0 0 0 0 0 0 0 0 0 0 0 0 0.010215756483376026154 0.040863025933504104614 0.040863025933504104614 0.010215756483376026154 0 0 0 0 0 0 0 0 0 0 0 0 0 0 0 0 0 0 0 0 0 0 0 0 0 0 0 0 0 0 0 0 0 0 0 0 0 0 0 0 0 0 0 0 0 0 0 0 0 0 
0.007661817595362663269 0.015323635190725326538 0.007661817595362663269 0 0 0 0 0 0 0 0 0 0 0 0 0 0 0 0 0 0 0 0 0 0 0 0 0 0 0 0 0 0 0 0 0 0 0 0 0 0 0 0 0 0 0 0 0 0 0 0 0 0 0 0 0 0 0 0 0 0 0 0 0 0 0 0 0 0 0 0 0 0 0 0 0 0 0 0 0 0 0 0 0 0 0 0 0 0 0 0 0 0 0 0 0 0 0 0 0 0 0 0 0 0 0 0 0 0 0 0 0 0 0 0 0 0 0 0 0 0 0 0 0 0 0 0 0 0 0 0 0 0 0 0 0 0 0 0 0 0 0 0 0 0 0 0 0 0 0 0 0 0 0 0 0 0 0 0 0 0 0 0 0 0 0 0 0 0 0 0 0 0 0 0 0 0 0 0 0 0 0 0 0 0 0 0 0 0 0 0 0 0 0 0 0 0 0 0 0 0 0 0 0 0 0 0 0 0 0 0 0 0 0 0 0 0 0 0 0 0 0 0 0 0 0 0 0 0 0 0 0 0 0 0 0 0 0 0 0 0 0 0 0 0 0 0 0 0 0 0 0 0 0 0 0 0 0 0 0 0 0 0 0 0 0 0 0 0 0 0 0 0 0 0 0 0 0 0 0 0 0 0 0 0 0 0 0 0.010215756483376026154 0.033201210200786590576 0.017877575010061264038 0.007661817595362663269 0.0025539391208440065384 0 0.010215756483376026154 0.030647270381450653076 0.010215756483376026154 0 0 0 0 0 0 0 0 0 0 0 0 0 0 0 0 0 0 0 0 0 0 0 0 0 0 0 0 0 0 0 0 0 0 0 0 0 0 0 0 0 0 0 0 0 0 0 0 0 0 0 0 0 0 0 0 0 0 0 0 0 0 0 0 0 0.033201210200786590576 0.55675870180130004883 2.2091572284698486328 2.4568896293640136719 0.91175627708435058594 0.21453088521957397461 0.012769696302711963654 0 0 0 0 0 0 0 0 0 0 0 0 0 0 0 0 0 0 0 0 0 0 0 0 0 0 0 0 0 0 0 0 0 0 0 0 0 0 0 0 0 0 0 0 0 0 0 0 0.010215756483376026154 0.040863025933504104614 0.043416965752840042114 0.015323635190725326538 0.0025539391208440065384 0 0 0 0 0 0 0 0 0 0 0 0 0 0 0 0 0 0 0 0 0 0 0 0 0 0 0 0 0 0 0 0 0 0 0 0 0 0 0 0 0 0 0 0 0 0 0 0 0 
0 0 0 0 0 0 0 0 0 0 0 0 0 0 0 0 0 0 0 0 0 0 0 0 0 0 0 0 0 0 0 0 0 0 0 0 0 0 0 0 0 0 0 0 0 0 0 0 0 0 0 0 0 0 0 0 0 0 0 0 0 0 0 0 0 0 0 0 0 0 0 0 0 0 0 0 0 0 0 0 0 0 0 0 0 0 0 0 0 0 0 0 0 0 0 0 0 0 0 0 0 0 0 0 0 0 0 0 0 0 0 0 0 0 0 0 0 0 0 0 0 0 0 0 0 0 0 0 0 0 0 0 0 0 0 0 0 0 0 0 0 0 0 0 0 0 0 0 0 0 0 0 0 0 0 0 0 0 0 0 0 0 0 0 0 0 0 0 0 0 0 0 0 0 0 0 0 0 0 0 0 0 0 0 0 0 0 0 0 0 0 0 0 0 0 0 0 0 0 0 0 0 0 0 0 0 0 0 0 0 0 0 0 0 0 0 0 0 0 0 0 0 0 0 0 0 0 0 0 0 0 0 0 0 0 0 0 0 0 0 0 0 0 0 0 0 0 0 0 0 0 0 0 0 0 0 0 0 0 0 0 0 0 0 0 0 0 0 0 0 0 0 0 0 0 0 0 0 0 0 0 0 0 0 0 0 0 0 0.007661817595362663269 0.030647270381450653076 0.035755150020122528076 0.030647270381450653076 0.007661817595362663269 0 0.010215756483376026154 0.030647270381450653076 0.010215756483376026154 0 0 0 0 0 0 0 0 0 0 0 0 0 0 0 0 0 0 0 0 0 0 0 0 0 0 0 0 0 0 0 0 0 0 0 0 0 0 0 0 0 0 0 0 0 0 0 0 0 0 0 0 0 0 0 0 0 0 0 0 0 0 0 0 0 0 0.16345210373401641846 0.85556960105895996094 2.4543354511260986328 2.3010990619659423828 0.55931264162063598633 0.010215756483376026154 0 0 0 0 0 0 0 0 0 0 0 0 0 0 0 0 0 0 0 0 0 0 0 0 0 0 0 0 0 0 0 0 0 0 0 0 0 0 0 0 0 0 0 0 0 0 0 0 0.010215756483376026154 0.038309089839458465576 0.043416965752840042114 0.033201210200786590576 0.007661817595362663269 0 0 0 0 0 0 0 0 0 0 0 0 0 0 0 0 0 0 0 0 0 0 0 0 0 0 0 0 0 0 0 0 0 0 0 0 0 0 0 0 0 0 0 0 0 0 0 0 0 
0 0 0 0 0 0 0 0 0 0 0 0 0 0 0 0 0 0 0 0 0 0 0 0 0 0 0 0 0 0 0 0 0 0 0 0 0 0 0 0 0 0 0 0 0 0 0 0 0 0 0 0 0 0 0 0 0 0 0 0 0 0 0 0 0 0 0 0 0 0 0 0 0 0 0 0 0 0 0 0 0 0 0 0 0 0 0 0 0 0 0 0 0 0 0 0 0 0 0 0 0 0 0 0 0 0 0 0 0 0 0 0 0 0 0 0 0 0 0 0 0 0 0 0 0 0 0 0 0 0 0 0 0 0 0 0 0 0 0 0 0 0 0 0 0 0 0 0 0 0 0 0 0 0 0 0 0 0 0 0 0 0 0 0 0 0 0 0 0 0 0 0 0 0 0 0 0 0 0 0 0 0 0 0 0 0 0 0 0 0 0 0 0 0 0 0 0 0 0 0 0 0 0 0 0 0 0 0 0 0 0 0 0 0 0 0 0 0 0 0 0 0 0 0 0 0 0 0 0 0 0 0 0 0 0 0 0 0 0 0 0 0 0 0 0 0 0 0 0 0 0 0 0 0 0 0 0 0 0 0 0 0 0 0 0 0 0 0 0 0 0 0 0 0 0 0 0 0 0 0 0 0 0 0 0 0 0 0 0.0025539391208440065384 0.007661817595362663269 0.017877575010061264038 0.035755150020122528076 0.015323635190725326538 0.0025539391208440065384 0.010215756483376026154 0.030647270381450653076 0.010215756483376026154 0 0 0 0 0 0 0 0 0 0 0 0 0 0 0 0 0 0 0 0 0 0 0 0 0 0 0 0 0 0 0 0 0 0 0 0 0 0 0 0 0 0 0 0 0 0 0 0 0 0 0 0 0 0 0 0 0 0 0 0 0 0 0 0 0 0 0 0.17622180283069610596 1.0573308467864990234 2.3317463397979736328 0.79682904481887817383 0.040863025933504104614 0 0 0 0 0 0 0 0 0 0 0 0 0 0 0 0 0 0 0 0 0 0 0 0 0 0 0 0 0 0 0 0 0 0 0 0 0 0 0 0 0 0 0 0 0 0 0 0 0.010215756483376026154 0.033201210200786590576 0.025539392605423927307 0.033201210200786590576 0.010215756483376026154 0 0 0 0 0 0 0 0 0 0 0 0 0 0 0 0 0 0 0 0 0 0 0 0 0 0 0 0 0 0 0 0 0 0 0 0 0 0 0 0 0 0 0 0 0 0 0 0 0 
0 0 0 0 0 0 0 0 0 0 0 0 0 0 0 0 0 0 0 0 0 0 0 0 0 0 0 0 0 0 0 0 0 0 0 0 0 0 0 0 0 0 0 0 0 0 0 0 0 0 0 0 0 0 0 0 0 0 0 0 0 0 0 0 0 0 0 0 0 0 0 0 0 0 0 0 0 0 0 0 0 0 0 0 0 0 0 0 0 0 0 0 0 0 0 0 0 0 0 0 0 0 0 0 0 0 0 0 0 0 0 0 0 0 0 0 0 0 0 0 0 0 0 0 0 0 0 0 0 0 0 0 0 0 0 0 0 0 0 0 0 0 0 0 0 0 0 0 0 0 0 0 0 0 0 0 0 0 0 0 0 0 0 0 0 0 0 0 0 0 0 0 0 0 0 0 0 0 0 0 0 0 0 0 0 0 0 0 0 0 0 0 0 0 0 0 0 0 0 0 0 0 0 0 0 0 0 0 0 0 0 0 0 0 0 0 0 0 0 0 0 0 0 0 0 0 0 0 0 0 0 0 0 0 0 0 0 0 0 0 0 0 0 0 0 0 0 0 0 0 0 0 0 0 0 0 0 0 0 0 0 0 0 0 0 0 0 0 0 0 0 0 0 0 0 0 0 0 0 0 0 0 0 0 0 0 0 0 0 0 0.007661817595362663269 0.033201210200786590576 0.033201210200786590576 0.007661817595362663269 0.010215756483376026154 0.030647270381450653076 0.010215756483376026154 0 0 0 0 0 0 0 0 0 0 0 0 0 0 0 0 0 0 0 0 0 0 0 0 0 0 0 0 0 0 0 0 0 0 0 0 0 0 0 0 0 0 0 0 0 0 0 0 0 0 0 0 0 0 0 0 0 0 0 0 0 0 0 0 0 0 0 0 0.67423993349075317383 2.2117111682891845703 1.1237331628799438477 0.1583442389965057373 0 0 0 0 0 0 0 0 0 0 0 0 0 0 0 0 0 0 0 0 0 0 0 0 0 0 0 0 0 0 0 0 0 0 0 0 0 0 0 0 0 0 0 0 0 0 0 0 0.010215756483376026154 0.030647270381450653076 0.020431512966752052307 0.030647270381450653076 0.010215756483376026154 0 0 0 0 0 0 0 0 0 0 0 0 0 0 0 0 0 0 0 0 0 0 0 0 0 0 0 0 0 0 0 0 0 0 0 0 0 0 0 0 0 0 0 0 0 0 0 0 0 
0 0 0 0 0 0 0 0 0 0 0 0 0 0 0 0 0 0 0 0 0 0 0 0 0 0 0 0 0 0 0 0 0 0 0 0 0 0 0 0 0 0 0 0 0 0 0 0 0 0 0 0 0 0 0 0 0 0 0 0 0 0 0 0 0 0 0 0 0 0 0 0 0 0 0 0 0 0 0 0 0 0 0 0 0 0 0 0 0 0 0 0 0 0 0 0 0 0 0 0 0 0 0 0 0 0 0 0 0 0 0 0 0 0 0 0 0 0 0 0 0 0 0 0 0 0 0 0 0 0 0 0 0 0 0 0 0 0 0 0 0 0 0 0 0 0 0 0 0 0 0 0 0 0 0 0 0 0 0 0 0 0 0 0 0 0 0 0 0 0 0 0 0 0 0 0 0 0 0 0 0 0 0 0 0 0 0 0 0 0 0 0 0 0 0 0 0 0 0 0 0 0 0 0 0 0 0 0 0 0 0 0 0 0 0 0 0 0 0 0 0 0 0 0 0 0 0 0 0 0 0 0 0 0 0 0 0 0 0 0 0 0 0 0 0 0 0 0 0 0 0 0 0 0 0 0 0 0 0 0 0 0 0 0 0 0 0 0 0 0 0 0 0 0 0 0 0 0 0 0 0 0 0 0 0 0 0 0 0 0 0.0025539391208440065384 0.015323635190725326538 0.033201210200786590576 0.010215756483376026154 0.010215756483376026154 0.030647270381450653076 0.010215756483376026154 0 0 0 0 0 0 0 0 0 0 0 0 0 0 0 0 0 0 0 0 0 0 0 0 0 0 0 0 0 0 0 0 0 0 0 0 0 0 0 0 0 0 0 0 0 0 0 0 0 0 0 0 0 0 0 0 0 0 0 0 0 0 0 0 0 0 0 0 0.55675870180130004883 2.0686907768249511719 1.6600605249404907227 0.37287509441375732422 0 0 0 0 0 0 0 0 0 0 0 0 0 0 0 0 0 0 0 0 0 0 0 0 0 0 0 0 0 0 0 0 0 0 0 0 0 0 0 0 0 0 0 0 0 0 0 0 0.010215756483376026154 0.030647270381450653076 0.020431512966752052307 0.033201210200786590576 0.015323635190725326538 0.0025539391208440065384 0 0 0 0 0 0 0 0 0 0 0 0 0 0 0 0 0 0 0 0 0 0 0 0 0 0 0 0 0 0 0 0 0 0 0 0 0 0 0 0 0 0 0 0 0 0 0 0 
0 0 0 0 0 0 0 0 0 0 0 0 0 0 0 0 0 0 0 0 0 0 0 0 0 0 0 0 0 0 0 0 0 0 0 0 0 0 0 0 0 0 0 0 0 0 0 0 0 0 0 0 0 0 0 0 0 0 0 0 0 0 0 0 0 0 0 0 0 0 0 0 0 0 0 0 0 0 0 0 0 0 0 0 0 0 0 0 0 0 0 0 0 0 0 0 0 0 0 0 0 0 0 0 0 0 0 0 0 0 0 0 0 0 0 0 0 0 0 0 0 0 0 0 0 0 0 0 0 0 0 0 0 0 0 0 0 0 0 0 0 0 0 0 0 0 0 0 0 0 0 0 0 0 0 0 0 0 0 0 0 0 0 0 0 0 0 0 0 0 0 0 0 0 0 0 0 0 0 0 0 0 0 0 0 0 0 0 0 0 0 0 0 0 0 0 0 0 0 0 0 0 0 0 0 0 0 0 0 0 0 0 0 0 0 0 0 0 0 0 0 0 0 0 0 0 0 0 0 0 0 0 0 0 0 0 0 0 0 0 0 0 0 0 0 0 0 0 0 0 0 0 0 0 0 0 0 0 0 0 0 0 0 0 0 0 0 0 0 0 0 0 0 0 0 0 0 0 0 0 0 0 0 0 0 0 0 0 0 0 0 0.010215756483376026154 0.030647270381450653076 0.010215756483376026154 0.010215756483376026154 0.030647270381450653076 0.010215756483376026154 0 0 0 0 0 0 0 0 0 0 0 0 0 0 0 0 0 0 0 0 0 0 0 0 0 0 0 0 0 0 0 0 0 0 0 0 0 0 0 0 0 0 0 0 0 0 0 0 0 0 0 0 0 0 0 0 0 0 0 0 0 0 0 0 0 0 0 0 0.34222784638404846191 1.6166435480117797852 2.1350932121276855469 0.57463634014129638672 0 0 0 0 0 0 0 0 0 0 0 0 0 0 0 0 0 0 0 0 0 0 0 0 0 0 0 0 0 0 0 0 0 0 0 0 0 0 0 0 0 0 0 0 0 0 0 0 0.010215756483376026154 0.030647270381450653076 0.017877575010061264038 0.033201210200786590576 0.033201210200786590576 0.007661817595362663269 0 0 0 0 0 0 0 0 0 0 0 0 0 0 0 0 0 0 0 0 0 0 0 0 0 0 0 0 0 0 0 0 0 0 0 0 0 0 0 0 0 0 0 0 0 0 0 0 
0 0 0 0 0 0 0 0 0 0 0 0 0 0 0 0 0 0 0 0 0 0 0 0 0 0 0 0 0 0 0 0 0 0 0 0 0 0 0 0 0 0 0 0 0 0 0 0 0 0 0 0 0 0 0 0 0 0 0 0 0 0 0 0 0 0 0 0 0 0 0 0 0 0 0 0 0 0 0 0 0 0 0 0 0 0 0 0 0 0 0 0 0 0 0 0 0 0 0 0 0 0 0 0 0 0 0 0 0 0 0 0 0 0 0 0 0 0 0 0 0 0 0 0 0 0 0 0 0 0 0 0 0 0 0 0 0 0 0 0 0 0 0 0 0 0 0 0 0 0 0 0 0 0 0 0 0 0 0 0 0 0 0 0 0 0 0 0 0 0 0 0 0 0 0 0 0 0 0 0 0 0 0 0 0 0 0 0 0 0 0 0 0 0 0 0 0 0 0 0 0 0 0 0 0 0 0 0 0 0 0 0 0 0 0 0 0 0 0 0 0 0 0 0 0 0 0 0 0 0 0 0 0 0 0 0 0 0 0 0 0 0 0 0 0 0 0 0 0 0 0 0 0 0 0 0 0 0 0 0 0 0 0 0 0 0 0 0 0 0 0 0 0 0 0 0 0 0 0 0 0 0 0 0 0 0 0 0 0 0 0 0.010215756483376026154 0.030647270381450653076 0.010215756483376026154 0.010215756483376026154 0.030647270381450653076 0.010215756483376026154 0 0 0 0 0 0 0 0 0 0 0 0 0 0 0 0 0 0 0 0 0 0 0 0 0 0 0 0 0 0 0 0 0 0 0 0 0 0 0 0 0 0 0 0 0 0 0 0 0 0 0 0 0 0 0 0 0 0 0 0 0 0 0 0 0 0 0 0 0.14046664535999298096 1.0139138698577880859 2.1172156333923339844 0.66147023439407348633 0 0 0 0 0 0 0 0 0 0 0 0 0 0 0 0 0 0 0 0 0 0 0 0 0 0 0 0 0 0 0 0 0 0 0 0 0 0 0 0 0 0 0 0 0 0 0 0.0025539391208440065384 0.015323635190725326538 0.033201210200786590576 0.012769696302711963654 0.015323635190725326538 0.035755150020122528076 0.015323635190725326538 0.0025539391208440065384 0 0 0 0 0 0 0 0 0 0 0 0 0 0 0 0 0 0 0 0 0 0 0 0 0 0 0 0 0 0 0 0 0 0 0 0 0 0 0 0 0 0 0 0 0 0 0 
0 0 0 0 0 0 0 0 0 0 0 0 0 0 0 0 0 0 0 0 0 0 0 0 0 0 0 0 0 0 0 0 0 0 0 0 0 0 0 0 0 0 0 0 0 0 0 0 0 0 0 0 0 0 0 0 0 0 0 0 0 0 0 0 0 0 0 0 0 0 0 0 0 0 0 0 0 0 0 0 0 0 0 0 0 0 0 0 0 0 0 0 0 0 0 0 0 0 0 0 0 0 0 0 0 0 0 0 0 0 0 0 0 0 0 0 0 0 0 0 0 0 0 0 0 0 0 0 0 0 0 0 0 0 0 0 0 0 0 0 0 0 0 0 0 0 0 0 0 0 0 0 0 0 0 0 0 0 0 0 0 0 0 0 0 0 0 0 0 0 0 0 0 0 0 0 0 0 0 0 0 0 0 0 0 0 0 0 0 0 0 0 0 0 0 0 0 0 0 0 0 0 0 0 0 0 0 0 0 0 0 0 0 0 0 0 0 0 0 0 0 0 0 0 0 0 0 0 0 0 0 0 0 0 0 0 0 0 0 0 0 0 0 0 0 0 0 0 0 0 0 0 0 0 0 0 0 0 0 0 0 0 0 0 0 0 0 0 0 0 0 0 0 0 0 0 0 0 0 0 0 0 0 0 0 0 0 0 0 0 0 0.010215756483376026154 0.030647270381450653076 0.010215756483376026154 0.010215756483376026154 0.030647270381450653076 0.010215756483376026154 0 0 0 0 0 0 0 0 0 0 0 0 0 0 0 0 0 0 0 0 0 0 0 0 0 0 0 0 0 0 0 0 0 0 0 0 0 0 0 0 0 0 0 0 0 0 0 0 0 0 0 0 0 0 0 0 0 0 0 0 0 0 0 0 0 0 0 0 0.053632721304893493652 0.85556960105895996094 2.1223235130310058594 0.68700963258743286133 0 0 0 0 0 0 0 0 0 0 0 0 0 0 0 0 0 0 0 0 0 0 0 0 0 0 0 0 0 0 0 0 0 0 0 0 0 0 0 0 0 0 0 0 0 0 0 0.007661817595362663269 0.033201210200786590576 0.033201210200786590576 0.007661817595362663269 0.007661817595362663269 0.033201210200786590576 0.033201210200786590576 0.007661817595362663269 0 0 0 0 0 0 0 0 0 0 0 0 0 0 0 0 0 0 0 0 0 0 0 0 0 0 0 0 0 0 0 0 0 0 0 0 0 0 0 0 0 0 0 0 0 0 0 
0 0 0 0 0 0 0 0 0 0 0 0 0 0 0 0 0 0 0 0 0 0 0 0 0 0 0 0 0 0 0 0 0 0 0 0 0 0 0 0 0 0 0 0 0 0 0 0 0 0 0 0 0 0 0 0 0 0 0 0 0 0 0 0 0 0 0 0 0 0 0 0 0 0 0 0 0 0 0 0 0 0 0 0 0 0 0 0 0 0 0 0 0 0 0 0 0 0 0 0 0 0 0 0 0 0 0 0 0 0 0 0 0 0 0 0 0 0 0 0 0 0 0 0 0 0 0 0 0 0 0 0 0 0 0 0 0 0 0 0 0 0 0 0 0 0 0 0 0 0 0 0 0 0 0 0 0 0 0 0 0 0 0 0 0 0 0 0 0 0 0 0 0 0 0 0 0 0 0 0 0 0 0 0 0 0 0 0 0 0 0 0 0 0 0 0 0 0 0 0 0 0 0 0 0 0 0 0 0 0 0 0 0 0 0 0 0 0 0 0 0 0 0 0 0 0 0 0 0 0 0 0 0 0 0 0 0 0 0 0 0 0 0 0 0 0 0 0 0 0 0 0 0 0 0 0 0 0 0 0 0 0 0 0 0 0 0 0 0 0 0 0 0 0 0 0 0 0 0 0 0 0 0 0 0 0 0 0 0 0 0 0.010215756483376026154 0.030647270381450653076 0.010215756483376026154 0.010215756483376026154 0.030647270381450653076 0.010215756483376026154 0 0 0 0 0 0 0 0 0 0 0 0 0 0 0 0 0 0 0 0 0 0 0 0 0 0 0 0 0 0 0 0 0 0 0 0 0 0 0 0 0 0 0 0 0 0 0 0 0 0 0 0 0 0 0 0 0 0 0 0 0 0 0 0 0 0 0 0 0.028093332424759864807 0.77895140647888183594 2.1376471519470214844 0.70233327150344848633 0 0 0 0 0 0 0 0 0 0 0 0 0 0 0 0 0 0 0 0 0 0 0 0 0 0 0 0 0 0 0 0 0 0 0 0 0 0 0 0 0 0 0 0 0 0 0 0.010215756483376026154 0.033201210200786590576 0.015323635190725326538 0.0025539391208440065384 0.0025539391208440065384 0.015323635190725326538 0.035755150020122528076 0.017877575010061264038 0.010215756483376026154 0.007661817595362663269 0.0025539391208440065384 0 0 0 0 0 0 0 0 0 0 0 0 0 0 0 0 0 0 0 0 0 0 0 0 0 0 0 0 0 0 0 0 0 0 0 0 0 0 0 0 0 0 0 0 
0 0 0 0 0 0 0 0 0 0 0 0 0 0 0 0 0 0 0 0 0 0 0 0 0 0 0 0 0 0 0 0 0 0 0 0 0 0 0 0 0 0 0 0 0 0 0 0 0 0 0 0 0 0 0 0 0 0 0 0 0 0 0 0 0 0 0 0 0 0 0 0 0 0 0 0 0 0 0 0 0 0 0 0 0 0 0 0 0 0 0 0 0 0 0 0 0 0 0 0 0 0 0 0 0 0 0 0 0 0 0 0 0 0 0 0 0 0 0 0 0 0 0 0 0 0 0 0 0 0 0 0 0 0 0 0 0 0 0 0 0 0 0 0 0 0 0 0 0 0 0 0 0 0 0 0 0 0 0 0 0 0 0 0 0 0 0 0 0 0 0 0 0 0 0 0 0 0 0 0 0 0 0 0 0 0 0 0 0 0 0 0 0 0 0 0 0 0 0 0 0 0 0 0 0 0 0 0 0 0 0 0 0 0 0 0 0 0 0 0 0 0 0 0 0 0 0 0 0 0 0 0 0 0 0 0 0 0 0 0 0 0 0 0 0 0 0 0 0 0 0 0 0 0 0 0 0 0 0 0 0 0 0 0 0 0 0 0 0 0 0 0 0 0 0 0 0 0 0 0 0 0 0 0 0 0 0 0 0 0 0 0.010215756483376026154 0.030647270381450653076 0.010215756483376026154 0.010215756483376026154 0.030647270381450653076 0.010215756483376026154 0 0 0 0 0 0 0 0 0 0 0 0 0 0 0 0 0 0 0 0 0 0 0 0 0 0 0 0 0 0 0 0 0 0 0 0 0 0 0 0 0 0 0 0 0 0 0 0 0 0 0 0 0 0 0 0 0 0 0 0 0 0 0 0 0 0 0 0 0.012769696302711963654 0.74064230918884277344 2.1274313926696777344 0.70488721132278442383 0 0 0 0 0 0 0 0 0 0 0 0 0 0 0 0 0 0 0 0 0 0 0 0 0 0 0 0 0 0 0 0 0 0 0 0 0 0 0 0 0 0 0 0 0 0 0 0.010215756483376026154 0.030647270381450653076 0.010215756483376026154 0 0 0.007661817595362663269 0.030647270381450653076 0.033201210200786590576 0.033201210200786590576 0.033201210200786590576 0.012769696302711963654 0.0025539391208440065384 0 0 0 0 0 0 0 0 0 0 0 0 0 0 0 0 0 0 0 0 0 0 0 0 0 0 0 0 0 0 0 0 0 0 0 0 0 0 0 0 0 0 0 
0 0 0 0 0 0 0 0 0 0 0 0 0 0 0 0 0 0 0 0 0 0 0 0 0 0 0 0 0 0 0 0 0 0 0 0 0 0 0 0 0 0 0 0 0 0 0 0 0 0 0 0 0 0 0 0 0 0 0 0 0 0 0 0 0 0 0 0 0 0 0 0 0 0 0 0 0 0 0 0 0 0 0 0 0 0 0 0 0 0 0 0 0 0 0 0 0 0 0 0 0 0 0 0 0 0 0 0 0 0 0 0 0 0 0 0 0 0 0 0 0 0 0 0 0 0 0 0 0 0 0 0 0 0 0 0 0 0 0 0 0 0 0 0 0 0 0 0 0 0 0 0 0 0 0 0 0 0 0 0 0 0 0 0 0 0 0 0 0 0 0 0 0 0 0 0 0 0 0 0 0 0 0 0 0 0 0 0 0 0 0 0 0 0 0 0 0 0 0 0 0 0 0 0 0 0 0 0 0 0 0 0 0 0 0 0 0 0 0 0 0 0 0 0 0 0 0 0 0 0 0 0 0 0 0 0 0 0 0 0 0 0 0 0 0 0 0 0 0 0 0 0 0 0 0 0 0 0 0 0 0 0 0 0 0 0 0 0 0 0 0 0 0 0 0 0 0 0 0 0 0 0 0 0 0 0 0 0 0 0 0 0.010215756483376026154 0.030647270381450653076 0.010215756483376026154 0.010215756483376026154 0.030647270381450653076 0.010215756483376026154 0 0 0 0 0 0 0 0 0 0 0 0 0 0 0 0 0 0 0 0 0 0 0 0 0 0 0 0 0 0 0 0 0 0 0 0 0 0 0 0 0 0 0 0 0 0 0 0 0 0 0 0 0 0 0 0 0 0 0 0 0 0 0 0 0 0 0 0 0.010215756483376026154 0.73553442955017089844 2.1376471519470214844 0.73042660951614379883 0.012769695371389389038 0 0 0 0 0 0 0 0 0 0 0 0 0 0 0 0 0 0 0 0 0 0 0 0 0 0 0 0 0 0 0 0 0 0 0 0 0 0 0 0 0 0 0 0 0 0 0.010215756483376026154 0.030647270381450653076 0.010215756483376026154 0 0 0.0025539391208440065384 0.007661817595362663269 0.010215756483376026154 0.015323635190725326538 0.035755150020122528076 0.035755150020122528076 0.015323635190725326538 0.010215756483376026154 0.007661817595362663269 0.0025539391208440065384 0 0 0 0 0 0 0 0 0 0 0 0 0 0 0 0 0 0 0 0 0 0 0 0 0 0 0 0 0 0 0 0 0 0 0 0 0 0 0 0 
0 0 0 0 0 0 0 0 0 0 0 0 0 0 0 0 0 0 0 0 0 0 0 0 0 0 0 0 0 0 0 0 0 0 0 0 0 0 0 0 0 0 0 0 0 0 0 0 0 0 0 0 0 0 0 0 0 0 0 0 0 0 0 0 0 0 0 0 0 0 0 0 0 0 0 0 0 0 0 0 0 0 0 0 0 0 0 0 0 0 0 0 0 0 0 0 0 0 0 0 0 0 0 0 0 0 0 0 0 0 0 0 0 0 0 0 0 0 0 0 0 0 0 0 0 0 0 0 0 0 0 0 0 0 0 0 0 0 0 0 0 0 0 0 0 0 0 0 0 0 0 0 0 0 0 0 0 0 0 0 0 0 0 0 0 0 0 0 0 0 0 0 0 0 0 0 0 0 0 0 0 0 0 0 0 0 0 0 0 0 0 0 0 0 0 0 0 0 0 0 0 0 0 0 0 0 0 0 0 0 0 0 0 0 0 0 0 0 0 0 0 0 0 0 0 0 0 0 0 0 0 0 0 0 0 0 0 0 0 0 0 0 0 0 0 0 0 0 0 0 0 0 0 0 0 0 0 0 0 0 0 0 0 0 0 0 0 0 0 0 0 0 0 0 0 0 0 0 0 0 0 0 0 0 0 0 0 0 0 0 0 0.010215756483376026154 0.033201210200786590576 0.017877575010061264038 0.017877575010061264038 0.033201210200786590576 0.010215756483376026154 0 0 0 0 0 0 0 0 0 0 0 0 0 0 0 0 0 0 0 0 0 0 0 0 0 0 0 0 0 0 0 0 0 0 0 0 0 0 0 0 0 0 0 0 0 0 0 0 0 0 0 0 0 0 0 0 0 0 0 0 0 0 0 0 0 0 0 0 0.010215756483376026154 0.72531872987747192383 2.1708481311798095703 0.87855505943298339844 0.066402420401573181152 0 0 0 0 0 0 0 0 0 0 0 0 0 0 0 0 0 0 0 0 0 0 0 0 0 0 0 0 0 0 0 0 0 0 0 0 0 0 0 0 0 0 0 0 0 0 0.010215756483376026154 0.030647270381450653076 0.010215756483376026154 0 0 0 0 0 0.0025539391208440065384 0.012769696302711963654 0.033201210200786590576 0.033201210200786590576 0.033201210200786590576 0.030647270381450653076 0.007661817595362663269 0 0 0 0 0 0 0 0 0 0 0 0 0 0 0 0 0 0 0 0 0 0 0 0 0 0 0 0 0 0 0 0 0 0 0 0 0 0 0 0 
0 0 0 0 0 0 0 0 0 0 0 0 0 0 0 0 0 0 0 0 0 0 0 0 0 0 0 0 0 0 0 0 0 0 0 0 0 0 0 0 0 0 0 0 0 0 0 0 0 0 0 0 0 0 0 0 0 0 0 0 0 0 0 0 0 0 0 0 0 0 0 0 0 0 0 0 0 0 0 0 0 0 0 0 0 0 0 0 0 0 0 0 0 0 0 0 0 0 0 0 0 0 0 0 0 0 0 0 0 0 0 0 0 0 0 0 0 0 0 0 0 0 0 0 0 0 0 0 0 0 0 0 0 0 0 0 0 0 0 0 0 0 0 0 0 0 0 0 0 0 0 0 0 0 0 0 0 0 0 0 0 0 0 0 0 0 0 0 0 0 0 0 0 0 0 0 0 0 0 0 0 0 0 0 0 0 0 0 0 0 0 0 0 0 0 0 0 0 0 0 0 0 0 0 0 0 0 0 0 0 0 0 0 0 0 0 0 0 0 0 0 0 0 0 0 0 0 0 0 0 0 0 0 0 0 0 0 0 0 0 0 0 0 0 0 0 0 0 0 0 0 0 0 0 0 0 0 0 0 0 0 0 0 0 0 0 0 0 0 0 0 0 0 0 0 0 0 0 0 0 0 0 0 0 0 0 0 0 0 0 0 0.007661817595362663269 0.030647270381450653076 0.035755150020122528076 0.040863025933504104614 0.038309089839458465576 0.010215756483376026154 0 0 0 0 0 0 0 0 0 0 0 0 0 0 0 0 0 0 0 0 0 0 0 0 0 0 0 0 0 0 0 0 0 0 0 0 0 0 0 0 0 0 0 0 0 0 0 0 0 0 0 0 0 0 0 0 0 0 0 0 0 0 0 0 0 0 0 0 0.007661817595362663269 0.67168599367141723633 2.1223235130310058594 1.1262871026992797852 0.1583442389965057373 0 0 0 0 0 0 0 0 0 0 0 0 0 0 0 0 0 0 0 0 0 0 0 0 0 0 0 0 0 0 0 0 0 0 0 0 0 0 0 0 0 0 0 0 0 0 0.010215756483376026154 0.030647270381450653076 0.010215756483376026154 0 0 0 0 0 0 0.0025539391208440065384 0.007661817595362663269 0.010215756483376026154 0.017877575010061264038 0.035755150020122528076 0.015323635190725326538 0.0025539391208440065384 0 0 0 0 0 0 0 0 0 0 0 0 0 0 0 0 0 0 0 0 0 0 0 0 0 0 0 0 0 0 0 0 0 0 0 0 0 0 0 
0 0 0 0 0 0 0 0 0 0 0 0 0 0 0 0 0 0 0 0 0 0 0 0 0 0 0 0 0 0 0 0 0 0 0 0 0 0 0 0 0 0 0 0 0 0 0 0 0 0 0 0 0 0 0 0 0 0 0 0 0 0 0 0 0 0 0 0 0 0 0 0 0 0 0 0 0 0 0 0 0 0 0 0 0 0 0 0 0 0 0 0 0 0 0 0 0 0 0 0 0 0 0 0 0 0 0 0 0 0 0 0 0 0 0 0 0 0 0 0 0 0 0 0 0 0 0 0 0 0 0 0 0 0 0 0 0 0 0 0 0 0 0 0 0 0 0 0 0 0 0 0 0 0 0 0 0 0 0 0 0 0 0 0 0 0 0 0 0 0 0 0 0 0 0 0 0 0 0 0 0 0 0 0 0 0 0 0 0 0 0 0 0 0 0 0 0 0 0 0 0 0 0 0 0 0 0 0 0 0 0 0 0 0 0 0 0 0 0 0 0 0 0 0 0 0 0 0 0 0 0 0 0 0 0 0 0 0 0 0 0 0 0 0 0 0 0 0 0 0 0 0 0 0 0 0 0 0 0 0 0 0 0 0 0 0 0 0 0 0 0 0 0 0 0 0 0 0 0 0 0 0 0 0 0 0 0 0 0 0 0 0.0025539391208440065384 0.007661817595362663269 0.017877575010061264038 0.043416965752840042114 0.040863025933504104614 0.010215756483376026154 0 0 0 0 0 0 0 0 0 0 0 0 0 0 0 0 0 0 0 0 0 0 0 0 0 0 0 0 0 0 0 0 0 0 0 0 0 0 0 0 0 0 0 0 0 0 0 0 0 0 0 0 0 0 0 0 0 0 0 0 0 0 0 0 0 0 0 0 0.0025539391208440065384 0.56186658143997192383 1.9077925682067871094 1.2974010705947875977 0.25028604269027709961 0.0051078782416880130768 0 0 0 0 0 0 0 0 0 0 0 0 0 0 0 0 0 0 0 0 0 0 0 0 0 0 0 0 0 0 0 0 0 0 0 0 0 0 0 0 0 0 0 0 0 0.010215756483376026154 0.030647270381450653076 0.010215756483376026154 0 0 0 0 0 0 0 0 0 0.007661817595362663269 0.033201210200786590576 0.035755150020122528076 0.012769696302711963654 0.0025539391208440065384 0 0 0 0 0 0 0 0 0 0 0 0 0 0 0 0 0 0 0 0 0 0 0 0 0 0 0 0 0 0 0 0 0 0 0 0 0 0 
0 0 0 0 0 0 0 0 0 0 0 0 0 0 0 0 0 0 0 0 0 0 0 0 0 0 0 0 0 0 0 0 0 0 0 0 0 0 0 0 0 0 0 0 0 0 0 0 0 0 0 0 0 0 0 0 0 0 0 0 0 0 0 0 0 0 0 0 0 0 0 0 0 0 0 0 0 0 0 0 0 0 0 0 0 0 0 0 0 0 0 0 0 0 0 0 0 0 0 0 0 0 0 0 0 0 0 0 0 0 0 0 0 0 0 0 0 0 0 0 0 0 0 0 0 0 0 0 0 0 0 0 0 0 0 0 0 0 0 0 0 0 0 0 0 0 0 0 0 0 0 0 0 0 0 0 0 0 0 0 0 0 0 0 0 0 0 0 0 0 0 0 0 0 0 0 0 0 0 0 0 0 0 0 0 0 0 0 0 0 0 0 0 0 0 0 0 0 0 0 0 0 0 0 0 0 0 0 0 0 0 0 0 0 0 0 0 0 0 0 0 0 0 0 0 0 0 0 0 0 0 0 0 0 0 0 0 0 0 0 0 0 0 0 0 0 0 0 0 0 0 0 0 0 0 0 0 0 0 0 0 0 0 0 0 0 0 0 0 0 0 0 0 0 0 0 0 0 0 0 0 0 0 0 0 0 0 0 0 0 0 0 0 0.010215756483376026154 0.040863025933504104614 0.040863025933504104614 0.010215756483376026154 0 0 0 0 0 0 0 0 0 0 0 0 0 0 0 0 0 0 0 0 0 0 0 0 0 0 0 0 0 0 0 0 0 0 0 0 0 0 0 0 0 0 0 0 0 0 0 0 0 0 0 0 0 0 0 0 0 0 0 0 0 0 0 0 0 0 0 0 0 0.47503265738487243652 1.6855998039245605469 1.3280483484268188477 0.32690420746803283691 0.015323635190725326538 0 0 0 0 0 0 0 0 0 0 0 0 0 0 0 0 0 0 0 0 0 0 0 0 0 0 0 0 0 0 0 0 0 0 0 0 0 0 0 0 0 0 0 0 0 0.010215756483376026154 0.030647270381450653076 0.010215756483376026154 0 0 0 0 0 0 0 0 0 0.0025539391208440065384 0.012769696302711963654 0.035755150020122528076 0.033201210200786590576 0.007661817595362663269 0 0 0 0 0 0 0 0 0 0 0 0 0 0 0 0 0 0 0 0 0 0 0 0 0 0 0 0 0 0 0 0 0 0 0 0 0 0 
0 0 0 0 0 0 0 0 0 0 0 0 0 0 0 0 0 0 0 0 0 0 0 0 0 0 0 0 0 0 0 0 0 0 0 0 0 0 0 0 0 0 0 0 0 0 0 0 0 0 0 0 0 0 0 0 0 0 0 0 0 0 0 0 0 0 0 0 0 0 0 0 0 0 0 0 0 0 0 0 0 0 0 0 0 0 0 0 0 0 0 0 0 0 0 0 0 0 0 0 0 0 0 0 0 0 0 0 0 0 0 0 0 0 0 0 0 0 0 0 0 0 0 0 0 0 0 0 0 0 0 0 0 0 0 0 0 0 0 0 0 0 0 0 0 0 0 0 0 0 0 0 0 0 0 0 0 0 0 0 0 0 0 0 0 0 0 0 0 0 0 0 0 0 0 0 0 0 0 0 0 0 0 0 0 0 0 0 0 0 0 0 0 0 0 0 0 0 0 0 0 0 0 0 0 0 0 0 0 0 0 0 0 0 0 0 0 0 0 0 0 0 0 0 0 0 0 0 0 0 0 0 0 0 0 0 0 0 0 0 0 0 0 0 0 0 0 0 0 0 0 0 0 0 0 0 0 0 0 0 0 0 0 0 0 0 0 0 0 0 0 0 0 0 0 0 0 0 0 0 0 0 0 0 0 0 0 0 0 0 0 0 0 0.010215756483376026154 0.040863025933504104614 0.040863025933504104614 0.010215756483376026154 0 0 0 0 0 0 0 0 0 0 0 0 0 0 0 0 0 0 0 0 0 0 0 0 0 0 0 0 0 0 0 0 0 0 0 0 0 0 0 0 0 0 0 0 0 0 0 0 0 0 0 0 0 0 0 0 0 0 0 0 0 0 0 0 0 0 0 0 0 0.43416965007781982422 1.5834422111511230469 1.3025089502334594727 0.34733572602272033691 0.020431512966752052307 0 0 0 0 0 0 0 0 0 0 0 0 0 0 0 0 0 0 0 0 0 0 0 0 0 0 0 0 0 0 0 0 0 0 0 0 0 0 0 0 0 0 0 0 0 0.010215756483376026154 0.030647270381450653076 0.010215756483376026154 0 0 0 0 0 0 0 0 0 0 0.0025539391208440065384 0.015323635190725326538 0.033201210200786590576 0.010215756483376026154 0 0 0 0 0 0 0 0 0 0 0 0 0 0 0 0 0 0 0 0 0 0 0 0 0 0 0 0 0 0 0 0 0 0 0 0 0 0 
0 0 0 0 0 0 0 0 0 0 0 0 0 0 0 0 0 0 0 0 0 0 0 0 0 0 0 0 0 0 0 0 0 0 0 0 0 0 0 0 0 0 0 0 0 0 0 0 0 0 0 0 0 0 0 0 0 0 0 0 0 0 0 0 0 0 0 0 0 0 0 0 0 0 0 0 0 0 0 0 0 0 0 0 0 0 0 0 0 0 0 0 0 0 0 0 0 0 0 0 0 0 0 0 0 0 0 0 0 0 0 0 0 0 0 0 0 0 0 0 0 0 0 0 0 0 0 0 0 0 0 0 0 0 0 0 0 0 0 0 0 0 0 0 0 0 0 0 0 0 0 0 0 0 0 0 0 0 0 0 0 0 0 0 0 0 0 0 0 0 0 0 0 0 0 0 0 0 0 0 0 0 0 0 0 0 0 0 0 0 0 0 0 0 0 0 0 0 0 0 0 0 0 0 0 0 0 0 0 0 0 0 0 0 0 0 0 0 0 0 0 0 0 0 0 0 0 0 0 0 0 0 0 0 0 0 0 0 0 0 0 0 0 0 0 0 0 0 0 0 0 0 0 0 0 0 0 0 0 0 0 0 0 0 0 0 0 0 0 0 0 0 0 0 0 0 0 0 0 0 0 0 0 0 0 0 0 0 0 0 0 0 0 0.010215756483376026154 0.040863025933504104614 0.040863025933504104614 0.010215756483376026154 0 0 0 0 0 0 0 0 0 0 0 0 0 0 0 0 0 0 0 0 0 0 0 0 0 0 0 0 0 0 0 0 0 0 0 0 0 0 0 0 0 0 0 0 0 0 0 0 0 0 0 0 0 0 0 0 0 0 0 0 0 0 0 0 0 0 0 0 0 0.41373816132545471191 1.5553488731384277344 1.3586956262588500977 0.37032115459442138672 0.020431512966752052307 0 0 0 0 0 0 0 0 0 0 0 0 0 0 0 0 0 0 0 0 0 0 0 0 0 0 0 0 0 0 0 0 0 0 0 0 0 0 0 0 0 0 0 0 0 0.007661817595362663269 0.025539392605423927307 0.007661817595362663269 0 0 0 0 0 0 0 0 0 0 0 0.010215756483376026154 0.030647270381450653076 0.010215756483376026154 0 0 0 0 0 0 0 0 0 0 0 0 0 0 0 0 0 0 0 0 0 0 0 0 0 0 0 0 0 0 0 0 0 0 0 0 0 0 
0 0 0 0 0 0 0 0 0 0 0 0 0 0 0 0 0 0 0 0 0 0 0 0 0 0 0 0 0 0 0 0 0 0 0 0 0 0 0 0 0 0 0 0 0 0 0 0 0 0 0 0 0 0 0 0 0 0 0 0 0 0 0 0 0 0 0 0 0 0 0 0 0 0 0 0 0 0 0 0 0 0 0 0 0 0 0 0 0 0 0 0 0 0 0 0 0 0 0 0 0 0 0 0 0 0 0 0 0 0 0 0 0 0 0 0 0 0 0 0 0 0 0 0 0 0 0 0 0 0 0 0 0 0 0 0 0 0 0 0 0 0 0 0 0 0 0 0 0 0 0 0 0 0 0 0 0 0 0 0 0 0 0 0 0 0 0 0 0 0 0 0 0 0 0 0 0 0 0 0 0 0 0 0 0 0 0 0 0 0 0 0 0 0 0 0 0 0 0 0 0 0 0 0 0 0 0 0 0 0 0 0 0 0 0 0 0 0 0 0 0 0 0 0 0 0 0 0 0 0 0 0 0 0 0 0 0 0 0 0 0 0 0 0 0 0 0 0 0 0 0 0 0 0 0 0 0 0 0 0 0 0 0 0 0 0 0 0 0 0 0 0 0 0 0 0 0 0 0 0 0 0 0 0 0 0 0 0 0 0 0 0 0 0.010215756483376026154 0.040863025933504104614 0.040863025933504104614 0.010215756483376026154 0 0 0 0 0 0 0 0 0 0 0 0 0 0 0 0 0 0 0 0 0 0 0 0 0 0 0 0 0 0 0 0 0 0 0 0 0 0 0 0 0 0 0 0 0 0 0 0 0 0 0 0 0 0 0 0 0 0 0 0 0 0 0 0 0 0 0 0 0 0.38819873332977294922 1.5068240165710449219 1.4378677606582641602 0.39841449260711669922 0.017877575010061264038 0 0 0 0 0 0 0 0 0 0 0 0 0 0 0 0 0 0 0 0 0 0 0 0 0 0 0 0 0 0 0 0 0 0 0 0 0 0 0 0 0 0 0 0 0 0.0025539391208440065384 0.0051078782416880130768 0.0025539391208440065384 0 0 0 0 0 0 0 0 0 0 0 0.010215756483376026154 0.030647270381450653076 0.010215756483376026154 0 0 0 0 0 0 0 0 0 0 0 0 0 0 0 0 0 0 0 0 0 0 0 0 0 0 0 0 0 0 0 0 0 0 0 0 0 0 
0 0 0 0 0 0 0 0 0 0 0 0 0 0 0 0 0 0 0 0 0 0 0 0 0 0 0 0 0 0 0 0 0 0 0 0 0 0 0 0 0 0 0 0 0 0 0 0 0 0 0 0 0 0 0 0 0 0 0 0 0 0 0 0 0 0 0 0 0 0 0 0 0 0 0 0 0 0 0 0 0 0 0 0 0 0 0 0 0 0 0 0 0 0 0 0 0 0 0 0 0 0 0 0 0 0 0 0 0 0 0 0 0 0 0 0 0 0 0 0 0 0 0 0 0 0 0 0 0 0 0 0 0 0 0 0 0 0 0 0 0 0 0 0 0 0 0 0 0 0 0 0 0 0 0 0 0 0 0 0 0 0 0 0 0 0 0 0 0 0 0 0 0 0 0 0 0 0 0 0 0 0 0 0 0 0 0 0 0 0 0 0 0 0 0 0 0 0 0 0 0 0 0 0 0 0 0 0 0 0 0 0 0 0 0 0 0 0 0 0 0 0 0 0 0 0 0 0 0 0 0 0 0 0 0 0 0 0 0 0 0 0 0 0 0 0 0 0 0 0 0 0 0 0 0 0 0 0 0 0 0 0 0 0 0 0 0 0 0 0 0 0 0 0 0 0 0 0 0 0 0 0 0 0 0 0 0 0 0 0 0 0 0.0025539391208440065384 0.015323635190725326538 0.043416965752840042114 0.040863025933504104614 0.010215756483376026154 0 0 0 0 0 0 0 0 0 0 0 0 0 0 0 0 0 0 0 0 0 0 0 0 0 0 0 0 0 0 0 0 0 0 0 0 0 0 0 0 0 0 0 0 0 0 0 0 0 0 0 0 0 0 0 0 0 0 0 0 0 0 0 0 0 0 0 0 0 0.36010542511940002441 1.4455295801162719727 1.4761767387390136719 0.40352237224578857422 0.012769696302711963654 0 0 0 0 0 0 0 0 0 0 0 0 0 0 0 0 0 0 0 0 0 0 0 0 0 0 0 0 0 0 0 0 0 0 0 0 0 0 0 0 0 0 0 0 0 0 0 0 0 0 0 0 0 0 0 0 0 0 0 0.010215756483376026154 0.030647270381450653076 0.010215756483376026154 0 0 0 0 0 0 0 0 0 0 0 0 0 0 0 0 0 0 0 0 0 0 0 0 0 0 0 0 0 0 0 0 0 0 0 0 0 0 
0 0 0 0 0 0 0 0 0 0 0 0 0 0 0 0 0 0 0 0 0 0 0 0 0 0 0 0 0 0 0 0 0 0 0 0 0 0 0 0 0 0 0 0 0 0 0 0 0 0 0 0 0 0 0 0 0 0 0 0 0 0 0 0 0 0 0 0 0 0 0 0 0 0 0 0 0 0 0 0 0 0 0 0 0 0 0 0 0 0 0 0 0 0 0 0 0 0 0 0 0 0 0 0 0 0 0 0 0 0 0 0 0 0 0 0 0 0 0 0 0 0 0 0 0 0 0 0 0 0 0 0 0 0 0 0 0 0 0 0 0 0 0 0 0 0 0 0 0 0 0 0 0 0 0 0 0 0 0 0 0 0 0 0 0 0 0 0 0 0 0 0 0 0 0 0 0 0 0 0 0 0 0 0 0 0 0 0 0 0 0 0 0 0 0 0 0 0 0 0 0 0 0 0 0 0 0 0 0 0 0 0 0 0 0 0 0 0 0 0 0 0 0 0 0 0 0 0 0 0 0 0 0 0 0 0 0 0 0 0 0 0 0 0 0 0 0 0 0 0 0 0 0 0 0 0 0 0 0 0 0 0 0 0 0 0 0 0 0 0 0 0 0 0 0 0 0 0 0 0 0 0 0 0 0 0 0 0 0 0 0 0.0025539391208440065384 0.012769696302711963654 0.035755150020122528076 0.043416965752840042114 0.038309089839458465576 0.010215756483376026154 0 0 0 0 0 0 0 0 0 0 0 0 0 0 0 0 0 0 0 0 0 0 0 0 0 0 0 0 0 0 0 0 0 0 0 0 0 0 0 0 0 0 0 0 0 0 0 0 0 0 0 0 0 0 0 0 0 0 0 0 0 0 0 0 0 0 0 0 0 0.33711996674537658691 1.3995586633682250977 1.5195937156677246094 0.43416965007781982422 0.017877575010061264038 0 0 0 0 0 0 0 0 0 0 0 0 0 0 0 0 0 0 0 0 0 0 0 0 0 0 0 0 0 0 0 0 0 0 0 0 0 0 0 0 0 0 0 0 0 0 0 0 0 0 0 0 0 0 0 0 0 0 0 0.010215756483376026154 0.030647270381450653076 0.010215756483376026154 0 0 0 0 0 0 0 0 0 0 0 0 0 0 0 0 0 0 0 0 0 0 0 0 0 0 0 0 0 0 0 0 0 0 0 0 0 0 
0 0 0 0 0 0 0 0 0 0 0 0 0 0 0 0 0 0 0 0 0 0 0 0 0 0 0 0 0 0 0 0 0 0 0 0 0 0 0 0 0 0 0 0 0 0 0 0 0 0 0 0 0 0 0 0 0 0 0 0 0 0 0 0 0 0 0 0 0 0 0 0 0 0 0 0 0 0 0 0 0 0 0 0 0 0 0 0 0 0 0 0 0 0 0 0 0 0 0 0 0 0 0 0 0 0 0 0 0 0 0 0 0 0 0 0 0 0 0 0 0 0 0 0 0 0 0 0 0 0 0 0 0 0 0 0 0 0 0 0 0 0 0 0 0 0 0 0 0 0 0 0 0 0 0 0 0 0 0 0 0 0 0 0 0 0 0 0 0 0 0 0 0 0 0 0 0 0 0 0 0 0 0 0 0 0 0 0 0 0 0 0 0 0 0 0 0 0 0 0 0 0 0 0 0 0 0 0 0 0 0 0 0 0 0 0 0 0 0 0 0 0 0 0 0 0 0 0 0 0 0 0 0 0 0 0 0 0 0 0 0 0 0 0 0 0 0 0 0 0 0 0 0 0 0 0 0 0 0 0 0 0 0 0 0 0 0 0 0 0 0 0 0 0 0 0 0 0 0 0 0 0 0 0 0 0 0 0 0 0 0 0.007661817595362663269 0.035755150020122528076 0.043416965752840042114 0.030647270381450653076 0.035755150020122528076 0.010215756483376026154 0 0 0 0 0 0 0 0 0 0 0 0 0 0 0 0 0 0 0 0 0 0 0 0 0 0 0 0 0 0 0 0 0 0 0 0 0 0 0 0 0 0 0 0 0 0 0 0 0 0 0 0 0 0 0 0 0 0 0 0 0 0 0 0 0 0 0 0 0 0.31668844819068908691 1.3689113855361938477 1.6294131278991699219 0.59251385927200317383 0.066402420401573181152 0 0 0 0 0 0 0 0 0 0 0 0 0 0 0 0 0 0 0 0 0 0 0 0 0 0 0 0 0 0 0 0 0 0 0 0 0 0 0 0 0 0 0 0 0 0 0 0 0 0 0 0 0 0 0 0 0 0 0 0.010215756483376026154 0.030647270381450653076 0.010215756483376026154 0 0 0 0 0 0 0 0 0 0 0 0 0 0 0 0 0 0 0 0 0 0 0 0 0 0 0 0 0 0 0 0 0 0 0 0 0 0 
0 0 0 0 0 0 0 0 0 0 0 0 0 0 0 0 0 0 0 0 0 0 0 0 0 0 0 0 0 0 0 0 0 0 0 0 0 0 0 0 0 0 0 0 0 0 0 0 0 0 0 0 0 0 0 0 0 0 0 0 0 0 0 0 0 0 0 0 0 0 0 0 0 0 0 0 0 0 0 0 0 0 0 0 0 0 0 0 0 0 0 0 0 0 0 0 0 0 0 0 0 0 0 0 0 0 0 0 0 0 0 0 0 0 0 0 0 0 0 0 0 0 0 0 0 0 0 0 0 0 0 0 0 0 0 0 0 0 0 0 0 0 0 0 0 0 0 0 0 0 0 0 0 0 0 0 0 0 0 0 0 0 0 0 0 0 0 0 0 0 0 0 0 0 0 0 0 0 0 0 0 0 0 0 0 0 0 0 0 0 0 0 0 0 0 0 0 0 0 0 0 0 0 0 0 0 0 0 0 0 0 0 0 0 0 0 0 0 0 0 0 0 0 0 0 0 0 0 0 0 0 0 0 0 0 0 0 0 0 0 0 0 0 0 0 0 0 0 0 0 0 0 0 0 0 0 0 0 0 0 0 0 0 0 0 0 0 0 0 0 0 0 0 0 0 0 0 0 0 0 0 0 0 0 0 0 0 0 0 0 0 0.010215756483376026154 0.040863025933504104614 0.045970901846885681152 0.038309089839458465576 0.030647270381450653076 0.007661817595362663269 0 0 0 0 0 0 0 0 0 0 0 0 0 0 0 0 0 0 0 0 0 0 0 0 0 0 0 0 0 0 0 0 0 0 0 0 0 0 0 0 0 0 0 0 0 0 0 0 0 0 0 0 0 0 0 0 0 0 0 0 0 0 0 0 0 0 0 0 0 0.27837935090065002441 1.2948471307754516602 1.8081890344619750977 0.98582053184509277344 0.21197694540023803711 0.017877573147416114807 0 0 0 0 0 0 0 0 0 0 0 0 0 0 0 0 0 0 0 0 0 0 0 0 0 0 0 0 0 0 0 0 0 0 0 0 0 0 0 0 0 0 0 0 0 0 0 0 0 0 0 0 0 0 0 0 0 0 0.010215756483376026154 0.030647270381450653076 0.010215756483376026154 0 0 0 0 0 0 0 0 0 0 0 0 0 0 0 0 0 0 0 0 0 0 0 0 0 0 0 0 0 0 0 0 0 0 0 0 0 0 
0 0 0 0 0 0 0 0 0 0 0 0 0 0 0 0 0 0 0 0 0 0 0 0 0 0 0 0 0 0 0 0 0 0 0 0 0 0 0 0 0 0 0 0 0 0 0 0 0 0 0 0 0 0 0 0 0 0 0 0 0 0 0 0 0 0 0 0 0 0 0 0 0 0 0 0 0 0 0 0 0 0 0 0 0 0 0 0 0 0 0 0 0 0 0 0 0 0 0 0 0 0 0 0 0 0 0 0 0 0 0 0 0 0 0 0 0 0 0 0 0 0 0 0 0 0 0 0 0 0 0 0 0 0 0 0 0 0 0 0 0 0 0 0 0 0 0 0 0 0 0 0 0 0 0 0 0 0 0 0 0 0 0 0 0 0 0 0 0 0 0 0 0 0 0 0 0 0 0 0 0 0 0 0 0 0 0 0 0 0 0 0 0 0 0 0 0 0 0 0 0 0 0 0 0 0 0 0 0 0 0 0 0 0 0 0 0 0 0 0 0 0 0 0 0 0 0 0 0 0 0 0 0 0 0 0 0 0 0 0 0 0 0 0 0 0 0 0 0 0 0 0 0 0 0 0 0 0 0 0 0 0 0 0 0 0 0 0 0 0 0 0 0 0 0 0 0 0 0 0 0 0 0 0 0 0 0 0 0 0 0.0051078782416880130768 0.022985450923442840576 0.051078785210847854614 0.045970901846885681152 0.017877575010061264038 0.007661817595362663269 0.0025539391208440065384 0 0 0 0 0 0 0 0 0 0 0 0 0 0 0 0 0 0 0 0 0 0 0 0 0 0 0 0 0 0 0 0 0 0 0 0 0 0 0 0 0 0 0 0 0 0 0 0 0 0 0 0 0 0 0 0 0 0 0 0 0 0 0 0 0 0 0 0 0 0.20686906576156616211 1.0266835689544677734 1.7417864799499511719 1.4199901819229125977 0.57719022035598754883 0.1251430213451385498 0.017877573147416114807 0.0025539391208440065384 0 0 0 0 0 0 0 0 0 0 0 0 0 0 0 0 0 0 0 0 0 0 0 0 0 0 0 0 0 0 0 0 0 0 0 0 0 0 0 0 0 0 0 0 0 0 0 0 0 0 0 0 0 0 0 0 0.010215756483376026154 0.030647270381450653076 0.010215756483376026154 0 0 0 0 0 0 0 0 0 0 0 0 0 0 0 0 0 0 0 0 0 0 0 0 0 0 0 0 0 0 0 0 0 0 0 0 0 0 
0 0 0 0 0 0 0 0 0 0 0 0 0 0 0 0 0 0 0 0 0 0 0 0 0 0 0 0 0 0 0 0 0 0 0 0 0 0 0 0 0 0 0 0 0 0 0 0 0 0 0 0 0 0 0 0 0 0 0 0 0 0 0 0 0 0 0 0 0 0 0 0 0 0 0 0 0 0 0 0 0 0 0 0 0 0 0 0 0 0 0 0 0 0 0 0 0 0 0 0 0 0 0 0 0 0 0 0 0 0 0 0 0 0 0 0 0 0 0 0 0 0 0 0 0 0 0 0 0 0 0 0 0 0 0 0 0 0 0 0 0 0 0 0 0 0 0 0 0 0 0 0 0 0 0 0 0 0 0 0 0 0 0 0 0 0 0 0 0 0 0 0 0 0 0 0 0 0 0 0 0 0 0 0 0 0 0 0 0 0 0 0 0 0 0 0 0 0 0 0 0 0 0 0 0 0 0 0 0 0 0 0 0 0 0 0 0 0 0 0 0 0 0 0 0 0 0 0 0 0 0 0 0 0 0 0 0 0 0 0 0 0 0 0 0 0 0 0 0 0 0 0 0 0 0 0 0 0 0 0 0 0 0 0 0 0 0 0 0 0 0 0 0 0 0 0 0 0 0 0 0 0 0 0 0 0 0 0 0 0.0051078782416880130768 0.025539392605423927307 0.068956352770328521729 0.068956352770328521729 0.038309089839458465576 0.007661817595362663269 0 0 0 0 0 0 0 0 0 0 0 0 0 0 0 0 0 0 0 0 0 0 0 0 0 0 0 0 0 0 0 0 0 0 0 0 0 0 0 0 0 0 0 0 0 0 0 0 0 0 0 0 0 0 0 0 0 0 0 0 0 0 0 0 0 0 0 0 0 0 0 0.1302509009838104248 0.69977933168411254883 1.4327598810195922852 1.6243052482604980469 1.1390568017959594727 0.47503265738487243652 0.14557452499866485596 0.030647270381450653076 0.0025539391208440065384 0 0 0 0 0 0 0 0 0 0 0 0 0 0 0 0 0 0 0 0 0 0 0 0 0 0 0 0 0 0 0 0 0 0 0 0 0 0 0 0 0 0 0 0 0 0 0 0 0 0 0 0 0 0 0 0.010215756483376026154 0.030647270381450653076 0.010215756483376026154 0 0 0 0 0 0 0 0 0 0 0 0 0 0 0 0 0 0 0 0 0 0 0 0 0 0 0 0 0 0 0 0 0 0 0 0 0 0 
0 0 0 0 0 0 0 0 0 0 0 0 0 0 0 0 0 0 0 0 0 0 0 0 0 0 0 0 0 0 0 0 0 0 0 0 0 0 0 0 0 0 0 0 0 0 0 0 0 0 0 0 0 0 0 0 0 0 0 0 0 0 0 0 0 0 0 0 0 0 0 0 0 0 0 0 0 0 0 0 0 0 0 0 0 0 0 0 0 0 0 0 0 0 0 0 0 0 0 0 0 0 0 0 0 0 0 0 0 0 0 0 0 0 0 0 0 0 0 0 0 0 0 0 0 0 0 0 0 0 0 0 0 0 0 0 0 0 0 0 0 0 0 0 0 0 0 0 0 0 0 0 0 0 0 0 0 0 0 0 0 0 0 0 0 0 0 0 0 0 0 0 0 0 0 0 0 0 0 0 0 0 0 0 0 0 0 0 0 0 0 0 0 0 0 0 0 0 0 0 0 0 0 0 0 0 0 0 0 0 0 0 0 0 0 0 0 0 0 0 0 0 0 0 0 0 0 0 0 0 0 0 0 0 0 0 0 0 0 0 0 0 0 0 0 0 0 0 0 0 0 0 0 0 0 0 0 0 0 0 0 0 0 0 0 0 0 0 0 0 0 0 0 0 0 0 0 0 0 0 0 0 0 0 0 0 0 0 0.0051078782416880130768 0.025539392605423927307 0.071510300040245056152 0.071510300040245056152 0.028093332424759864807 0.010215756483376026154 0.0025539391208440065384 0 0 0 0 0 0 0 0 0 0 0 0 0 0 0 0 0 0 0 0 0 0 0 0 0 0 0 0 0 0 0 0 0 0 0 0 0 0 0 0 0 0 0 0 0 0 0 0 0 0 0 0 0 0 0 0 0 0 0 0 0 0 0 0 0 0 0 0 0 0 0 0.081726051867008209229 0.45204722881317138672 0.98326653242111206055 1.3586956262588500977 1.4787306785583496094 1.0113599300384521484 0.46481692790985107422 0.1302509009838104248 0.015323635190725326538 0 0 0 0 0 0 0 0 0 0 0 0 0 0 0 0 0 0 0 0 0 0 0 0 0 0 0 0 0 0 0 0 0 0 0 0 0 0 0 0 0 0 0 0 0 0 0 0 0 0 0 0 0 0 0 0.010215756483376026154 0.030647270381450653076 0.010215756483376026154 0 0 0 0 0 0 0 0 0 0 0 0 0 0 0 0 0 0 0 0 0 0 0 0 0 0 0 0 0 0 0 0 0 0 0 0 0 0 
0 0 0 0 0 0 0 0 0 0 0 0 0 0 0 0 0 0 0 0 0 0 0 0 0 0 0 0 0 0 0 0 0 0 0 0 0 0 0 0 0 0 0 0 0 0 0 0 0 0 0 0 0 0 0 0 0 0 0 0 0 0 0 0 0 0 0 0 0 0 0 0 0 0 0 0 0 0 0 0 0 0 0 0 0 0 0 0 0 0 0 0 0 0 0 0 0 0 0 0 0 0 0 0 0 0 0 0 0 0 0 0 0 0 0 0 0 0 0 0 0 0 0 0 0 0 0 0 0 0 0 0 0 0 0 0 0 0 0 0 0 0 0 0 0 0 0 0 0 0 0 0 0 0 0 0 0 0 0 0 0 0 0 0 0 0 0 0 0 0 0 0 0 0 0 0 0 0 0 0 0 0 0 0 0 0 0 0 0 0 0 0 0 0 0 0 0 0 0 0 0 0 0 0 0 0 0 0 0 0 0 0 0 0 0 0 0 0 0 0 0 0 0 0 0 0 0 0 0 0 0 0 0 0 0 0 0 0 0 0 0 0 0 0 0 0 0 0 0 0 0 0 0 0 0 0 0 0 0 0 0 0 0 0 0 0 0 0 0 0 0 0 0 0 0 0 0 0 0 0 0 0 0 0 0 0 0.0025539391208440065384 0.010215756483376026154 0.028093332424759864807 0.071510300040245056152 0.071510300040245056152 0.025539392605423927307 0.0051078782416880130768 0 0 0 0 0 0 0 0 0 0 0 0 0 0 0 0 0 0 0 0 0 0 0 0 0 0 0 0 0 0 0 0 0 0 0 0 0 0 0 0 0 0 0 0 0 0 0 0 0 0 0 0 0 0 0 0 0 0 0 0 0 0 0 0 0 0 0 0 0 0 0 0 0 0.058740600943565368652 0.32690420746803283691 0.67934781312942504883 0.92963385581970214844 1.2693078517913818359 1.2207829952239990234 0.84279990196228027344 0.32690420746803283691 0.061294540762901306152 0.0051078782416880130768 0 0 0 0 0 0 0 0 0 0 0 0 0 0 0 0 0 0 0 0 0 0 0 0 0 0 0 0 0 0 0 0 0 0 0 0 0 0 0 0 0 0 0 0 0 0 0 0 0 0 0 0 0 0 0.010215756483376026154 0.030647270381450653076 0.010215756483376026154 0 0 0 0 0 0 0 0 0 0 0 0 0 0 0 0 0 0 0 0 0 0 0 0 0 0 0 0 0 0 0 0 0 0 0 0 0 0 
0 0 0 0 0 0 0 0 0 0 0 0 0 0 0 0 0 0 0 0 0 0 0 0 0 0 0 0 0 0 0 0 0 0 0 0 0 0 0 0 0 0 0 0 0 0 0 0 0 0 0 0 0 0 0 0 0 0 0 0 0 0 0 0 0 0 0 0 0 0 0 0 0 0 0 0 0 0 0 0 0 0 0 0 0 0 0 0 0 0 0 0 0 0 0 0 0 0 0 0 0 0 0 0 0 0 0 0 0 0 0 0 0 0 0 0 0 0 0 0 0 0 0 0 0 0 0 0 0 0 0 0 0 0 0 0 0 0 0 0 0 0 0 0 0 0 0 0 0 0 0 0 0 0 0 0 0 0 0 0 0 0 0 0 0 0 0 0 0 0 0 0 0 0 0 0 0 0 0 0 0 0 0 0 0 0 0 0 0 0 0 0 0 0 0 0 0 0 0 0 0 0 0 0 0 0 0 0 0 0 0 0 0 0 0 0 0 0 0 0 0 0 0 0 0 0 0 0 0 0 0 0 0 0 0 0 0 0 0 0 0 0 0 0 0 0 0 0 0 0 0 0 0 0 0 0 0 0 0 0 0 0 0 0 0 0 0 0 0 0 0 0 0 0 0 0 0 0 0 0 0 0 0 0 0 0 0.010215756483376026154 0.043416965752840042114 0.071510300040245056152 0.068956352770328521729 0.025539392605423927307 0.0051078782416880130768 0 0 0 0 0 0 0 0 0 0 0 0 0 0 0 0 0 0 0 0 0 0 0 0 0 0 0 0 0 0 0 0 0 0 0 0 0 0 0 0 0 0 0 0 0 0 0 0 0 0 0 0 0 0 0 0 0 0 0 0 0 0 0 0 0 0 0 0 0 0 0 0 0 0 0.045970909297466278076 0.23240847885608673096 0.44438540935516357422 0.61805325746536254883 0.97305077314376831055 1.2080132961273193359 1.1313949823379516602 0.65380841493606567383 0.23496240377426147461 0.051078785210847854614 0.0051078782416880130768 0 0 0 0 0 0 0 0 0 0 0 0 0 0 0 0 0 0 0 0 0 0 0 0 0 0 0 0 0 0 0 0 0 0 0 0 0 0 0 0 0 0 0 0 0 0 0 0 0 0 0 0 0 0.010215756483376026154 0.030647270381450653076 0.010215756483376026154 0 0 0 0 0 0 0 0 0 0 0 0 0 0 0 0 0 0 0 0 0 0 0 0 0 0 0 0 0 0 0 0 0 0 0 0 0 0 
0 0 0 0 0 0 0 0 0 0 0 0 0 0 0 0 0 0 0 0 0 0 0 0 0 0 0 0 0 0 0 0 0 0 0 0 0 0 0 0 0 0 0 0 0 0 0 0 0 0 0 0 0 0 0 0 0 0 0 0 0 0 0 0 0 0 0 0 0 0 0 0 0 0 0 0 0 0 0 0 0 0 0 0 0 0 0 0 0 0 0 0 0 0 0 0 0 0 0 0 0 0 0 0 0 0 0 0 0 0 0 0 0 0 0 0 0 0 0 0 0 0 0 0 0 0 0 0 0 0 0 0 0 0 0 0 0 0 0 0 0 0 0 0 0 0 0 0 0 0 0 0 0 0 0 0 0 0 0 0 0 0 0 0 0 0 0 0 0 0 0 0 0 0 0 0 0 0 0 0 0 0 0 0 0 0 0 0 0 0 0 0 0 0 0 0 0 0 0 0 0 0 0 0 0 0 0 0 0 0 0 0 0 0 0 0 0 0 0 0 0 0 0 0 0 0 0 0 0 0 0 0 0 0 0 0 0 0 0 0 0 0 0 0 0 0 0 0 0 0 0 0 0 0 0 0 0 0 0 0 0 0 0 0 0 0 0 0 0 0 0 0 0 0 0 0 0 0 0 0 0 0 0 0 0 0 0.017877575010061264038 0.066402420401573181152 0.053632721304893493652 0.020431512966752052307 0.0051078782416880130768 0 0 0 0 0 0 0 0 0 0 0 0 0 0 0 0 0 0 0 0 0 0 0 0 0 0 0 0 0 0 0 0 0 0 0 0 0 0 0 0 0 0 0 0 0 0 0 0 0 0 0 0 0 0 0 0 0 0 0 0 0 0 0 0 0 0 0 0 0 0 0 0 0 0 0 0.040863025933504104614 0.18899150192737579346 0.31413453817367553711 0.42139995098114013672 0.64359259605407714844 1.0011440515518188477 1.1875817775726318359 1.0317914485931396484 0.57974421977996826172 0.17622180283069610596 0.022985450923442840576 0 0 0 0 0 0 0 0 0 0 0 0 0 0 0 0 0 0 0 0 0 0 0 0 0 0 0 0 0 0 0 0 0 0 0 0 0 0 0 0 0 0 0 0 0 0 0 0 0 0 0 0 0 0.010215756483376026154 0.030647270381450653076 0.010215756483376026154 0 0 0 0 0 0 0 0 0 0 0 0 0 0 0 0 0 0 0 0 0 0 0 0 0 0 0 0 0 0 0 0 0 0 0 0 0 0 
0 0 0 0 0 0 0 0 0 0 0 0 0 0 0 0 0 0 0 0 0 0 0 0 0 0 0 0 0 0 0 0 0 0 0 0 0 0 0 0 0 0 0 0 0 0 0 0 0 0 0 0 0 0 0 0 0 0 0 0 0 0 0 0 0 0 0 0 0 0 0 0 0 0 0 0 0 0 0 0 0 0 0 0 0 0 0 0 0 0 0 0 0 0 0 0 0 0 0 0 0 0 0 0 0 0 0 0 0 0 0 0 0 0 0 0 0 0 0 0 0 0 0 0 0 0 0 0 0 0 0 0 0 0 0 0 0 0 0 0 0 0 0 0 0 0 0 0 0 0 0 0 0 0 0 0 0 0 0 0 0 0 0 0 0 0 0 0 0 0 0 0 0 0 0 0 0 0 0 0 0 0 0 0 0 0 0 0 0 0 0 0 0 0 0 0 0 0 0 0 0 0 0 0 0 0 0 0 0 0 0 0 0 0 0 0 0 0 0 0 0 0 0 0 0 0 0 0 0 0 0 0 0 0 0 0 0 0 0 0 0 0 0 0 0 0 0 0 0 0 0 0 0 0 0 0 0 0 0 0 0 0 0 0 0 0 0 0 0 0 0 0 0 0 0 0 0 0 0 0 0 0 0 0 0 0.0025539391208440065384 0.025539392605423927307 0.066402420401573181152 0.025539392605423927307 0.0025539391208440065384 0 0 0 0 0 0 0 0 0 0 0 0 0 0 0 0 0 0 0 0 0 0 0 0 0 0 0 0 0 0 0 0 0 0 0 0 0 0 0 0 0 0 0 0 0 0 0 0 0 0 0 0 0 0 0 0 0 0 0 0 0 0 0 0 0 0 0 0 0 0 0 0 0 0 0 0.0025539391208440065384 0.045970901846885681152 0.17622180283069610596 0.25794786214828491211 0.32945814728736877441 0.46992477774620056152 0.78661322593688964844 1.0241296291351318359 1.1748120784759521484 0.91941809654235839844 0.44949328899383544922 0.1302509009838104248 0.022985450923442840576 0.0025539391208440065384 0 0 0 0 0 0 0 0 0 0 0 0 0 0 0 0 0 0 0 0 0 0 0 0 0 0 0 0 0 0 0 0 0 0 0 0 0 0 0 0 0 0 0 0 0 0 0 0 0 0 0 0.010215756483376026154 0.030647270381450653076 0.010215756483376026154 0 0 0 0 0 0 0 0 0 0 0 0 0 0 0 0 0 0 0 0 0 0 0 0 0 0 0 0 0 0 0 0 0 0 0 0 0 0 
0 0 0 0 0 0 0 0 0 0 0 0 0 0 0 0 0 0 0 0 0 0 0 0 0 0 0 0 0 0 0 0 0 0 0 0 0 0 0 0 0 0 0 0 0 0 0 0 0 0 0 0 0 0 0 0 0 0 0 0 0 0 0 0 0 0 0 0 0 0 0 0 0 0 0 0 0 0 0 0 0 0 0 0 0 0 0 0 0 0 0 0 0 0 0 0 0 0 0 0 0 0 0 0 0 0 0 0 0 0 0 0 0 0 0 0 0 0 0 0 0 0 0 0 0 0 0 0 0 0 0 0 0 0 0 0 0 0 0 0 0 0 0 0 0 0 0 0 0 0 0 0 0 0 0 0 0 0 0 0 0 0 0 0 0 0 0 0 0 0 0 0 0 0 0 0 0 0 0 0 0 0 0 0 0 0 0 0 0 0 0 0 0 0 0 0 0 0 0 0 0 0 0 0 0 0 0 0 0 0 0 0 0 0 0 0 0 0 0 0 0 0 0 0 0 0 0 0 0 0 0 0 0 0 0 0 0 0 0 0 0 0 0 0 0 0 0 0 0 0 0 0 0 0 0 0 0 0 0 0 0 0 0 0 0 0 0 0 0 0 0 0 0 0 0 0 0 0 0 0 0 0 0 0 0 0.007661817595362663269 0.043416965752840042114 0.063848480582237243652 0.017877575010061264038 0 0 0 0 0 0 0 0 0 0 0 0 0 0 0 0 0 0 0 0 0 0 0 0 0 0 0 0 0 0 0 0 0 0 0 0 0 0 0 0 0 0 0 0 0 0 0 0 0 0 0 0 0 0 0 0 0 0 0 0 0 0 0 0 0 0 0 0 0 0 0 0 0 0 0 0.0025539391208440065384 0.020431512966752052307 0.086833931505680084229 0.18899148702621459961 0.22219270467758178711 0.23240846395492553711 0.31668844819068908691 0.53121936321258544922 0.78916716575622558594 1.1671501398086547852 1.2744154930114746094 0.99603629112243652344 0.47247871756553649902 0.14557452499866485596 0.028093330562114715576 0.0025539391208440065384 0 0 0 0 0 0 0 0 0 0 0 0 0 0 0 0 0 0 0 0 0 0 0 0 0 0 0 0 0 0 0 0 0 0 0 0 0 0 0 0 0 0 0 0 0 0 0 0 0 0 0.010215756483376026154 0.030647270381450653076 0.010215756483376026154 0 0 0 0 0 0 0 0 0 0 0 0 0 0 0 0 0 0 0 0 0 0 0 0 0 0 0 0 0 0 0 0 0 0 0 0 0 0 
0 0 0 0 0 0 0 0 0 0 0 0 0 0 0 0 0 0 0 0 0 0 0 0 0 0 0 0 0 0 0 0 0 0 0 0 0 0 0 0 0 0 0 0 0 0 0 0 0 0 0 0 0 0 0 0 0 0 0 0 0 0 0 0 0 0 0 0 0 0 0 0 0 0 0 0 0 0 0 0 0 0 0 0 0 0 0 0 0 0 0 0 0 0 0 0 0 0 0 0 0 0 0 0 0 0 0 0 0 0 0 0 0 0 0 0 0 0 0 0 0 0 0 0 0 0 0 0 0 0 0 0 0 0 0 0 0 0 0 0 0 0 0 0 0 0 0 0 0 0 0 0 0 0 0 0 0 0 0 0 0 0 0 0 0 0 0 0 0 0 0 0 0 0 0 0 0 0 0 0 0 0 0 0 0 0 0 0 0 0 0 0 0 0 0 0 0 0 0 0 0 0 0 0 0 0 0 0 0 0 0 0 0 0 0 0 0 0 0 0 0 0 0 0 0 0 0 0 0 0 0 0 0 0 0 0 0 0 0 0 0 0 0 0 0 0 0 0 0 0 0 0 0 0 0 0 0 0 0 0 0 0 0 0 0 0 0 0 0 0 0 0 0 0 0 0 0 0 0 0 0 0 0 0 0 0.010215756483376026154 0.043416965752840042114 0.045970901846885681152 0.012769696302711963654 0 0 0 0 0 0 0 0 0 0 0 0 0 0 0 0 0 0 0 0 0 0 0 0 0 0 0 0 0 0 0 0 0 0 0 0 0 0 0 0 0 0 0 0 0 0 0 0 0 0 0 0 0 0 0 0 0 0 0 0 0 0 0 0 0 0 0 0 0 0 0 0 0 0 0.0051078782416880130768 0.020431512966752052307 0.071510292589664459229 0.16600604355335235596 0.21963876485824584961 0.21963876485824584961 0.17622180283069610596 0.19409938156604766846 0.29370298981666564941 0.44438540935516357422 0.75596594810485839844 1.0547769069671630859 1.1697040796279907227 0.90409445762634277344 0.46737083792686462402 0.18643754720687866211 0.063848480582237243652 0.012769695371389389038 0 0 0 0 0 0 0 0 0 0 0 0 0 0 0 0 0 0 0 0 0 0 0 0 0 0 0 0 0 0 0 0 0 0 0 0 0 0 0 0 0 0 0 0 0 0 0 0 0 0.010215756483376026154 0.030647270381450653076 0.010215756483376026154 0 0 0 0 0 0 0 0 0 0 0 0 0 0 0 0 0 0 0 0 0 0 0 0 0 0 0 0 0 0 0 0 0 0 0 0 0 0 
0 0 0 0 0 0 0 0 0 0 0 0 0 0 0 0 0 0 0 0 0 0 0 0 0 0 0 0 0 0 0 0 0 0 0 0 0 0 0 0 0 0 0 0 0 0 0 0 0 0 0 0 0 0 0 0 0 0 0 0 0 0 0 0 0 0 0 0 0 0 0 0 0 0 0 0 0 0 0 0 0 0 0 0 0 0 0 0 0 0 0 0 0 0 0 0 0 0 0 0 0 0 0 0 0 0 0 0 0 0 0 0 0 0 0 0 0 0 0 0 0 0 0 0 0 0 0 0 0 0 0 0 0 0 0 0 0 0 0 0 0 0 0 0 0 0 0 0 0 0 0 0 0 0 0 0 0 0 0 0 0 0 0 0 0 0 0 0 0 0 0 0 0 0 0 0 0 0 0 0 0 0 0 0 0 0 0 0 0 0 0 0 0 0 0 0 0 0 0 0 0 0 0 0 0 0 0 0 0 0 0 0 0 0 0 0 0 0 0 0 0 0 0 0 0 0 0 0 0 0 0 0 0 0 0 0 0 0 0 0 0 0 0 0 0 0 0 0 0 0 0 0 0 0 0 0 0 0 0 0 0 0 0 0 0 0 0 0 0 0 0 0 0 0 0 0 0 0 0 0 0 0 0 0 0 0.010215756483376026154 0.043416965752840042114 0.045970901846885681152 0.012769696302711963654 0 0 0 0 0 0 0 0 0 0 0 0 0 0 0 0 0 0 0 0 0 0 0 0 0 0 0 0 0 0 0 0 0 0 0 0 0 0 0 0 0 0 0 0 0 0 0 0 0 0 0 0 0 0 0 0 0 0 0 0 0 0 0 0 0 0 0 0 0 0 0 0 0 0 0.015323635190725326538 0.068956352770328521729 0.1174812018871307373 0.19409936666488647461 0.18643754720687866211 0.18899148702621459961 0.1506824195384979248 0.1276969611644744873 0.19154542684555053711 0.27071753144264221191 0.39586055278778076172 0.68190175294876098633 0.92707991600036621094 1.0496690273284912109 0.85046172142028808594 0.56697446107864379883 0.26305574178695678711 0.05363271757960319519 0.0025539391208440065384 0 0 0 0 0 0 0 0 0 0 0 0 0 0 0 0 0 0 0 0 0 0 0 0 0 0 0 0 0 0 0 0 0 0 0 0 0 0 0 0 0 0 0 0 0 0 0 0 0.010215756483376026154 0.030647270381450653076 0.010215756483376026154 0 0 0 0 0 0 0 0 0 0 0 0 0 0 0 0 0 0 0 0 0 0 0 0 0 0 0 0 0 0 0 0 0 0 0 0 0 0 
0 0 0 0 0 0 0 0 0 0 0 0 0 0 0 0 0 0 0 0 0 0 0 0 0 0 0 0 0 0 0 0 0 0 0 0 0 0 0 0 0 0 0 0 0 0 0 0 0 0 0 0 0 0 0 0 0 0 0 0 0 0 0 0 0 0 0 0 0 0 0 0 0 0 0 0 0 0 0 0 0 0 0 0 0 0 0 0 0 0 0 0 0 0 0 0 0 0 0 0 0 0 0 0 0 0 0 0 0 0 0 0 0 0 0 0 0 0 0 0 0 0 0 0 0 0 0 0 0 0 0 0 0 0 0 0 0 0 0 0 0 0 0 0 0 0 0 0 0 0 0 0 0 0 0 0 0 0 0 0 0 0 0 0 0 0 0 0 0 0 0 0 0 0 0 0 0 0 0 0 0 0 0 0 0 0 0 0 0 0 0 0 0 0 0 0 0 0 0 0 0 0 0 0 0 0 0 0 0 0 0 0 0 0 0 0 0 0 0 0 0 0 0 0 0 0 0 0 0 0 0 0 0 0 0 0 0 0 0 0 0 0 0 0 0 0 0 0 0 0 0 0 0 0 0 0 0 0 0 0 0 0 0 0 0 0 0 0 0 0 0 0 0 0 0 0 0 0 0 0 0 0 0 0 0 0.007661817595362663269 0.043416965752840042114 0.063848480582237243652 0.017877575010061264038 0 0 0 0 0 0 0 0 0 0 0 0 0 0 0 0 0 0 0 0 0 0 0 0 0 0 0 0 0 0 0 0 0 0 0 0 0 0 0 0 0 0 0 0 0 0 0 0 0 0 0 0 0 0 0 0 0 0 0 0 0 0 0 0 0 0 0 0 0 0 0 0 0 0 0.020431512966752052307 0.084279991686344146729 0.1276969611644744873 0.17111392319202423096 0.1506824195384979248 0.16345210373401641846 0.11237332969903945923 0.081726051867008209229 0.1302509009838104248 0.21708482503890991211 0.28859511017799377441 0.44949328899383544922 0.61549931764602661133 0.80449086427688598633 0.87089323997497558594 0.77895140647888183594 0.45460116863250732422 0.1251430213451385498 0.012769696302711963654 0 0 0 0 0 0 0 0 0 0 0 0 0 0 0 0 0 0 0 0 0 0 0 0 0 0 0 0 0 0 0 0 0 0 0 0 0 0 0 0 0 0 0 0 0 0 0 0 0.010215756483376026154 0.030647270381450653076 0.010215756483376026154 0 0 0 0 0 0 0 0 0 0 0 0 0 0 0 0 0 0 0 0 0 0 0 0 0 0 0 0 0 0 0 0 0 0 0 0 0 0 
0 0 0 0 0 0 0 0 0 0 0 0 0 0 0 0 0 0 0 0 0 0 0 0 0 0 0 0 0 0 0 0 0 0 0 0 0 0 0 0 0 0 0 0 0 0 0 0 0 0 0 0 0 0 0 0 0 0 0 0 0 0 0 0 0 0 0 0 0 0 0 0 0 0 0 0 0 0 0 0 0 0 0 0 0 0 0 0 0 0 0 0 0 0 0 0 0 0 0 0 0 0 0 0 0 0 0 0 0 0 0 0 0 0 0 0 0 0 0 0 0 0 0 0 0 0 0 0 0 0 0 0 0 0 0 0 0 0 0 0 0 0 0 0 0 0 0 0 0 0 0 0 0 0 0 0 0 0 0 0 0 0 0 0 0 0 0 0 0 0 0 0 0 0 0 0 0 0 0 0 0 0 0 0 0 0 0 0 0 0 0 0 0 0 0 0 0 0 0 0 0 0 0 0 0 0 0 0 0 0 0 0 0 0 0 0 0 0 0 0 0 0 0 0 0 0 0 0 0 0 0 0 0 0 0 0 0 0 0 0 0 0 0 0 0 0 0 0 0 0 0 0 0 0 0 0 0 0 0 0 0 0 0 0 0 0 0 0 0 0 0 0 0 0 0 0 0 0 0 0 0 0 0 0 0 0.0025539391208440065384 0.025539392605423927307 0.063848480582237243652 0.020431512966752052307 0 0 0 0 0 0 0 0 0 0 0 0 0 0 0 0 0 0 0 0 0 0 0 0 0 0 0 0 0 0 0 0 0 0 0 0 0 0 0 0 0 0 0 0 0 0 0 0 0 0 0 0 0 0 0 0 0 0 0 0 0 0 0 0 0 0 0 0 0 0 0 0 0 0 0.020431512966752052307 0.089387871325016021729 0.1404666602611541748 0.1506824195384979248 0.1455745398998260498 0.1302509009838104248 0.076618179678916931152 0.063848480582237243652 0.1072654426097869873 0.16345210373401641846 0.22474664449691772461 0.31668847799301147461 0.39330661296844482422 0.47247871756553649902 0.69467145204544067383 0.86578536033630371094 0.60783755779266357422 0.21963876485824584961 0.030647270381450653076 0 0 0 0 0 0 0 0 0 0 0 0 0 0 0 0 0 0 0 0 0 0 0 0 0 0 0 0 0 0 0 0 0 0 0 0 0 0 0 0 0 0 0 0 0 0 0 0 0.010215756483376026154 0.030647270381450653076 0.010215756483376026154 0 0 0 0 0 0 0 0 0 0 0 0 0 0 0 0 0 0 0 0 0 0 0 0 0 0 0 0 0 0 0 0 0 0 0 0 0 0 
0 0 0 0 0 0 0 0 0 0 0 0 0 0 0 0 0 0 0 0 0 0 0 0 0 0 0 0 0 0 0 0 0 0 0 0 0 0 0 0 0 0 0 0 0 0 0 0 0 0 0 0 0 0 0 0 0 0 0 0 0 0 0 0 0 0 0 0 0 0 0 0 0 0 0 0 0 0 0 0 0 0 0 0 0 0 0 0 0 0 0 0 0 0 0 0 0 0 0 0 0 0 0 0 0 0 0 0 0 0 0 0 0 0 0 0 0 0 0 0 0 0 0 0 0 0 0 0 0 0 0 0 0 0 0 0 0 0 0 0 0 0 0 0 0 0 0 0 0 0 0 0 0 0 0 0 0 0 0 0 0 0 0 0 0 0 0 0 0 0 0 0 0 0 0 0 0 0 0 0 0 0 0 0 0 0 0 0 0 0 0 0 0 0 0 0 0 0 0 0 0 0 0 0 0 0 0 0 0 0 0 0 0 0 0 0 0 0 0 0 0 0 0 0 0 0 0 0 0 0 0 0 0 0 0 0 0 0 0 0 0 0 0 0 0 0 0 0 0 0 0 0 0 0 0 0 0 0 0 0 0 0 0 0 0 0 0 0 0 0 0 0 0 0 0 0 0 0 0 0 0 0 0 0 0 0 0.020431512966752052307 0.061294540762901306152 0.020431512966752052307 0 0 0 0 0 0 0 0 0 0 0 0 0 0 0 0 0 0 0 0 0 0 0 0 0 0 0 0 0 0 0 0 0 0 0 0 0 0 0 0 0 0 0 0 0 0 0 0 0 0 0 0 0 0 0 0 0 0 0 0 0 0 0 0 0 0 0 0 0 0 0 0 0 0 0.020431512966752052307 0.091941818594932556152 0.1430206000804901123 0.1481284797191619873 0.1276969611644744873 0.1072654426097869873 0.066402420401573181152 0.061294540762901306152 0.10215757042169570923 0.1455745398998260498 0.17877574265003204346 0.25539392232894897461 0.31158059835433959961 0.31668844819068908691 0.53888112306594848633 0.88366293907165527344 0.75341200828552246094 0.31413453817367553711 0.051078781485557556152 0 0 0 0 0 0 0 0 0 0 0 0 0 0 0 0 0 0 0 0 0 0 0 0 0 0 0 0 0 0 0 0 0 0 0 0 0 0 0 0 0 0 0 0 0 0 0 0 0.010215756483376026154 0.033201210200786590576 0.015323635190725326538 0.0025539391208440065384 0 0 0 0 0 0 0 0 0 0 0 0 0 0 0 0 0 0 0 0 0 0 0 0 0 0 0 0 0 0 0 0 0 0 0 0 0 
0 0 0 0 0 0 0 0 0 0 0 0 0 0 0 0 0 0 0 0 0 0 0 0 0 0 0 0 0 0 0 0 0 0 0 0 0 0 0 0 0 0 0 0 0 0 0 0 0 0 0 0 0 0 0 0 0 0 0 0 0 0 0 0 0 0 0 0 0 0 0 0 0 0 0 0 0 0 0 0 0 0 0 0 0 0 0 0 0 0 0 0 0 0 0 0 0 0 0 0 0 0 0 0 0 0 0 0 0 0 0 0 0 0 0 0 0 0 0 0 0 0 0 0 0 0 0 0 0 0 0 0 0 0 0 0 0 0 0 0 0 0 0 0 0 0 0 0 0 0 0 0 0 0 0 0 0 0 0 0 0 0 0 0 0 0 0 0 0 0 0 0 0 0 0 0 0 0 0 0 0 0 0 0 0 0 0 0 0 0 0 0 0 0 0 0 0 0 0 0 0 0 0 0 0 0 0 0 0 0 0 0 0 0 0 0 0 0 0 0 0 0 0 0 0 0 0 0 0 0 0 0 0 0 0 0 0 0 0 0 0 0 0 0 0 0 0 0 0 0 0 0 0 0 0 0 0 0 0 0 0 0 0 0 0 0 0 0 0 0 0 0 0 0 0 0 0 0 0 0 0 0 0 0 0 0 0.020431512966752052307 0.063848480582237243652 0.028093332424759864807 0.007661817595362663269 0.0025539391208440065384 0 0 0 0 0 0 0 0 0 0 0 0 0 0 0 0 0 0 0 0 0 0 0 0 0 0 0 0 0 0 0 0 0 0 0 0 0 0 0 0 0 0 0 0 0 0 0 0 0 0 0 0 0 0 0 0 0 0 0 0 0 0 0 0 0 0 0 0 0 0 0 0 0.020431512966752052307 0.091941818594932556152 0.1430206000804901123 0.1506824195384979248 0.1404666602611541748 0.11237332969903945923 0.058740600943565368652 0.058740600943565368652 0.10215757042169570923 0.1430206000804901123 0.16345210373401641846 0.22219270467758178711 0.28093329071998596191 0.24007028341293334961 0.41629210114479064941 0.82492232322692871094 0.79682898521423339844 0.38819873332977294922 0.068956352770328521729 0 0 0 0 0 0 0 0 0 0 0 0 0 0 0 0 0 0 0 0 0 0 0 0 0 0 0 0 0 0 0 0 0 0 0 0 0 0 0 0 0 0 0 0 0 0 0 0 0.007661817595362663269 0.033201210200786590576 0.033201210200786590576 0.007661817595362663269 0 0 0 0 0 0 0 0 0 0 0 0 0 0 0 0 0 0 0 0 0 0 0 0 0 0 0 0 0 0 0 0 0 0 0 0 0 
0 0 0 0 0 0 0 0 0 0 0 0 0 0 0 0 0 0 0 0 0 0 0 0 0 0 0 0 0 0 0 0 0 0 0 0 0 0 0 0 0 0 0 0 0 0 0 0 0 0 0 0 0 0 0 0 0 0 0 0 0 0 0 0 0 0 0 0 0 0 0 0 0 0 0 0 0 0 0 0 0 0 0 0 0 0 0 0 0 0 0 0 0 0 0 0 0 0 0 0 0 0 0 0 0 0 0 0 0 0 0 0 0 0 0 0 0 0 0 0 0 0 0 0 0 0 0 0 0 0 0 0 0 0 0 0 0 0 0 0 0 0 0 0 0 0 0 0 0 0 0 0 0 0 0 0 0 0 0 0 0 0 0 0 0 0 0 0 0 0 0 0 0 0 0 0 0 0 0 0 0 0 0 0 0 0 0 0 0 0 0 0 0 0 0 0 0 0 0 0 0 0 0 0 0 0 0 0 0 0 0 0 0 0 0 0 0 0 0 0 0 0 0 0 0 0 0 0 0 0 0 0 0 0 0 0 0 0 0 0 0 0 0 0 0 0 0 0 0 0 0 0 0 0 0 0 0 0 0 0 0 0 0 0 0 0 0 0 0 0 0 0 0 0 0 0 0 0 0 0 0 0 0 0 0 0 0.017877575010061264038 0.063848480582237243652 0.053632721304893493652 0.043416965752840042114 0.020431512966752052307 0.0051078782416880130768 0 0 0 0 0 0 0 0 0 0 0 0 0 0 0 0 0 0 0 0 0 0 0 0 0 0 0 0 0 0 0 0 0 0 0 0 0 0 0 0 0 0 0 0 0 0 0 0 0 0 0 0 0 0 0 0 0 0 0 0 0 0 0 0 0 0 0 0 0 0 0 0.020431512966752052307 0.094495750963687896729 0.1481284797191619873 0.1557902991771697998 0.1379127204418182373 0.074064239859580993652 0.030647270381450653076 0.053632721304893493652 0.10215757042169570923 0.1430206000804901123 0.1506824195384979248 0.1838836371898651123 0.29114907979965209961 0.24262422323226928711 0.30136480927467346191 0.75851988792419433594 0.84024596214294433594 0.43927752971649169922 0.081726051867008209229 0 0 0 0 0 0 0 0 0 0 0 0 0 0 0 0 0 0 0 0 0 0 0 0 0 0 0 0 0 0 0 0 0 0 0 0 0 0 0 0 0 0 0 0 0 0 0 0 0.0025539391208440065384 0.015323635190725326538 0.033201210200786590576 0.010215756483376026154 0 0 0 0 0 0 0 0 0 0 0 0 0 0 0 0 0 0 0 0 0 0 0 0 0 0 0 0 0 0 0 0 0 0 0 0 0 
0 0 0 0 0 0 0 0 0 0 0 0 0 0 0 0 0 0 0 0 0 0 0 0 0 0 0 0 0 0 0 0 0 0 0 0 0 0 0 0 0 0 0 0 0 0 0 0 0 0 0 0 0 0 0 0 0 0 0 0 0 0 0 0 0 0 0 0 0 0 0 0 0 0 0 0 0 0 0 0 0 0 0 0 0 0 0 0 0 0 0 0 0 0 0 0 0 0 0 0 0 0 0 0 0 0 0 0 0 0 0 0 0 0 0 0 0 0 0 0 0 0 0 0 0 0 0 0 0 0 0 0 0 0 0 0 0 0 0 0 0 0 0 0 0 0 0 0 0 0 0 0 0 0 0 0 0 0 0 0 0 0 0 0 0 0 0 0 0 0 0 0 0 0 0 0 0 0 0 0 0 0 0 0 0 0 0 0 0 0 0 0 0 0 0 0 0 0 0 0 0 0 0 0 0 0 0 0 0 0 0 0 0 0 0 0 0 0 0 0 0 0 0 0 0 0 0 0 0 0 0 0 0 0 0 0 0 0 0 0 0 0 0 0 0 0 0 0 0 0 0 0 0 0 0 0 0 0 0 0 0 0 0 0 0 0 0 0 0 0 0 0 0 0 0 0 0 0 0 0 0 0 0 0 0 0 0.010215756483376026154 0.038309089839458465576 0.048524845391511917114 0.068956352770328521729 0.063848480582237243652 0.015323635190725326538 0 0 0 0 0 0 0 0 0 0 0 0 0 0 0 0 0 0 0 0 0 0 0 0 0 0 0 0 0 0 0 0 0 0 0 0 0 0 0 0 0 0 0 0 0 0 0 0 0 0 0 0 0 0 0 0 0 0 0 0 0 0 0 0 0 0 0 0 0 0 0 0.017877575010061264038 0.094495750963687896729 0.16855998337268829346 0.16855998337268829346 0.1404666602611541748 0.063848480582237243652 0.020431512966752052307 0.051078785210847854614 0.10215757042169570923 0.1430206000804901123 0.1379127204418182373 0.1200351417064666748 0.21708482503890991211 0.26305574178695678711 0.27837935090065002441 0.69211751222610473633 0.90154051780700683594 0.51078784465789794922 0.1047115027904510498 0.0025539391208440065384 0 0 0 0 0 0 0 0 0 0 0 0 0 0 0 0 0 0 0 0 0 0 0 0 0 0 0 0 0 0 0 0 0 0 0 0 0 0 0 0 0 0 0 0 0 0 0 0 0.010215756483376026154 0.030647270381450653076 0.010215756483376026154 0 0 0 0 0 0 0 0 0 0 0 0 0 0 0 0 0 0 0 0 0 0 0 0 0 0 0 0 0 0 0 0 0 0 0 0 0 
0 0 0 0 0 0 0 0 0 0 0 0 0 0 0 0 0 0 0 0 0 0 0 0 0 0 0 0 0 0 0 0 0 0 0 0 0 0 0 0 0 0 0 0 0 0 0 0 0 0 0 0 0 0 0 0 0 0 0 0 0 0 0 0 0 0 0 0 0 0 0 0 0 0 0 0 0 0 0 0 0 0 0 0 0 0 0 0 0 0 0 0 0 0 0 0 0 0 0 0 0 0 0 0 0 0 0 0 0 0 0 0 0 0 0 0 0 0 0 0 0 0 0 0 0 0 0 0 0 0 0 0 0 0 0 0 0 0 0 0 0 0 0 0 0 0 0 0 0 0 0 0 0 0 0 0 0 0 0 0 0 0 0 0 0 0 0 0 0 0 0 0 0 0 0 0 0 0 0 0 0 0 0 0 0 0 0 0 0 0 0 0 0 0 0 0 0 0 0 0 0 0 0 0 0 0 0 0 0 0 0 0 0 0 0 0 0 0 0 0 0 0 0 0 0 0 0 0 0 0 0 0 0 0 0 0 0 0 0 0 0 0 0 0 0 0 0 0 0 0 0 0 0 0 0 0 0 0 0 0 0 0 0 0 0 0 0 0 0 0 0 0 0 0 0 0 0 0 0 0 0 0 0 0 0 0 0.0025539391208440065384 0.007661817595362663269 0.012769696302711963654 0.033201210200786590576 0.071510300040245056152 0.030647270381450653076 0.0051078782416880130768 0 0 0 0 0 0 0 0 0 0 0 0 0 0 0 0 0 0 0 0 0 0 0 0 0 0 0 0 0 0 0 0 0 0 0 0 0 0 0 0 0 0 0 0 0 0 0 0 0 0 0 0 0 0 0 0 0 0 0 0 0 0 0 0 0 0 0 0 0 0 0.012769696302711963654 0.081726051867008209229 0.18899150192737579346 0.20942300558090209961 0.16345210373401641846 0.061294540762901306152 0.017877575010061264038 0.053632721304893493652 0.1072654426097869873 0.1481284797191619873 0.13535876572132110596 0.086833931505680084229 0.1583442389965057373 0.27837935090065002441 0.34733572602272033691 0.70744115114212036133 1.0062520503997802734 0.65380841493606567383 0.16089816391468048096 0.007661817595362663269 0 0 0 0 0 0 0 0 0 0 0 0 0 0 0 0 0 0 0 0 0 0 0 0 0 0 0 0 0 0 0 0 0 0 0 0 0 0 0 0 0 0 0 0 0 0 0 0 0.010215756483376026154 0.030647270381450653076 0.010215756483376026154 0 0 0 0 0 0 0 0 0 0 0 0 0 0 0 0 0 0 0 0 0 0 0 0 0 0 0 0 0 0 0 0 0 0 0 0 0 
0 0 0 0 0 0 0 0 0 0 0 0 0 0 0 0 0 0 0 0 0 0 0 0 0 0 0 0 0 0 0 0 0 0 0 0 0 0 0 0 0 0 0 0 0 0 0 0 0 0 0 0 0 0 0 0 0 0 0 0 0 0 0 0 0 0 0 0 0 0 0 0 0 0 0 0 0 0 0 0 0 0 0 0 0 0 0 0 0 0 0 0 0 0 0 0 0 0 0 0 0 0 0 0 0 0 0 0 0 0 0 0 0 0 0 0 0 0 0 0 0 0 0 0 0 0 0 0 0 0 0 0 0 0 0 0 0 0 0 0 0 0 0 0 0 0 0 0 0 0 0 0 0 0 0 0 0 0 0 0 0 0 0 0 0 0 0 0 0 0 0 0 0 0 0 0 0 0 0 0 0 0 0 0 0 0 0 0 0 0 0 0 0 0 0 0 0 0 0 0 0 0 0 0 0 0 0 0 0 0 0 0 0 0 0 0 0 0 0 0 0 0 0 0 0 0 0 0 0 0 0 0 0 0 0 0 0 0 0 0 0 0 0 0 0 0 0 0 0 0 0 0 0 0 0 0 0 0 0 0 0 0 0 0 0 0 0 0 0 0 0 0 0 0 0 0 0 0 0 0 0 0 0 0 0 0 0 0 0 0.015323635190725326538 0.066402420401573181152 0.071510300040245056152 0.025539392605423927307 0.0051078782416880130768 0 0 0 0 0 0 0 0 0 0 0 0 0 0 0 0 0 0 0 0 0 0 0 0 0 0 0 0 0 0 0 0 0 0 0 0 0 0 0 0 0 0 0 0 0 0 0 0 0 0 0 0 0 0 0 0 0 0 0 0 0 0 0 0 0 0 0 0 0 0.010215756483376026154 0.086833931505680084229 0.23496240377426147461 0.24773210287094116211 0.1404666602611541748 0.033201210200786590576 0.010215756483376026154 0.051078785210847854614 0.1174812018871307373 0.1506824195384979248 0.1481284797191619873 0.058740600943565368652 0.086833931505680084229 0.16855998337268829346 0.26816362142562866211 0.66657811403274536133 1.0803161859512329102 0.82492238283157348633 0.22730058431625366211 0.015323635190725326538 0 0 0 0 0 0 0 0 0 0 0 0 0 0 0 0 0 0 0 0 0 0 0 0 0 0 0 0 0 0 0 0 0 0 0 0 0 0 0 0 0 0 0 0 0 0 0 0 0.010215756483376026154 0.030647270381450653076 0.010215756483376026154 0 0 0 0 0 0 0 0 0 0 0 0 0 0 0 0 0 0 0 0 0 0 0 0 0 0 0 0 0 0 0 0 0 0 0 0 0 
0 0 0 0 0 0 0 0 0 0 0 0 0 0 0 0 0 0 0 0 0 0 0 0 0 0 0 0 0 0 0 0 0 0 0 0 0 0 0 0 0 0 0 0 0 0 0 0 0 0 0 0 0 0 0 0 0 0 0 0 0 0 0 0 0 0 0 0 0 0 0 0 0 0 0 0 0 0 0 0 0 0 0 0 0 0 0 0 0 0 0 0 0 0 0 0 0 0 0 0 0 0 0 0 0 0 0 0 0 0 0 0 0 0 0 0 0 0 0 0 0 0 0 0 0 0 0 0 0 0 0 0 0 0 0 0 0 0 0 0 0 0 0 0 0 0 0 0 0 0 0 0 0 0 0 0 0 0 0 0 0 0 0 0 0 0 0 0 0 0 0 0 0 0 0 0 0 0 0 0 0 0 0 0 0 0 0 0 0 0 0 0 0 0 0 0 0 0 0 0 0 0 0 0 0 0 0 0 0 0 0 0 0 0 0 0 0 0 0 0 0 0 0 0 0 0 0 0 0 0 0 0 0 0 0 0 0 0 0 0 0 0 0 0 0 0 0 0 0 0 0 0 0 0 0 0 0 0 0 0 0 0 0 0 0 0 0 0 0 0 0 0 0 0 0 0 0 0 0 0 0 0 0 0 0 0 0 0 0 0.0051078782416880130768 0.025539392605423927307 0.071510300040245056152 0.068956352770328521729 0.020431512966752052307 0.0025539391208440065384 0 0 0 0 0 0 0 0 0 0 0 0 0 0 0 0 0 0 0 0 0 0 0 0 0 0 0 0 0 0 0 0 0 0 0 0 0 0 0 0 0 0 0 0 0 0 0 0 0 0 0 0 0 0 0 0 0 0 0 0 0 0 0 0 0 0 0 0 0.010215756483376026154 0.091941818594932556152 0.24517816305160522461 0.21963877975940704346 0.091941818594932556152 0.015323635190725326538 0.0025539391208440065384 0.028093332424759864807 0.091941818594932556152 0.1302509009838104248 0.1455745398998260498 0.051078785210847854614 0.056186664849519729614 0.11492726951837539673 0.1838836371898651123 0.52100360393524169922 1.0343453884124755859 1.0113599300384521484 0.38819876313209533691 0.084279991686344146729 0.017877573147416114807 0 0 0 0 0 0 0 0 0 0 0 0 0 0 0 0 0 0 0 0 0 0 0 0 0 0 0 0 0 0 0 0 0 0 0 0 0 0 0 0 0 0 0 0 0 0 0 0.010215756483376026154 0.030647270381450653076 0.010215756483376026154 0 0 0 0 0 0 0 0 0 0 0 0 0 0 0 0 0 0 0 0 0 0 0 0 0 0 0 0 0 0 0 0 0 0 0 0 0 
0 0 0 0 0 0 0 0 0 0 0 0 0 0 0 0 0 0 0 0 0 0 0 0 0 0 0 0 0 0 0 0 0 0 0 0 0 0 0 0 0 0 0 0 0 0 0 0 0 0 0 0 0 0 0 0 0 0 0 0 0 0 0 0 0 0 0 0 0 0 0 0 0 0 0 0 0 0 0 0 0 0 0 0 0 0 0 0 0 0 0 0 0 0 0 0 0 0 0 0 0 0 0 0 0 0 0 0 0 0 0 0 0 0 0 0 0 0 0 0 0 0 0 0 0 0 0 0 0 0 0 0 0 0 0 0 0 0 0 0 0 0 0 0 0 0 0 0 0 0 0 0 0 0 0 0 0 0 0 0 0 0 0 0 0 0 0 0 0 0 0 0 0 0 0 0 0 0 0 0 0 0 0 0 0 0 0 0 0 0 0 0 0 0 0 0 0 0 0 0 0 0 0 0 0 0 0 0 0 0 0 0 0 0 0 0 0 0 0 0 0 0 0 0 0 0 0 0 0 0 0 0 0 0 0 0 0 0 0 0 0 0 0 0 0 0 0 0 0 0 0 0 0 0 0 0 0 0 0 0 0 0 0 0 0 0 0 0 0 0 0 0 0 0 0 0 0 0 0 0 0 0 0 0 0 0 0 0 0 0 0.0051078782416880130768 0.028093332424759864807 0.071510300040245056152 0.048524845391511917114 0.010215756483376026154 0 0 0 0 0 0 0 0 0 0 0 0 0 0 0 0 0 0 0 0 0 0 0 0 0 0 0 0 0 0 0 0 0 0 0 0 0 0 0 0 0 0 0 0 0 0 0 0 0 0 0 0 0 0 0 0 0 0 0 0 0 0 0 0 0 0 0 0 0.010215756483376026154 0.089387871325016021729 0.24773210287094116211 0.24773210287094116211 0.089387871325016021729 0.010215756483376026154 0 0.020431512966752052307 0.081726051867008209229 0.1225890815258026123 0.1455745398998260498 0.056186664849519729614 0.045970909297466278076 0.061294540762901306152 0.1328048408031463623 0.41629210114479064941 0.90920233726501464844 1.1058555841445922852 0.63082301616668701172 0.30136480927467346191 0.094495743513107299805 0.022985454648733139038 0.007661817595362663269 0.0025539391208440065384 0 0 0 0 0 0 0 0 0 0 0 0 0 0 0 0 0 0 0 0 0 0 0 0 0 0 0 0 0 0 0 0 0 0 0 0 0 0 0 0 0 0 0 0 0.010215756483376026154 0.030647270381450653076 0.010215756483376026154 0 0 0 0 0 0 0 0 0 0 0 0 0 0 0 0 0 0 0 0 0 0 0 0 0 0 0 0 0 0 0 0 0 0 0 0 0 
0 0 0 0 0 0 0 0 0 0 0 0 0 0 0 0 0 0 0 0 0 0 0 0 0 0 0 0 0 0 0 0 0 0 0 0 0 0 0 0 0 0 0 0 0 0 0 0 0 0 0 0 0 0 0 0 0 0 0 0 0 0 0 0 0 0 0 0 0 0 0 0 0 0 0 0 0 0 0 0 0 0 0 0 0 0 0 0 0 0 0 0 0 0 0 0 0 0 0 0 0 0 0 0 0 0 0 0 0 0 0 0 0 0 0 0 0 0 0 0 0 0 0 0 0 0 0 0 0 0 0 0 0 0 0 0 0 0 0 0 0 0 0 0 0 0 0 0 0 0 0 0 0 0 0 0 0 0 0 0 0 0 0 0 0 0 0 0 0 0 0 0 0 0 0 0 0 0 0 0 0 0 0 0 0 0 0 0 0 0 0 0 0 0 0 0 0 0 0 0 0 0 0 0 0 0 0 0 0 0 0 0 0 0 0 0 0 0 0 0 0 0 0 0 0 0 0 0 0 0 0 0 0 0 0 0 0 0 0 0 0 0 0 0 0 0 0 0 0 0 0 0 0 0 0 0 0 0 0 0 0 0 0 0 0 0 0 0 0 0 0 0 0 0 0 0 0 0 0 0 0 0 0 0 0 0 0 0 0 0 0 0.010215756483376026154 0.048524845391511917114 0.066402420401573181152 0.017877575010061264038 0 0 0 0 0 0 0 0 0 0 0 0 0 0 0 0 0 0 0 0 0 0 0 0 0 0 0 0 0 0 0 0 0 0 0 0 0 0 0 0 0 0 0 0 0 0 0 0 0 0 0 0 0 0 0 0 0 0 0 0 0 0 0 0 0 0 0 0 0.007661817595362663269 0.076618179678916931152 0.22985452413558959961 0.27071753144264221191 0.099603630602359771729 0.010215756483376026154 0 0.020431512966752052307 0.081726051867008209229 0.1200351417064666748 0.1455745398998260498 0.074064239859580993652 0.040863025933504104614 0.020431512966752052307 0.063848480582237243652 0.31413450837135314941 0.73553442955017089844 0.94751137495040893555 0.64870053529739379883 0.45204722881317138672 0.26816362142562866211 0.1047115027904510498 0.051078785210847854614 0.015323635190725326538 0.0025539391208440065384 0 0 0 0 0 0 0 0 0 0 0 0 0 0 0 0 0 0 0 0 0 0 0 0 0 0 0 0 0 0 0 0 0 0 0 0 0 0 0 0 0 0 0 0.010215756483376026154 0.030647270381450653076 0.010215756483376026154 0 0 0 0 0 0 0 0 0 0 0 0 0 0 0 0 0 0 0 0 0 0 0 0 0 0 0 0 0 0 0 0 0 0 0 0 0 
0 0 0 0 0 0 0 0 0 0 0 0 0 0 0 0 0 0 0 0 0 0 0 0 0 0 0 0 0 0 0 0 0 0 0 0 0 0 0 0 0 0 0 0 0 0 0 0 0 0 0 0 0 0 0 0 0 0 0 0 0 0 0 0 0 0 0 0 0 0 0 0 0 0 0 0 0 0 0 0 0 0 0 0 0 0 0 0 0 0 0 0 0 0 0 0 0 0 0 0 0 0 0 0 0 0 0 0 0 0 0 0 0 0 0 0 0 0 0 0 0 0 0 0 0 0 0 0 0 0 0 0 0 0 0 0 0 0 0 0 0 0 0 0 0 0 0 0 0 0 0 0 0 0 0 0 0 0 0 0 0 0 0 0 0 0 0 0 0 0 0 0 0 0 0 0 0 0 0 0 0 0 0 0 0 0 0 0 0 0 0 0 0 0 0 0 0 0 0 0 0 0 0 0 0 0 0 0 0 0 0 0 0 0 0 0 0 0 0 0 0 0 0 0 0 0 0 0 0 0 0 0 0 0 0 0 0 0 0 0 0 0 0 0 0 0 0 0 0 0 0 0 0 0 0 0 0 0 0 0 0 0 0 0 0 0 0 0 0 0 0 0 0 0 0 0 0 0 0 0 0 0 0 0 0 0 0 0 0 0 0 0.0025539391208440065384 0.025539392605423927307 0.063848480582237243652 0.020431512966752052307 0 0 0 0 0 0 0 0 0 0 0 0 0 0 0 0 0 0 0 0 0 0 0 0 0 0 0 0 0 0 0 0 0 0 0 0 0 0 0 0 0 0 0 0 0 0 0 0 0 0 0 0 0 0 0 0 0 0 0 0 0 0 0 0 0 0 0 0 0.0025539391208440065384 0.048524841666221618652 0.20431514084339141846 0.27327147126197814941 0.1047115027904510498 0.010215756483376026154 0 0.020431512966752052307 0.081726051867008209229 0.11492726951837539673 0.1276969611644744873 0.074064239859580993652 0.040863025933504104614 0.010215756483376026154 0.033201210200786590576 0.23751634359359741211 0.64103871583938598633 0.84790778160095214844 0.74319624900817871094 0.51078784465789794922 0.34988966584205627441 0.22474664449691772461 0.1098193824291229248 0.043416965752840042114 0.007661817595362663269 0 0 0 0 0 0 0 0 0 0 0 0 0 0 0 0 0 0 0 0 0 0 0 0 0 0 0 0 0 0 0 0 0 0 0 0 0 0 0 0 0 0 0 0.010215756483376026154 0.033201210200786590576 0.015323635190725326538 0.0025539391208440065384 0 0 0 0 0 0 0 0 0 0 0 0 0 0 0 0 0 0 0 0 0 0 0 0 0 0 0 0 0 0 0 0 0 0 0 0 
0 0 0 0 0 0 0 0 0 0 0 0 0 0 0 0 0 0 0 0 0 0 0 0 0 0 0 0 0 0 0 0 0 0 0 0 0 0 0 0 0 0 0 0 0 0 0 0 0 0 0 0 0 0 0 0 0 0 0 0 0 0 0 0 0 0 0 0 0 0 0 0 0 0 0 0 0 0 0 0 0 0 0 0 0 0 0 0 0 0 0 0 0 0 0 0 0 0 0 0 0 0 0 0 0 0 0 0 0 0 0 0 0 0 0 0 0 0 0 0 0 0 0 0 0 0 0 0 0 0 0 0 0 0 0 0 0 0 0 0 0 0 0 0 0 0 0 0 0 0 0 0 0 0 0 0 0 0 0 0 0 0 0 0 0 0 0 0 0 0 0 0 0 0 0 0 0 0 0 0 0 0 0 0 0 0 0 0 0 0 0 0 0 0 0 0 0 0 0 0 0 0 0 0 0 0 0 0 0 0 0 0 0 0 0 0 0 0 0 0 0 0 0 0 0 0 0 0 0 0 0 0 0 0 0 0 0 0 0 0 0 0 0 0 0 0 0 0 0 0 0 0 0 0 0 0 0 0 0 0 0 0 0 0 0 0 0 0 0 0 0 0 0 0 0 0 0 0 0 0 0 0 0 0 0 0 0 0 0 0 0 0.0051078782416880130768 0.030647270381450653076 0.066402420401573181152 0.020431512966752052307 0 0 0 0 0 0 0 0 0 0 0 0 0 0 0 0 0 0 0 0 0 0 0 0 0 0 0 0 0 0 0 0 0 0 0 0 0 0 0 0 0 0 0 0 0 0 0 0 0 0 0 0 0 0 0 0 0 0 0 0 0 0 0 0 0 0 0 0 0 0.040863025933504104614 0.20176120102405548096 0.28859511017799377441 0.1047115027904510498 0.007661817595362663269 0 0.020431512966752052307 0.081726051867008209229 0.11237332969903945923 0.1225890815258026123 0.071510300040245056152 0.040863025933504104614 0.010215756483376026154 0.020431512966752052307 0.18899148702621459961 0.54909688234329223633 0.69211751222610473633 0.73553442955017089844 0.61039149761199951172 0.39075267314910888672 0.31924235820770263672 0.16855998337268829346 0.068956352770328521729 0.015323635190725326538 0 0 0 0 0 0 0 0 0 0 0 0 0 0 0 0 0 0 0 0 0 0 0 0 0 0 0 0 0 0 0 0 0 0 0 0 0 0 0 0 0 0 0 0.007661817595362663269 0.033201210200786590576 0.033201210200786590576 0.007661817595362663269 0 0 0 0 0 0 0 0 0 0 0 0 0 0 0 0 0 0 0 0 0 0 0 0 0 0 0 0 0 0 0 0 0 0 0 0 
0 0 0 0 0 0 0 0 0 0 0 0 0 0 0 0 0 0 0 0 0 0 0 0 0 0 0 0 0 0 0 0 0 0 0 0 0 0 0 0 0 0 0 0 0 0 0 0 0 0 0 0 0 0 0 0 0 0 0 0 0 0 0 0 0 0 0 0 0 0 0 0 0 0 0 0 0 0 0 0 0 0 0 0 0 0 0 0 0 0 0 0 0 0 0 0 0 0 0 0 0 0 0 0 0 0 0 0 0 0 0 0 0 0 0 0 0 0 0 0 0 0 0 0 0 0 0 0 0 0 0 0 0 0 0 0 0 0 0 0 0 0 0 0 0 0 0 0 0 0 0 0 0 0 0 0 0 0 0 0 0 0 0 0 0 0 0 0 0 0 0 0 0 0 0 0 0 0 0 0 0 0 0 0 0 0 0 0 0 0 0 0 0 0 0 0 0 0 0 0 0 0 0 0 0 0 0 0 0 0 0 0 0 0 0 0 0 0 0 0 0 0 0 0 0 0 0 0 0 0 0 0 0 0 0 0 0 0 0 0 0 0 0 0 0 0 0 0 0 0 0 0 0 0 0 0 0 0 0 0 0 0 0 0 0 0 0 0 0 0 0 0 0 0 0 0 0 0 0 0 0 0 0 0 0 0 0 0 0 0 0 0.015323635190725326538 0.066402420401573181152 0.066402420401573181152 0.015323635190725326538 0 0 0 0 0 0 0 0 0 0 0 0 0 0 0 0 0 0 0 0 0 0 0 0 0 0 0 0 0 0 0 0 0 0 0 0 0 0 0 0 0 0 0 0 0 0 0 0 0 0 0 0 0 0 0 0 0 0 0 0 0 0 0 0 0 0 0 0 0 0.043416965752840042114 0.20942300558090209961 0.29114907979965209961 0.086833931505680084229 0.0025539391208440065384 0 0.022985454648733139038 0.086833931505680084229 0.11492726951837539673 0.1225890815258026123 0.071510300040245056152 0.043416965752840042114 0.015323635190725326538 0.012769696302711963654 0.13535876572132110596 0.43161571025848388672 0.54654294252395629883 0.61294537782669067383 0.66913205385208129883 0.51589572429656982422 0.45204722881317138672 0.27582541108131408691 0.1328048408031463623 0.028093332424759864807 0 0 0 0 0 0 0 0 0 0 0 0 0 0 0 0 0 0 0 0 0 0 0 0 0 0 0 0 0 0 0 0 0 0 0 0 0 0 0 0 0 0 0 0.0025539391208440065384 0.015323635190725326538 0.035755150020122528076 0.017877575010061264038 0.010215756483376026154 0.007661817595362663269 0.0025539391208440065384 0 0 0 0 0 0 0 0 0 0 0 0 0 0 0 0 0 0 0 0 0 0 0 0 0 0 0 0 0 0 0 0 0 
0 0 0 0 0 0 0 0 0 0 0 0 0 0 0 0 0 0 0 0 0 0 0 0 0 0 0 0 0 0 0 0 0 0 0 0 0 0 0 0 0 0 0 0 0 0 0 0 0 0 0 0 0 0 0 0 0 0 0 0 0 0 0 0 0 0 0 0 0 0 0 0 0 0 0 0 0 0 0 0 0 0 0 0 0 0 0 0 0 0 0 0 0 0 0 0 0 0 0 0 0 0 0 0 0 0 0 0 0 0 0 0 0 0 0 0 0 0 0 0 0 0 0 0 0 0 0 0 0 0 0 0 0 0 0 0 0 0 0 0 0 0 0 0 0 0 0 0 0 0 0 0 0 0 0 0 0 0 0 0 0 0 0 0 0 0 0 0 0 0 0 0 0 0 0 0 0 0 0 0 0 0 0 0 0 0 0 0 0 0 0 0 0 0 0 0 0 0 0 0 0 0 0 0 0 0 0 0 0 0 0 0 0 0 0 0 0 0 0 0 0 0 0 0 0 0 0 0 0 0 0 0 0 0 0 0 0 0 0 0 0 0 0 0 0 0 0 0 0 0 0 0 0 0 0 0 0 0 0 0 0 0 0 0 0 0 0 0 0 0 0 0 0 0 0 0 0 0 0 0 0 0 0 0 0 0 0 0 0 0 0.0051078782416880130768 0.030647270381450653076 0.071510300040245056152 0.030647270381450653076 0.0051078782416880130768 0 0 0 0 0 0 0 0 0 0 0 0 0 0 0 0 0 0 0 0 0 0 0 0 0 0 0 0 0 0 0 0 0 0 0 0 0 0 0 0 0 0 0 0 0 0 0 0 0 0 0 0 0 0 0 0 0 0 0 0 0 0 0 0 0 0 0 0 0 0.051078785210847854614 0.23240846395492553711 0.29114904999732971191 0.079172119498252868652 0 0 0.028093332424759864807 0.1047115027904510498 0.11492726951837539673 0.1200351417064666748 0.068956352770328521729 0.043416965752840042114 0.033201210200786590576 0.010215756483376026154 0.089387871325016021729 0.35244360566139221191 0.47503265738487243652 0.50823390483856201172 0.60783749818801879883 0.55165082216262817383 0.50823390483856201172 0.34222784638404846191 0.19409938156604766846 0.045970901846885681152 0 0 0 0 0 0 0 0 0 0 0 0 0 0 0 0 0 0 0 0 0 0 0 0 0 0 0 0 0 0 0 0 0 0 0 0 0 0 0 0 0 0 0 0 0.007661817595362663269 0.030647270381450653076 0.033201210200786590576 0.033201210200786590576 0.033201210200786590576 0.012769696302711963654 0.0025539391208440065384 0 0 0 0 0 0 0 0 0 0 0 0 0 0 0 0 0 0 0 0 0 0 0 0 0 0 0 0 0 0 0 0 
0 0 0 0 0 0 0 0 0 0 0 0 0 0 0 0 0 0 0 0 0 0 0 0 0 0 0 0 0 0 0 0 0 0 0 0 0 0 0 0 0 0 0 0 0 0 0 0 0 0 0 0 0 0 0 0 0 0 0 0 0 0 0 0 0 0 0 0 0 0 0 0 0 0 0 0 0 0 0 0 0 0 0 0 0 0 0 0 0 0 0 0 0 0 0 0 0 0 0 0 0 0 0 0 0 0 0 0 0 0 0 0 0 0 0 0 0 0 0 0 0 0 0 0 0 0 0 0 0 0 0 0 0 0 0 0 0 0 0 0 0 0 0 0 0 0 0 0 0 0 0 0 0 0 0 0 0 0 0 0 0 0 0 0 0 0 0 0 0 0 0 0 0 0 0 0 0 0 0 0 0 0 0 0 0 0 0 0 0 0 0 0 0 0 0 0 0 0 0 0 0 0 0 0 0 0 0 0 0 0 0 0 0 0 0 0 0 0 0 0 0 0 0 0 0 0 0 0 0 0 0 0 0 0 0 0 0 0 0 0 0 0 0 0 0 0 0 0 0 0 0 0 0 0 0 0 0 0 0 0 0 0 0 0 0 0 0 0 0 0 0 0 0 0 0 0 0 0 0 0 0 0 0 0 0 0 0 0 0 0 0.015323635190725326538 0.066402420401573181152 0.066402420401573181152 0.015323635190725326538 0 0 0 0 0 0 0 0 0 0 0 0 0 0 0 0 0 0 0 0 0 0 0 0 0 0 0 0 0 0 0 0 0 0 0 0 0 0 0 0 0 0 0 0 0 0 0 0 0 0 0 0 0 0 0 0 0 0 0 0 0 0 0 0 0 0 0 0 0 0 0.061294540762901306152 0.25539392232894897461 0.27582541108131408691 0.071510292589664459229 0 0 0.030647270381450653076 0.1047115027904510498 0.097049690783023834229 0.11492726951837539673 0.063848480582237243652 0.025539392605423927307 0.033201210200786590576 0.010215756483376026154 0.066402420401573181152 0.29881086945533752441 0.42139995098114013672 0.41629210114479064941 0.51078778505325317383 0.54654294252395629883 0.50057208538055419922 0.40352240204811096191 0.28859511017799377441 0.071510292589664459229 0 0 0 0 0 0 0 0 0 0 0 0 0 0 0 0 0 0 0 0 0 0 0 0 0 0 0 0 0 0 0 0 0 0 0 0 0 0 0 0 0 0 0 0 0.0025539391208440065384 0.007661817595362663269 0.010215756483376026154 0.015323635190725326538 0.035755150020122528076 0.035755150020122528076 0.015323635190725326538 0.010215756483376026154 0.010215756483376026154 0.010215756483376026154 0.010215756483376026154 0.010215756483376026154 0.007661817595362663269 0.0025539391208440065384 0 0 0 0 0 0 0 0 0 0 0 0 0 0 0 0 0 0 0 0 0 0 0 0 0 
0 0 0 0 0 0 0 0 0 0 0 0 0 0 0 0 0 0 0 0 0 0 0 0 0 0 0 0 0 0 0 0 0 0 0 0 0 0 0 0 0 0 0 0 0 0 0 0 0 0 0 0 0 0 0 0 0 0 0 0 0 0 0 0 0 0 0 0 0 0 0 0 0 0 0 0 0 0 0 0 0 0 0 0 0 0 0 0 0 0 0 0 0 0 0 0 0 0 0 0 0 0 0 0 0 0 0 0 0 0 0 0 0 0 0 0 0 0 0 0 0 0 0 0 0 0 0 0 0 0 0 0 0 0 0 0 0 0 0 0 0 0 0 0 0 0 0 0 0 0 0 0 0 0 0 0 0 0 0 0 0 0 0 0 0 0 0 0 0 0 0 0 0 0 0 0 0 0 0 0 0 0 0 0 0 0 0 0 0 0 0 0 0 0 0 0 0 0 0 0 0 0 0 0 0 0 0 0 0 0 0 0 0 0 0 0 0 0 0 0 0 0 0 0 0 0 0 0 0 0 0 0 0 0 0 0 0 0 0 0 0 0 0 0 0 0 0 0 0 0 0 0 0 0 0 0 0 0 0 0 0 0 0 0 0 0 0 0 0 0 0 0 0 0 0 0 0 0 0 0 0 0 0 0 0 0 0 0 0 0 0.020431512966752052307 0.066402420401573181152 0.030647270381450653076 0.0051078782416880130768 0 0 0 0 0 0 0 0 0 0 0 0 0 0 0 0 0 0 0 0 0 0 0 0 0 0 0 0 0 0 0 0 0 0 0 0 0 0 0 0 0 0 0 0 0 0 0 0 0 0 0 0 0 0 0 0 0 0 0 0 0 0 0 0 0 0 0 0 0 0 0.068956352770328521729 0.27071753144264221191 0.25283998250961303711 0.061294540762901306152 0 0 0.030647270381450653076 0.10215757042169570923 0.091941818594932556152 0.11492726951837539673 0.066402420401573181152 0.022985450923442840576 0.030647270381450653076 0.010215756483376026154 0.043416965752840042114 0.21197694540023803711 0.37287509441375732422 0.40607634186744689941 0.49291023612022399902 0.59762173891067504883 0.61039143800735473633 0.50312602519989013672 0.38564479351043701172 0.094495743513107299805 0 0 0 0 0 0 0 0 0 0 0 0 0 0 0 0 0 0 0 0 0 0 0 0 0 0 0 0 0 0 0 0 0 0 0 0 0 0 0 0 0 0 0 0 0 0 0 0.0025539391208440065384 0.012769696302711963654 0.033201210200786590576 0.033201210200786590576 0.030647270381450653076 0.030647270381450653076 0.030647270381450653076 0.030647270381450653076 0.033201210200786590576 0.030647270381450653076 0.007661817595362663269 0 0 0 0 0 0 0 0 0 0 0 0 0 0 0 0 0 0 0 0 0 0 0 0 0 
0 0 0 0 0 0 0 0 0 0 0 0 0 0 0 0 0 0 0 0 0 0 0 0 0 0 0 0 0 0 0 0 0 0 0 0 0 0 0 0 0 0 0 0 0 0 0 0 0 0 0 0 0 0 0 0 0 0 0 0 0 0 0 0 0 0 0 0 0 0 0 0 0 0 0 0 0 0 0 0 0 0 0 0 0 0 0 0 0 0 0 0 0 0 0 0 0 0 0 0 0 0 0 0 0 0 0 0 0 0 0 0 0 0 0 0 0 0 0 0 0 0 0 0 0 0 0 0 0 0 0 0 0 0 0 0 0 0 0 0 0 0 0 0 0 0 0 0 0 0 0 0 0 0 0 0 0 0 0 0 0 0 0 0 0 0 0 0 0 0 0 0 0 0 0 0 0 0 0 0 0 0 0 0 0 0 0 0 0 0 0 0 0 0 0 0 0 0 0 0 0 0 0 0 0 0 0 0 0 0 0 0 0 0 0 0 0 0 0 0 0 0 0 0 0 0 0 0 0 0 0 0 0 0 0 0 0 0 0 0 0 0 0 0 0 0 0 0 0 0 0 0 0 0 0 0 0 0 0 0 0 0 0 0 0 0 0 0 0 0 0 0 0 0 0 0 0 0 0 0 0 0 0 0 0 0 0 0 0 0.0051078782416880130768 0.030647270381450653076 0.066402420401573181152 0.020431512966752052307 0 0 0 0 0 0 0 0 0 0 0 0 0 0 0 0 0 0 0 0 0 0 0 0 0 0 0 0 0 0 0 0 0 0 0 0 0 0 0 0 0 0 0 0 0 0 0 0 0 0 0 0 0 0 0 0 0 0 0 0 0 0 0 0 0 0 0 0 0 0 0 0.074064232409000396729 0.27327147126197814941 0.23240846395492553711 0.053632721304893493652 0 0 0.030647270381450653076 0.10215757042169570923 0.089387878775596618652 0.11492726951837539673 0.084279991686344146729 0.028093332424759864807 0.030647270381450653076 0.010215756483376026154 0.022985450923442840576 0.13535876572132110596 0.28348723053932189941 0.33967390656471252441 0.46481692790985107422 0.53888112306594848633 0.61294543743133544922 0.59506779909133911133 0.42906174063682556152 0.1021575629711151123 0 0 0 0 0 0 0 0 0 0 0 0 0 0 0 0 0 0 0 0 0 0 0 0 0 0 0 0 0 0 0 0 0 0 0 0 0 0 0 0 0 0 0 0 0 0 0 0 0.0025539391208440065384 0.007661817595362663269 0.010215756483376026154 0.010215756483376026154 0.010215756483376026154 0.010215756483376026154 0.010215756483376026154 0.017877575010061264038 0.033201210200786590576 0.010215756483376026154 0 0 0 0 0 0 0 0 0 0 0 0 0 0 0 0 0 0 0 0 0 0 0 0 0 
0 0 0 0 0 0 0 0 0 0 0 0 0 0 0 0 0 0 0 0 0 0 0 0 0 0 0 0 0 0 0 0 0 0 0 0 0 0 0 0 0 0 0 0 0 0 0 0 0 0 0 0 0 0 0 0 0 0 0 0 0 0 0 0 0 0 0 0 0 0 0 0 0 0 0 0 0 0 0 0 0 0 0 0 0 0 0 0 0 0 0 0 0 0 0 0 0 0 0 0 0 0 0 0 0 0 0 0 0 0 0 0 0 0 0 0 0 0 0 0 0 0 0 0 0 0 0 0 0 0 0 0 0 0 0 0 0 0 0 0 0 0 0 0 0 0 0 0 0 0 0 0 0 0 0 0 0 0 0 0 0 0 0 0 0 0 0 0 0 0 0 0 0 0 0 0 0 0 0 0 0 0 0 0 0 0 0 0 0 0 0 0 0 0 0 0 0 0 0 0 0 0 0 0 0 0 0 0 0 0 0 0 0 0 0 0 0 0 0 0 0 0 0 0 0 0 0 0 0 0 0 0 0 0 0 0 0 0 0 0 0 0 0 0 0 0 0 0 0 0 0 0 0 0 0 0 0 0 0 0 0 0 0 0 0 0 0 0 0 0 0 0 0 0 0 0 0 0 0 0 0 0 0 0 0 0 0 0 0 0.015323635190725326538 0.066402420401573181152 0.066402420401573181152 0.015323635190725326538 0 0 0 0 0 0 0 0 0 0 0 0 0 0 0 0 0 0 0 0 0 0 0 0 0 0 0 0 0 0 0 0 0 0 0 0 0 0 0 0 0 0 0 0 0 0 0 0 0 0 0 0 0 0 0 0 0 0 0 0 0 0 0 0 0 0 0 0 0 0 0 0.081726051867008209229 0.29370298981666564941 0.22985452413558959961 0.048524841666221618652 0 0 0.030647270381450653076 0.1047115027904510498 0.091941818594932556152 0.1047115027904510498 0.086833931505680084229 0.030647270381450653076 0.030647270381450653076 0.010215756483376026154 0.010215756483376026154 0.081726051867008209229 0.22985453903675079346 0.31158059835433959961 0.40352240204811096191 0.46481692790985107422 0.53632724285125732422 0.65125447511672973633 0.44949328899383544922 0.099603623151779174805 0 0 0 0 0 0 0 0 0 0 0 0 0 0 0 0 0 0 0 0 0 0 0 0 0 0 0 0 0 0 0 0 0 0 0 0 0 0 0 0 0 0 0 0 0 0 0 0 0 0 0 0 0 0 0 0.010215756483376026154 0.030647270381450653076 0.010215756483376026154 0 0 0 0 0 0 0 0 0 0 0 0 0 0 0 0 0 0 0 0 0 0 0 0 0 
0 0 0 0 0 0 0 0 0 0 0 0 0 0 0 0 0 0 0 0 0 0 0 0 0 0 0 0 0 0 0 0 0 0 0 0 0 0 0 0 0 0 0 0 0 0 0 0 0 0 0 0 0 0 0 0 0 0 0 0 0 0 0 0 0 0 0 0 0 0 0 0 0 0 0 0 0 0 0 0 0 0 0 0 0 0 0 0 0 0 0 0 0 0 0 0 0 0 0 0 0 0 0 0 0 0 0 0 0 0 0 0 0 0 0 0 0 0 0 0 0 0 0 0 0 0 0 0 0 0 0 0 0 0 0 0 0 0 0 0 0 0 0 0 0 0 0 0 0 0 0 0 0 0 0 0 0 0 0 0 0 0 0 0 0 0 0 0 0 0 0 0 0 0 0 0 0 0 0 0 0 0 0 0 0 0 0 0 0 0 0 0 0 0 0 0 0 0 0 0 0 0 0 0 0 0 0 0 0 0 0 0 0 0 0 0 0 0 0 0 0 0 0 0 0 0 0 0 0 0 0 0 0 0 0 0 0 0 0 0 0 0 0 0 0 0 0 0 0 0 0 0 0 0 0 0 0 0 0 0 0 0 0 0 0 0 0 0 0 0 0 0 0 0 0 0 0 0 0 0 0 0 0 0 0 0 0 0 0 0.020431512966752052307 0.066402420401573181152 0.030647270381450653076 0.0051078782416880130768 0 0 0 0 0 0 0 0 0 0 0 0 0 0 0 0 0 0 0 0 0 0 0 0 0 0 0 0 0 0 0 0 0 0 0 0 0 0 0 0 0 0 0 0 0 0 0 0 0 0 0 0 0 0 0 0 0 0 0 0 0 0 0 0 0 0 0 0 0 0 0 0.094495743513107299805 0.32179632782936096191 0.21708482503890991211 0.040863025933504104614 0 0 0.028093332424759864807 0.10215757042169570923 0.1072654426097869873 0.1225890815258026123 0.089387871325016021729 0.030647270381450653076 0.030647270381450653076 0.010215756483376026154 0.0025539391208440065384 0.033201210200786590576 0.1251430213451385498 0.25283998250961303711 0.37542906403541564941 0.42395389080047607422 0.52866542339324951172 0.68445569276809692383 0.44438540935516357422 0.091941803693771362305 0 0 0 0 0 0 0 0 0 0 0 0 0 0 0 0 0 0 0 0 0 0 0 0 0 0 0 0 0 0 0 0 0 0 0 0 0 0 0 0 0 0 0 0 0 0 0 0 0 0 0 0 0 0 0 0.010215756483376026154 0.033201210200786590576 0.015323635190725326538 0.0025539391208440065384 0 0 0 0 0 0 0 0 0 0 0 0 0 0 0 0 0 0 0 0 0 0 0 0 
0 0 0 0 0 0 0 0 0 0 0 0 0 0 0 0 0 0 0 0 0 0 0 0 0 0 0 0 0 0 0 0 0 0 0 0 0 0 0 0 0 0 0 0 0 0 0 0 0 0 0 0 0 0 0 0 0 0 0 0 0 0 0 0 0 0 0 0 0 0 0 0 0 0 0 0 0 0 0 0 0 0 0 0 0 0 0 0 0 0 0 0 0 0 0 0 0 0 0 0 0 0 0 0 0 0 0 0 0 0 0 0 0 0 0 0 0 0 0 0 0 0 0 0 0 0 0 0 0 0 0 0 0 0 0 0 0 0 0 0 0 0 0 0 0 0 0 0 0 0 0 0 0 0 0 0 0 0 0 0 0 0 0 0 0 0 0 0 0 0 0 0 0 0 0 0 0 0 0 0 0 0 0 0 0 0 0 0 0 0 0 0 0 0 0 0 0 0 0 0 0 0 0 0 0 0 0 0 0 0 0 0 0 0 0 0 0 0 0 0 0 0 0 0 0 0 0 0 0 0 0 0 0 0 0 0 0 0 0 0 0 0 0 0 0 0 0 0 0 0 0 0 0 0 0 0 0 0 0 0 0 0 0 0 0 0 0 0 0 0 0 0 0 0 0 0 0 0 0 0 0 0 0 0 0 0 0 0 0 0.020431512966752052307 0.061294540762901306152 0.020431512966752052307 0 0 0 0 0 0 0 0 0 0 0 0 0 0 0 0 0 0 0 0 0 0 0 0 0 0 0 0 0 0 0 0 0 0 0 0 0 0 0 0 0 0 0 0 0 0 0 0 0 0 0 0 0 0 0 0 0 0 0 0 0 0 0 0 0 0 0 0 0 0 0 0.0051078782416880130768 0.11748119443655014038 0.36010542511940002441 0.19409938156604766846 0.028093332424759864807 0 0 0.022985454648733139038 0.081726051867008209229 0.094495750963687896729 0.1276969611644744873 0.091941818594932556152 0.030647270381450653076 0.030647270381450653076 0.010215756483376026154 0 0.012769696302711963654 0.063848480582237243652 0.16855998337268829346 0.34988966584205627441 0.42395389080047607422 0.56952840089797973633 0.76362776756286621094 0.43161571025848388672 0.076618179678916931152 0 0 0 0 0 0 0 0 0 0 0 0 0 0 0 0 0 0 0 0 0 0 0 0 0 0 0 0 0 0 0 0 0 0 0 0 0 0 0 0 0 0 0 0 0 0 0 0 0 0 0 0 0 0 0 0.007661817595362663269 0.033201210200786590576 0.035755150020122528076 0.012769696302711963654 0.0025539391208440065384 0 0 0 0 0 0 0 0 0 0 0 0 0 0 0 0 0 0 0 0 0 0 0 
0 0 0 0 0 0 0 0 0 0 0 0 0 0 0 0 0 0 0 0 0 0 0 0 0 0 0 0 0 0 0 0 0 0 0 0 0 0 0 0 0 0 0 0 0 0 0 0 0 0 0 0 0 0 0 0 0 0 0 0 0 0 0 0 0 0 0 0 0 0 0 0 0 0 0 0 0 0 0 0 0 0 0 0 0 0 0 0 0 0 0 0 0 0 0 0 0 0 0 0 0 0 0 0 0 0 0 0 0 0 0 0 0 0 0 0 0 0 0 0 0 0 0 0 0 0 0 0 0 0 0 0 0 0 0 0 0 0 0 0 0 0 0 0 0 0 0 0 0 0 0 0 0 0 0 0 0 0 0 0 0 0 0 0 0 0 0 0 0 0 0 0 0 0 0 0 0 0 0 0 0 0 0 0 0 0 0 0 0 0 0 0 0 0 0 0 0 0 0 0 0 0 0 0 0 0 0 0 0 0 0 0 0 0 0 0 0 0 0 0 0 0 0 0 0 0 0 0 0 0 0 0 0 0 0 0 0 0 0 0 0 0 0 0 0 0 0 0 0 0 0 0 0 0 0 0 0 0 0 0 0 0 0 0 0 0 0 0 0 0 0 0 0 0 0 0 0 0 0 0 0 0 0 0 0 0 0 0 0 0.020431512966752052307 0.061294540762901306152 0.020431512966752052307 0 0 0 0 0 0 0 0 0 0 0 0 0 0 0 0 0 0 0 0 0 0 0 0 0 0 0 0 0 0 0 0 0 0 0 0 0 0 0 0 0 0 0 0 0 0 0 0 0 0 0 0 0 0 0 0 0 0 0 0 0 0 0 0 0 0 0 0 0 0 0 0.020431512966752052307 0.16855998337268829346 0.36265936493873596191 0.14812846481800079346 0.015323635190725326538 0 0 0.017877575010061264038 0.076618179678916931152 0.10981938987970352173 0.1328048408031463623 0.091941818594932556152 0.030647270381450653076 0.033201210200786590576 0.017877575010061264038 0.007661817595362663269 0.010215756483376026154 0.043416965752840042114 0.13791270554065704346 0.32179632782936096191 0.44693934917449951172 0.66913205385208129883 0.84024596214294433594 0.36521330475807189941 0.048524841666221618652 0 0 0 0 0 0 0 0 0 0 0 0 0 0 0 0 0 0 0 0 0 0 0 0 0 0 0 0 0 0 0 0 0 0 0 0 0 0 0 0 0 0 0 0 0 0 0 0 0 0 0 0 0 0 0 0.0025539391208440065384 0.012769696302711963654 0.035755150020122528076 0.033201210200786590576 0.007661817595362663269 0 0 0 0 0 0 0 0 0 0 0 0 0 0 0 0 0 0 0 0 0 0 0 
0 0 0 0 0 0 0 0 0 0 0 0 0 0 0 0 0 0 0 0 0 0 0 0 0 0 0 0 0 0 0 0 0 0 0 0 0 0 0 0 0 0 0 0 0 0 0 0 0 0 0 0 0 0 0 0 0 0 0 0 0 0 0 0 0 0 0 0 0 0 0 0 0 0 0 0 0 0 0 0 0 0 0 0 0 0 0 0 0 0 0 0 0 0 0 0 0 0 0 0 0 0 0 0 0 0 0 0 0 0 0 0 0 0 0 0 0 0 0 0 0 0 0 0 0 0 0 0 0 0 0 0 0 0 0 0 0 0 0 0 0 0 0 0 0 0 0 0 0 0 0 0 0 0 0 0 0 0 0 0 0 0 0 0 0 0 0 0 0 0 0 0 0 0 0 0 0 0 0 0 0 0 0 0 0 0 0 0 0 0 0 0 0 0 0 0 0 0 0 0 0 0 0 0 0 0 0 0 0 0 0 0 0 0 0 0 0 0 0 0 0 0 0 0 0 0 0 0 0 0 0 0 0 0 0 0 0 0 0 0 0 0 0 0 0 0 0 0 0 0 0 0 0 0 0 0 0 0 0 0 0 0 0 0 0 0 0 0 0 0 0 0 0 0 0 0 0 0 0 0 0 0 0 0 0 0 0 0 0 0.020431512966752052307 0.061294540762901306152 0.020431512966752052307 0 0 0 0 0 0 0 0 0 0 0 0 0 0 0 0 0 0 0 0 0 0 0 0 0 0 0 0 0 0 0 0 0 0 0 0 0 0 0 0 0 0 0 0 0 0 0 0 0 0 0 0 0 0 0 0 0 0 0 0 0 0 0 0 0 0 0 0 0 0 0 0.040863025933504104614 0.21453088521957397461 0.32690420746803283691 0.1225890815258026123 0.010215756483376026154 0 0 0.010215756483376026154 0.058740600943565368652 0.1276969611644744873 0.1404666602611541748 0.091941818594932556152 0.028093332424759864807 0.030647270381450653076 0.035755150020122528076 0.030647270381450653076 0.010215756483376026154 0.017877575010061264038 0.1098193824291229248 0.31924238801002502441 0.50057208538055419922 0.75596594810485839844 0.78661322593688964844 0.25539392232894897461 0.020431512966752052307 0 0 0 0 0 0 0 0 0 0 0 0 0 0 0 0 0 0 0 0 0 0 0 0 0 0 0 0 0 0 0 0 0 0 0 0 0 0 0 0 0 0 0 0 0 0 0 0 0 0 0 0 0 0 0 0 0.0025539391208440065384 0.015323635190725326538 0.033201210200786590576 0.010215756483376026154 0 0 0 0 0 0 0 0 0 0 0 0 0 0 0 0 0 0 0 0 0 0 0 
0 0 0 0 0 0 0 0 0 0 0 0 0 0 0 0 0 0 0 0 0 0 0 0 0 0 0 0 0 0 0 0 0 0 0 0 0 0 0 0 0 0 0 0 0 0 0 0 0 0 0 0 0 0 0 0 0 0 0 0 0 0 0 0 0 0 0 0 0 0 0 0 0 0 0 0 0 0 0 0 0 0 0 0 0 0 0 0 0 0 0 0 0 0 0 0 0 0 0 0 0 0 0 0 0 0 0 0 0 0 0 0 0 0 0 0 0 0 0 0 0 0 0 0 0 0 0 0 0 0 0 0 0 0 0 0 0 0 0 0 0 0 0 0 0 0 0 0 0 0 0 0 0 0 0 0 0 0 0 0 0 0 0 0 0 0 0 0 0 0 0 0 0 0 0 0 0 0 0 0 0 0 0 0 0 0 0 0 0 0 0 0 0 0 0 0 0 0 0 0 0 0 0 0 0 0 0 0 0 0 0 0 0 0 0 0 0 0 0 0 0 0 0 0 0 0 0 0 0 0 0 0 0 0 0 0 0 0 0 0 0 0 0 0 0 0 0 0 0 0 0 0 0 0 0 0 0 0 0 0 0 0 0 0 0 0 0 0 0 0 0 0 0 0 0 0 0 0 0 0 0 0 0 0 0 0 0 0 0 0.020431512966752052307 0.061294540762901306152 0.020431512966752052307 0 0 0 0 0 0 0 0 0 0 0 0 0 0 0 0 0 0 0 0 0 0 0 0 0 0 0 0 0 0 0 0 0 0 0 0 0 0 0 0 0 0 0 0 0 0 0 0 0 0 0 0 0 0 0 0 0 0 0 0 0 0 0 0 0 0 0 0 0 0 0.0051078782416880130768 0.074064239859580993652 0.26816362142562866211 0.29370298981666564941 0.1047115027904510498 0.010215756483376026154 0 0 0.0025539391208440065384 0.035755150020122528076 0.1251430213451385498 0.1430206000804901123 0.091941818594932556152 0.022985450923442840576 0.007661817595362663269 0.017877575010061264038 0.033201210200786590576 0.010215756483376026154 0.010215756483376026154 0.10215757042169570923 0.33711996674537658691 0.57463628053665161133 0.81981444358825683594 0.70233327150344848633 0.20176120102405548096 0.010215756483376026154 0 0 0 0 0 0 0 0 0 0 0 0 0 0 0 0 0 0 0 0 0 0 0 0 0 0 0 0 0 0 0 0 0 0 0 0 0 0 0 0 0 0 0 0 0 0 0 0 0 0 0 0 0 0 0 0 0 0.010215756483376026154 0.030647270381450653076 0.010215756483376026154 0 0 0 0 0 0 0 0 0 0 0 0 0 0 0 0 0 0 0 0 0 0 0 
0 0 0 0 0 0 0 0 0 0 0 0 0 0 0 0 0 0 0 0 0 0 0 0 0 0 0 0 0 0 0 0 0 0 0 0 0 0 0 0 0 0 0 0 0 0 0 0 0 0 0 0 0 0 0 0 0 0 0 0 0 0 0 0 0 0 0 0 0 0 0 0 0 0 0 0 0 0 0 0 0 0 0 0 0 0 0 0 0 0 0 0 0 0 0 0 0 0 0 0 0 0 0 0 0 0 0 0 0 0 0 0 0 0 0 0 0 0 0 0 0 0 0 0 0 0 0 0 0 0 0 0 0 0 0 0 0 0 0 0 0 0 0 0 0 0 0 0 0 0 0 0 0 0 0 0 0 0 0 0 0 0 0 0 0 0 0 0 0 0 0 0 0 0 0 0 0 0 0 0 0 0 0 0 0 0 0 0 0 0 0 0 0 0 0 0 0 0 0 0 0 0 0 0 0 0 0 0 0 0 0 0 0 0 0 0 0 0 0 0 0 0 0 0 0 0 0 0 0 0 0 0 0 0 0 0 0 0 0 0 0 0 0 0 0 0 0 0 0 0 0 0 0 0 0 0 0 0 0 0 0 0 0 0 0 0 0 0 0 0 0 0 0 0 0 0 0 0 0 0 0 0 0 0 0 0 0 0 0.0051078782416880130768 0.030647270381450653076 0.066402420401573181152 0.020431512966752052307 0 0 0 0 0 0 0 0 0 0 0 0 0 0 0 0 0 0 0 0 0 0 0 0 0 0 0 0 0 0 0 0 0 0 0 0 0 0 0 0 0 0 0 0 0 0 0 0 0 0 0 0 0 0 0 0 0 0 0 0 0 0 0 0 0 0 0 0 0 0 0.030647270381450653076 0.16345210373401641846 0.34222784638404846191 0.26305574178695678711 0.081726051867008209229 0.007661817595362663269 0 0 0 0.030647270381450653076 0.1251430213451385498 0.1481284797191619873 0.094495750963687896729 0.020431512966752052307 0 0.010215756483376026154 0.030647270381450653076 0.010215756483376026154 0.010215756483376026154 0.097049683332443237305 0.36010542511940002441 0.69211751222610473633 0.83258420228958129883 0.60528361797332763672 0.17111392319202423096 0.010215756483376026154 0 0 0 0 0 0 0 0 0 0 0 0 0 0 0 0 0 0 0 0 0 0 0 0 0 0 0 0 0 0 0 0 0 0 0 0 0 0 0 0 0 0 0 0 0 0 0 0 0 0 0 0 0 0 0 0 0 0.010215756483376026154 0.030647270381450653076 0.010215756483376026154 0 0 0 0 0 0 0 0 0 0 0 0 0 0 0 0 0 0 0 0 0 0 0 
0 0 0 0 0 0 0 0 0 0 0 0 0 0 0 0 0 0 0 0 0 0 0 0 0 0 0 0 0 0 0 0 0 0 0 0 0 0 0 0 0 0 0 0 0 0 0 0 0 0 0 0 0 0 0 0 0 0 0 0 0 0 0 0 0 0 0 0 0 0 0 0 0 0 0 0 0 0 0 0 0 0 0 0 0 0 0 0 0 0 0 0 0 0 0 0 0 0 0 0 0 0 0 0 0 0 0 0 0 0 0 0 0 0 0 0 0 0 0 0 0 0 0 0 0 0 0 0 0 0 0 0 0 0 0 0 0 0 0 0 0 0 0 0 0 0 0 0 0 0 0 0 0 0 0 0 0 0 0 0 0 0 0 0 0 0 0 0 0 0 0 0 0 0 0 0 0 0 0 0 0 0 0 0 0 0 0 0 0 0 0 0 0 0 0 0 0 0 0 0 0 0 0 0 0 0 0 0 0 0 0 0 0 0 0 0 0 0 0 0 0 0 0 0 0 0 0 0 0 0 0 0 0 0 0 0 0 0 0 0 0 0 0 0 0 0 0 0 0 0 0 0 0 0 0 0 0 0 0 0 0 0 0 0 0 0 0 0 0 0 0 0 0 0 0 0 0 0 0 0 0 0 0 0 0 0 0 0 0.015323635190725326538 0.066402420401573181152 0.066402420401573181152 0.015323635190725326538 0 0 0 0 0 0 0 0 0 0 0 0 0 0 0 0 0 0 0 0 0 0 0 0 0 0 0 0 0 0 0 0 0 0 0 0 0 0 0 0 0 0 0 0 0 0 0 0 0 0 0 0 0 0 0 0 0 0 0 0 0 0 0 0 0 0 0 0 0 0 0.071510292589664459229 0.29370298981666564941 0.32690420746803283691 0.17366786301136016846 0.040863025933504104614 0.0025539391208440065384 0 0 0 0.028093332424759864807 0.1276969611644744873 0.17366786301136016846 0.1072654426097869873 0.022985454648733139038 0 0.010215756483376026154 0.030647270381450653076 0.010215756483376026154 0.010215756483376026154 0.081726051867008209229 0.33456602692604064941 0.74319624900817871094 0.81726056337356567383 0.54909688234329223633 0.1506824195384979248 0.010215756483376026154 0 0 0 0 0 0 0 0 0 0 0 0 0 0 0 0 0 0 0 0 0 0 0 0 0 0 0 0 0 0 0 0 0 0 0 0 0 0 0 0 0 0 0 0 0 0 0 0 0 0 0 0 0 0 0 0 0 0.010215756483376026154 0.033201210200786590576 0.015323635190725326538 0.0025539391208440065384 0 0 0 0 0 0 0 0 0 0 0 0 0 0 0 0 0 0 0 0 0 0 
0 0 0 0 0 0 0 0 0 0 0 0 0 0 0 0 0 0 0 0 0 0 0 0 0 0 0 0 0 0 0 0 0 0 0 0 0 0 0 0 0 0 0 0 0 0 0 0 0 0 0 0 0 0 0 0 0 0 0 0 0 0 0 0 0 0 0 0 0 0 0 0 0 0 0 0 0 0 0 0 0 0 0 0 0 0 0 0 0 0 0 0 0 0 0 0 0 0 0 0 0 0 0 0 0 0 0 0 0 0 0 0 0 0 0 0 0 0 0 0 0 0 0 0 0 0 0 0 0 0 0 0 0 0 0 0 0 0 0 0 0 0 0 0 0 0 0 0 0 0 0 0 0 0 0 0 0 0 0 0 0 0 0 0 0 0 0 0 0 0 0 0 0 0 0 0 0 0 0 0 0 0 0 0 0 0 0 0 0 0 0 0 0 0 0 0 0 0 0 0 0 0 0 0 0 0 0 0 0 0 0 0 0 0 0 0 0 0 0 0 0 0 0 0 0 0 0 0 0 0 0 0 0 0 0 0 0 0 0 0 0 0 0 0 0 0 0 0 0 0 0 0 0 0 0 0 0 0 0 0 0 0 0 0 0 0 0 0 0 0 0 0 0 0 0 0 0 0 0 0 0 0 0 0 0 0 0 0.0025539391208440065384 0.025539392605423927307 0.068956352770328521729 0.030647270381450653076 0.0051078782416880130768 0 0 0 0 0 0 0 0 0 0 0 0 0 0 0 0 0 0 0 0 0 0 0 0 0 0 0 0 0 0 0 0 0 0 0 0 0 0 0 0 0 0 0 0 0 0 0 0 0 0 0 0 0 0 0 0 0 0 0 0 0 0 0 0 0 0 0 0 0 0.007661817595362663269 0.1123733222484588623 0.33456599712371826172 0.20176120102405548096 0.097049690783023834229 0.022985454648733139038 0 0 0 0 0.020431512966752052307 0.1098193824291229248 0.19665330648422241211 0.13791270554065704346 0.033201210200786590576 0.0051078782416880130768 0.015323635190725326538 0.033201210200786590576 0.010215756483376026154 0.010215756483376026154 0.063848480582237243652 0.28859511017799377441 0.76107382774353027344 0.82492238283157348633 0.50823384523391723633 0.13791270554065704346 0.010215756483376026154 0 0 0 0 0 0 0 0 0 0 0 0 0 0 0 0 0 0 0 0 0 0 0 0 0 0 0 0 0 0 0 0 0 0 0 0 0 0 0 0 0 0 0 0 0 0 0 0 0 0 0 0 0 0 0 0 0 0.007661817595362663269 0.033201210200786590576 0.035755150020122528076 0.012769696302711963654 0.0025539391208440065384 0 0 0 0 0 0 0 0 0 0 0 0 0 0 0 0 0 0 0 0 0 
0 0 0 0 0 0 0 0 0 0 0 0 0 0 0 0 0 0 0 0 0 0 0 0 0 0 0 0 0 0 0 0 0 0 0 0 0 0 0 0 0 0 0 0 0 0 0 0 0 0 0 0 0 0 0 0 0 0 0 0 0 0 0 0 0 0 0 0 0 0 0 0 0 0 0 0 0 0 0 0 0 0 0 0 0 0 0 0 0 0 0 0 0 0 0 0 0 0 0 0 0 0 0 0 0 0 0 0 0 0 0 0 0 0 0 0 0 0 0 0 0 0 0 0 0 0 0 0 0 0 0 0 0 0 0 0 0 0 0 0 0 0 0 0 0 0 0 0 0 0 0 0 0 0 0 0 0 0 0 0 0 0 0 0 0 0 0 0 0 0 0 0 0 0 0 0 0 0 0 0 0 0 0 0 0 0 0 0 0 0 0 0 0 0 0 0 0 0 0 0 0 0 0 0 0 0 0 0 0 0 0 0 0 0 0 0 0 0 0 0 0 0 0 0 0 0 0 0 0 0 0 0 0 0 0 0 0 0 0 0 0 0 0 0 0 0 0 0 0 0 0 0 0 0 0 0 0 0 0 0 0 0 0 0 0 0 0 0 0 0 0 0 0 0 0 0 0 0 0 0 0 0 0 0 0 0 0 0.010215756483376026154 0.048524845391511917114 0.066402420401573181152 0.017877575010061264038 0 0 0 0 0 0 0 0 0 0 0 0 0 0 0 0 0 0 0 0 0 0 0 0 0 0 0 0 0 0 0 0 0 0 0 0 0 0 0 0 0 0 0 0 0 0 0 0 0 0 0 0 0 0 0 0 0 0 0 0 0 0 0 0 0 0 0 0 0 0 0.025539392605423927307 0.17877574265003204346 0.33201205730438232422 0.13791270554065704346 0.071510300040245056152 0.020431512966752052307 0 0 0 0 0.010215756483376026154 0.081726051867008209229 0.19665330648422241211 0.16345210373401641846 0.074064239859580993652 0.022985450923442840576 0.033201210200786590576 0.033201210200786590576 0.007661817595362663269 0.010215756483376026154 0.053632721304893493652 0.25283998250961303711 0.76107382774353027344 0.88621687889099121094 0.51844966411590576172 0.1328048408031463623 0.010215756483376026154 0 0 0 0 0 0 0 0 0 0 0 0 0 0 0 0 0 0 0 0 0 0 0 0 0 0 0 0 0 0 0 0 0 0 0 0 0 0 0 0 0 0 0 0 0 0 0 0 0 0 0 0 0 0 0 0 0 0.0025539391208440065384 0.012769696302711963654 0.035755150020122528076 0.035755150020122528076 0.012769696302711963654 0.0025539391208440065384 0 0 0 0 0 0 0 0 0 0 0 0 0 0 0 0 0 0 0 0 
0 0 0 0 0 0 0 0 0 0 0 0 0 0 0 0 0 0 0 0 0 0 0 0 0 0 0 0 0 0 0 0 0 0 0 0 0 0 0 0 0 0 0 0 0 0 0 0 0 0 0 0 0 0 0 0 0 0 0 0 0 0 0 0 0 0 0 0 0 0 0 0 0 0 0 0 0 0 0 0 0 0 0 0 0 0 0 0 0 0 0 0 0 0 0 0 0 0 0 0 0 0 0 0 0 0 0 0 0 0 0 0 0 0 0 0 0 0 0 0 0 0 0 0 0 0 0 0 0 0 0 0 0 0 0 0 0 0 0 0 0 0 0 0 0 0 0 0 0 0 0 0 0 0 0 0 0 0 0 0 0 0 0 0 0 0 0 0 0 0 0 0 0 0 0 0 0 0 0 0 0 0 0 0 0 0 0 0 0 0 0 0 0 0 0 0 0 0 0 0 0 0 0 0 0 0 0 0 0 0 0 0 0 0 0 0 0 0 0 0 0 0 0 0 0 0 0 0 0 0 0 0 0 0 0 0 0 0 0 0 0 0 0 0 0 0 0 0 0 0 0 0 0 0 0 0 0 0 0 0 0 0 0 0 0 0 0 0 0 0 0 0 0 0 0 0 0 0 0 0 0 0 0 0 0 0 0.0051078782416880130768 0.028093332424759864807 0.071510300040245056152 0.048524845391511917114 0.010215756483376026154 0 0 0 0 0 0 0 0 0 0 0 0 0 0 0 0 0 0 0 0 0 0 0 0 0 0 0 0 0 0 0 0 0 0 0 0 0 0 0 0 0 0 0 0 0 0 0 0 0 0 0 0 0 0 0 0 0 0 0 0 0 0 0 0 0 0 0 0 0 0 0.045970901846885681152 0.21708482503890991211 0.30902665853500366211 0.14557452499866485596 0.063848480582237243652 0.015323635190725326538 0 0 0 0 0.0025539391208440065384 0.051078781485557556152 0.18132968246936798096 0.19665332138538360596 0.1532363593578338623 0.048524845391511917114 0.033201210200786590576 0.015323635190725326538 0.0025539391208440065384 0.010215756483376026154 0.051078785210847854614 0.22730058431625366211 0.71254903078079223633 0.95006531476974487305 0.56952840089797973633 0.14557452499866485596 0.010215756483376026154 0 0 0 0 0 0 0 0 0 0 0 0 0 0 0 0 0 0 0 0 0 0 0 0 0 0 0 0 0 0 0 0 0 0 0 0 0 0 0 0 0 0 0 0 0 0 0 0 0 0 0 0 0 0 0 0 0 0 0.0025539391208440065384 0.012769696302711963654 0.035755150020122528076 0.033201210200786590576 0.007661817595362663269 0 0 0 0 0 0 0 0 0 0 0 0 0 0 0 0 0 0 0 0 
0 0 0 0 0 0 0 0 0 0 0 0 0 0 0 0 0 0 0 0 0 0 0 0 0 0 0 0 0 0 0 0 0 0 0 0 0 0 0 0 0 0 0 0 0 0 0 0 0 0 0 0 0 0 0 0 0 0 0 0 0 0 0 0 0 0 0 0 0 0 0 0 0 0 0 0 0 0 0 0 0 0 0 0 0 0 0 0 0 0 0 0 0 0 0 0 0 0 0 0 0 0 0 0 0 0 0 0 0 0 0 0 0 0 0 0 0 0 0 0 0 0 0 0 0 0 0 0 0 0 0 0 0 0 0 0 0 0 0 0 0 0 0 0 0 0 0 0 0 0 0 0 0 0 0 0 0 0 0 0 0 0 0 0 0 0 0 0 0 0 0 0 0 0 0 0 0 0 0 0 0 0 0 0 0 0 0 0 0 0 0 0 0 0 0 0 0 0 0 0 0 0 0 0 0 0 0 0 0 0 0 0 0 0 0 0 0 0 0 0 0 0 0 0 0 0 0 0 0 0 0 0 0 0 0 0 0 0 0 0 0 0 0 0 0 0 0 0 0 0 0 0 0 0 0 0 0 0 0 0 0 0 0 0 0 0 0 0 0 0 0 0 0 0 0 0 0 0 0 0 0 0 0 0 0 0 0.010215756483376026154 0.056186664849519729614 0.063848480582237243652 0.020431512966752052307 0.0025539391208440065384 0 0 0 0 0 0 0 0 0 0 0 0 0 0 0 0 0 0 0 0 0 0 0 0 0 0 0 0 0 0 0 0 0 0 0 0 0 0 0 0 0 0 0 0 0 0 0 0 0 0 0 0 0 0 0 0 0 0 0 0 0 0 0 0 0 0 0 0 0 0.0025539391208440065384 0.071510292589664459229 0.27327147126197814941 0.28348723053932189941 0.1072654426097869873 0.022985450923442840576 0.0051078782416880130768 0 0 0 0 0 0.030647270381450653076 0.1225890815258026123 0.1838836371898651123 0.21453088521957397461 0.071510300040245056152 0.030647270381450653076 0.010215756483376026154 0 0.010215756483376026154 0.051078785210847854614 0.20431514084339141846 0.66402417421340942383 1.0266835689544677734 0.70488721132278442383 0.17877574265003204346 0.010215756483376026154 0 0 0 0 0 0 0 0 0 0 0 0 0 0 0 0 0 0 0 0 0 0 0 0 0 0 0 0 0 0 0 0 0 0 0 0 0 0 0 0 0 0 0 0 0 0 0 0 0 0 0 0 0 0 0 0 0 0 0 0.0025539391208440065384 0.012769696302711963654 0.028093332424759864807 0.007661817595362663269 0 0 0 0 0 0 0 0 0 0 0 0 0 0 0 0 0 0 0 0 
0 0 0 0 0 0 0 0 0 0 0 0 0 0 0 0 0 0 0 0 0 0 0 0 0 0 0 0 0 0 0 0 0 0 0 0 0 0 0 0 0 0 0 0 0 0 0 0 0 0 0 0 0 0 0 0 0 0 0 0 0 0 0 0 0 0 0 0 0 0 0 0 0 0 0 0 0 0 0 0 0 0 0 0 0 0 0 0 0 0 0 0 0 0 0 0 0 0 0 0 0 0 0 0 0 0 0 0 0 0 0 0 0 0 0 0 0 0 0 0 0 0 0 0 0 0 0 0 0 0 0 0 0 0 0 0 0 0 0 0 0 0 0 0 0 0 0 0 0 0 0 0 0 0 0 0 0 0 0 0 0 0 0 0 0 0 0 0 0 0 0 0 0 0 0 0 0 0 0 0 0 0 0 0 0 0 0 0 0 0 0 0 0 0 0 0 0 0 0 0 0 0 0 0 0 0 0 0 0 0 0 0 0 0 0 0 0 0 0 0 0 0 0 0 0 0 0 0 0 0 0 0 0 0 0 0 0 0 0 0 0 0 0 0 0 0 0 0 0 0 0 0 0 0 0 0 0 0 0 0 0 0 0 0 0 0 0 0 0 0 0 0 0 0 0 0 0 0 0 0 0 0 0 0 0 0 0.0051078782416880130768 0.015323635190725326538 0.015323635190725326538 0.0051078782416880130768 0 0 0 0 0 0 0 0 0 0 0 0 0 0 0 0 0 0 0 0 0 0 0 0 0 0 0 0 0 0 0 0 0 0 0 0 0 0 0 0 0 0 0 0 0 0 0 0 0 0 0 0 0 0 0 0 0 0 0 0 0 0 0 0 0 0 0 0 0 0 0.010215756483376026154 0.1098193824291229248 0.29625695943832397461 0.22219270467758178711 0.076618179678916931152 0.010215756483376026154 0 0 0 0 0 0 0.012769696302711963654 0.053632721304893493652 0.1455745398998260498 0.25539392232894897461 0.091941818594932556152 0.033201210200786590576 0.010215756483376026154 0 0.010215756483376026154 0.051078785210847854614 0.17877574265003204346 0.58995991945266723633 1.0190217494964599609 0.79938292503356933594 0.21197694540023803711 0.010215756483376026154 0 0 0 0 0 0 0 0 0 0 0 0 0 0 0 0 0 0 0 0 0 0 0 0 0 0 0 0 0 0 0 0 0 0 0 0 0 0 0 0 0 0 0 0 0 0 0 0 0 0 0 0 0 0 0 0 0 0 0 0 0.0025539391208440065384 0.0051078782416880130768 0.0025539391208440065384 0 0 0 0 0 0 0 0 0 0 0 0 0 0 0 0 0 0 0 0 
0 0 0 0 0 0 0 0 0 0 0 0 0 0 0 0 0 0 0 0 0 0 0 0 0 0 0 0 0 0 0 0 0 0 0 0 0 0 0 0 0 0 0 0 0 0 0 0 0 0 0 0 0 0 0 0 0 0 0 0 0 0 0 0 0 0 0 0 0 0 0 0 0 0 0 0 0 0 0 0 0 0 0 0 0 0 0 0 0 0 0 0 0 0 0 0 0 0 0 0 0 0 0 0 0 0 0 0 0 0 0 0 0 0 0 0 0 0 0 0 0 0 0 0 0 0 0 0 0 0 0 0 0 0 0 0 0 0 0 0 0 0 0 0 0 0 0 0 0 0 0 0 0 0 0 0 0 0 0 0 0 0 0 0 0 0 0 0 0 0 0 0 0 0 0 0 0 0 0 0 0 0 0 0 0 0 0 0 0 0 0 0 0 0 0 0 0 0 0 0 0 0 0 0 0 0 0 0 0 0 0 0 0 0 0 0 0 0 0 0 0 0 0 0 0 0 0 0 0 0 0 0 0 0 0 0 0 0 0 0 0 0 0 0 0 0 0 0 0 0 0 0 0 0 0 0 0 0 0 0 0 0 0 0 0 0 0 0 0 0 0 0 0 0 0 0 0 0 0 0 0 0 0 0 0 0 0 0 0 0 0 0 0 0 0 0 0 0 0 0 0 0 0 0 0 0 0 0 0 0 0 0 0 0 0 0 0 0 0 0 0 0 0 0 0 0 0 0 0 0 0 0 0 0 0 0 0 0 0 0 0 0 0 0 0 0 0 0 0 0 0 0 0 0 0 0 0 0 0 0 0.017877575010061264038 0.13535876572132110596 0.28859513998031616211 0.18132968246936798096 0.061294540762901306152 0.010215756483376026154 0 0 0 0 0 0 0.0025539391208440065384 0.010215756483376026154 0.091941803693771362305 0.25283998250961303711 0.11492726951837539673 0.038309089839458465576 0.010215756483376026154 0 0.007661817595362663269 0.045970901846885681152 0.14812846481800079346 0.47503265738487243652 0.96283501386642456055 0.85812354087829589844 0.24007026851177215576 0.010215756483376026154 0 0 0 0 0 0 0 0 0 0 0 0 0 0 0 0 0 0 0 0 0 0 0 0 0 0 0 0 0 0 0 0 0 0 0 0 0 0 0 0 0 0 0 0 0 0 0 0 0 0 0 0 0 0 0 0 0 0 0 0 0 0 0 0 0 0 0 0 0 0 0 0 0 0 0 0 0 0 0 0 0 0 0 
0 0 0 0 0 0 0 0 0 0 0 0 0 0 0 0 0 0 0 0 0 0 0 0 0 0 0 0 0 0 0 0 0 0 0 0 0 0 0 0 0 0 0 0 0 0 0 0 0 0 0 0 0 0 0 0 0 0 0 0 0 0 0 0 0 0 0 0 0 0 0 0 0 0 0 0 0 0 0 0 0 0 0 0 0 0 0 0 0 0 0 0 0 0 0 0 0 0 0 0 0 0 0 0 0 0 0 0 0 0 0 0 0 0 0 0 0 0 0 0 0 0 0 0 0 0 0 0 0 0 0 0 0 0 0 0 0 0 0 0 0 0 0 0 0 0 0 0 0 0 0 0 0 0 0 0 0 0 0 0 0 0 0 0 0 0 0 0 0 0 0 0 0 0 0 0 0 0 0 0 0 0 0 0 0 0 0 0 0 0 0 0 0 0 0 0 0 0 0 0 0 0 0 0 0 0 0 0 0 0 0 0 0 0 0 0 0 0 0 0 0 0 0 0 0 0 0 0 0 0 0 0 0 0 0 0 0 0 0 0 0 0 0 0 0 0 0 0 0 0 0 0 0 0 0 0 0 0 0 0 0 0 0 0 0 0 0 0 0 0 0 0 0 0 0 0 0 0 0 0 0 0 0 0 0 0 0 0 0 0 0 0 0 0 0 0 0 0 0 0 0 0 0 0 0 0 0 0 0 0 0 0 0 0 0 0 0 0 0 0 0 0 0 0 0 0 0 0 0 0 0 0 0 0 0 0 0 0 0 0 0 0 0 0 0 0 0 0 0 0 0 0 0 0 0 0 0 0 0 0 0.020431512966752052307 0.13535876572132110596 0.26305574178695678711 0.1506824195384979248 0.053632721304893493652 0.010215756483376026154 0 0 0 0 0 0 0 0 0.074064232409000396729 0.23496238887310028076 0.1251430213451385498 0.045970909297466278076 0.010215756483376026154 0 0.0025539391208440065384 0.025539392605423927307 0.1276969611644744873 0.41373816132545471191 0.92197203636169433594 0.96028113365173339844 0.29881086945533752441 0.028093330562114715576 0.007661817595362663269 0.0025539391208440065384 0 0 0 0 0 0 0 0 0 0 0 0 0 0 0 0 0 0 0 0 0 0 0 0 0 0 0 0 0 0 0 0 0 0 0 0 0 0 0 0 0 0 0 0 0 0 0 0 0 0 0 0 0 0 0 0 0 0 0 0 0 0 0 0 0 0 0 0 0 0 0 0 0 0 0 0 0 0 0 0 0 
0 0 0 0 0 0 0 0 0 0 0 0 0 0 0 0 0 0 0 0 0 0 0 0 0 0 0 0 0 0 0 0 0 0 0 0 0 0 0 0 0 0 0 0 0 0 0 0 0 0 0 0 0 0 0 0 0 0 0 0 0 0 0 0 0 0 0 0 0 0 0 0 0 0 0 0 0 0 0 0 0 0 0 0 0 0 0 0 0 0 0 0 0 0 0 0 0 0 0 0 0 0 0 0 0 0 0 0 0 0 0 0 0 0 0 0 0 0 0 0 0 0 0 0 0 0 0 0 0 0 0 0 0 0 0 0 0 0 0 0 0 0 0 0 0 0 0 0 0 0 0 0 0 0 0 0 0 0 0 0 0 0 0 0 0 0 0 0 0 0 0 0 0 0 0 0 0 0 0 0 0 0 0 0 0 0 0 0 0 0 0 0 0 0 0 0 0 0 0 0 0 0 0 0 0 0 0 0 0 0 0 0 0 0 0 0 0 0 0 0 0 0 0 0 0 0 0 0 0 0 0 0 0 0 0 0 0 0 0 0 0 0 0 0 0 0 0 0 0 0 0 0 0 0 0 0 0 0 0 0 0 0 0 0 0 0 0 0 0 0 0 0 0 0 0 0 0 0 0 0 0 0 0 0 0 0 0 0 0 0 0 0 0 0 0 0 0 0 0 0 0 0 0 0 0 0 0 0 0 0 0 0 0 0 0 0 0 0 0 0 0 0 0 0 0 0 0 0 0 0 0 0 0 0 0 0 0 0 0 0 0 0 0 0 0 0 0 0 0 0 0 0 0 0 0 0 0 0 0 0 0.022985454648733139038 0.13791270554065704346 0.25794786214828491211 0.14302058517932891846 0.051078785210847854614 0.010215756483376026154 0 0 0 0 0 0 0 0 0.068956352770328521729 0.23751634359359741211 0.16345210373401641846 0.053632721304893493652 0.007661817595362663269 0 0 0.020431512966752052307 0.1174812018871307373 0.37798297405242919922 0.89387869834899902344 1.0956398248672485352 0.45204722881317138672 0.089387871325016021729 0.038309089839458465576 0.010215756483376026154 0 0 0 0 0 0 0 0 0 0 0 0 0 0 0 0 0 0 0 0 0 0 0 0 0 0 0 0 0 0 0 0 0 0 0 0 0 0 0 0 0 0 0 0 0 0 0 0 0 0 0 0 0 0 0 0 0 0 0 0 0 0 0 0 0 0 0 0 0 0 0 0 0 0 0 0 0 0 0 0 0 
0 0 0 0 0 0 0 0 0 0 0 0 0 0 0 0 0 0 0 0 0 0 0 0 0 0 0 0 0 0 0 0 0 0 0 0 0 0 0 0 0 0 0 0 0 0 0 0 0 0 0 0 0 0 0 0 0 0 0 0 0 0 0 0 0 0 0 0 0 0 0 0 0 0 0 0 0 0 0 0 0 0 0 0 0 0 0 0 0 0 0 0 0 0 0 0 0 0 0 0 0 0 0 0 0 0 0 0 0 0 0 0 0 0 0 0 0 0 0 0 0 0 0 0 0 0 0 0 0 0 0 0 0 0 0 0 0 0 0 0 0 0 0 0 0 0 0 0 0 0 0 0 0 0 0 0 0 0 0 0 0 0 0 0 0 0 0 0 0 0 0 0 0 0 0 0 0 0 0 0 0 0 0 0 0 0 0 0 0 0 0 0 0 0 0 0 0 0 0 0 0 0 0 0 0 0 0 0 0 0 0 0 0 0 0 0 0 0 0 0 0 0 0 0 0 0 0 0 0 0 0 0 0 0 0 0 0 0 0 0 0 0 0 0 0 0 0 0 0 0 0 0 0 0 0 0 0 0 0 0 0 0 0 0 0 0 0 0 0 0 0 0 0 0 0 0 0 0 0 0 0 0 0 0 0 0 0 0 0 0 0 0 0 0 0 0 0 0 0 0 0 0 0 0 0 0 0 0 0 0 0 0 0 0 0 0 0 0 0 0 0 0 0 0 0 0 0 0 0 0 0 0 0 0 0 0 0 0 0 0 0 0 0 0 0 0 0 0 0 0 0 0 0 0 0 0 0 0 0 0 0.028093332424759864807 0.1557902991771697998 0.25794786214828491211 0.14046664535999298096 0.051078785210847854614 0.010215756483376026154 0 0 0 0 0 0 0 0 0.061294540762901306152 0.22474664449691772461 0.18643754720687866211 0.045970901846885681152 0.0025539391208440065384 0 0 0.020431512966752052307 0.1047115027904510498 0.29881089925765991211 0.81215268373489379883 1.1952435970306396484 0.65636235475540161133 0.20686906576156616211 0.10215757042169570923 0.025539390742778778076 0 0 0 0 0 0 0 0 0 0 0 0 0 0 0 0 0 0 0 0 0 0 0 0 0 0 0 0 0 0 0 0 0 0 0 0 0 0 0 0 0 0 0 0 0 0 0 0 0 0 0 0 0 0 0 0 0 0 0 0 0 0 0 0 0 0 0 0 0 0 0 0 0 0 0 0 0 0 0 0 0 
0 0 0 0 0 0 0 0 0 0 0 0 0 0 0 0 0 0 0 0 0 0 0 0 0 0 0 0 0 0 0 0 0 0 0 0 0 0 0 0 0 0 0 0 0 0 0 0 0 0 0 0 0 0 0 0 0 0 0 0 0 0 0 0 0 0 0 0 0 0 0 0 0 0 0 0 0 0 0 0 0 0 0 0 0 0 0 0 0 0 0 0 0 0 0 0 0 0 0 0 0 0 0 0 0 0 0 0 0 0 0 0 0 0 0 0 0 0 0 0 0 0 0 0 0 0 0 0 0 0 0 0 0 0 0 0 0 0 0 0 0 0 0 0 0 0 0 0 0 0 0 0 0 0 0 0 0 0 0 0 0 0 0 0 0 0 0 0 0 0 0 0 0 0 0 0 0 0 0 0 0 0 0 0 0 0 0 0 0 0 0 0 0 0 0 0 0 0 0 0 0 0 0 0 0 0 0 0 0 0 0 0 0 0 0 0 0 0 0 0 0 0 0 0 0 0 0 0 0 0 0 0 0 0 0 0 0 0 0 0 0 0 0 0 0 0 0 0 0 0 0 0 0 0 0 0 0 0 0 0 0 0 0 0 0 0 0 0 0 0 0 0 0 0 0 0 0 0 0 0 0 0 0 0 0 0 0 0 0 0 0 0 0 0 0 0 0 0 0 0 0 0 0 0 0 0 0 0 0 0 0 0 0 0 0 0 0 0 0 0 0 0 0 0 0 0 0 0 0 0 0 0 0 0 0 0 0 0 0 0 0 0 0 0 0 0 0 0 0 0 0 0 0 0 0 0 0 0 0 0 0.030647270381450653076 0.1557902991771697998 0.24007028341293334961 0.13535876572132110596 0.051078785210847854614 0.010215756483376026154 0 0 0 0 0 0 0 0 0.051078785210847854614 0.20176118612289428711 0.20686906576156616211 0.063848480582237243652 0.007661817595362663269 0 0 0.017877575010061264038 0.086833931505680084229 0.21708482503890991211 0.61039149761199951172 1.0854240655899047852 0.84279990196228027344 0.44183146953582763672 0.21963876485824584961 0.051078785210847854614 0.0025539391208440065384 0 0 0 0 0 0 0 0 0 0 0 0 0 0 0 0 0 0 0 0 0 0 0 0 0 0 0 0 0 0 0 0 0 0 0 0 0 0 0 0 0 0 0 0 0 0 0 0 0 0 0 0 0 0 0 0 0 0 0 0 0 0 0 0 0 0 0 0 0 0 0 0 0 0 0 0 0 0 0 0 
0 0 0 0 0 0 0 0 0 0 0 0 0 0 0 0 0 0 0 0 0 0 0 0 0 0 0 0 0 0 0 0 0 0 0 0 0 0 0 0 0 0 0 0 0 0 0 0 0 0 0 0 0 0 0 0 0 0 0 0 0 0 0 0 0 0 0 0 0 0 0 0 0 0 0 0 0 0 0 0 0 0 0 0 0 0 0 0 0 0 0 0 0 0 0 0 0 0 0 0 0 0 0 0 0 0 0 0 0 0 0 0 0 0 0 0 0 0 0 0 0 0 0 0 0 0 0 0 0 0 0 0 0 0 0 0 0 0 0 0 0 0 0 0 0 0 0 0 0 0 0 0 0 0 0 0 0 0 0 0 0 0 0 0 0 0 0 0 0 0 0 0 0 0 0 0 0 0 0 0 0 0 0 0 0 0 0 0 0 0 0 0 0 0 0 0 0 0 0 0 0 0 0 0 0 0 0 0 0 0 0 0 0 0 0 0 0 0 0 0 0 0 0 0 0 0 0 0 0 0 0 0 0 0 0 0 0 0 0 0 0 0 0 0 0 0 0 0 0 0 0 0 0 0 0 0 0 0 0 0 0 0 0 0 0 0 0 0 0 0 0 0 0 0 0 0 0 0 0 0 0 0 0 0 0 0 0 0 0 0 0 0 0 0 0 0 0 0 0 0 0 0 0 0 0 0 0 0 0 0 0 0 0 0 0 0 0 0 0 0 0 0 0 0 0 0 0 0 0 0 0 0 0 0 0 0 0 0 0 0 0 0 0 0 0 0 0 0 0 0 0 0 0 0 0 0 0 0 0 0 0.030647270381450653076 0.1583442389965057373 0.24517816305160522461 0.13791270554065704346 0.051078785210847854614 0.010215756483376026154 0 0 0 0 0 0 0 0.0051078782416880130768 0.053632721304893493652 0.17622180283069610596 0.20431512594223022461 0.1251430213451385498 0.038309089839458465576 0.017877575010061264038 0.010215756483376026154 0.015323635190725326538 0.061294540762901306152 0.16345210373401641846 0.48269450664520263672 0.89643263816833496094 0.81726050376892089844 0.55931264162063598633 0.32435026764869689941 0.1098193824291229248 0.015323635190725326538 0 0 0 0 0 0 0 0 0 0 0 0 0 0 0 0 0 0 0 0 0 0 0 0 0 0 0 0 0 0 0 0 0 0 0 0 0 0 0 0 0 0 0 0 0 0 0 0 0 0 0 0 0 0 0 0 0 0 0 0 0 0 0 0 0 0 0 0 0 0 0 0 0 0 0 0 0 0 0 0 
0 0 0 0 0 0 0 0 0 0 0 0 0 0 0 0 0 0 0 0 0 0 0 0 0 0 0 0 0 0 0 0 0 0 0 0 0 0 0 0 0 0 0 0 0 0 0 0 0 0 0 0 0 0 0 0 0 0 0 0 0 0 0 0 0 0 0 0 0 0 0 0 0 0 0 0 0 0 0 0 0 0 0 0 0 0 0 0 0 0 0 0 0 0 0 0 0 0 0 0 0 0 0 0 0 0 0 0 0 0 0 0 0 0 0 0 0 0 0 0 0 0 0 0 0 0 0 0 0 0 0 0 0 0 0 0 0 0 0 0 0 0 0 0 0 0 0 0 0 0 0 0 0 0 0 0 0 0 0 0 0 0 0 0 0 0 0 0 0 0 0 0 0 0 0 0 0 0 0 0 0 0 0 0 0 0 0 0 0 0 0 0 0 0 0 0 0 0 0 0 0 0 0 0 0 0 0 0 0 0 0 0 0 0 0 0 0 0 0 0 0 0 0 0 0 0 0 0 0 0 0 0 0 0 0 0 0 0 0 0 0 0 0 0 0 0 0 0 0 0 0 0 0 0 0 0 0 0 0 0 0 0 0 0 0 0 0 0 0 0 0 0 0 0 0 0 0 0 0 0 0 0 0 0 0 0 0 0 0 0 0 0 0 0 0 0 0 0 0 0 0 0 0 0 0 0 0 0 0 0 0 0 0 0 0 0 0 0 0 0 0 0 0 0 0 0 0 0 0 0 0 0 0 0 0 0 0 0 0 0 0 0 0 0 0 0 0 0 0 0 0 0 0 0 0 0 0 0 0 0 0.025539392605423927307 0.16345210373401641846 0.29370301961898803711 0.1583442389965057373 0.053632721304893493652 0.010215756483376026154 0 0 0 0 0 0 0 0.015323635190725326538 0.086833931505680084229 0.1557902991771697998 0.13791270554065704346 0.1200351417064666748 0.079172119498252868652 0.063848480582237243652 0.038309089839458465576 0.015323635190725326538 0.051078785210847854614 0.1532363593578338623 0.37542906403541564941 0.72531872987747192383 0.84024596214294433594 0.70488721132278442383 0.49291023612022399902 0.24262420833110809326 0.05874059721827507019 0.0051078782416880130768 0 0 0 0 0 0 0 0 0 0 0 0 0 0 0 0 0 0 0 0 0 0 0 0 0 0 0 0 0 0 0 0 0 0 0 0 0 0 0 0 0 0 0 0 0 0 0 0 0 0 0 0 0 0 0 0 0 0 0 0 0 0 0 0 0 0 0 0 0 0 0 0 0 0 0 0 0 0 0 
0 0 0 0 0 0 0 0 0 0 0 0 0 0 0 0 0 0 0 0 0 0 0 0 0 0 0 0 0 0 0 0 0 0 0 0 0 0 0 0 0 0 0 0 0 0 0 0 0 0 0 0 0 0 0 0 0 0 0 0 0 0 0 0 0 0 0 0 0 0 0 0 0 0 0 0 0 0 0 0 0 0 0 0 0 0 0 0 0 0 0 0 0 0 0 0 0 0 0 0 0 0 0 0 0 0 0 0 0 0 0 0 0 0 0 0 0 0 0 0 0 0 0 0 0 0 0 0 0 0 0 0 0 0 0 0 0 0 0 0 0 0 0 0 0 0 0 0 0 0 0 0 0 0 0 0 0 0 0 0 0 0 0 0 0 0 0 0 0 0 0 0 0 0 0 0 0 0 0 0 0 0 0 0 0 0 0 0 0 0 0 0 0 0 0 0 0 0 0 0 0 0 0 0 0 0 0 0 0 0 0 0 0 0 0 0 0 0 0 0 0 0 0 0 0 0 0 0 0 0 0 0 0 0 0 0 0 0 0 0 0 0 0 0 0 0 0 0 0 0 0 0 0 0 0 0 0 0 0 0 0 0 0 0 0 0 0 0 0 0 0 0 0 0 0 0 0 0 0 0 0 0 0 0 0 0 0 0 0 0 0 0 0 0 0 0 0 0 0 0 0 0 0 0 0 0 0 0 0 0 0 0 0 0 0 0 0 0 0 0 0 0 0 0 0 0 0 0 0 0 0 0 0 0 0 0 0 0 0 0 0 0 0 0 0 0 0 0 0 0 0 0 0 0 0 0 0 0 0 0 0.012769696302711963654 0.1328048408031463623 0.33456599712371826172 0.18643754720687866211 0.051078785210847854614 0.007661817595362663269 0 0 0 0 0 0 0.0025539391208440065384 0.025539392605423927307 0.089387871325016021729 0.11237332969903945923 0.1047115027904510498 0.074064239859580993652 0.048524845391511917114 0.058740600943565368652 0.045970901846885681152 0.012769696302711963654 0.028093332424759864807 0.1200351417064666748 0.28604117035865783691 0.54143506288528442383 0.80449080467224121094 0.83003026247024536133 0.65891629457473754883 0.43672358989715576172 0.1532363593578338623 0.020431512966752052307 0 0 0 0 0 0 0 0 0 0 0 0 0 0 0 0 0 0 0 0 0 0 0 0 0 0 0 0 0 0 0 0 0 0 0 0 0 0 0 0 0 0 0 0 0 0 0 0 0 0 0 0 0 0 0 0 0 0 0 0 0 0 0 0 0 0 0 0 0 0 0 0 0 0 0 0 0 0 0 
0 0 0 0 0 0 0 0 0 0 0 0 0 0 0 0 0 0 0 0 0 0 0 0 0 0 0 0 0 0 0 0 0 0 0 0 0 0 0 0 0 0 0 0 0 0 0 0 0 0 0 0 0 0 0 0 0 0 0 0 0 0 0 0 0 0 0 0 0 0 0 0 0 0 0 0 0 0 0 0 0 0 0 0 0 0 0 0 0 0 0 0 0 0 0 0 0 0 0 0 0 0 0 0 0 0 0 0 0 0 0 0 0 0 0 0 0 0 0 0 0 0 0 0 0 0 0 0 0 0 0 0 0 0 0 0 0 0 0 0 0 0 0 0 0 0 0 0 0 0 0 0 0 0 0 0 0 0 0 0 0 0 0 0 0 0 0 0 0 0 0 0 0 0 0 0 0 0 0 0 0 0 0 0 0 0 0 0 0 0 0 0 0 0 0 0 0 0 0 0 0 0 0 0 0 0 0 0 0 0 0 0 0 0 0 0 0 0 0 0 0 0 0 0 0 0 0 0 0 0 0 0 0 0 0 0 0 0 0 0 0 0 0 0 0 0 0 0 0 0 0 0 0 0 0 0 0 0 0 0 0 0 0 0 0 0 0 0 0 0 0 0 0 0 0 0 0 0 0 0 0 0 0 0 0 0 0 0 0 0 0 0 0 0 0 0 0 0 0 0 0 0 0 0 0 0 0 0 0 0 0 0 0 0 0 0 0 0 0 0 0 0 0 0 0 0 0 0 0 0 0 0 0 0 0 0 0 0 0 0 0 0 0 0 0 0 0 0 0 0 0 0 0 0 0 0 0 0 0 0 0.0025539391208440065384 0.10726543515920639038 0.33201205730438232422 0.17111392319202423096 0.028093332424759864807 0.0025539391208440065384 0 0 0 0 0 0 0.007661817595362663269 0.043416965752840042114 0.084279991686344146729 0.097049690783023834229 0.091941803693771362305 0.074064239859580993652 0.053632721304893493652 0.076618179678916931152 0.061294540762901306152 0.020431512966752052307 0.022985450923442840576 0.10215757042169570923 0.21453088521957397461 0.37798297405242919922 0.61039149761199951172 0.80449080467224121094 0.76362776756286621094 0.58485203981399536133 0.27071753144264221191 0.051078781485557556152 0 0 0 0 0 0 0 0 0 0 0 0 0 0 0 0 0 0 0 0 0 0 0 0 0 0 0 0 0 0 0 0 0 0 0 0 0 0 0 0 0 0 0 0 0 0 0 0 0 0 0 0 0 0 0 0 0 0 0 0 0 0 0 0 0 0 0 0 0 0 0 0 0 0 0 0 0 0 0 
0 0 0 0 0 0 0 0 0 0 0 0 0 0 0 0 0 0 0 0 0 0 0 0 0 0 0 0 0 0 0 0 0 0 0 0 0 0 0 0 0 0 0 0 0 0 0 0 0 0 0 0 0 0 0 0 0 0 0 0 0 0 0 0 0 0 0 0 0 0 0 0 0 0 0 0 0 0 0 0 0 0 0 0 0 0 0 0 0 0 0 0 0 0 0 0 0 0 0 0 0 0 0 0 0 0 0 0 0 0 0 0 0 0 0 0 0 0 0 0 0 0 0 0 0 0 0 0 0 0 0 0 0 0 0 0 0 0 0 0 0 0 0 0 0 0 0 0 0 0 0 0 0 0 0 0 0 0 0 0 0 0 0 0 0 0 0 0 0 0 0 0 0 0 0 0 0 0 0 0 0 0 0 0 0 0 0 0 0 0 0 0 0 0 0 0 0 0 0 0 0 0 0 0 0 0 0 0 0 0 0 0 0 0 0 0 0 0 0 0 0 0 0 0 0 0 0 0 0 0 0 0 0 0 0 0 0 0 0 0 0 0 0 0 0 0 0 0 0 0 0 0 0 0 0 0 0 0 0 0 0 0 0 0 0 0 0 0 0 0 0 0 0 0 0 0 0 0 0 0 0 0 0 0 0 0 0 0 0 0 0 0 0 0 0 0 0 0 0 0 0 0 0 0 0 0 0 0 0 0 0 0 0 0 0 0 0 0 0 0 0 0 0 0 0 0 0 0 0 0 0 0 0 0 0 0 0 0 0 0 0 0 0 0 0 0 0 0 0 0 0 0 0 0 0 0 0 0 0 0 0 0.1021575629711151123 0.32690417766571044922 0.16345210373401641846 0.020431512966752052307 0 0 0 0 0 0 0 0.010215756483376026154 0.043416965752840042114 0.066402420401573181152 0.089387871325016021729 0.074064239859580993652 0.053632721304893493652 0.033201210200786590576 0.076618179678916931152 0.10215757042169570923 0.053632721304893493652 0.028093332424759864807 0.089387871325016021729 0.16345210373401641846 0.24007028341293334961 0.37542906403541564941 0.62571513652801513672 0.80193686485290527344 0.74575018882751464844 0.46992477774620056152 0.10726543515920639038 0 0 0 0 0 0 0 0 0 0 0 0 0 0 0 0 0 0 0 0 0 0 0 0 0 0 0 0 0 0 0 0 0 0 0 0 0 0 0 0 0 0 0 0 0 0 0 0 0 0 0 0 0 0 0 0 0 0 0 0 0 0 0 0 0 0 0 0 0 0 0 0 0 0 0 0 0 0 0 
0 0 0 0 0 0 0 0 0 0 0 0 0 0 0 0 0 0 0 0 0 0 0 0 0 0 0 0 0 0 0 0 0 0 0 0 0 0 0 0 0 0 0 0 0 0 0 0 0 0 0 0 0 0 0 0 0 0 0 0 0 0 0 0 0 0 0 0 0 0 0 0 0 0 0 0 0 0 0 0 0 0 0 0 0 0 0 0 0 0 0 0 0 0 0 0 0 0 0 0 0 0 0 0 0 0 0 0 0 0 0 0 0 0 0 0 0 0 0 0 0 0 0 0 0 0 0 0 0 0 0 0 0 0 0 0 0 0 0 0 0 0 0 0 0 0 0 0 0 0 0 0 0 0 0 0 0 0 0 0 0 0 0 0 0 0 0 0 0 0 0 0 0 0 0 0 0 0 0 0 0 0 0 0 0 0 0 0 0 0 0 0 0 0 0 0 0 0 0 0 0 0 0 0 0 0 0 0 0 0 0 0 0 0 0 0 0 0 0 0 0 0 0 0 0 0 0 0 0 0 0 0 0 0 0 0 0 0 0 0 0 0 0 0 0 0 0 0 0 0 0 0 0 0 0 0 0 0 0 0 0 0 0 0 0 0 0 0 0 0 0 0 0 0 0 0 0 0 0 0 0 0 0 0 0 0 0 0 0 0 0 0 0 0 0 0 0 0 0 0 0 0 0 0 0 0 0 0 0 0 0 0 0 0 0 0 0 0 0 0 0 0 0 0 0 0 0 0 0 0 0 0 0 0 0 0 0 0 0 0 0 0 0 0 0 0 0 0 0 0 0 0 0 0 0 0 0 0 0 0 0.0025539391208440065384 0.1123733222484588623 0.33967390656471252441 0.16855998337268829346 0.020431512966752052307 0 0 0 0 0 0 0 0.010215756483376026154 0.040863025933504104614 0.058740600943565368652 0.084279991686344146729 0.086833931505680084229 0.053632721304893493652 0.017877575010061264038 0.030647270381450653076 0.084279991686344146729 0.079172119498252868652 0.035755150020122528076 0.068956352770328521729 0.1481284797191619873 0.19920726120471954346 0.22985453903675079346 0.39586058259010314941 0.67423993349075317383 0.79427510499954223633 0.69977933168411254883 0.19920724630355834961 0.012769695371389389038 0 0 0 0 0 0 0 0 0 0 0 0 0 0 0 0 0 0 0 0 0 0 0 0 0 0 0 0 0 0 0 0 0 0 0 0 0 0 0 0 0 0 0 0 0 0 0 0 0 0 0 0 0 0 0 0 0 0 0 0 0 0 0 0 0 0 0 0 0 0 0 0 0 0 0 0 0 0 
0 0 0 0 0 0 0 0 0 0 0 0 0 0 0 0 0 0 0 0 0 0 0 0 0 0 0 0 0 0 0 0 0 0 0 0 0 0 0 0 0 0 0 0 0 0 0 0 0 0 0 0 0 0 0 0 0 0 0 0 0 0 0 0 0 0 0 0 0 0 0 0 0 0 0 0 0 0 0 0 0 0 0 0 0 0 0 0 0 0 0 0 0 0 0 0 0 0 0 0 0 0 0 0 0 0 0 0 0 0 0 0 0 0 0 0 0 0 0 0 0 0 0 0 0 0 0 0 0 0 0 0 0 0 0 0 0 0 0 0 0 0 0 0 0 0 0 0 0 0 0 0 0 0 0 0 0 0 0 0 0 0 0 0 0 0 0 0 0 0 0 0 0 0 0 0 0 0 0 0 0 0 0 0 0 0 0 0 0 0 0 0 0 0 0 0 0 0 0 0 0 0 0 0 0 0 0 0 0 0 0 0 0 0 0 0 0 0 0 0 0 0 0 0 0 0 0 0 0 0 0 0 0 0 0 0 0 0 0 0 0 0 0 0 0 0 0 0 0 0 0 0 0 0 0 0 0 0 0 0 0 0 0 0 0 0 0 0 0 0 0 0 0 0 0 0 0 0 0 0 0 0 0 0 0 0 0 0 0 0 0 0 0 0 0 0 0 0 0 0 0 0 0 0 0 0 0 0 0 0 0 0 0 0 0 0 0 0 0 0 0 0 0 0 0 0 0 0 0 0 0 0 0 0 0 0 0 0 0 0 0 0 0 0 0 0 0 0 0 0 0 0 0 0 0 0 0 0 0 0 0.012769696302711963654 0.1506824195384979248 0.38053694367408752441 0.16600604355335235596 0.015323635190725326538 0 0 0 0 0 0 0 0.010215756483376026154 0.040863025933504104614 0.053632721304893493652 0.063848480582237243652 0.086833931505680084229 0.076618179678916931152 0.022985450923442840576 0.015323635190725326538 0.056186664849519729614 0.081726051867008209229 0.056186664849519729614 0.066402420401573181152 0.1481284797191619873 0.21708482503890991211 0.21197694540023803711 0.26816362142562866211 0.45970904827117919922 0.69977933168411254883 0.81981444358825683594 0.34478178620338439941 0.040863025933504104614 0 0 0 0 0 0 0 0 0 0 0 0 0 0 0 0 0 0 0 0 0 0 0 0 0 0 0 0 0 0 0 0 0 0 0 0 0 0 0 0 0 0 0 0 0 0 0 0 0 0 0 0 0 0 0 0 0 0 0 0 0 0 0 0 0 0 0 0 0 0 0 0 0 0 0 0 0 0 
0 0 0 0 0 0 0 0 0 0 0 0 0 0 0 0 0 0 0 0 0 0 0 0 0 0 0 0 0 0 0 0 0 0 0 0 0 0 0 0 0 0 0 0 0 0 0 0 0 0 0 0 0 0 0 0 0 0 0 0 0 0 0 0 0 0 0 0 0 0 0 0 0 0 0 0 0 0 0 0 0 0 0 0 0 0 0 0 0 0 0 0 0 0 0 0 0 0 0 0 0 0 0 0 0 0 0 0 0 0 0 0 0 0 0 0 0 0 0 0 0 0 0 0 0 0 0 0 0 0 0 0 0 0 0 0 0 0 0 0 0 0 0 0 0 0 0 0 0 0 0 0 0 0 0 0 0 0 0 0 0 0 0 0 0 0 0 0 0 0 0 0 0 0 0 0 0 0 0 0 0 0 0 0 0 0 0 0 0 0 0 0 0 0 0 0 0 0 0 0 0 0 0 0 0 0 0 0 0 0 0 0 0 0 0 0 0 0 0 0 0 0 0 0 0 0 0 0 0 0 0 0 0 0 0 0 0 0 0 0 0 0 0 0 0 0 0 0 0 0 0 0 0 0 0 0 0 0 0 0 0 0 0 0 0 0 0 0 0 0 0 0 0 0 0 0 0 0 0 0 0 0 0 0 0 0 0 0 0 0 0 0 0 0 0 0 0 0 0 0 0 0 0 0 0 0 0 0 0 0 0 0 0 0 0 0 0 0 0 0 0 0 0 0 0 0 0 0 0 0 0 0 0 0 0 0 0 0 0 0 0 0 0 0 0 0 0 0 0 0 0 0 0 0 0 0 0 0 0 0 0.028093332424759864807 0.19665332138538360596 0.36521330475807189941 0.1200351417064666748 0.0051078782416880130768 0 0 0 0 0 0 0 0.010215756483376026154 0.040863025933504104614 0.053632721304893493652 0.058740600943565368652 0.066402420401573181152 0.076618179678916931152 0.043416965752840042114 0.015323635190725326538 0.045970901846885681152 0.079172119498252868652 0.061294540762901306152 0.058740600943565368652 0.1251430213451385498 0.23240847885608673096 0.21197694540023803711 0.24262420833110809326 0.29370298981666564941 0.55420476198196411133 0.81981450319290161133 0.42395389080047607422 0.071510292589664459229 0 0 0 0 0 0 0 0 0 0 0 0 0 0 0 0 0 0 0 0 0 0 0 0 0 0 0 0 0 0 0 0 0 0 0 0 0 0 0 0 0 0 0 0 0 0 0 0 0 0 0 0 0 0 0 0 0 0 0 0 0 0 0 0 0 0 0 0 0 0 0 0 0 0 0 0 0 0 
0 0 0 0 0 0 0 0 0 0 0 0 0 0 0 0 0 0 0 0 0 0 0 0 0 0 0 0 0 0 0 0 0 0 0 0 0 0 0 0 0 0 0 0 0 0 0 0 0 0 0 0 0 0 0 0 0 0 0 0 0 0 0 0 0 0 0 0 0 0 0 0 0 0 0 0 0 0 0 0 0 0 0 0 0 0 0 0 0 0 0 0 0 0 0 0 0 0 0 0 0 0 0 0 0 0 0 0 0 0 0 0 0 0 0 0 0 0 0 0 0 0 0 0 0 0 0 0 0 0 0 0 0 0 0 0 0 0 0 0 0 0 0 0 0 0 0 0 0 0 0 0 0 0 0 0 0 0 0 0 0 0 0 0 0 0 0 0 0 0 0 0 0 0 0 0 0 0 0 0 0 0 0 0 0 0 0 0 0 0 0 0 0 0 0 0 0 0 0 0 0 0 0 0 0 0 0 0 0 0 0 0 0 0 0 0 0 0 0 0 0 0 0 0 0 0 0 0 0 0 0 0 0 0 0 0 0 0 0 0 0 0 0 0 0 0 0 0 0 0 0 0 0 0 0 0 0 0 0 0 0 0 0 0 0 0 0 0 0 0 0 0 0 0 0 0 0 0 0 0 0 0 0 0 0 0 0 0 0 0 0 0 0 0 0 0 0 0 0 0 0 0 0 0 0 0 0 0 0 0 0 0 0 0 0 0 0 0 0 0 0 0 0 0 0 0 0 0 0 0 0 0 0 0 0 0 0 0 0 0 0 0 0 0 0 0 0 0 0 0 0 0 0 0 0 0 0 0 0 0 0.038309089839458465576 0.21197694540023803711 0.31924238801002502441 0.094495743513107299805 0 0 0 0 0 0 0 0 0.010215756483376026154 0.038309089839458465576 0.053632721304893493652 0.074064239859580993652 0.061294540762901306152 0.058740600943565368652 0.051078785210847854614 0.022985450923442840576 0.035755150020122528076 0.084279991686344146729 0.068956352770328521729 0.051078785210847854614 0.081726051867008209229 0.21708483994007110596 0.22730059921741485596 0.25283998250961303711 0.24007028341293334961 0.44183146953582763672 0.82236838340759277344 0.53632724285125732422 0.1047115027904510498 0 0 0 0 0 0 0 0 0 0 0 0 0 0 0 0 0 0 0 0 0 0 0 0 0 0 0 0 0 0 0 0 0 0 0 0 0 0 0 0 0 0 0 0 0 0 0 0 0 0 0 0 0 0 0 0 0 0 0 0 0 0 0 0 0 0 0 0 0 0 0 0 0 0 0 0 0 0 
0 0 0 0 0 0 0 0 0 0 0 0 0 0 0 0 0 0 0 0 0 0 0 0 0 0 0 0 0 0 0 0 0 0 0 0 0 0 0 0 0 0 0 0 0 0 0 0 0 0 0 0 0 0 0 0 0 0 0 0 0 0 0 0 0 0 0 0 0 0 0 0 0 0 0 0 0 0 0 0 0 0 0 0 0 0 0 0 0 0 0 0 0 0 0 0 0 0 0 0 0 0 0 0 0 0 0 0 0 0 0 0 0 0 0 0 0 0 0 0 0 0 0 0 0 0 0 0 0 0 0 0 0 0 0 0 0 0 0 0 0 0 0 0 0 0 0 0 0 0 0 0 0 0 0 0 0 0 0 0 0 0 0 0 0 0 0 0 0 0 0 0 0 0 0 0 0 0 0 0 0 0 0 0 0 0 0 0 0 0 0 0 0 0 0 0 0 0 0 0 0 0 0 0 0 0 0 0 0 0 0 0 0 0 0 0 0 0 0 0 0 0 0 0 0 0 0 0 0 0 0 0 0 0 0 0 0 0 0 0 0 0 0 0 0 0 0 0 0 0 0 0 0 0 0 0 0 0 0 0 0 0 0 0 0 0 0 0 0 0 0 0 0 0 0 0 0 0 0 0 0 0 0 0 0 0 0 0 0 0 0 0 0 0 0 0 0 0 0 0 0 0 0 0 0 0 0 0 0 0 0 0 0 0 0 0 0 0 0 0 0 0 0 0 0 0 0 0 0 0 0 0 0 0 0 0 0 0 0 0 0 0 0 0 0 0 0 0 0 0 0 0 0 0 0 0 0 0 0 0 0.040863025933504104614 0.20686908066272735596 0.29114907979965209961 0.084279991686344146729 0 0 0 0 0 0 0 0 0.010215756483376026154 0.033201210200786590576 0.035755150020122528076 0.076618179678916931152 0.066402420401573181152 0.058740600943565368652 0.068956352770328521729 0.048524845391511917114 0.061294540762901306152 0.11237332969903945923 0.091941818594932556152 0.051078785210847854614 0.079172119498252868652 0.17622180283069610596 0.21453088521957397461 0.26816362142562866211 0.21963876485824584961 0.37032115459442138672 0.77384352684020996094 0.60272961854934692383 0.13535876572132110596 0 0 0 0 0 0 0 0 0 0 0 0 0 0 0 0 0 0 0 0 0 0 0 0 0 0 0 0 0 0 0 0 0 0 0 0 0 0 0 0 0 0 0 0 0 0 0 0 0 0 0 0 0 0 0 0 0 0 0 0 0 0 0 0 0 0 0 0 0 0 0 0 0 0 0 0 0 0 
0 0 0 0 0 0 0 0 0 0 0 0 0 0 0 0 0 0 0 0 0 0 0 0 0 0 0 0 0 0 0 0 0 0 0 0 0 0 0 0 0 0 0 0 0 0 0 0 0 0 0 0 0 0 0 0 0 0 0 0 0 0 0 0 0 0 0 0 0 0 0 0 0 0 0 0 0 0 0 0 0 0 0 0 0 0 0 0 0 0 0 0 0 0 0 0 0 0 0 0 0 0 0 0 0 0 0 0 0 0 0 0 0 0 0 0 0 0 0 0 0 0 0 0 0 0 0 0 0 0 0 0 0 0 0 0 0 0 0 0 0 0 0 0 0 0 0 0 0 0 0 0 0 0 0 0 0 0 0 0 0 0 0 0 0 0 0 0 0 0 0 0 0 0 0 0 0 0 0 0 0 0 0 0 0 0 0 0 0 0 0 0 0 0 0 0 0 0 0 0 0 0 0 0 0 0 0 0 0 0 0 0 0 0 0 0 0 0 0 0 0 0 0 0 0 0 0 0 0 0 0 0 0 0 0 0 0 0 0 0 0 0 0 0 0 0 0 0 0 0 0 0 0 0 0 0 0 0 0 0 0 0 0 0 0 0 0 0 0 0 0 0 0 0 0 0 0 0 0 0 0 0 0 0 0 0 0 0 0 0 0 0 0 0 0 0 0 0 0 0 0 0 0 0 0 0 0 0 0 0 0 0 0 0 0 0 0 0 0 0 0 0 0 0 0 0 0 0 0 0 0 0 0 0 0 0 0 0 0 0 0 0 0 0 0 0 0 0 0 0 0 0 0 0 0 0 0 0 0 0 0.040863025933504104614 0.20431514084339141846 0.28604120016098022461 0.081726051867008209229 0 0 0 0 0 0 0 0 0.010215756483376026154 0.033201210200786590576 0.033201210200786590576 0.074064239859580993652 0.079172119498252868652 0.058740600943565368652 0.053632721304893493652 0.045970901846885681152 0.063848480582237243652 0.1225890815258026123 0.099603630602359771729 0.038309089839458465576 0.071510300040245056152 0.16345210373401641846 0.22219271957874298096 0.30136483907699584961 0.24262422323226928711 0.33711996674537658691 0.73808836936950683594 0.65891629457473754883 0.1583442389965057373 0 0 0 0 0 0 0 0 0 0 0 0 0 0 0 0 0 0 0 0 0 0 0 0 0 0 0 0 0 0 0 0 0 0 0 0 0 0 0 0 0 0 0 0 0 0 0 0 0 0 0 0 0 0 0 0 0 0 0 0 0 0 0 0 0 0 0 0 0 0 0 0 0 0 0 0 0 0 
0 0 0 0 0 0 0 0 0 0 0 0 0 0 0 0 0 0 0 0 0 0 0 0 0 0 0 0 0 0 0 0 0 0 0 0 0 0 0 0 0 0 0 0 0 0 0 0 0 0 0 0 0 0 0 0 0 0 0 0 0 0 0 0 0 0 0 0 0 0 0 0 0 0 0 0 0 0 0 0 0 0 0 0 0 0 0 0 0 0 0 0 0 0 0 0 0 0 0 0 0 0 0 0 0 0 0 0 0 0 0 0 0 0 0 0 0 0 0 0 0 0 0 0 0 0 0 0 0 0 0 0 0 0 0 0 0 0 0 0 0 0 0 0 0 0 0 0 0 0 0 0 0 0 0 0 0 0 0 0 0 0 0 0 0 0 0 0 0 0 0 0 0 0 0 0 0 0 0 0 0 0 0 0 0 0 0 0 0 0 0 0 0 0 0 0 0 0 0 0 0 0 0 0 0 0 0 0 0 0 0 0 0 0 0 0 0 0 0 0 0 0 0 0 0 0 0 0 0 0 0 0 0 0 0 0 0 0 0 0 0 0 0 0 0 0 0 0 0 0 0 0 0 0 0 0 0 0 0 0 0 0 0 0 0 0 0 0 0 0 0 0 0 0 0 0 0 0 0 0 0 0 0 0 0 0 0 0 0 0 0 0 0 0 0 0 0 0 0 0 0 0 0 0 0 0 0 0 0 0 0 0 0 0 0 0 0 0 0 0 0 0 0 0 0 0 0 0 0 0 0 0 0 0 0 0 0 0 0 0 0 0 0 0 0 0 0 0 0 0 0 0 0 0 0 0 0 0 0 0 0.040863025933504104614 0.20431514084339141846 0.28604120016098022461 0.081726051867008209229 0 0 0 0 0 0 0 0 0.007661817595362663269 0.033201210200786590576 0.045970901846885681152 0.056186664849519729614 0.056186664849519729614 0.048524845391511917114 0.043416965752840042114 0.025539392605423927307 0.045970909297466278076 0.1328048408031463623 0.1379127204418182373 0.061294540762901306152 0.081726051867008209229 0.1532363593578338623 0.20686908066272735596 0.27071753144264221191 0.20431514084339141846 0.29881086945533752441 0.68956357240676879883 0.68190175294876098633 0.17111392319202423096 0 0 0 0 0 0 0 0 0 0 0 0 0 0 0 0 0 0 0 0 0 0 0 0 0 0 0 0 0 0 0 0 0 0 0 0 0 0 0 0 0 0 0 0 0 0 0 0 0 0 0 0 0 0 0 0 0 0 0 0 0 0 0 0 0 0 0 0 0 0 0 0 0 0 0 0 0 0 
0 0 0 0 0 0 0 0 0 0 0 0 0 0 0 0 0 0 0 0 0 0 0 0 0 0 0 0 0 0 0 0 0 0 0 0 0 0 0 0 0 0 0 0 0 0 0 0 0 0 0 0 0 0 0 0 0 0 0 0 0 0 0 0 0 0 0 0 0 0 0 0 0 0 0 0 0 0 0 0 0 0 0 0 0 0 0 0 0 0 0 0 0 0 0 0 0 0 0 0 0 0 0 0 0 0 0 0 0 0 0 0 0 0 0 0 0 0 0 0 0 0 0 0 0 0 0 0 0 0 0 0 0 0 0 0 0 0 0 0 0 0 0 0 0 0 0 0 0 0 0 0 0 0 0 0 0 0 0 0 0 0 0 0 0 0 0 0 0 0 0 0 0 0 0 0 0 0 0 0 0 0 0 0 0 0 0 0 0 0 0 0 0 0 0 0 0 0 0 0 0 0 0 0 0 0 0 0 0 0 0 0 0 0 0 0 0 0 0 0 0 0 0 0 0 0 0 0 0 0 0 0 0 0 0 0 0 0 0 0 0 0 0 0 0 0 0 0 0 0 0 0 0 0 0 0 0 0 0 0 0 0 0 0 0 0 0 0 0 0 0 0 0 0 0 0 0 0 0 0 0 0 0 0 0 0 0 0 0 0 0 0 0 0 0 0 0 0 0 0 0 0 0 0 0 0 0 0 0 0 0 0 0 0 0 0 0 0 0 0 0 0 0 0 0 0 0 0 0 0 0 0 0 0 0 0 0 0 0 0 0 0 0 0 0 0 0 0 0 0 0 0 0 0 0 0 0 0 0 0 0.040863025933504104614 0.20431514084339141846 0.28859513998031616211 0.086833931505680084229 0.0025539391208440065384 0 0 0 0 0 0 0 0.0025539391208440065384 0.015323635190725326538 0.045970901846885681152 0.056186664849519729614 0.045970901846885681152 0.022985450923442840576 0.033201210200786590576 0.033201210200786590576 0.048524845391511917114 0.1302509009838104248 0.19920726120471954346 0.1302509009838104248 0.1404666602611541748 0.18643756210803985596 0.22985453903675079346 0.28348723053932189941 0.20176120102405548096 0.31158059835433959961 0.72531872987747192383 0.67934781312942504883 0.16600604355335235596 0 0 0 0 0 0 0 0 0 0 0 0 0 0 0 0 0 0 0 0 0 0 0 0 0 0 0 0 0 0 0 0 0 0 0 0 0 0 0 0 0 0 0 0 0 0 0 0 0 0 0 0 0 0 0 0 0 0 0 0 0 0 0 0 0 0 0 0 0 0 0 0 0 0 0 0 0 0 
0 0 0 0 0 0 0 0 0 0 0 0 0 0 0 0 0 0 0 0 0 0 0 0 0 0 0 0 0 0 0 0 0 0 0 0 0 0 0 0 0 0 0 0 0 0 0 0 0 0 0 0 0 0 0 0 0 0 0 0 0 0 0 0 0 0 0 0 0 0 0 0 0 0 0 0 0 0 0 0 0 0 0 0 0 0 0 0 0 0 0 0 0 0 0 0 0 0 0 0 0 0 0 0 0 0 0 0 0 0 0 0 0 0 0 0 0 0 0 0 0 0 0 0 0 0 0 0 0 0 0 0 0 0 0 0 0 0 0 0 0 0 0 0 0 0 0 0 0 0 0 0 0 0 0 0 0 0 0 0 0 0 0 0 0 0 0 0 0 0 0 0 0 0 0 0 0 0 0 0 0 0 0 0 0 0 0 0 0 0 0 0 0 0 0 0 0 0 0 0 0 0 0 0 0 0 0 0 0 0 0 0 0 0 0 0 0 0 0 0 0 0 0 0 0 0 0 0 0 0 0 0 0 0 0 0 0 0 0 0 0 0 0 0 0 0 0 0 0 0 0 0 0 0 0 0 0 0 0 0 0 0 0 0 0 0 0 0 0 0 0 0 0 0 0 0 0 0 0 0 0 0 0 0 0 0 0 0 0 0 0 0 0 0 0 0 0 0 0 0 0 0 0 0 0 0 0 0 0 0 0 0 0 0 0 0 0 0 0 0 0 0 0 0 0 0 0 0 0 0 0 0 0 0 0 0 0 0 0 0 0 0 0 0 0 0 0 0 0 0 0 0 0 0 0 0 0 0 0 0 0.040863025933504104614 0.20176120102405548096 0.28859511017799377441 0.1072654426097869873 0.012769696302711963654 0.0025539391208440065384 0 0 0 0 0 0 0 0.012769696302711963654 0.053632721304893493652 0.076618179678916931152 0.043416965752840042114 0.010215756483376026154 0.007661817595362663269 0.010215756483376026154 0.015323635190725326538 0.056186664849519729614 0.1506824195384979248 0.1455745398998260498 0.1532363593578338623 0.20686908066272735596 0.24773210287094116211 0.32690420746803283691 0.26050180196762084961 0.43161571025848388672 0.79682898521423339844 0.62826907634735107422 0.14557452499866485596 0 0 0 0 0 0 0 0 0 0 0 0 0 0 0 0 0 0 0 0 0 0 0 0 0 0 0 0 0 0 0 0 0 0 0 0 0 0 0 0 0 0 0 0 0 0 0 0 0 0 0 0 0 0 0 0 0 0 0 0 0 0 0 0 0 0 0 0 0 0 0 0 0 0 0 0 0 0 
0 0 0 0 0 0 0 0 0 0 0 0 0 0 0 0 0 0 0 0 0 0 0 0 0 0 0 0 0 0 0 0 0 0 0 0 0 0 0 0 0 0 0 0 0 0 0 0 0 0 0 0 0 0 0 0 0 0 0 0 0 0 0 0 0 0 0 0 0 0 0 0 0 0 0 0 0 0 0 0 0 0 0 0 0 0 0 0 0 0 0 0 0 0 0 0 0 0 0 0 0 0 0 0 0 0 0 0 0 0 0 0 0 0 0 0 0 0 0 0 0 0 0 0 0 0 0 0 0 0 0 0 0 0 0 0 0 0 0 0 0 0 0 0 0 0 0 0 0 0 0 0 0 0 0 0 0 0 0 0 0 0 0 0 0 0 0 0 0 0 0 0 0 0 0 0 0 0 0 0 0 0 0 0 0 0 0 0 0 0 0 0 0 0 0 0 0 0 0 0 0 0 0 0 0 0 0 0 0 0 0 0 0 0 0 0 0 0 0 0 0 0 0 0 0 0 0 0 0 0 0 0 0 0 0 0 0 0 0 0 0 0 0 0 0 0 0 0 0 0 0 0 0 0 0 0 0 0 0 0 0 0 0 0 0 0 0 0 0 0 0 0 0 0 0 0 0 0 0 0 0 0 0 0 0 0 0 0 0 0 0 0 0 0 0 0 0 0 0 0 0 0 0 0 0 0 0 0 0 0 0 0 0 0 0 0 0 0 0 0 0 0 0 0 0 0 0 0 0 0 0 0 0 0 0 0 0 0 0 0 0 0 0 0 0 0 0 0 0 0 0 0 0 0 0 0 0 0 0 0 0.040863025933504104614 0.19665332138538360596 0.26816362142562866211 0.1072654426097869873 0.033201210200786590576 0.007661817595362663269 0 0 0 0 0 0 0 0.017877575010061264038 0.074064239859580993652 0.076618179678916931152 0.022985450923442840576 0.0025539391208440065384 0 0 0 0.015323635190725326538 0.063848480582237243652 0.099603630602359771729 0.1149272620677947998 0.18899148702621459961 0.26816362142562866211 0.44438540935516357422 0.45715510845184326172 0.66147023439407348633 0.86067748069763183594 0.55165082216262817383 0.11492726951837539673 0 0 0 0 0 0 0 0 0 0 0 0 0 0 0 0 0 0 0 0 0 0 0 0 0 0 0 0 0 0 0 0 0 0 0 0 0 0 0 0 0 0 0 0 0 0 0 0 0 0 0 0 0 0 0 0 0 0 0 0 0 0 0 0 0 0 0 0 0 0 0 0 0 0 0 0 0 0 
0 0 0 0 0 0 0 0 0 0 0 0 0 0 0 0 0 0 0 0 0 0 0 0 0 0 0 0 0 0 0 0 0 0 0 0 0 0 0 0 0 0 0 0 0 0 0 0 0 0 0 0 0 0 0 0 0 0 0 0 0 0 0 0 0 0 0 0 0 0 0 0 0 0 0 0 0 0 0 0 0 0 0 0 0 0 0 0 0 0 0 0 0 0 0 0 0 0 0 0 0 0 0 0 0 0 0 0 0 0 0 0 0 0 0 0 0 0 0 0 0 0 0 0 0 0 0 0 0 0 0 0 0 0 0 0 0 0 0 0 0 0 0 0 0 0 0 0 0 0 0 0 0 0 0 0 0 0 0 0 0 0 0 0 0 0 0 0 0 0 0 0 0 0 0 0 0 0 0 0 0 0 0 0 0 0 0 0 0 0 0 0 0 0 0 0 0 0 0 0 0 0 0 0 0 0 0 0 0 0 0 0 0 0 0 0 0 0 0 0 0 0 0 0 0 0 0 0 0 0 0 0 0 0 0 0 0 0 0 0 0 0 0 0 0 0 0 0 0 0 0 0 0 0 0 0 0 0 0 0 0 0 0 0 0 0 0 0 0 0 0 0 0 0 0 0 0 0 0 0 0 0 0 0 0 0 0 0 0 0 0 0 0 0 0 0 0 0 0 0 0 0 0 0 0 0 0 0 0 0 0 0 0 0 0 0 0 0 0 0 0 0 0 0 0 0 0 0 0 0 0 0 0 0 0 0 0 0 0 0 0 0 0 0 0 0 0 0 0 0 0 0 0 0 0 0 0 0 0 0 0.040863025933504104614 0.19409938156604766846 0.26305574178695678711 0.097049683332443237305 0.038309089839458465576 0.010215756483376026154 0 0 0 0 0 0 0 0.020431512966752052307 0.074064239859580993652 0.056186664849519729614 0.012769696302711963654 0 0 0 0 0.0025539391208440065384 0.022985450923442840576 0.076618179678916931152 0.1149272620677947998 0.18899148702621459961 0.32945814728736877441 0.65891629457473754883 0.73808836936950683594 0.87344717979431152344 0.74830412864685058594 0.38564479351043701172 0.079172119498252868652 0 0 0 0 0 0 0 0 0 0 0 0 0 0 0 0 0 0 0 0 0 0 0 0 0 0 0 0 0 0 0 0 0 0 0 0 0 0 0 0 0 0 0 0 0 0 0 0 0 0 0 0 0 0 0 0 0 0 0 0 0 0 0 0 0 0 0 0 0 0 0 0 0 0 0 0 0 0 
0 0 0 0 0 0 0 0 0 0 0 0 0 0 0 0 0 0 0 0 0 0 0 0 0 0 0 0 0 0 0 0 0 0 0 0 0 0 0 0 0 0 0 0 0 0 0 0 0 0 0 0 0 0 0 0 0 0 0 0 0 0 0 0 0 0 0 0 0 0 0 0 0 0 0 0 0 0 0 0 0 0 0 0 0 0 0 0 0 0 0 0 0 0 0 0 0 0 0 0 0 0 0 0 0 0 0 0 0 0 0 0 0 0 0 0 0 0 0 0 0 0 0 0 0 0 0 0 0 0 0 0 0 0 0 0 0 0 0 0 0 0 0 0 0 0 0 0 0 0 0 0 0 0 0 0 0 0 0 0 0 0 0 0 0 0 0 0 0 0 0 0 0 0 0 0 0 0 0 0 0 0 0 0 0 0 0 0 0 0 0 0 0 0 0 0 0 0 0 0 0 0 0 0 0 0 0 0 0 0 0 0 0 0 0 0 0 0 0 0 0 0 0 0 0 0 0 0 0 0 0 0 0 0 0 0 0 0 0 0 0 0 0 0 0 0 0 0 0 0 0 0 0 0 0 0 0 0 0 0 0 0 0 0 0 0 0 0 0 0 0 0 0 0 0 0 0 0 0 0 0 0 0 0 0 0 0 0 0 0 0 0 0 0 0 0 0 0 0 0 0 0 0 0 0 0 0 0 0 0 0 0 0 0 0 0 0 0 0 0 0 0 0 0 0 0 0 0 0 0 0 0 0 0 0 0 0 0 0 0 0 0 0 0 0 0 0 0 0 0 0 0 0 0 0 0 0 0 0 0 0.043416965752840042114 0.19409936666488647461 0.26305574178695678711 0.1276969611644744873 0.045970901846885681152 0.010215756483376026154 0 0 0 0 0 0 0 0.020431512966752052307 0.071510300040245056152 0.051078785210847854614 0.010215756483376026154 0 0 0 0 0 0.010215756483376026154 0.053632721304893493652 0.1047115027904510498 0.1225890815258026123 0.23496238887310028076 0.64870047569274902344 0.76362776756286621094 0.74064230918884277344 0.45970907807350158691 0.24262420833110809326 0.051078781485557556152 0 0 0 0 0 0 0 0 0 0 0 0 0 0 0 0 0 0 0 0 0 0 0 0 0 0 0 0 0 0 0 0 0 0 0 0 0 0 0 0 0 0 0 0 0 0 0 0 0 0 0 0 0 0 0 0 0 0 0 0 0 0 0 0 0 0 0 0 0 0 0 0 0 0 0 0 0 0 
0 0 0 0 0 0 0 0 0 0 0 0 0 0 0 0 0 0 0 0 0 0 0 0 0 0 0 0 0 0 0 0 0 0 0 0 0 0 0 0 0 0 0 0 0 0 0 0 0 0 0 0 0 0 0 0 0 0 0 0 0 0 0 0 0 0 0 0 0 0 0 0 0 0 0 0 0 0 0 0 0 0 0 0 0 0 0 0 0 0 0 0 0 0 0 0 0 0 0 0 0 0 0 0 0 0 0 0 0 0 0 0 0 0 0 0 0 0 0 0 0 0 0 0 0 0 0 0 0 0 0 0 0 0 0 0 0 0 0 0 0 0 0 0 0 0 0 0 0 0 0 0 0 0 0 0 0 0 0 0 0 0 0 0 0 0 0 0 0 0 0 0 0 0 0 0 0 0 0 0 0 0 0 0 0 0 0 0 0 0 0 0 0 0 0 0 0 0 0 0 0 0 0 0 0 0 0 0 0 0 0 0 0 0 0 0 0 0 0 0 0 0 0 0 0 0 0 0 0 0 0 0 0 0 0 0 0 0 0 0 0 0 0 0 0 0 0 0 0 0 0 0 0 0 0 0 0 0 0 0 0 0 0 0 0 0 0 0 0 0 0 0 0 0 0 0 0 0 0 0 0 0 0 0 0 0 0 0 0 0 0 0 0 0 0 0 0 0 0 0 0 0 0 0 0 0 0 0 0 0 0 0 0 0 0 0 0 0 0 0 0 0 0 0 0 0 0 0 0 0 0 0 0 0 0 0 0 0 0 0 0 0 0 0 0 0 0 0 0 0 0 0 0 0 0 0 0 0 0 0 0.048524841666221618652 0.20176118612289428711 0.22730058431625366211 0.1251430213451385498 0.051078785210847854614 0.010215756483376026154 0 0 0 0 0 0 0 0.020431512966752052307 0.074064239859580993652 0.056186664849519729614 0.012769696302711963654 0 0 0 0 0 0.0025539391208440065384 0.033201210200786590576 0.10726545006036758423 0.089387871325016021729 0.076618172228336334229 0.25539389252662658691 0.65380841493606567383 0.62571513652801513672 0.35244360566139221191 0.1455745398998260498 0.028093330562114715576 0 0 0 0 0 0 0 0 0 0 0 0 0 0 0 0 0 0 0 0 0 0 0 0 0 0 0 0 0 0 0 0 0 0 0 0 0 0 0 0 0 0 0 0 0 0 0 0 0 0 0 0 0 0 0 0 0 0 0 0 0 0 0 0 0 0 0 0 0 0 0 0 0 0 0 0 0 0 
0 0 0 0 0 0 0 0 0 0 0 0 0 0 0 0 0 0 0 0 0 0 0 0 0 0 0 0 0 0 0 0 0 0 0 0 0 0 0 0 0 0 0 0 0 0 0 0 0 0 0 0 0 0 0 0 0 0 0 0 0 0 0 0 0 0 0 0 0 0 0 0 0 0 0 0 0 0 0 0 0 0 0 0 0 0 0 0 0 0 0 0 0 0 0 0 0 0 0 0 0 0 0 0 0 0 0 0 0 0 0 0 0 0 0 0 0 0 0 0 0 0 0 0 0 0 0 0 0 0 0 0 0 0 0 0 0 0 0 0 0 0 0 0 0 0 0 0 0 0 0 0 0 0 0 0 0 0 0 0 0 0 0 0 0 0 0 0 0 0 0 0 0 0 0 0 0 0 0 0 0 0 0 0 0 0 0 0 0 0 0 0 0 0 0 0 0 0 0 0 0 0 0 0 0 0 0 0 0 0 0 0 0 0 0 0 0 0 0 0 0 0 0 0 0 0 0 0 0 0 0 0 0 0 0 0 0 0 0 0 0 0 0 0 0 0 0 0 0 0 0 0 0 0 0 0 0 0 0 0 0 0 0 0 0 0 0 0 0 0 0 0 0 0 0 0 0 0 0 0 0 0 0 0 0 0 0 0 0 0 0 0 0 0 0 0 0 0 0 0 0 0 0 0 0 0 0 0 0 0 0 0 0 0 0 0 0 0 0 0 0 0 0 0 0 0 0 0 0 0 0 0 0 0 0 0 0 0 0 0 0 0 0 0 0 0 0 0 0 0 0 0 0 0 0 0 0 0 0 0 0.053632721304893493652 0.20176118612289428711 0.20176120102405548096 0.11492726951837539673 0.051078785210847854614 0.010215756483376026154 0 0 0 0 0 0 0 0.017877575010061264038 0.074064239859580993652 0.074064239859580993652 0.017877575010061264038 0 0 0 0 0 0 0.030647270381450653076 0.1047115027904510498 0.066402420401573181152 0.012769696302711963654 0.14557452499866485596 0.61039143800735473633 0.69977933168411254883 0.32179632782936096191 0.063848480582237243652 0.007661817595362663269 0 0 0 0 0 0 0 0 0 0 0 0 0 0 0 0 0 0 0 0 0 0 0 0 0 0 0 0 0 0 0 0 0 0 0 0 0 0 0 0 0 0 0 0 0 0 0 0 0 0 0 0 0 0 0 0 0 0 0 0 0 0 0 0 0 0 0 0 0 0 0 0 0 0 0 0 0 0 
0 0 0 0 0 0 0 0 0 0 0 0 0 0 0 0 0 0 0 0 0 0 0 0 0 0 0 0 0 0 0 0 0 0 0 0 0 0 0 0 0 0 0 0 0 0 0 0 0 0 0 0 0 0 0 0 0 0 0 0 0 0 0 0 0 0 0 0 0 0 0 0 0 0 0 0 0 0 0 0 0 0 0 0 0 0 0 0 0 0 0 0 0 0 0 0 0 0 0 0 0 0 0 0 0 0 0 0 0 0 0 0 0 0 0 0 0 0 0 0 0 0 0 0 0 0 0 0 0 0 0 0 0 0 0 0 0 0 0 0 0 0 0 0 0 0 0 0 0 0 0 0 0 0 0 0 0 0 0 0 0 0 0 0 0 0 0 0 0 0 0 0 0 0 0 0 0 0 0 0 0 0 0 0 0 0 0 0 0 0 0 0 0 0 0 0 0 0 0 0 0 0 0 0 0 0 0 0 0 0 0 0 0 0 0 0 0 0 0 0 0 0 0 0 0 0 0 0 0 0 0 0 0 0 0 0 0 0 0 0 0 0 0 0 0 0 0 0 0 0 0 0 0 0 0 0 0 0 0 0 0 0 0 0 0 0 0 0 0 0 0 0 0 0 0 0 0 0 0 0 0 0 0 0 0 0 0 0 0 0 0 0 0 0 0 0 0 0 0 0 0 0 0 0 0 0 0 0 0 0 0 0 0 0 0 0 0 0 0 0 0 0 0 0 0 0 0 0 0 0 0 0 0 0 0 0 0 0 0 0 0 0 0 0 0 0 0 0 0 0 0 0 0 0 0 0 0 0 0 0.0051078782416880130768 0.068956352770328521729 0.22474665939807891846 0.20431514084339141846 0.1174812018871307373 0.053632721304893493652 0.010215756483376026154 0 0 0 0 0 0 0 0.012769696302711963654 0.056186664849519729614 0.074064239859580993652 0.020431512966752052307 0 0 0 0 0 0 0.030647270381450653076 0.10215757042169570923 0.061294540762901306152 0.010215756483376026154 0.1251430213451385498 0.58995991945266723633 0.78916716575622558594 0.31924238801002502441 0.035755146294832229614 0 0 0 0 0 0 0 0 0 0 0 0 0 0 0 0 0 0 0 0 0 0 0 0 0 0 0 0 0 0 0 0 0 0 0 0 0 0 0 0 0 0 0 0 0 0 0 0 0 0 0 0 0 0 0 0 0 0 0 0 0 0 0 0 0 0 0 0 0 0 0 0 0 0 0 0 0 0 0 
0 0 0 0 0 0 0 0 0 0 0 0 0 0 0 0 0 0 0 0 0 0 0 0 0 0 0 0 0 0 0 0 0 0 0 0 0 0 0 0 0 0 0 0 0 0 0 0 0 0 0 0 0 0 0 0 0 0 0 0 0 0 0 0 0 0 0 0 0 0 0 0 0 0 0 0 0 0 0 0 0 0 0 0 0 0 0 0 0 0 0 0 0 0 0 0 0 0 0 0 0 0 0 0 0 0 0 0 0 0 0 0 0 0 0 0 0 0 0 0 0 0 0 0 0 0 0 0 0 0 0 0 0 0 0 0 0 0 0 0 0 0 0 0 0 0 0 0 0 0 0 0 0 0 0 0 0 0 0 0 0 0 0 0 0 0 0 0 0 0 0 0 0 0 0 0 0 0 0 0 0 0 0 0 0 0 0 0 0 0 0 0 0 0 0 0 0 0 0 0 0 0 0 0 0 0 0 0 0 0 0 0 0 0 0 0 0 0 0 0 0 0 0 0 0 0 0 0 0 0 0 0 0 0 0 0 0 0 0 0 0 0 0 0 0 0 0 0 0 0 0 0 0 0 0 0 0 0 0 0 0 0 0 0 0 0 0 0 0 0 0 0 0 0 0 0 0 0 0 0 0 0 0 0 0 0 0 0 0 0 0 0 0 0 0 0 0 0 0 0 0 0 0 0 0 0 0 0 0 0 0 0 0 0 0 0 0 0 0 0 0 0 0 0 0 0 0 0 0 0 0 0 0 0 0 0 0 0 0 0 0 0 0 0 0 0 0 0 0 0 0 0 0 0 0 0 0 0 0 0.015323635190725326538 0.1072654426097869873 0.23496240377426147461 0.21453088521957397461 0.13535876572132110596 0.051078785210847854614 0.007661817595362663269 0 0 0 0 0 0 0 0.010215756483376026154 0.053632721304893493652 0.079172119498252868652 0.028093332424759864807 0.0025539391208440065384 0 0 0 0 0 0.030647270381450653076 0.1047115027904510498 0.066402420401573181152 0.012769696302711963654 0.086833931505680084229 0.55931264162063598633 0.98326653242111206055 0.36010542511940002441 0.022985454648733139038 0 0 0 0 0 0 0 0 0 0 0 0 0 0 0 0 0 0 0 0 0 0 0 0 0 0 0 0 0 0 0 0 0 0 0 0 0 0 0 0 0 0 0 0 0 0 0 0 0 0 0 0 0 0 0 0 0 0 0 0 0 0 0 0 0 0 0 0 0 0 0 0 0 0 0 0 0 0 0 
0 0 0 0 0 0 0 0 0 0 0 0 0 0 0 0 0 0 0 0 0 0 0 0 0 0 0 0 0 0 0 0 0 0 0 0 0 0 0 0 0 0 0 0 0 0 0 0 0 0 0 0 0 0 0 0 0 0 0 0 0 0 0 0 0 0 0 0 0 0 0 0 0 0 0 0 0 0 0 0 0 0 0 0 0 0 0 0 0 0 0 0 0 0 0 0 0 0 0 0 0 0 0 0 0 0 0 0 0 0 0 0 0 0 0 0 0 0 0 0 0 0 0 0 0 0 0 0 0 0 0 0 0 0 0 0 0 0 0 0 0 0 0 0 0 0 0 0 0 0 0 0 0 0 0 0 0 0 0 0 0 0 0 0 0 0 0 0 0 0 0 0 0 0 0 0 0 0 0 0 0 0 0 0 0 0 0 0 0 0 0 0 0 0 0 0 0 0 0 0 0 0 0 0 0 0 0 0 0 0 0 0 0 0 0 0 0 0 0 0 0 0 0 0 0 0 0 0 0 0 0 0 0 0 0 0 0 0 0 0 0 0 0 0 0 0 0 0 0 0 0 0 0 0 0 0 0 0 0 0 0 0 0 0 0 0 0 0 0 0 0 0 0 0 0 0 0 0 0 0 0 0 0 0 0 0 0 0 0 0 0 0 0 0 0 0 0 0 0 0 0 0 0 0 0 0 0 0 0 0 0 0 0 0 0 0 0 0 0 0 0 0 0 0 0 0 0 0 0 0 0 0 0 0 0 0 0 0 0 0 0 0 0 0 0 0 0 0 0 0 0 0 0 0 0 0 0 0 0 0.020431512966752052307 0.1098193824291229248 0.21453088521957397461 0.24007028341293334961 0.11492726951837539673 0.022985454648733139038 0.0025539391208440065384 0 0 0 0 0 0 0 0.007661817595362663269 0.051078785210847854614 0.097049690783023834229 0.051078785210847854614 0.007661817595362663269 0 0 0 0 0 0.028093332424759864807 0.10726545006036758423 0.089387871325016021729 0.020431512966752052307 0.035755146294832229614 0.41373816132545471191 1.0394532680511474609 0.39075270295143127441 0.038309086114168167114 0.0025539391208440065384 0 0 0 0 0 0 0 0 0 0 0 0 0 0 0 0 0 0 0 0 0 0 0 0 0 0 0 0 0 0 0 0 0 0 0 0 0 0 0 0 0 0 0 0 0 0 0 0 0 0 0 0 0 0 0 0 0 0 0 0 0 0 0 0 0 0 0 0 0 0 0 0 0 0 0 0 0 0 
0 0 0 0 0 0 0 0 0 0 0 0 0 0 0 0 0 0 0 0 0 0 0 0 0 0 0 0 0 0 0 0 0 0 0 0 0 0 0 0 0 0 0 0 0 0 0 0 0 0 0 0 0 0 0 0 0 0 0 0 0 0 0 0 0 0 0 0 0 0 0 0 0 0 0 0 0 0 0 0 0 0 0 0 0 0 0 0 0 0 0 0 0 0 0 0 0 0 0 0 0 0 0 0 0 0 0 0 0 0 0 0 0 0 0 0 0 0 0 0 0 0 0 0 0 0 0 0 0 0 0 0 0 0 0 0 0 0 0 0 0 0 0 0 0 0 0 0 0 0 0 0 0 0 0 0 0 0 0 0 0 0 0 0 0 0 0 0 0 0 0 0 0 0 0 0 0 0 0 0 0 0 0 0 0 0 0 0 0 0 0 0 0 0 0 0 0 0 0 0 0 0 0 0 0 0 0 0 0 0 0 0 0 0 0 0 0 0 0 0 0 0 0 0 0 0 0 0 0 0 0 0 0 0 0 0 0 0 0 0 0 0 0 0 0 0 0 0 0 0 0 0 0 0 0 0 0 0 0 0 0 0 0 0 0 0 0 0 0 0 0 0 0 0 0 0 0 0 0 0 0 0 0 0 0 0 0 0 0 0 0 0 0 0 0 0 0 0 0 0 0 0 0 0 0 0 0 0 0 0 0 0 0 0 0 0 0 0 0 0 0 0 0 0 0 0 0 0 0 0 0 0 0 0 0 0 0 0 0 0 0 0 0 0 0 0 0 0 0 0 0 0 0 0 0 0 0 0 0 0.017877575010061264038 0.1072654426097869873 0.23496238887310028076 0.24517816305160522461 0.074064239859580993652 0.0051078782416880130768 0 0 0 0 0 0 0 0 0.0025539391208440065384 0.028093332424759864807 0.084279991686344146729 0.066402420401573181152 0.020431512966752052307 0.0025539391208440065384 0 0 0 0 0.020431512966752052307 0.089387871325016021729 0.10726545006036758423 0.028093332424759864807 0.0051078782416880130768 0.31158059835433959961 1.0113599300384521484 0.56442052125930786133 0.1021575629711151123 0.007661817595362663269 0 0 0 0 0 0 0 0 0 0 0 0 0 0 0 0 0 0 0 0 0 0 0 0 0 0 0 0 0 0 0 0 0 0 0 0 0 0 0 0 0 0 0 0 0 0 0 0 0 0 0 0 0 0 0 0 0 0 0 0 0 0 0 0 0 0 0 0 0 0 0 0 0 0 0 0 0 0 
0 0 0 0 0 0 0 0 0 0 0 0 0 0 0 0 0 0 0 0 0 0 0 0 0 0 0 0 0 0 0 0 0 0 0 0 0 0 0 0 0 0 0 0 0 0 0 0 0 0 0 0 0 0 0 0 0 0 0 0 0 0 0 0 0 0 0 0 0 0 0 0 0 0 0 0 0 0 0 0 0 0 0 0 0 0 0 0 0 0 0 0 0 0 0 0 0 0 0 0 0 0 0 0 0 0 0 0 0 0 0 0 0 0 0 0 0 0 0 0 0 0 0 0 0 0 0 0 0 0 0 0 0 0 0 0 0 0 0 0 0 0 0 0 0 0 0 0 0 0 0 0 0 0 0 0 0 0 0 0 0 0 0 0 0 0 0 0 0 0 0 0 0 0 0 0 0 0 0 0 0 0 0 0 0 0 0 0 0 0 0 0 0 0 0 0 0 0 0 0 0 0 0 0 0 0 0 0 0 0 0 0 0 0 0 0 0 0 0 0 0 0 0 0 0 0 0 0 0 0 0 0 0 0 0 0 0 0 0 0 0 0 0 0 0 0 0 0 0 0 0 0 0 0 0 0 0 0 0 0 0 0 0 0 0 0 0 0 0 0 0 0 0 0 0 0 0 0 0 0 0 0 0 0 0 0 0 0 0 0 0 0 0 0 0 0 0 0 0 0 0 0 0 0 0 0 0 0 0 0 0 0 0 0 0 0 0 0 0 0 0 0 0 0 0 0 0 0 0 0 0 0 0 0 0 0 0 0 0 0 0 0 0 0 0 0 0 0 0 0 0 0 0 0 0 0 0 0 0 0.010215756483376026154 0.086833931505680084229 0.25283998250961303711 0.26560968160629272461 0.068956352770328521729 0 0 0 0 0 0 0 0 0 0 0.015323635190725326538 0.074064239859580993652 0.10215757042169570923 0.056186664849519729614 0.015323635190725326538 0.0025539391208440065384 0 0 0 0.012769696302711963654 0.066402420401573181152 0.1047115027904510498 0.030647270381450653076 0 0.24773210287094116211 0.82492238283157348633 0.56952840089797973633 0.13535876572132110596 0.010215756483376026154 0 0 0 0 0 0 0 0 0 0 0 0 0 0 0 0 0 0 0 0 0 0 0 0 0 0 0 0 0 0 0 0 0 0 0 0 0 0 0 0 0 0 0 0 0 0 0 0 0 0 0 0 0 0 0 0 0 0 0 0 0 0 0 0 0 0 0 0 0 0 0 0 0 0 0 0 0 0 
0 0 0 0 0 0 0 0 0 0 0 0 0 0 0 0 0 0 0 0 0 0 0 0 0 0 0 0 0 0 0 0 0 0 0 0 0 0 0 0 0 0 0 0 0 0 0 0 0 0 0 0 0 0 0 0 0 0 0 0 0 0 0 0 0 0 0 0 0 0 0 0 0 0 0 0 0 0 0 0 0 0 0 0 0 0 0 0 0 0 0 0 0 0 0 0 0 0 0 0 0 0 0 0 0 0 0 0 0 0 0 0 0 0 0 0 0 0 0 0 0 0 0 0 0 0 0 0 0 0 0 0 0 0 0 0 0 0 0 0 0 0 0 0 0 0 0 0 0 0 0 0 0 0 0 0 0 0 0 0 0 0 0 0 0 0 0 0 0 0 0 0 0 0 0 0 0 0 0 0 0 0 0 0 0 0 0 0 0 0 0 0 0 0 0 0 0 0 0 0 0 0 0 0 0 0 0 0 0 0 0 0 0 0 0 0 0 0 0 0 0 0 0 0 0 0 0 0 0 0 0 0 0 0 0 0 0 0 0 0 0 0 0 0 0 0 0 0 0 0 0 0 0 0 0 0 0 0 0 0 0 0 0 0 0 0 0 0 0 0 0 0 0 0 0 0 0 0 0 0 0 0 0 0 0 0 0 0 0 0 0 0 0 0 0 0 0 0 0 0 0 0 0 0 0 0 0 0 0 0 0 0 0 0 0 0 0 0 0 0 0 0 0 0 0 0 0 0 0 0 0 0 0 0 0 0 0 0 0 0 0 0 0 0 0 0 0 0 0 0 0 0 0 0 0 0 0 0 0 0.0025539391208440065384 0.05874059721827507019 0.23751632869243621826 0.27837935090065002441 0.076618172228336334229 0 0 0 0 0 0 0 0 0 0 0.0051078782416880130768 0.030647270381450653076 0.084279991686344146729 0.086833931505680084229 0.053632721304893493652 0.020431512966752052307 0.0051078782416880130768 0 0 0.010215756483376026154 0.061294540762901306152 0.10215757042169570923 0.030647270381450653076 0 0.21453088521957397461 0.76107382774353027344 0.57719022035598754883 0.1583442389965057373 0.015323635190725326538 0 0 0 0 0 0 0 0 0 0 0 0 0 0 0 0 0 0 0 0 0 0 0 0 0 0 0 0 0 0 0 0 0 0 0 0 0 0 0 0 0 0 0 0 0 0 0 0 0 0 0 0 0 0 0 0 0 0 0 0 0 0 0 0 0 0 0 0 0 0 0 0 0 0 0 0 0 0 
0 0 0 0 0 0 0 0 0 0 0 0 0 0 0 0 0 0 0 0 0 0 0 0 0 0 0 0 0 0 0 0 0 0 0 0 0 0 0 0 0 0 0 0 0 0 0 0 0 0 0 0 0 0 0 0 0 0 0 0 0 0 0 0 0 0 0 0 0 0 0 0 0 0 0 0 0 0 0 0 0 0 0 0 0 0 0 0 0 0 0 0 0 0 0 0 0 0 0 0 0 0 0 0 0 0 0 0 0 0 0 0 0 0 0 0 0 0 0 0 0 0 0 0 0 0 0 0 0 0 0 0 0 0 0 0 0 0 0 0 0 0 0 0 0 0 0 0 0 0 0 0 0 0 0 0 0 0 0 0 0 0 0 0 0 0 0 0 0 0 0 0 0 0 0 0 0 0 0 0 0 0 0 0 0 0 0 0 0 0 0 0 0 0 0 0 0 0 0 0 0 0 0 0 0 0 0 0 0 0 0 0 0 0 0 0 0 0 0 0 0 0 0 0 0 0 0 0 0 0 0 0 0 0 0 0 0 0 0 0 0 0 0 0 0 0 0 0 0 0 0 0 0 0 0 0 0 0 0 0 0 0 0 0 0 0 0 0 0 0 0 0 0 0 0 0 0 0 0 0 0 0 0 0 0 0 0 0 0 0 0 0 0 0 0 0 0 0 0 0 0 0 0 0 0 0 0 0 0 0 0 0 0 0 0 0 0 0 0 0 0 0 0 0 0 0 0 0 0 0 0 0 0 0 0 0 0 0 0 0 0 0 0 0 0 0 0 0 0 0 0 0 0 0 0 0 0 0 0 0.0025539391208440065384 0.051078781485557556152 0.23496238887310028076 0.31668844819068908691 0.089387871325016021729 0 0 0 0 0 0 0 0 0 0 0 0.010215756483376026154 0.048524845391511917114 0.079172119498252868652 0.079172119498252868652 0.063848480582237243652 0.015323635190725326538 0 0 0.010215756483376026154 0.061294540762901306152 0.1047115027904510498 0.035755150020122528076 0.0025539391208440065384 0.19920724630355834961 0.74319624900817871094 0.66402417421340942383 0.26050180196762084961 0.058740600943565368652 0.012769696302711963654 0.0025539391208440065384 0 0 0 0 0 0 0 0 0 0 0 0 0 0 0 0 0 0 0 0 0 0 0 0 0 0 0 0 0 0 0 0 0 0 0 0 0 0 0 0 0 0 0 0 0 0 0 0 0 0 0 0 0 0 0 0 0 0 0 0 0 0 0 0 0 0 0 0 0 0 0 0 0 0 0 0 
0 0 0 0 0 0 0 0 0 0 0 0 0 0 0 0 0 0 0 0 0 0 0 0 0 0 0 0 0 0 0 0 0 0 0 0 0 0 0 0 0 0 0 0 0 0 0 0 0 0 0 0 0 0 0 0 0 0 0 0 0 0 0 0 0 0 0 0 0 0 0 0 0 0 0 0 0 0 0 0 0 0 0 0 0 0 0 0 0 0 0 0 0 0 0 0 0 0 0 0 0 0 0 0 0 0 0 0 0 0 0 0 0 0 0 0 0 0 0 0 0 0 0 0 0 0 0 0 0 0 0 0 0 0 0 0 0 0 0 0 0 0 0 0 0 0 0 0 0 0 0 0 0 0 0 0 0 0 0 0 0 0 0 0 0 0 0 0 0 0 0 0 0 0 0 0 0 0 0 0 0 0 0 0 0 0 0 0 0 0 0 0 0 0 0 0 0 0 0 0 0 0 0 0 0 0 0 0 0 0 0 0 0 0 0 0 0 0 0 0 0 0 0 0 0 0 0 0 0 0 0 0 0 0 0 0 0 0 0 0 0 0 0 0 0 0 0 0 0 0 0 0 0 0 0 0 0 0 0 0 0 0 0 0 0 0 0 0 0 0 0 0 0 0 0 0 0 0 0 0 0 0 0 0 0 0 0 0 0 0 0 0 0 0 0 0 0 0 0 0 0 0 0 0 0 0 0 0 0 0 0 0 0 0 0 0 0 0 0 0 0 0 0 0 0 0 0 0 0 0 0 0 0 0 0 0 0 0 0 0 0 0 0 0 0 0 0 0 0 0 0 0 0 0 0 0 0 0 0.0051078782416880130768 0.020431512966752052307 0.066402420401573181152 0.20176118612289428711 0.35755148530006408691 0.17622180283069610596 0.086833931505680084229 0.045970901846885681152 0.010215756483376026154 0 0 0 0 0 0 0 0 0.0025539391208440065384 0.017877575010061264038 0.043416965752840042114 0.043416965752840042114 0.066402420401573181152 0.020431512966752052307 0 0 0.010215756483376026154 0.058740600943565368652 0.10726545006036758423 0.058740600943565368652 0.010215756483376026154 0.17111392319202423096 0.67423993349075317383 0.73298054933547973633 0.44693934917449951172 0.18899148702621459961 0.068956352770328521729 0.020431512966752052307 0.0051078782416880130768 0 0 0 0 0 0 0 0 0 0 0 0 0 0 0 0 0 0 0 0 0 0 0 0 0 0 0 0 0 0 0 0 0 0 0 0 0 0 0 0 0 0 0 0 0 0 0 0 0 0 0 0 0 0 0 0 0 0 0 0 0 0 0 0 0 0 0 0 0 0 0 0 0 0 0 
0 0 0 0 0 0 0 0 0 0 0 0 0 0 0 0 0 0 0 0 0 0 0 0 0 0 0 0 0 0 0 0 0 0 0 0 0 0 0 0 0 0 0 0 0 0 0 0 0 0 0 0 0 0 0 0 0 0 0 0 0 0 0 0 0 0 0 0 0 0 0 0 0 0 0 0 0 0 0 0 0 0 0 0 0 0 0 0 0 0 0 0 0 0 0 0 0 0 0 0 0 0 0 0 0 0 0 0 0 0 0 0 0 0 0 0 0 0 0 0 0 0 0 0 0 0 0 0 0 0 0 0 0 0 0 0 0 0 0 0 0 0 0 0 0 0 0 0 0 0 0 0 0 0 0 0 0 0 0 0 0 0 0 0 0 0 0 0 0 0 0 0 0 0 0 0 0 0 0 0 0 0 0 0 0 0 0 0 0 0 0 0 0 0 0 0 0 0 0 0 0 0 0 0 0 0 0 0 0 0 0 0 0 0 0 0 0 0 0 0 0 0 0 0 0 0 0 0 0 0 0 0 0 0 0 0 0 0 0 0 0 0 0 0 0 0 0 0 0 0 0 0 0 0 0 0 0 0 0 0 0 0 0 0 0 0 0 0 0 0 0 0 0 0 0 0 0 0 0 0 0 0 0 0 0 0 0 0 0 0 0 0 0 0 0 0 0 0 0 0 0 0 0 0 0 0 0 0 0 0 0 0 0 0 0 0 0 0 0 0 0 0 0 0 0 0 0 0 0 0 0 0 0 0 0 0 0 0 0 0 0 0 0 0 0 0 0 0 0 0 0 0 0 0 0 0 0.0051078782416880130768 0.015323635190725326538 0.030647270381450653076 0.068956352770328521729 0.074064239859580993652 0.12514300644397735596 0.31924235820770263672 0.34733569622039794922 0.33201205730438232422 0.19920724630355834961 0.045970901846885681152 0 0 0 0 0 0 0 0 0 0.010215756483376026154 0.030647270381450653076 0.030647270381450653076 0.061294540762901306152 0.020431512966752052307 0 0 0.012769696302711963654 0.058740600943565368652 0.097049690783023834229 0.079172119498252868652 0.017877575010061264038 0.1276969611644744873 0.54398900270462036133 0.70744115114212036133 0.54909688234329223633 0.33201208710670471191 0.1276969611644744873 0.053632721304893493652 0.010215756483376026154 0 0 0 0 0 0 0 0 0 0 0 0 0 0 0 0 0 0 0 0 0 0 0 0 0 0 0 0 0 0 0 0 0 0 0 0 0 0 0 0 0 0 0 0 0 0 0 0 0 0 0 0 0 0 0 0 0 0 0 0 0 0 0 0 0 0 0 0 0 0 0 0 0 0 0 
0 0 0 0 0 0 0 0 0 0 0 0 0 0 0 0 0 0 0 0 0 0 0 0 0 0 0 0 0 0 0 0 0 0 0 0 0 0 0 0 0 0 0 0 0 0 0 0 0 0 0 0 0 0 0 0 0 0 0 0 0 0 0 0 0 0 0 0 0 0 0 0 0 0 0 0 0 0 0 0 0 0 0 0 0 0 0 0 0 0 0 0 0 0 0 0 0 0 0 0 0 0 0 0 0 0 0 0 0 0 0 0 0 0 0 0 0 0 0 0 0 0 0 0 0 0 0 0 0 0 0 0 0 0 0 0 0 0 0 0 0 0 0 0 0 0 0 0 0 0 0 0 0 0 0 0 0 0 0 0 0 0 0 0 0 0 0 0 0 0 0 0 0 0 0 0 0 0 0 0 0 0 0 0 0 0 0 0 0 0 0 0 0 0 0 0 0 0 0 0 0 0 0 0 0 0 0 0 0 0 0 0 0 0 0 0 0 0 0 0 0 0 0 0 0 0 0 0 0 0 0 0 0 0 0 0 0 0 0 0 0 0 0 0 0 0 0 0 0 0 0 0 0 0 0 0 0 0 0 0 0 0 0 0 0 0 0 0 0 0 0 0 0 0 0 0 0 0 0 0 0 0 0 0 0 0 0 0 0 0 0 0 0 0 0 0 0 0 0 0 0 0 0 0 0 0 0 0 0 0 0 0 0 0 0 0 0 0 0 0 0 0 0 0 0 0 0 0 0 0 0 0 0 0 0 0 0 0 0.0051078782416880130768 0.010215756483376026154 0.0051078782416880130768 0 0 0 0 0 0 0 0 0 0 0 0 0 0 0.0051078782416880130768 0.025539392605423927307 0.066402420401573181152 0.071510300040245056152 0.066402420401573181152 0.028093332424759864807 0.035755146294832229614 0.079172112047672271729 0.1328048408031463623 0.28604117035865783691 0.34988966584205627441 0.12258907407522201538 0.017877573147416114807 0 0 0 0 0 0 0 0 0.010215756483376026154 0.030647270381450653076 0.030647270381450653076 0.061294540762901306152 0.020431512966752052307 0 0 0.017877575010061264038 0.074064239859580993652 0.091941803693771362305 0.076618179678916931152 0.022985450923442840576 0.084279991686344146729 0.37542903423309326172 0.58740597963333129883 0.50057202577590942383 0.35755148530006408691 0.089387871325016021729 0.015323635190725326538 0.0051078782416880130768 0 0 0 0 0 0 0 0 0 0 0 0 0 0 0 0 0 0 0 0 0 0 0 0 0 0 0 0 0 0 0 0 0 0 0 0 0 0 0 0 0 0 0 0 0 0 0 0 0 0 0 0 0 0 0 0 0 0 0 0 0 0 0 0 0 0 0 0 0 0 0 0 0 0 0 
0 0 0 0 0 0 0 0 0 0 0 0 0 0 0 0 0 0 0 0 0 0 0 0 0 0 0 0 0 0 0 0 0 0 0 0 0 0 0 0 0 0 0 0 0 0 0 0 0 0 0 0 0 0 0 0 0 0 0 0 0 0 0 0 0 0 0 0 0 0 0 0 0 0 0 0 0 0 0 0 0 0 0 0 0 0 0 0 0 0 0 0 0 0 0 0 0 0 0 0 0 0 0 0 0 0 0 0 0 0 0 0 0 0 0 0 0 0 0 0 0 0 0 0 0 0 0 0 0 0 0 0 0 0 0 0 0 0 0 0 0 0 0 0 0 0 0 0 0 0 0 0 0 0 0 0 0 0 0 0 0 0 0 0 0 0 0 0 0 0 0 0 0 0 0 0 0 0 0 0 0 0 0 0 0 0 0 0 0 0 0 0 0 0 0 0 0 0 0 0 0 0 0 0 0 0 0 0 0 0 0 0 0 0 0 0 0 0 0 0 0 0 0 0 0 0 0 0 0 0 0 0 0 0 0 0 0 0 0 0 0 0 0 0 0 0 0 0 0 0 0 0 0 0 0 0 0 0 0 0 0 0 0 0 0 0 0 0 0 0 0 0 0 0 0 0 0 0 0 0 0 0 0 0 0 0 0 0 0 0 0 0 0 0 0 0 0 0 0 0 0 0 0 0 0 0 0 0 0 0 0 0 0 0 0 0 0 0 0 0 0 0 0 0 0 0 0 0 0 0 0 0 0 0 0 0 0 0 0.015323635190725326538 0.053632721304893493652 0.020431512966752052307 0.0025539391208440065384 0 0 0 0 0 0 0 0 0 0 0 0 0 0.015323635190725326538 0.066402420401573181152 0.071510300040245056152 0.030647270381450653076 0.015323635190725326538 0.0051078782416880130768 0 0 0.015323635190725326538 0.1149272620677947998 0.34222784638404846191 0.26816362142562866211 0.056186661124229431152 0 0 0 0 0 0 0 0 0.010215756483376026154 0.033201210200786590576 0.038309089839458465576 0.068956352770328521729 0.022985454648733139038 0 0 0.022985454648733139038 0.079172119498252868652 0.068956352770328521729 0.051078785210847854614 0.040863025933504104614 0.063848480582237243652 0.24773208796977996826 0.42906177043914794922 0.28093329071998596191 0.10726543515920639038 0.028093330562114715576 0 0 0 0 0 0 0 0 0 0 0 0 0 0 0 0 0 0 0 0 0 0 0 0 0 0 0 0 0 0 0 0 0 0 0 0 0 0 0 0 0 0 0 0 0 0 0 0 0 0 0 0 0 0 0 0 0 0 0 0 0 0 0 0 0 0 0 0 0 0 0 0 0 0 0 0 0 
0 0 0 0 0 0 0 0 0 0 0 0 0 0 0 0 0 0 0 0 0 0 0 0 0 0 0 0 0 0 0 0 0 0 0 0 0 0 0 0 0 0 0 0 0 0 0 0 0 0 0 0 0 0 0 0 0 0 0 0 0 0 0 0 0 0 0 0 0 0 0 0 0 0 0 0 0 0 0 0 0 0 0 0 0 0 0 0 0 0 0 0 0 0 0 0 0 0 0 0 0 0 0 0 0 0 0 0 0 0 0 0 0 0 0 0 0 0 0 0 0 0 0 0 0 0 0 0 0 0 0 0 0 0 0 0 0 0 0 0 0 0 0 0 0 0 0 0 0 0 0 0 0 0 0 0 0 0 0 0 0 0 0 0 0 0 0 0 0 0 0 0 0 0 0 0 0 0 0 0 0 0 0 0 0 0 0 0 0 0 0 0 0 0 0 0 0 0 0 0 0 0 0 0 0 0 0 0 0 0 0 0 0 0 0 0 0 0 0 0 0 0 0 0 0 0 0 0 0 0 0 0 0 0 0 0 0 0 0 0 0 0 0 0 0 0 0 0 0 0 0 0 0 0 0 0 0 0 0 0 0 0 0 0 0 0 0 0 0 0 0 0 0 0 0 0 0 0 0 0 0 0 0 0 0 0 0 0 0 0 0 0 0 0 0 0 0 0 0 0 0 0 0 0 0 0 0 0 0 0 0 0 0 0 0 0 0 0 0 0 0 0 0 0 0 0 0 0 0 0 0 0 0 0 0 0 0 0 0.017877575010061264038 0.066402420401573181152 0.053632721304893493652 0.025539392605423927307 0.020431512966752052307 0.015323635190725326538 0.0051078782416880130768 0 0 0 0 0 0 0 0 0 0 0.020431512966752052307 0.066402420401573181152 0.030647270381450653076 0.0051078782416880130768 0 0 0 0 0 0.045970901846885681152 0.20431514084339141846 0.29114904999732971191 0.081726051867008209229 0 0 0 0 0 0 0 0 0.007661817595362663269 0.030647270381450653076 0.048524845391511917114 0.076618179678916931152 0.020431512966752052307 0 0 0.028093332424759864807 0.094495750963687896729 0.056186664849519729614 0.020431512966752052307 0.038309089839458465576 0.066402420401573181152 0.089387871325016021729 0.097049683332443237305 0.05874059721827507019 0.012769695371389389038 0 0 0 0 0 0 0 0 0 0 0 0 0 0 0 0 0 0 0 0 0 0 0 0 0 0 0 0 0 0 0 0 0 0 0 0 0 0 0 0 0 0 0 0 0 0 0 0 0 0 0 0 0 0 0 0 0 0 0 0 0 0 0 0 0 0 0 0 0 0 0 0 0 0 0 0 0 0 
0 0 0 0 0 0 0 0 0 0 0 0 0 0 0 0 0 0 0 0 0 0 0 0 0 0 0 0 0 0 0 0 0 0 0 0 0 0 0 0 0 0 0 0 0 0 0 0 0 0 0 0 0 0 0 0 0 0 0 0 0 0 0 0 0 0 0 0 0 0 0 0 0 0 0 0 0 0 0 0 0 0 0 0 0 0 0 0 0 0 0 0 0 0 0 0 0 0 0 0 0 0 0 0 0 0 0 0 0 0 0 0 0 0 0 0 0 0 0 0 0 0 0 0 0 0 0 0 0 0 0 0 0 0 0 0 0 0 0 0 0 0 0 0 0 0 0 0 0 0 0 0 0 0 0 0 0 0 0 0 0 0 0 0 0 0 0 0 0 0 0 0 0 0 0 0 0 0 0 0 0 0 0 0 0 0 0 0 0 0 0 0 0 0 0 0 0 0 0 0 0 0 0 0 0 0 0 0 0 0 0 0 0 0 0 0 0 0 0 0 0 0 0 0 0 0 0 0 0 0 0 0 0 0 0 0 0 0 0 0 0 0 0 0 0 0 0 0 0 0 0 0 0 0 0 0 0 0 0 0 0 0 0 0 0 0 0 0 0 0 0 0 0 0 0 0 0 0 0 0 0 0 0 0 0 0 0 0 0 0 0 0 0 0 0 0 0 0 0 0 0 0 0 0 0 0 0 0 0 0 0 0 0 0 0 0 0 0 0 0 0 0 0 0 0 0 0 0 0 0 0 0 0 0 0 0 0 0 0.010215756483376026154 0.043416965752840042114 0.066402420401573181152 0.063848480582237243652 0.066402420401573181152 0.066402420401573181152 0.030647270381450653076 0.015323635190725326538 0.0051078782416880130768 0 0 0 0 0 0 0.0025539391208440065384 0.007661817595362663269 0.028093332424759864807 0.063848480582237243652 0.020431512966752052307 0 0 0 0 0 0 0.020431512966752052307 0.1506824195384979248 0.29114904999732971191 0.089387871325016021729 0 0 0 0 0 0 0 0 0.0025539391208440065384 0.007661817595362663269 0.015323635190725326538 0.017877575010061264038 0.007661817595362663269 0 0 0.022985454648733139038 0.079172119498252868652 0.028093332424759864807 0.0051078782416880130768 0.010215756483376026154 0.015323635190725326538 0.010215756483376026154 0.0025539391208440065384 0 0 0 0 0 0 0 0 0 0 0 0 0 0 0 0 0 0 0 0 0 0 0 0 0 0 0 0 0 0 0 0 0 0 0 0 0 0 0 0 0 0 0 0 0 0 0 0 0 0 0 0 0 0 0 0 0 0 0 0 0 0 0 0 0 0 0 0 0 0 0 0 0 0 0 0 0 0 0 0 
0 0 0 0 0 0 0 0 0 0 0 0 0 0 0 0 0 0 0 0 0 0 0 0 0 0 0 0 0 0 0 0 0 0 0 0 0 0 0 0 0 0 0 0 0 0 0 0 0 0 0 0 0 0 0 0 0 0 0 0 0 0 0 0 0 0 0 0 0 0 0 0 0 0 0 0 0 0 0 0 0 0 0 0 0 0 0 0 0 0 0 0 0 0 0 0 0 0 0 0 0 0 0 0 0 0 0 0 0 0 0 0 0 0 0 0 0 0 0 0 0 0 0 0 0 0 0 0 0 0 0 0 0 0 0 0 0 0 0 0 0 0 0 0 0 0 0 0 0 0 0 0 0 0 0 0 0 0 0 0 0 0 0 0 0 0 0 0 0 0 0 0 0 0 0 0 0 0 0 0 0 0 0 0 0 0 0 0 0 0 0 0 0 0 0 0 0 0 0 0 0 0 0 0 0 0 0 0 0 0 0 0 0 0 0 0 0 0 0 0 0 0 0 0 0 0 0 0 0 0 0 0 0 0 0 0 0 0 0 0 0 0 0 0 0 0 0 0 0 0 0 0 0 0 0 0 0 0 0 0 0 0 0 0 0 0 0 0 0 0 0 0 0 0 0 0 0 0 0 0 0 0 0 0 0 0 0 0 0 0 0 0 0 0 0 0 0 0 0 0 0 0 0 0 0 0 0 0 0 0 0 0 0 0 0 0 0 0 0 0 0 0 0 0 0 0 0 0 0 0 0 0 0 0 0 0 0 0 0.0025539391208440065384 0.010215756483376026154 0.017877575010061264038 0.020431512966752052307 0.030647270381450653076 0.066402420401573181152 0.071510300040245056152 0.066402420401573181152 0.030647270381450653076 0.020431512966752052307 0.020431512966752052307 0.020431512966752052307 0.020431512966752052307 0.020431512966752052307 0.020431512966752052307 0.025539392605423927307 0.043416965752840042114 0.053632721304893493652 0.063848480582237243652 0.017877575010061264038 0 0 0 0 0 0 0.012769696302711963654 0.1276969611644744873 0.28859511017799377441 0.091941803693771362305 0 0 0 0 0 0 0 0 0 0 0 0 0 0 0 0.007661817595362663269 0.015323635190725326538 0.007661817595362663269 0 0 0 0 0 0 0 0 0 0 0 0 0 0 0 0 0 0 0 0 0 0 0 0 0 0 0 0 0 0 0 0 0 0 0 0 0 0 0 0 0 0 0 0 0 0 0 0 0 0 0 0 0 0 0 0 0 0 0 0 0 0 0 0 0 0 0 0 0 0 0 0 0 0 0 0 0 0 0 0 0 0 0 0 0 
0 0 0 0 0 0 0 0 0 0 0 0 0 0 0 0 0 0 0 0 0 0 0 0 0 0 0 0 0 0 0 0 0 0 0 0 0 0 0 0 0 0 0 0 0 0 0 0 0 0 0 0 0 0 0 0 0 0 0 0 0 0 0 0 0 0 0 0 0 0 0 0 0 0 0 0 0 0 0 0 0 0 0 0 0 0 0 0 0 0 0 0 0 0 0 0 0 0 0 0 0 0 0 0 0 0 0 0 0 0 0 0 0 0 0 0 0 0 0 0 0 0 0 0 0 0 0 0 0 0 0 0 0 0 0 0 0 0 0 0 0 0 0 0 0 0 0 0 0 0 0 0 0 0 0 0 0 0 0 0 0 0 0 0 0 0 0 0 0 0 0 0 0 0 0 0 0 0 0 0 0 0 0 0 0 0 0 0 0 0 0 0 0 0 0 0 0 0 0 0 0 0 0 0 0 0 0 0 0 0 0 0 0 0 0 0 0 0 0 0 0 0 0 0 0 0 0 0 0 0 0 0 0 0 0 0 0 0 0 0 0 0 0 0 0 0 0 0 0 0 0 0 0 0 0 0 0 0 0 0 0 0 0 0 0 0 0 0 0 0 0 0 0 0 0 0 0 0 0 0 0 0 0 0 0 0 0 0 0 0 0 0 0 0 0 0 0 0 0 0 0 0 0 0 0 0 0 0 0 0 0 0 0 0 0 0 0 0 0 0 0 0 0 0 0 0 0 0 0 0 0 0 0 0 0 0 0 0 0 0 0 0 0.0051078782416880130768 0.015323635190725326538 0.030647270381450653076 0.066402420401573181152 0.066402420401573181152 0.061294540762901306152 0.061294540762901306152 0.061294540762901306152 0.061294540762901306152 0.061294540762901306152 0.061294540762901306152 0.063848480582237243652 0.063848480582237243652 0.048524845391511917114 0.038309089839458465576 0.010215756483376026154 0 0 0 0 0 0 0.010215756483376026154 0.1225890815258026123 0.28604117035865783691 0.091941803693771362305 0 0 0 0 0 0 0 0 0 0 0 0 0 0 0 0 0 0 0 0 0 0 0 0 0 0 0 0 0 0 0 0 0 0 0 0 0 0 0 0 0 0 0 0 0 0 0 0 0 0 0 0 0 0 0 0 0 0 0 0 0 0 0 0 0 0 0 0 0 0 0 0 0 0 0 0 0 0 0 0 0 0 0 0 0 0 0 0 0 0 0 0 0 0 0 0 0 0 0 0 0 0 0 
0 0 0 0 0 0 0 0 0 0 0 0 0 0 0 0 0 0 0 0 0 0 0 0 0 0 0 0 0 0 0 0 0 0 0 0 0 0 0 0 0 0 0 0 0 0 0 0 0 0 0 0 0 0 0 0 0 0 0 0 0 0 0 0 0 0 0 0 0 0 0 0 0 0 0 0 0 0 0 0 0 0 0 0 0 0 0 0 0 0 0 0 0 0 0 0 0 0 0 0 0 0 0 0 0 0 0 0 0 0 0 0 0 0 0 0 0 0 0 0 0 0 0 0 0 0 0 0 0 0 0 0 0 0 0 0 0 0 0 0 0 0 0 0 0 0 0 0 0 0 0 0 0 0 0 0 0 0 0 0 0 0 0 0 0 0 0 0 0 0 0 0 0 0 0 0 0 0 0 0 0 0 0 0 0 0 0 0 0 0 0 0 0 0 0 0 0 0 0 0 0 0 0 0 0 0 0 0 0 0 0 0 0 0 0 0 0 0 0 0 0 0 0 0 0 0 0 0 0 0 0 0 0 0 0 0 0 0 0 0 0 0 0 0 0 0 0 0 0 0 0 0 0 0 0 0 0 0 0 0 0 0 0 0 0 0 0 0 0 0 0 0 0 0 0 0 0 0 0 0 0 0 0 0 0 0 0 0 0 0 0 0 0 0 0 0 0 0 0 0 0 0 0 0 0 0 0 0 0 0 0 0 0 0 0 0 0 0 0 0 0 0 0 0 0 0 0 0 0 0 0 0 0 0 0 0 0 0 0 0 0 0 0 0 0.0051078782416880130768 0.015323635190725326538 0.020431512966752052307 0.020431512966752052307 0.020431512966752052307 0.020431512966752052307 0.020431512966752052307 0.020431512966752052307 0.020431512966752052307 0.020431512966752052307 0.017877575010061264038 0.012769696302711963654 0.007661817595362663269 0.0025539391208440065384 0 0 0 0 0 0 0.015323635190725326538 0.1328048408031463623 0.29114904999732971191 0.091941803693771362305 0 0 0 0 0 0 0 0 0 0 0 0 0 0 0 0 0 0 0 0 0 0 0 0 0 0 0 0 0 0 0 0 0 0 0 0 0 0 0 0 0 0 0 0 0 0 0 0 0 0 0 0 0 0 0 0 0 0 0 0 0 0 0 0 0 0 0 0 0 0 0 0 0 0 0 0 0 0 0 0 0 0 0 0 0 0 0 0 0 0 0 0 0 0 0 0 0 0 0 0 0 0 0 
0 0 0 0 0 0 0 0 0 0 0 0 0 0 0 0 0 0 0 0 0 0 0 0 0 0 0 0 0 0 0 0 0 0 0 0 0 0 0 0 0 0 0 0 0 0 0 0 0 0 0 0 0 0 0 0 0 0 0 0 0 0 0 0 0 0 0 0 0 0 0 0 0 0 0 0 0 0 0 0 0 0 0 0 0 0 0 0 0 0 0 0 0 0 0 0 0 0 0 0 0 0 0 0 0 0 0 0 0 0 0 0 0 0 0 0 0 0 0 0 0 0 0 0 0 0 0 0 0 0 0 0 0 0 0 0 0 0 0 0 0 0 0 0 0 0 0 0 0 0 0 0 0 0 0 0 0 0 0 0 0 0 0 0 0 0 0 0 0 0 0 0 0 0 0 0 0 0 0 0 0 0 0 0 0 0 0 0 0 0 0 0 0 0 0 0 0 0 0 0 0 0 0 0 0 0 0 0 0 0 0 0 0 0 0 0 0 0 0 0 0 0 0 0 0 0 0 0 0 0 0 0 0 0 0 0 0 0 0 0 0 0 0 0 0 0 0 0 0 0 0 0 0 0 0 0 0 0 0 0 0 0 0 0 0 0 0 0 0 0 0 0 0 0 0 0 0 0 0 0 0 0 0 0 0 0 0 0 0 0 0 0 0 0 0 0 0 0 0 0 0 0 0 0 0 0 0 0 0 0 0 0 0 0 0 0 0 0 0 0 0 0 0 0 0 0 0 0 0 0 0 0 0 0 0 0 0 0 0 0 0 0 0 0 0 0 0 0 0 0 0 0 0 0 0 0 0 0 0 0 0 0.0051078782416880130768 0.022985450923442840576 0.05618665739893913269 0.10726543515920639038 0.22985452413558959961 0.30902662873268127441 0.086833931505680084229 0 0 0 0 0 0 0 0 0 0 0 0 0 0 0 0 0 0 0 0 0 0 0 0 0 0 0 0 0 0 0 0 0 0 0 0 0 0 0 0 0 0 0 0 0 0 0 0 0 0 0 0 0 0 0 0 0 0 0 0 0 0 0 0 0 0 0 0 0 0 0 0 0 0 0 0 0 0 0 0 0 0 0 0 0 0 0 0 0 0 0 0 0 0 0 0 0 0 0 0 0 0 0 
0 0 0 0 0 0 0 0 0 0 0 0 0 0 0 0 0 0 0 0 0 0 0 0 0 0 0 0 0 0 0 0 0 0 0 0 0 0 0 0 0 0 0 0 0 0 0 0 0 0 0 0 0 0 0 0 0 0 0 0 0 0 0 0 0 0 0 0 0 0 0 0 0 0 0 0 0 0 0 0 0 0 0 0 0 0 0 0 0 0 0 0 0 0 0 0 0 0 0 0 0 0 0 0 0 0 0 0 0 0 0 0 0 0 0 0 0 0 0 0 0 0 0 0 0 0 0 0 0 0 0 0 0 0 0 0 0 0 0 0 0 0 0 0 0 0 0 0 0 0 0 0 0 0 0 0 0 0 0 0 0 0 0 0 0 0 0 0 0 0 0 0 0 0 0 0 0 0 0 0 0 0 0 0 0 0 0 0 0 0 0 0 0 0 0 0 0 0 0 0 0 0 0 0 0 0 0 0 0 0 0 0 0 0 0 0 0 0 0 0 0 0 0 0 0 0 0 0 0 0 0 0 0 0 0 0 0 0 0 0 0 0 0 0 0 0 0 0 0 0 0 0 0 0 0 0 0 0 0 0 0 0 0 0 0 0 0 0 0 0 0 0 0 0 0 0 0 0 0 0 0 0 0 0 0 0 0 0 0 0 0 0 0 0 0 0 0 0 0 0 0 0 0 0 0 0 0 0 0 0 0 0 0 0 0 0 0 0 0 0 0 0 0 0 0 0 0 0 0 0 0 0 0 0 0 0 0 0 0 0 0 0 0 0 0 0 0 0 0 0 0 0 0 0 0 0 0 0 0 0 0 0.035755146294832229614 0.13791270554065704346 0.24262420833110809326 0.33456599712371826172 0.34222781658172607422 0.24773208796977996826 0.05874059721827507019 0 0 0 0 0 0 0 0 0 0 0 0 0 0 0 0 0 0 0 0 0 0 0 0 0 0 0 0 0 0 0 0 0 0 0 0 0 0 0 0 0 0 0 0 0 0 0 0 0 0 0 0 0 0 0 0 0 0 0 0 0 0 0 0 0 0 0 0 0 0 0 0 0 0 0 0 0 0 0 0 0 0 0 0 0 0 0 0 0 0 0 0 0 0 0 0 0 0 0 0 0 0 0 
0 0 0 0 0 0 0 0 0 0 0 0 0 0 0 0 0 0 0 0 0 0 0 0 0 0 0 0 0 0 0 0 0 0 0 0 0 0 0 0 0 0 0 0 0 0 0 0 0 0 0 0 0 0 0 0 0 0 0 0 0 0 0 0 0 0 0 0 0 0 0 0 0 0 0 0 0 0 0 0 0 0 0 0 0 0 0 0 0 0 0 0 0 0 0 0 0 0 0 0 0 0 0 0 0 0 0 0 0 0 0 0 0 0 0 0 0 0 0 0 0 0 0 0 0 0 0 0 0 0 0 0 0 0 0 0 0 0 0 0 0 0 0 0 0 0 0 0 0 0 0 0 0 0 0 0 0 0 0 0 0 0 0 0 0 0 0 0 0 0 0 0 0 0 0 0 0 0 0 0 0 0 0 0 0 0 0 0 0 0 0 0 0 0 0 0 0 0 0 0 0 0 0 0 0 0 0 0 0 0 0 0 0 0 0 0 0 0 0 0 0 0 0 0 0 0 0 0 0 0 0 0 0 0 0 0 0 0 0 0 0 0 0 0 0 0 0 0 0 0 0 0 0 0 0 0 0 0 0 0 0 0 0 0 0 0 0 0 0 0 0 0 0 0 0 0 0 0 0 0 0 0 0 0 0 0 0 0 0 0 0 0 0 0 0 0 0 0 0 0 0 0 0 0 0 0 0 0 0 0 0 0 0 0 0 0 0 0 0 0 0 0 0 0 0 0 0 0 0 0 0 0 0 0 0 0 0 0 0 0 0 0 0 0 0 0 0 0 0 0 0 0 0 0 0 0 0 0 0 0 0 0.05618665739893913269 0.26816362142562866211 0.29625692963600158691 0.23240846395492553711 0.12003513425588607788 0.06129453703761100769 0.017877573147416114807 0 0 0 0 0 0 0 0 0 0 0 0 0 0 0 0 0 0 0 0 0 0 0 0 0 0 0 0 0 0 0 0 0 0 0 0 0 0 0 0 0 0 0 0 0 0 0 0 0 0 0 0 0 0 0 0 0 0 0 0 0 0 0 0 0 0 0 0 0 0 0 0 0 0 0 0 0 0 0 0 0 0 0 0 0 0 0 0 0 0 0 0 0 0 0 0 0 0 0 0 0 0 0 
0 0 0 0 0 0 0 0 0 0 0 0 0 0 0 0 0 0 0 0 0 0 0 0 0 0 0 0 0 0 0 0 0 0 0 0 0 0 0 0 0 0 0 0 0 0 0 0 0 0 0 0 0 0 0 0 0 0 0 0 0 0 0 0 0 0 0 0 0 0 0 0 0 0 0 0 0 0 0 0 0 0 0 0 0 0 0 0 0 0 0 0 0 0 0 0 0 0 0 0 0 0 0 0 0 0 0 0 0 0 0 0 0 0 0 0 0 0 0 0 0 0 0 0 0 0 0 0 0 0 0 0 0 0 0 0 0 0 0 0 0 0 0 0 0 0 0 0 0 0 0 0 0 0 0 0 0 0 0 0 0 0 0 0 0 0 0 0 0 0 0 0 0 0 0 0 0 0 0 0 0 0 0 0 0 0 0 0 0 0 0 0 0 0 0 0 0 0 0 0 0 0 0 0 0 0 0 0 0 0 0 0 0 0 0 0 0 0 0 0 0 0 0 0 0 0 0 0 0 0 0 0 0 0 0 0 0 0 0 0 0 0 0 0 0 0 0 0 0 0 0 0 0 0 0 0 0 0 0 0 0 0 0 0 0 0 0 0 0 0 0 0 0 0 0 0 0 0 0 0 0 0 0 0 0 0 0 0 0 0 0 0 0 0 0 0 0 0 0 0 0 0 0 0 0 0 0 0 0 0 0 0 0 0 0 0 0 0 0 0 0 0 0 0 0 0 0 0 0 0 0 0 0 0 0 0 0 0 0 0 0 0 0 0 0 0 0 0 0 0 0 0 0 0 0 0 0 0 0 0 0 0.025539390742778778076 0.071510292589664459229 0.079172119498252868652 0.045970901846885681152 0.012769695371389389038 0 0 0 0 0 0 0 0 0 0 0 0 0 0 0 0 0 0 0 0 0 0 0 0 0 0 0 0 0 0 0 0 0 0 0 0 0 0 0 0 0 0 0 0 0 0 0 0 0 0 0 0 0 0 0 0 0 0 0 0 0 0 0 0 0 0 0 0 0 0 0 0 0 0 0 0 0 0 0 0 0 0 0 0 0 0 0 0 0 0 0 0 0 0 0 0 0 0 0 0 0 0 0 0 0 
0 0 0 0 0 0 0 0 0 0 0 0 0 0 0 0 0 0 0 0 0 0 0 0 0 0 0 0 0 0 0 0 0 0 0 0 0 0 0 0 0 0 0 0 0 0 0 0 0 0 0 0 0 0 0 0 0 0 0 0 0 0 0 0 0 0 0 0 0 0 0 0 0 0 0 0 0 0 0 0 0 0 0 0 0 0 0 0 0 0 0 0 0 0 0 0 0 0 0 0 0 0 0 0 0 0 0 0 0 0 0 0 0 0 0 0 0 0 0 0 0 0 0 0 0 0 0 0 0 0 0 0 0 0 0 0 0 0 0 0 0 0 0 0 0 0 0 0 0 0 0 0 0 0 0 0 0 0 0 0 0 0 0 0 0 0 0 0 0 0 0 0 0 0 0 0 0 0 0 0 0 0 0 0 0 0 0 0 0 0 0 0 0 0 0 0 0 0 0 0 0 0 0 0 0 0 0 0 0 0 0 0 0 0 0 0 0 0 0 0 0 0 0 0 0 0 0 0 0 0 0 0 0 0 0 0 0 0 0 0 0 0 0 0 0 0 0 0 0 0 0 0 0 0 0 0 0 0 0 0 0 0 0 0 0 0 0 0 0 0 0 0 0 0 0 0 0 0 0 0 0 0 0 0 0 0 0 0 0 0 0 0 0 0 0 0 0 0 0 0 0 0 0 0 0 0 0 0 0 0 0 0 0 0 0 0 0 0 0 0 0 0 0 0 0 0 0 0 0 0 0 0 0 0 0 0 0 0 0 0 0 0 0 0 0 0 0 0 0 0 0 0 0 0 0 0 0 0 0 0 0 0 0 0 0 0 0 0 0 0 0 0 0 0 0 0 0 0 0 0 0 0 0 0 0 0 0 0 0 0 0 0 0 0 0 0 0 0 0 0 0 0 0 0 0 0 0 0 0 0 0 0 0 0 0 0 0 0 0 0 0 0 0 0 0 0 0 0 0 0 0 0 0 0 0 0 0 0 0 0 0 0 0 0 0 0 0 0 0 0 0 0 0 0 0 0 0 0 0 0 0 0 0 0 0 0 0 0 0 0 0 
0 0 0 0 0 0 0 0 0 0 0 0 0 0 0 0 0 0 0 0 0 0 0 0 0 0 0 0 0 0 0 0 0 0 0 0 0 0 0 0 0 0 0 0 0 0 0 0 0 0 0 0 0 0 0 0 0 0 0 0 0 0 0 0 0 0 0 0 0 0 0 0 0 0 0 0 0 0 0 0 0 0 0 0 0 0 0 0 0 0 0 0 0 0 0 0 0 0 0 0 0 0 0 0 0 0 0 0 0 0 0 0 0 0 0 0 0 0 0 0 0 0 0 0 0 0 0 0 0 0 0 0 0 0 0 0 0 0 0 0 0 0 0 0 0 0 0 0 0 0 0 0 0 0 0 0 0 0 0 0 0 0 0 0 0 0 0 0 0 0 0 0 0 0 0 0 0 0 0 0 0 0 0 0 0 0 0 0 0 0 0 0 0 0 0 0 0 0 0 0 0 0 0 0 0 0 0 0 0 0 0 0 0 0 0 0 0 0 0 0 0 0 0 0 0 0 0 0 0 0 0 0 0 0 0 0 0 0 0 0 0 0 0 0 0 0 0 0 0 0 0 0 0 0 0 0 0 0 0 0 0 0 0 0 0 0 0 0 0 0 0 0 0 0 0 0 0 0 0 0 0 0 0 0 0 0 0 0 0 0 0 0 0 0 0 0 0 0 0 0 0 0 0 0 0 0 0 0 0 0 0 0 0 0 0 0 0 0 0 0 0 0 0 0 0 0 0 0 0 0 0 0 0 0 0 0 0 0 0 0 0 0 0 0 0 0 0 0 0 0 0 0 0 0 0 0 0 0 0 0 0 0 0 0 0 0 0 0 0 0 0 0 0 0 0 0 0 0 0 0 0 0 0 0 0 0 0 0 0 0 0 0 0 0 0 0 0 0 0 0 0 0 0 0 0 0 0 0 0 0 0 0 0 0 0 0 0 0 0 0 0 0 0 0 0 0 0 0 0 0 0 0 0 0 0 0 0 0 0 0 0 0 0 0 0 0 0 0 0 0 0 0 0 0 0 0 0 0 0 0 0 0 0 0 0 0 0 0 0 0 0 
0 0 0 0 0 0 0 0 0 0 0 0 0 0 0 0 0 0 0 0 0 0 0 0 0 0 0 0 0 0 0 0 0 0 0 0 0 0 0 0 0 0 0 0 0 0 0 0 0 0 0 0 0 0 0 0 0 0 0 0 0 0 0 0 0 0 0 0 0 0 0 0 0 0 0 0 0 0 0 0 0 0 0 0 0 0 0 0 0 0 0 0 0 0 0 0 0 0 0 0 0 0 0 0 0 0 0 0 0 0 0 0 0 0 0 0 0 0 0 0 0 0 0 0 0 0 0 0 0 0 0 0 0 0 0 0 0 0 0 0 0 0 0 0 0 0 0 0 0 0 0 0 0 0 0 0 0 0 0 0 0 0 0 0 0 0 0 0 0 0 0 0 0 0 0 0 0 0 0 0 0 0 0 0 0 0 0 0 0 0 0 0 0 0 0 0 0 0 0 0 0 0 0 0 0 0 0 0 0 0 0 0 0 0 0 0 0 0 0 0 0 0 0 0 0 0 0 0 0 0 0 0 0 0 0 0 0 0 0 0 0 0 0 0 0 0 0 0 0 0 0 0 0 0 0 0 0 0 0 0 0 0 0 0 0 0 0 0 0 0 0 0 0 0 0 0 0 0 0 0 0 0 0 0 0 0 0 0 0 0 0 0 0 0 0 0 0 0 0 0 0 0 0 0 0 0 0 0 0 0 0 0 0 0 0 0 0 0 0 0 0 0 0 0 0 0 0 0 0 0 0 0 0 0 0 0 0 0 0 0 0 0 0 0 0 0 0 0 0 0 0 0 0 0 0 0 0 0 0 0 0 0 0 0 0 0 0 0 0 0 0 0 0 0 0 0 0 0 0 0 0 0 0 0 0 0 0 0 0 0 0 0 0 0 0 0 0 0 0 0 0 0 0 0 0 0 0 0 0 0 0 0 0 0 0 0 0 0 0 0 0 0 0 0 0 0 0 0 0 0 0 0 0 0 0 0 0 0 0 0 0 0 0 0 0 0 0 0 0 0 0 0 0 0 0 0 0 0 0 0 0 0 0 0 0 0 0 0 0 0 0 
0 0 0 0 0 0 0 0 0 0 0 0 0 0 0 0 0 0 0 0 0 0 0 0 0 0 0 0 0 0 0 0 0 0 0 0 0 0 0 0 0 0 0 0 0 0 0 0 0 0 0 0 0 0 0 0 0 0 0 0 0 0 0 0 0 0 0 0 0 0 0 0 0 0 0 0 0 0 0 0 0 0 0 0 0 0 0 0 0 0 0 0 0 0 0 0 0 0 0 0 0 0 0 0 0 0 0 0 0 0 0 0 0 0 0 0 0 0 0 0 0 0 0 0 0 0 0 0 0 0 0 0 0 0 0 0 0 0 0 0 0 0 0 0 0 0 0 0 0 0 0 0 0 0 0 0 0 0 0 0 0 0 0 0 0 0 0 0 0 0 0 0 0 0 0 0 0 0 0 0 0 0 0 0 0 0 0 0 0 0 0 0 0 0 0 0 0 0 0 0 0 0 0 0 0 0 0 0 0 0 0 0 0 0 0 0 0 0 0 0 0 0 0 0 0 0 0 0 0 0 0 0 0 0 0 0 0 0 0 0 0 0 0 0 0 0 0 0 0 0 0 0 0 0 0 0 0 0 0 0 0 0 0 0 0 0 0 0 0 0 0 0 0 0 0 0 0 0 0 0 0 0 0 0 0 0 0 0 0 0 0 0 0 0 0 0 0 0 0 0 0 0 0 0 0 0 0 0 0 0 0 0 0 0 0 0 0 0 0 0 0 0 0 0 0 0 0 0 0 0 0 0 0 0 0 0 0 0 0 0 0 0 0 0 0 0 0 0 0 0 0 0 0 0 0 0 0 0 0 0 0 0 0 0 0 0 0 0 0 0 0 0 0 0 0 0 0 0 0 0 0 0 0 0 0 0 0 0 0 0 0 0 0 0 0 0 0 0 0 0 0 0 0 0 0 0 0 0 0 0 0 0 0 0 0 0 0 0 0 0 0 0 0 0 0 0 0 0 0 0 0 0 0 0 0 0 0 0 0 0 0 0 0 0 0 0 0 0 0 0 0 0 0 0 0 0 0 0 0 0 0 0 0 0 0 0 0 0 0 0 0 
0 0 0 0 0 0 0 0 0 0 0 0 0 0 0 0 0 0 0 0 0 0 0 0 0 0 0 0 0 0 0 0 0 0 0 0 0 0 0 0 0 0 0 0 0 0 0 0 0 0 0 0 0 0 0 0 0 0 0 0 0 0 0 0 0 0 0 0 0 0 0 0 0 0 0 0 0 0 0 0 0 0 0 0 0 0 0 0 0 0 0 0 0 0 0 0 0 0 0 0 0 0 0 0 0 0 0 0 0 0 0 0 0 0 0 0 0 0 0 0 0 0 0 0 0 0 0 0 0 0 0 0 0 0 0 0 0 0 0 0 0 0 0 0 0 0 0 0 0 0 0 0 0 0 0 0 0 0 0 0 0 0 0 0 0 0 0 0 0 0 0 0 0 0 0 0 0 0 0 0 0 0 0 0 0 0 0 0 0 0 0 0 0 0 0 0 0 0 0 0 0 0 0 0 0 0 0 0 0 0 0 0 0 0 0 0 0 0 0 0 0 0 0 0 0 0 0 0 0 0 0 0 0 0 0 0 0 0 0 0 0 0 0 0 0 0 0 0 0 0 0 0 0 0 0 0 0 0 0 0 0 0 0 0 0 0 0 0 0 0 0 0 0 0 0 0 0 0 0 0 0 0 0 0 0 0 0 0 0 0 0 0 0 0 0 0 0 0 0 0 0 0 0 0 0 0 0 0 0 0 0 0 0 0 0 0 0 0 0 0 0 0 0 0 0 0 0 0 0 0 0 0 0 0 0 0 0 0 0 0 0 0 0 0 0 0 0 0 0 0 0 0 0 0 0 0 0 0 0 0 0 0 0 0 0 0 0 0 0 0 0 0 0 0 0 0 0 0 0 0 0 0 0 0 0 0 0 0 0 0 0 0 0 0 0 0 0 0 0 0 0 0 0 0 0 0 0 0 0 0 0 0 0 0 0 0 0 0 0 0 0 0 0 0 0 0 0 0 0 0 0 0 0 0 0 0 0 0 0 0 0 0 0 0 0 0 0 0 0 0 0 0 0 0 0 0 0 0 0 0 0 0 0 0 0 0 0 0 0 0 0 
0 0 0 0 0 0 0 0 0 0 0 0 0 0 0 0 0 0 0 0 0 0 0 0 0 0 0 0 0 0 0 0 0 0 0 0 0 0 0 0 0 0 0 0 0 0 0 0 0 0 0 0 0 0 0 0 0 0 0 0 0 0 0 0 0 0 0 0 0 0 0 0 0 0 0 0 0 0 0 0 0 0 0 0 0 0 0 0 0 0 0 0 0 0 0 0 0 0 0 0 0 0 0 0 0 0 0 0 0 0 0 0 0 0 0 0 0 0 0 0 0 0 0 0 0 0 0 0 0 0 0 0 0 0 0 0 0 0 0 0 0 0 0 0 0 0 0 0 0 0 0 0 0 0 0 0 0 0 0 0 0 0 0 0 0 0 0 0 0 0 0 0 0 0 0 0 0 0 0 0 0 0 0 0 0 0 0 0 0 0 0 0 0 0 0 0 0 0 0 0 0 0 0 0 0 0 0 0 0 0 0 0 0 0 0 0 0 0 0 0 0 0 0 0 0 0 0 0 0 0 0 0 0 0 0 0 0 0 0 0 0 0 0 0 0 0 0 0 0 0 0 0 0 0 0 0 0 0 0 0 0 0 0 0 0 0 0 0 0 0 0 0 0 0 0 0 0 0 0 0 0 0 0 0 0 0 0 0 0 0 0 0 0 0 0 0 0 0 0 0 0 0 0 0 0 0 0 0 0 0 0 0 0 0 0 0 0 0 0 0 0 0 0 0 0 0 0 0 0 0 0 0 0 0 0 0 0 0 0 0 0 0 0 0 0 0 0 0 0 0 0 0 0 0 0 0 0 0 0 0 0 0 0 0 0 0 0 0 0 0 0 0 0 0 0 0 0 0 0 0 0 0 0 0 0 0 0 0 0 0 0 0 0 0 0 0 0 0 0 0 0 0 0 0 0 0 0 0 0 0 0 0 0 0 0 0 0 0 0 0 0 0 0 0 0 0 0 0 0 0 0 0 0 0 0 0 0 0 0 0 0 0 0 0 0 0 0 0 0 0 0 0 0 0 0 0 0 0 0 0 0 0 0 0 0 0 0 0 0 0 0 
0 0 0 0 0 0 0 0 0 0 0 0 0 0 0 0 0 0 0 0 0 0 0 0 0 0 0 0 0 0 0 0 0 0 0 0 0 0 0 0 0 0 0 0 0 0 0 0 0 0 0 0 0 0 0 0 0 0 0 0 0 0 0 0 0 0 0 0 0 0 0 0 0 0 0 0 0 0 0 0 0 0 0 0 0 0 0 0 0 0 0 0 0 0 0 0 0 0 0 0 0 0 0 0 0 0 0 0 0 0 0 0 0 0 0 0 0 0 0 0 0 0 0 0 0 0 0 0 0 0 0 0 0 0 0 0 0 0 0 0 0 0 0 0 0 0 0 0 0 0 0 0 0 0 0 0 0 0 0 0 0 0 0 0 0 0 0 0 0 0 0 0 0 0 0 0 0 0 0 0 0 0 0 0 0 0 0 0 0 0 0 0 0 0 0 0 0 0 0 0 0 0 0 0 0 0 0 0 0 0 0 0 0 0 0 0 0 0 0 0 0 0 0 0 0 0 0 0 0 0 0 0 0 0 0 0 0 0 0 0 0 0 0 0 0 0 0 0 0 0 0 0 0 0 0 0 0 0 0 0 0 0 0 0 0 0 0 0 0 0 0 0 0 0 0 0 0 0 0 0 0 0 0 0 0 0 0 0 0 0 0 0 0 0 0 0 0 0 0 0 0 0 0 0 0 0 0 0 0 0 0 0 0 0 0 0 0 0 0 0 0 0 0 0 0 0 0 0 0 0 0 0 0 0 0 0 0 0 0 0 0 0 0 0 0 0 0 0 0 0 0 0 0 0 0 0 0 0 0 0 0 0 0 0 0 0 0 0 0 0 0 0 0 0 0 0 0 0 0 0 0 0 0 0 0 0 0 0 0 0 0 0 0 0 0 0 0 0 0 0 0 0 0 0 0 0 0 0 0 0 0 0 0 0 0 0 0 0 0 0 0 0 0 0 0 0 0 0 0 0 0 0 0 0 0 0 0 0 0 0 0 0 0 0 0 0 0 0 0 0 0 0 0 0 0 0 0 0 0 0 0 0 0 0 0 0 0 0 0 0 0 
0 0 0 0 0 0 0 0 0 0 0 0 0 0 0 0 0 0 0 0 0 0 0 0 0 0 0 0 0 0 0 0 0 0 0 0 0 0 0 0 0 0 0 0 0 0 0 0 0 0 0 0 0 0 0 0 0 0 0 0 0 0 0 0 0 0 0 0 0 0 0 0 0 0 0 0 0 0 0 0 0 0 0 0 0 0 0 0 0 0 0 0 0 0 0 0 0 0 0 0 0 0 0 0 0 0 0 0 0 0 0 0 0 0 0 0 0 0 0 0 0 0 0 0 0 0 0 0 0 0 0 0 0 0 0 0 0 0 0 0 0 0 0 0 0 0 0 0 0 0 0 0 0 0 0 0 0 0 0 0 0 0 0 0 0 0 0 0 0 0 0 0 0 0 0 0 0 0 0 0 0 0 0 0 0 0 0 0 0 0 0 0 0 0 0 0 0 0 0 0 0 0 0 0 0 0 0 0 0 0 0 0 0 0 0 0 0 0 0 0 0 0 0 0 0 0 0 0 0 0 0 0 0 0 0 0 0 0 0 0 0 0 0 0 0 0 0 0 0 0 0 0 0 0 0 0 0 0 0 0 0 0 0 0 0 0 0 0 0 0 0 0 0 0 0 0 0 0 0 0 0 0 0 0 0 0 0 0 0 0 0 0 0 0 0 0 0 0 0 0 0 0 0 0 0 0 0 0 0 0 0 0 0 0 0 0 0 0 0 0 0 0 0 0 0 0 0 0 0 0 0 0 0 0 0 0 0 0 0 0 0 0 0 0 0 0 0 0 0 0 0 0 0 0 0 0 0 0 0 0 0 0 0 0 0 0 0 0 0 0 0 0 0 0 0 0 0 0 0 0 0 0 0 0 0 0 0 0 0 0 0 0 0 0 0 0 0 0 0 0 0 0 0 0 0 0 0 0 0 0 0 0 0 0 0 0 0 0 0 0 0 0 0 0 0 0 0 0 0 0 0 0 0 0 0 0 0 0 0 0 0 0 0 0 0 0 0 0 0 0 0 0 0 0 0 0 0 0 0 0 0 0 0 0 0 0 0 0 0 0 0 
0 0 0 0 0 0 0 0 0 0 0 0 0 0 0 0 0 0 0 0 0 0 0 0 0 0 0 0 0 0 0 0 0 0 0 0 0 0 0 0 0 0 0 0 0 0 0 0 0 0 0 0 0 0 0 0 0 0 0 0 0 0 0 0 0 0 0 0 0 0 0 0 0 0 0 0 0 0 0 0 0 0 0 0 0 0 0 0 0 0 0 0 0 0 0 0 0 0 0 0 0 0 0 0 0 0 0 0 0 0 0 0 0 0 0 0 0 0 0 0 0 0 0 0 0 0 0 0 0 0 0 0 0 0 0 0 0 0 0 0 0 0 0 0 0 0 0 0 0 0 0 0 0 0 0 0 0 0 0 0 0 0 0 0 0 0 0 0 0 0 0 0 0 0 0 0 0 0 0 0 0 0 0 0 0 0 0 0 0 0 0 0 0 0 0 0 0 0 0 0 0 0 0 0 0 0 0 0 0 0 0 0 0 0 0 0 0 0 0 0 0 0 0 0 0 0 0 0 0 0 0 0 0 0 0 0 0 0 0 0 0 0 0 0 0 0 0 0 0 0 0 0 0 0 0 0 0 0 0 0 0 0 0 0 0 0 0 0 0 0 0 0 0 0 0 0 0 0 0 0 0 0 0 0 0 0 0 0 0 0 0 0 0 0 0 0 0 0 0 0 0 0 0 0 0 0 0 0 0 0 0 0 0 0 0 0 0 0 0 0 0 0 0 0 0 0 0 0 0 0 0 0 0 0 0 0 0 0 0 0 0 0 0 0 0 0 0 0 0 0 0 0 0 0 0 0 0 0 0 0 0 0 0 0 0 0 0 0 0 0 0 0 0 0 0 0 0 0 0 0 0 0 0 0 0 0 0 0 0 0 0 0 0 0 0 0 0 0 0 0 0 0 0 0 0 0 0 0 0 0 0 0 0 0 0 0 0 0 0 0 0 0 0 0 0 0 0 0 0 0 0 0 0 0 0 0 0 0 0 0 0 0 0 0 0 0 0 0 0 0 0 0 0 0 0 0 0 0 0 0 0 0 0 0 0 0 0 0 0 0 0 
0 0 0 0 0 0 0 0 0 0 0 0 0 0 0 0 0 0 0 0 0 0 0 0 0 0 0 0 0 0 0 0 0 0 0 0 0 0 0 0 0 0 0 0 0 0 0 0 0 0 0 0 0 0 0 0 0 0 0 0 0 0 0 0 0 0 0 0 0 0 0 0 0 0 0 0 0 0 0 0 0 0 0 0 0 0 0 0 0 0 0 0 0 0 0 0 0 0 0 0 0 0 0 0 0 0 0 0 0 0 0 0 0 0 0 0 0 0 0 0 0 0 0 0 0 0 0 0 0 0 0 0 0 0 0 0 0 0 0 0 0 0 0 0 0 0 0 0 0 0 0 0 0 0 0 0 0 0 0 0 0 0 0 0 0 0 0 0 0 0 0 0 0 0 0 0 0 0 0 0 0 0 0 0 0 0 0 0 0 0 0 0 0 0 0 0 0 0 0 0 0 0 0 0 0 0 0 0 0 0 0 0 0 0 0 0 0 0 0 0 0 0 0 0 0 0 0 0 0 0 0 0 0 0 0 0 0 0 0 0 0 0 0 0 0 0 0 0 0 0 0 0 0 0 0 0 0 0 0 0 0 0 0 0 0 0 0 0 0 0 0 0 0 0 0 0 0 0 0 0 0 0 0 0 0 0 0 0 0 0 0 0 0 0 0 0 0 0 0 0 0 0 0 0 0 0 0 0 0 0 0 0 0 0 0 0 0 0 0 0 0 0 0 0 0 0 0 0 0 0 0 0 0 0 0 0 0 0 0 0 0 0 0 0 0 0 0 0 0 0 0 0 0 0 0 0 0 0 0 0 0 0 0 0 0 0 0 0 0 0 0 0 0 0 0 0 0 0 0 0 0 0 0 0 0 0 0 0 0 0 0 0 0 0 0 0 0 0 0 0 0 0 0 0 0 0 0 0 0 0 0 0 0 0 0 0 0 0 0 0 0 0 0 0 0 0 0 0 0 0 0 0 0 0 0 0 0 0 0 0 0 0 0 0 0 0 0 0 0 0 0 0 0 0 0 0 0 0 0 0 0 0 0 0 0 0 0 0 0 0 0 
0 0 0 0 0 0 0 0 0 0 0 0 0 0 0 0 0 0 0 0 0 0 0 0 0 0 0 0 0 0 0 0 0 0 0 0 0 0 0 0 0 0 0 0 0 0 0 0 0 0 0 0 0 0 0 0 0 0 0 0 0 0 0 0 0 0 0 0 0 0 0 0 0 0 0 0 0 0 0 0 0 0 0 0 0 0 0 0 0 0 0 0 0 0 0 0 0 0 0 0 0 0 0 0 0 0 0 0 0 0 0 0 0 0 0 0 0 0 0 0 0 0 0 0 0 0 0 0 0 0 0 0 0 0 0 0 0 0 0 0 0 0 0 0 0 0 0 0 0 0 0 0 0 0 0 0 0 0 0 0 0 0 0 0 0 0 0 0 0 0 0 0 0 0 0 0 0 0 0 0 0 0 0 0 0 0 0 0 0 0 0 0 0 0 0 0 0 0 0 0 0 0 0 0 0 0 0 0 0 0 0 0 0 0 0 0 0 0 0 0 0 0 0 0 0 0 0 0 0 0 0 0 0 0 0 0 0 0 0 0 0 0 0 0 0 0 0 0 0 0 0 0 0 0 0 0 0 0 0 0 0 0 0 0 0 0 0 0 0 0 0 0 0 0 0 0 0 0 0 0 0 0 0 0 0 0 0 0 0 0 0 0 0 0 0 0 0 0 0 0 0 0 0 0 0 0 0 0 0 0 0 0 0 0 0 0 0 0 0 0 0 0 0 0 0 0 0 0 0 0 0 0 0 0 0 0 0 0 0 0 0 0 0 0 0 0 0 0 0 0 0 0 0 0 0 0 0 0 0 0 0 0 0 0 0 0 0 0 0 0 0 0 0 0 0 0 0 0 0 0 0 0 0 0 0 0 0 0 0 0 0 0 0 0 0 0 0 0 0 0 0 0 0 0 0 0 0 0 0 0 0 0 0 0 0 0 0 0 0 0 0 0 0 0 0 0 0 0 0 0 0 0 0 0 0 0 0 0 0 0 0 0 0 0 0 0 0 0 0 0 0 0 0 0 0 0 0 0 0 0 0 0 0 0 0 0 0 0 0 0 0 
0 0 0 0 0 0 0 0 0 0 0 0 0 0 0 0 0 0 0 0 0 0 0 0 0 0 0 0 0 0 0 0 0 0 0 0 0 0 0 0 0 0 0 0 0 0 0 0 0 0 0 0 0 0 0 0 0 0 0 0 0 0 0 0 0 0 0 0 0 0 0 0 0 0 0 0 0 0 0 0 0 0 0 0 0 0 0 0 0 0 0 0 0 0 0 0 0 0 0 0 0 0 0 0 0 0 0 0 0 0 0 0 0 0 0 0 0 0 0 0 0 0 0 0 0 0 0 0 0 0 0 0 0 0 0 0 0 0 0 0 0 0 0 0 0 0 0 0 0 0 0 0 0 0 0 0 0 0 0 0 0 0 0 0 0 0 0 0 0 0 0 0 0 0 0 0 0 0 0 0 0 0 0 0 0 0 0 0 0 0 0 0 0 0 0 0 0 0 0 0 0 0 0 0 0 0 0 0 0 0 0 0 0 0 0 0 0 0 0 0 0 0 0 0 0 0 0 0 0 0 0 0 0 0 0 0 0 0 0 0 0 0 0 0 0 0 0 0 0 0 0 0 0 0 0 0 0 0 0 0 0 0 0 0 0 0 0 0 0 0 0 0 0 0 0 0 0 0 0 0 0 0 0 0 0 0 0 0 0 0 0 0 0 0 0 0 0 0 0 0 0 0 0 0 0 0 0 0 0 0 0 0 0 0 0 0 0 0 0 0 0 0 0 0 0 0 0 0 0 0 0 0 0 0 0 0 0 0 0 0 0 0 0 0 0 0 0 0 0 0 0 0 0 0 0 0 0 0 0 0 0 0 0 0 0 0 0 0 0 0 0 0 0 0 0 0 0 0 0 0 0 0 0 0 0 0 0 0 0 0 0 0 0 0 0 0 0 0 0 0 0 0 0 0 0 0 0 0 0 0 0 0 0 0 0 0 0 0 0 0 0 0 0 0 0 0 0 0 0 0 0 0 0 0 0 0 0 0 0 0 0 0 0 0 0 0 0 0 0 0 0 0 0 0 0 0 0 0 0 0 0 0 0 0 0 0 0 0 0 0 0 
